/* XPM */
static char *dded1c5868a746e0e6ab390d9b69f400wQ01hJkyH3ZclroU[] = {
/* columns rows colors chars-per-pixel */
"512 512 256 2 ",
"   c #84BA26",
".  c #A7DC4E",
"X  c #A6DB4D",
"o  c #83B925",
"O  c #BAE272",
"+  c #83B926",
"@  c #B9E171",
"#  c black",
"$  c #A6DA4C",
"%  c #82B825",
"&  c #DAF8FE",
"*  c #DCF9FE",
"=  c #8EE9FC",
"-  c #86E7FE",
";  c #74E0FD",
":  c #A1EEFC",
">  c #9DE7FE",
",  c #D9F6FF",
"<  c #92EAFD",
"1  c #A8ECFE",
"2  c #BCF9FE",
"3  c #7BE1FD",
"4  c #96ECFD",
"5  c #AFEFFD",
"6  c #9AEBFD",
"7  c #AEEDFE",
"8  c #9AECFE",
"9  c #257C19",
"0  c #BAE172",
"q  c #7EE4FD",
"w  c #A8F1FD",
"e  c #B3EEFE",
"r  c #A1E8FE",
"t  c #549B26",
"y  c #B3F6FD",
"u  c #8DE8FD",
"i  c #A7DC4D",
"p  c #83BA25",
"a  c #A7DB4E",
"s  c #6CDDFC",
"d  c #64B82F",
"f  c #A3E9FE",
"g  c #D2F9FD",
"h  c #95EAFE",
"j  c #A7DA50",
"k  c #5FD8FC",
"l  c #77E0FE",
"z  c #89E6FC",
"x  c #CEF8FD",
"c  c #9CEEFC",
"v  c #C1FBFC",
"b  c #7BE2FC",
"n  c #BFF9FD",
"m  c #3E721B",
"M  c #81E4FC",
"N  c #A6EBFE",
"B  c #6F9E1E",
"V  c #EAFDFF",
"C  c #C6FBFD",
"Z  c #85E5FE",
"A  c #B8F1FE",
"S  c #84BA27",
"D  c #65B930",
"F  c #E9FCFF",
"G  c #65DBFE",
"H  c #B8E16F",
"J  c #A6DB4B",
"K  c #71DFFC",
"L  c #C7FDFC",
"P  c #AEF3FC",
"I  c #B6F0FE",
"U  c #BBF8FD",
"Y  c #81B724",
"T  c #D8F5FE",
"R  c #B8F6FE",
"E  c #84B826",
"W  c #A4F0FD",
"Q  c #84E4FC",
"!  c #307127",
"~  c #FDA689",
"^  c #86BC29",
"/  c #9DD242",
"(  c #B2F4FC",
")  c #E7FAFE",
"_  c #316F24",
"`  c #387226",
"'  c #468A2D",
"]  c #99CE3E",
"[  c #A8DE4E",
"{  c #8EC332",
"}  c #A4D94A",
"|  c #8BC02F",
" . c #91C635",
".. c #FB3364",
"X. c #90E8FC",
"o. c #6ADCFD",
"O. c #BBF0FE",
"+. c #95CA39",
"@. c #88BE2C",
"#. c #009833",
"$. c #A0D545",
"%. c #CCFEFD",
"&. c #AADB56",
"*. c #AAF3FD",
"=. c #A0EFFD",
"-. c #91EBFC",
";. c #FC6533",
":. c #AEDD5D",
">. c #A2D748",
",. c #AAEBFC",
"<. c #FD99B3",
"1. c #B1DF62",
"2. c #B4E067",
"3. c #BBDE71",
"4. c #059530",
"5. c #82E2FA",
"6. c #B6E16B",
"7. c #D6F6FD",
"8. c #CAF6FC",
"9. c #B8E46F",
"0. c #DCF7FE",
"q. c #8CE7FD",
"w. c #81B625",
"e. c #409731",
"r. c #DEFBFD",
"t. c #277918",
"y. c #426D1B",
"u. c #C4FAFC",
"i. c #709B1E",
"p. c #396B1E",
"a. c #4D6A16",
"s. c #5D6F14",
"d. c #89B727",
"f. c #549926",
"g. c #FDA98B",
"h. c #55781F",
"j. c #8BB225",
"k. c #8CAB24",
"l. c #BCE473",
"z. c #AADD53",
"x. c #32621E",
"c. c #9FEBFA",
"v. c #8B9A1C",
"b. c #8CA321",
"n. c #75A622",
"m. c #65B52F",
"M. c #EC3C55",
"N. c #BCD56A",
"B. c #D76520",
"V. c #749321",
"C. c #707914",
"Z. c #966617",
"A. c #EB682D",
"S. c #AD7528",
"D. c #E9FD51",
"F. c #FB9DAE",
"G. c #FB9F7E",
"H. c #908216",
"J. c #8E8E1A",
"K. c #93E6F9",
"L. c #C84C31",
"P. c #DB4546",
"I. c #AD5A16",
"U. c #5E8422",
"Y. c #798717",
"T. c #AD8733",
"R. c #118D2B",
"E. c #937617",
"W. c #7BAD25",
"Q. c #A2A333",
"!. c #C2641A",
"~. c #CC8A44",
"^. c #A4AF3A",
"/. c #3F7C22",
"(. c #B7EDF8",
"). c #CC965A",
"_. c #C2F2FA",
"`. c #498E3E",
"'. c #228424",
"]. c #E9A273",
"[. c #589026",
"{. c #88BA2A",
"}. c #C1E575",
"|. c #81B229",
" X c #F56D3E",
".X c #76DCF7",
"XX c #AEC54F",
"oX c #7A6D15",
"OX c #C07B47",
"+X c #BFC865",
"@X c #ACDF54",
"#X c #F47A4E",
"$X c #F68960",
"%X c #AFF0F9",
"&X c #B79843",
"*X c #E19963",
"=X c #AED061",
"-X c #B8AB59",
";X c #468327",
":X c #D2A850",
">X c #9D972C",
",X c #ACD750",
"<X c #A7BA3F",
"1X c #ED9796",
"2X c #B1BB59",
"3X c #F99670",
"4X c #D2BA56",
"5X c #A5CC4B",
"6X c #D28567",
"7X c #666817",
"8X c #AAD14C",
"9X c #F14B71",
"0X c #F15F80",
"qX c #DF8F7F",
"wX c #F4A67E",
"eX c #D47432",
"rX c #F37891",
"tX c #EAFA52",
"yX c #60B03E",
"uX c #9CC742",
"iX c #CD5A45",
"pX c #F989A5",
"aX c #D86B5F",
"sX c #8BAD3F",
"dX c #89A34E",
"fX c #3B8E2C",
"gX c #A5E7F3",
"hX c #5DAA2C",
"jX c #9BC151",
"kX c #7C9B38",
"lX c #BDE4C8",
"zX c #EFFF58",
"xX c #CAF4EA",
"cX c #A9BD89",
"vX c #96B34D",
"bX c #E1D749",
"nX c #B5D4A9",
"mX c #EAEC52",
"MX c #D2FEFC",
"NX c #6C7842",
"BX c #57A327",
"VX c #FCAB87",
"CX c #91BC3D",
"ZX c #708838",
"AX c #98C8AA",
"SX c #74935A",
"DX c #C3ECDA",
"FX c #8CA382",
"GX c #9CD3C4",
"HX c #A3DFD7",
"JX c #91B899",
"KX c #7DB275",
"LX c #784E2C",
"PX c #CFAEA7",
"IX c #C8DBC8",
"UX c #CEC7C1",
/* pixels */
"# # # # # # # # # # # # # # # # # # # # # # # # # # # # # # # # # # # # # # # # # # # # # # # # # # # # # # # # # # # # # # # # # # # # # # # # # # # # # # # # # # # # # # # # # # # # # # # # # # # # # # # # # # # # # # # # # # # # # # # # # # # # # # # # # # # # # # # # # # # # # # # # # # # # # # # # # # # # # # # # # # # # # # # # # # # # # # # # # # # # # # # # # # # # # # # # # # # # # # # # # # # # # # # # # # # # # # # # # # # # # # # # # # # # # # # # # # # # # # # # # # # # # # # # # # # # # # # # # # # # # # # # # # # # # # # # # # # # # # # # # # # # # # # # # # # # # # # # # # # # # # # # # # # # # # # # # # # # # # # # # # # # # # # # # # # # # # # # # # # # # # # # # # # # # # # # # # # # # # # # # # # # # # # # # # # # # # # # # # # # # # # # # # # # # # # # # # # # # # # # # # # # # # # # # # # # # # # # # # # # # # # # # # # # # # # # # # # # # # # # # # # # # # # # # # # # # # # # # # # # # # # # # # # # # # # # # # # # # # # # # # # # # # # # # # # # # # # # # # # # # # # # # # # # # # # # ",
"# # # # # # # # # # # # # # # # # # # # # # # # # # # # # # # # # # # # # # # # # # # # # # # # # # # # # # # # # # # # # # # # # # # # # # # # # # # # # # # # # # # # # # # # # # # # # # # # # # # # # # # # # # # # # # # # # # # # # # # # # # # # # # # # # # # # # # # # # # # # # # # # # # # # # # # # # # # # # # # # # # # # # # # # # # # # # # # # # # # # # # # # # # # # # # # # # # # # # # # # # # # # # # # # # # # # # # # # # # # # # # # # # # # # # # # # # # # # # # # # # # # # # # # # # # # # # # # # # # # # # # # # # # # # # # # # # # # # # # # # # # # # # # # # # # # # # # # # # # # # # # # # # # # # # # # # # # # # # # # # # # # # # # # # # # # # # # # # # # # # # # # # # # # # # # # # # # # # # # # # # # # # # # # # # # # # # # # # # # # # # # # # # # # # # # # # # # # # # # # # # # # # # # # # # # # # # # # # # # # # # # # # # # # # # # # # # # # # # # # # # # # # # # # # # # # # # # # # # # # # # # # # # # # # # # # # # # # # # # # # # # # # # # # # # # # # # # # # # # # # # # # # # # # # # # # # ",
"# # # # # # # # # # # # # # # # # # # # # # # # # # # # # # # # # # # # # # # # # # # # # # # # # # # # # # # # # # # # # # # # # # # # # # # # # # # # # # # # # # # # # # # # # # # # # # # # # # # # # # # # # # # # # # # # # # # # # # # # # # # # # # # # # # # # # # # # # # # # # # # # # # # # # # # # # # # # # # # # # # # # # # # # # # # # # # # # # # # # # # # # # # # # # # # # # # # # # # # # # # # # # # # # # # # # # # # # # # # # # # # # # # # # # # # # # # # # # # # # # # # # # # # # # # # # # # # # # # # # # # # # # # # # # # # # # # # # # # # # # # # # # # # # # # # # # # # # # # # # # # # # # # # # # # # # # # # # # # # # # # # # # # # # # # # # # # # # # # # # # # # # # # # # # # # # # # # # # # # # # # # # # # # # # # # # # # # # # # # # # # # # # # # # # # # # # # # # # # # # # # # # # # # # # # # # # # # # # # # # # # # # # # # # # # # # # # # # # # # # # # # # # # # # # # # # # # # # # # # # # # # # # # # # # # # # # # # # # # # # # # # # # # # # # # # # # # # # # # # # # # # # # # # # # # # # ",
"k k k k k k k k k k k k k k k k k k k o.K.> > > > > > > > > > > > > > > > > > > > > > > > > > > > > > > > > > > > > > > > > > > > > > > > > > > > > > > > > > > > > > > > > > > > > > > > > > > > > > > > > > > > > > > > > > > > > > > > > > > > > > > > > > > > > > > > > > > > > > > > > > > > > > > > > > > > > > > > > > > > > > > > > > > > > > > > > > gX(.7.T T , , , , T T T , T , , T T , , , , , , , , , , , , , , , , , , , , , , , T , , T T T T T T , , 7., , 7.7., , , , , , , , T T T , T T T 7.7.g u.U ( ,.K..Xk k k k k k k k k k k k k k k k k k .X,.x T T T T T , , , , , , , , , , , , , , , , , , , , , , , , , , , , , , , , , , , , , , , , , , , , T , , , , , , , , , 7., 7.7.7.T , , , , 7.T T T T T T , , , , , , , , , , , , , , , , , , , , , , , , , , , , , , , , , , , , , , , , , , T T , , , 7., , , , , , , , , , , , , , , , , T T T 7.8.K.k k k k k k k k k k k k k k k k k k k k k k k k k k k k k k k k k k k k k k k k k k k k k k k k k k k k k k k k k k k k k k k k k k k k k k k k k k k k k k k k k k k k k k k k ",
"k k k k k k k k k k k k k k k k k k k k K.> > > K.> > > > > > > > > > > > > > > > > > > > > > > > > > > > > > > > > > > > > > > > > > > > > > > > > > > > > > > > > > > > > > > > > > > > > > > > > > > > > > > > > > > > > > > > > > > > > > > > > > > > > > > > > > > > > > > > > > > > > > > > > > > > > > > > > > > > > > > > > > > > > > > > > > > > K.> gX_.7.T 7.7.7.T T , 7.7.T , T T , , T T T T T T T T T T T T T T T T T T T T T T T , T T , , 7.7.7.7.T T T T T T T T T T T T T T T , T T T T T T 7.7.7.7.7.7.x 8.A c..Xk k k k k k k k k k k k k k k .Xc.8.T T T T T T T T T T T T T T T T T T T T T T T T T T T T T T T T T T T T T T T T T , T , , T T T T T 7.T T T T T T T T T , T T 7., , T T T T T 7.7., , 7., T T T T T T T T T T T T T T T T T T T T T T T T T T T T T T T T T T T T T T T T T T , T T T T T T T T T T T T T T T T T T T T T T T T T T 7.I .Xk k k k k k k k k k k k k k k k k k k k k k k k k k k k k k k k k k k k k k k k k k k k k k k k k k k k k k k k k k k k k k k k k k k k k k k k k k k k k k k k k k k k k k k ",
"k k k k k k k k k k k k k k k k k k k .XX.> > > > > K.> > > > > > > > > > > > > > > > > > > > > > > > > > > > > > > > > > > > > > > > > > > > > > > > > > > > > > > > > > > > > > > > > > > > > > > > > > > > > > > > > > > > > > > > > > > > > > > > > > > > > > > > > > > > > > > > > > > > > > > > > > > > > > > > > > > > > > > > > > > > > > > > K.> > > f 8.7.T 7.7., , , , , , , , , , , , , , , , , , , , , , , , , , , , , , , , , , , , , , , , , , , , , , , , , , , , , , , , , , , , , T T T T T T T T T T T T 7.7.x A K.k k k k k k k k k k k k .XK.%X8.7.T T T T T T , , , , , , , , , , , , , , , , , , , , , , , , , , , , , T T T , , , T T T T T , , , , T T , T T T , T , , , , , , , , , , , , , , , , , , , , , , , , , , , , , , , , , , , , , , , , , , , , , , , , , , , , , , , , , , , , , , , , , , , , , , , , , , , , , , , , , , , , T T T T T 8.gXk k k k k k k k k k k k k k k k k k k k k k k k k k k k k k k k k k k k k k k k k k k k k k k k k k k k k k k k k k k k k k k k k k k k k k k k k k k k k k k k k k k k k k k ",
"k k k k k k k k k k k k k k k k k k k .Xh > > K.> > > > > > > > > > > > > > > > > > > > > > > > > > > > > > > > > > > > > > > > > > > > > > > > > > > > > > > > > > > > > > > > > > > > > > > > > > > > > > > > > > > > > > > > > > > > > > > > > > > > > > > > > > > > > > > > > > > > > > > > > > > > > > > > > > > > > > > > > > > > > > > > > > > > > > gX,.8.7.T T , , , , , , , , , , , , , , , , , , , , , , , , , , , , , , , , , , , , , , , , , , , , , , , , , , , , , , , , , , , , , , T , T T T T T T T T T T T T 7.g _.5.k k k k k k k k k .XK.,._.7.7.T T 7.7.T T , , , , , , , , , , , , , , , , , , , , , , , , , , , , T T T 7.7.T T T , , , , 7.T T T T 7., 7.7., , T , , , , , , , , , , , , , , , , , , , , , , , , , , , , , , , , , , , , , , , , , , , , , , , , , , , , , , , , , , , , , , , , , , , , , , , , , , , , , , , , , , , , , , T T T 7.7._.5.k k k k k k k k k k k k k k k k k k k k k k k k k k k k k k k k k k k k k k k k k k k k k k k k k k k k k k k k k k k k k k k k k k k k k k k k k k k k k k k k k k k k k k ",
"k k k k k k k k k k k k k k k k k k k 5.> K.> > > K.> > > K.> > > > > > > > > > > > > > > > > > > > > > > > > > > > > > > > > > > > > > > > > > > > > > > > > > > > > > > > > > > > > > > > > > > > > > > > > > > > > > > > > > > > > > > > > > > > > > > > > > > > > > > > > > > > > > > > > > > > > > > > > > > > > > > > > > > > > > > > > > > > > > > K.gX(.7.T T T T , , , , , , , , , , , , , , , , , , , , , , , , , , , , , , , , , , , , , , , , , , , , , , , , , , , , , , , , , , , , , T T , , , , T T T , , T T T 7., 7.(.gXK.5..X5..X5.5.> (._.x 7., T , , T T , T , , , , , , , , , , , , , , , , , , , , , , , , , , , T T T T 7.T T T T T T T T 7.T T T T T T T T T T T , , , , , , , , , , , , , , , , , , , , , , , , , , , , , , , , , , , , , , , , , , , , , , , , , , , , , , , , , , , , , , , , , , , , , , , , , , , , , , , , , , , , , T T T T 7.7.7.,..Xk k k k k k k k k k k k k k k k k k k k k k k k k k k k k k k k k k k k k k k k k k k k k k k k k k k k k k k k k k k k k k k k k k k k k k k k k k k k k k k k k k k k k ",
"k k k k k k k k k k k k k k k k k k k K.> > > > > > > K.> > > K.> K.> K.> K.> K.> K.> K.> K.> K.> K.> K.> K.> K.> K.> K.> K.> K.> K.> K.> K.> K.> K.> K.> K.> K.> K.> K.> K.> K.> K.> K.> K.> K.> K.> K.> K.> K.> K.> K.> K.> K.> K.> K.> K.> K.> K.> K.> K.> K.> K.> K.> K.> K.> K.> K.> K.> K.> K.> K.> K.> K.> K.> K.> K.> K.> K.> K.> K.> K.> K.> K.> > > _.7.T T T T , , , , , , , , , , , , , , , , , , , , , , , , , , , , , , , , , , , , , , , , , , , , , , , , , , , , , , , , , , , , , , T , , , , , , , , , , 7., T T T 7.7.8._._._._._.8.8.g & 7.7.7.T 7.7.T T , T , , , , , , , , , , , , , , , , , , , , , , , , , , , T T T T T T T T T T T T T T T T T T T T T T T T T T T , , , , , , , , , , , , , , , , , , , , , , , , , , , , , , , , , , , , , , , , , , , , , , , , , , , , , , , , , , , , , , , , , , , , , , , , , , , , , , , , , , , T T T T T 7.T 8.K.k k k k k k k k k k k k k k k k k k k k k k k k k k k k k k k k k k k k k k k k k k k k k k k k k k k k k k k k k k k k k k k k k k k k k k k k k k k k k k k k k k k k k ",
"k k k k k k k k k k k k k k k k k k k Q > K.> > > > > > > > > > > > > > > > > > > > > > > > > > > > > > > > > > > > > > > > > > > > > > > > > > > > > > > > > > > > > > > > > > > > > > > > > > > > > > > > > > > > > > > > > > > > > > > > > > > > > > > > > > > > > > > > > > > > > > > > > > > > > > > > > > > > > > > > > > > > > > > > > > > > > > > > gX_.7.T T T , , , , , , , , , , , , , , , , , , , , , , , , , , , , , , , , , , , , , , , , , , , , , , , , , , , , , , , , , , , , , , , , T T T T T T T T T T T T T T T T T & 7.& 0.0., T , 7.7.7.7.7.T 7.T 7.7.7., , , , , , , , , , , , , , , , , , , , , , T , 7., T T T T T T , 7.7.7.7.7.7.7.7.7.7.7.7.T T T T T T T 7.T T T , T , , , , , , , , , , , , , , , , , , , , , , , , , , , , , , , , , , , , , , , , , , , , , , , , , , , , , , , , , , , , , , , , , , , , , , , , , , , , , , , , T T T T T 7.T & A 5.k k k k k k k k k k k k k k k k k k k k k k k k k k k k k k k k k k k k k k k k k k k k k k k k k k k k k k k k k k k k k k k k k k k k k k k k k k k k k k k k k k k k ",
"k k k k k k k k k k k k k k k k k k k z > > > > > > > > > > > > > > > > > > > > > > > > > > > > > > > > > > > > > > > > > > > > > > > > > > > > > > > > > > > > > > > > > > > > > > > > > > > > > > > > > > > > > > > > > > > > > > > > > > > > > > > > > > > > > > > > > > > > > > > > > > > > > > > > > > > > > > > > > > > > > > > > > > > > > > > > > > r 8.0.T , T T , , , , , , , , , , , , , , , , , , , , , , , , , , , , , , , , , , , , , , , , , , , , , , , , , , , , , , , , , , , , , , , , , , , , , , , , , , , T T T 7.7.7.7.7.7.7.T T T T T T T T T T , , , , , , , , , , , , , , , , , , , , , , , , , , 7.T T T T , T T T T 7.8.8._._.O.O.O.O.O._._.8.8.7.T T 7.T T , T , , T , , , , , , , , , , , , , , , , , , , , , , , , , , , , , , , , , , , , , , , , , , , , , , , , , , , , , , , , , , , , , , , , , , , , , , , , , , , , , , , , , T T T T T 7.T T g (.5.k k k k k k k k k k k k k k k k k k k k k k k k k k k k k k k k k k k k k k k k k k k k k k k k k k k k k k k k k k k k k k k k k k k k k k k k k k k k k k k k k k k ",
"k k k k k k k k k k k k k k k k k k .Xz > > > K.> > > > > > > > > > > > > > > > > > > > > > > > > > > > > > > > > > > > > > > > > > > > > > > > > > > > > > > > > > > > > > > > > > > > > > > > > > > > > > > > > > > > > > > > > > > > > > > > > > > > > > > > > > > > > > > > > > > > > > > > > > > > > > > > > > > > > > > > > > > > > > > > > > > > > > ,.8., T T T , , , , , , , , , , , , , , , , , , , , , , , , , , , , , , , , , , , , , , , , , , , , , , , , , , , , , , , , , , , , , , , , , , , , , , , , , , , , T T T T T T T T T T T T T 7., T T T , T , , , , , , , , , , , , , , , , , , , , , , , T T T T , 7., T T 7.7.8._.(.(.gXgXgXgXgXgXgXgXgXgXgX,.(._._.8.7.7.T 7.T T , T , , , , , , , , , , , , , , , , , , , , , , , , , , , , , , , , , , , , , , , , , , , , , , , , , , , , , , , , , , , , , , , , , , , , , , , , , , , , , , , , , T T , T 7.T T T 7.A K..X.Xk k k k k k k k k k k k k k k k k k k k k k k k k k k k k k k k k k k k k k k k k k k k k k k k k k k k k k k k k k k k k k k k k k k k k k k k k k k k k k k k ",
"k k k k k k k k k k k k k k k k k k k Q > > > > > > > > > > > > > > > > > > > > > > > > > > > > > > > > > > > > > > > > > > > > > > > > > > > > > > > > > > > > > > > > > > > > > > > > > > > > > > > > > > > > > > > > > > > > > > > > > > > > > > > > > > > > > > > > > > > > > > > > > > > > > > > > > > > > > > > > > > > > > > > > > > > > > > > > > gX(.7.7.7.T T , , , , , , , , , , , , , , , , , , , , , , , , , , , , , , , , , , , , , , , , , , , , , , , , , , , , , , , , , , , , , , , , , , , , , , , , , , , , T , , T T T , T T T T T T , T T , , T , , , , , , , , , , , , , , , , , , , , , , , , T T T T T 7.T T 7._.(.,.gX> > > > > > > > > > > > > > gXgXgX,.(._.7.7.T T T T , , , , , , , , , , , , , , , , , , , , , , , , , , , , , , , , , , , , , , , , , , , , , , , , , , , , , , , , , , , , , , , , , , , , , , , , , , , , , , , , , , , T , T T T T T & g 8.(.K..Xk k k k k k k k k k k k k k k k k k k k k k k k k k k k k k k k k k k k k k k k k k k k k k k k k k k k k k k k k k k k k k k k k k k k k k k k k k k k k k ",
"k k k k k k k k k k k k k k k k k k k Q > > > > > > > > > > > r > r > r > r > r > r > r > r > r > r > r > r > r > r > r > r > r > r > r > r > r > r > r > r > r > r > r > r > r > r > r > r > r > r > r > r > r > r > r > r > r > r > r > r > r > r > r > r > r > r > r > r > r > r > r > r > r > r > r > r > r > r > r > r > r > r > r > r > r > > gX> > > (.7.T T T T , , , , , , , , , , , , , , , , , , , , , , , , , , , , , , , , , , , , , , , , , , , , , , , , , , , , , , , , , , , , , , , , , , , , , , , , , , , , 7.T T 7.7.7.T 7., , T T T T , , T T , T , , , , , , , , , , , , , , , , , , , , T , , T T T 7.7.T 7._.(.,.gX> > > > gX> > > > > > > > > > > K.> gX> gX(.8.7.T 7.T T , , , , , , , , , , , , , , , , , , , , , , , , , , , , , , , , , , , , , , , , , , , , , , , , , , , , , , , , , , , , , , , , , , , , , , , , , , , , , , , , , T T , T T T T T T 7.7.7.g x I K..Xk k k k k k k k k k k k k k k k k k k k k k k k k k k k k k k k k k k k k k k k k k k k k k k k k k k k k k k k k k k k k k k k k k k k k k k k k k k k ",
"k k k k k k k k k k k k k k k k k k k .X> > > gX> > gX> > r > > r > > r > > r > > r > > r > > r > > r > > r > > r > > r > > r > > r > > r > > r > > r > > r > > r > > r > > r > > r > > r > > r > > r > > r > > r > > r > > r > > r > > r > > r > > r > > r > > r > > r > > r > > r > > r > > r > > r > > r > > r > > r > > r > > r > > r > > > > > > > > gX(.7.T , T 7., , , , , , , , , , , , , , , , , , , , , , , , , , , , , , , , , , , , , , , , , , , , , , , , , , , , , , , , , , , , , , , , , , , , , , , , , , , , , , , , , , , , , , , , , , , , , , , , , , , , , , , , , , , , , , , , , , , T , , T 7.T T 7.7.8.O.,.gXr r > > > > r > r > r > r > r r > r r > > > > gX(.8.7.T T T , , , , , , , , , , , , , , , , , , , , , , , , , , , , , , , , , , , , , , , , , , , , , , , , , , , , , , , , , , , , , , , , , , , , , , , , , , , , , , , , , , , , , , T , T T T T T T T 7.8.(.5.k k k k k k k k k G k G k k G k k G k G k G k G k G k G k G k G k G k G k G k G k k G k k G k k G k G k G k G k G k G k G k G k G k G k G k k G k k k ",
"k G k k k G k k k G k k k k k k k k k .X> > > > r > r r r r r r r r r r r r r r r r r r r r r r r r r r r r r r r r r r r r r r r r r r r r r r r r r r r r r r r r r r r r r r r r r r r r r r r r r r r r r r r r r r r r r r r r r r r r r r r r r r r r r r r r r r r r r r r r r r r r r r r r r r r r r r r r r r r r r r r r r r r r r r r r > > > gX(.7.T T T T , , , , , , , , , , , , , , , , , , , , , , , , , , , , , , , , , , , , , , , , , , , , , , , , , , , , , , , , , , , , , , , , , , , , , , , , , , , , , , , , , , , , , , , , , , , , , , , , , , , , , , , , , , , , , , , , , , , T , T , 7.T T 7.8.(.gXr > > > > > > r > r r r r r r r r > r > > > > r > r gX_.7.T T T , , , , , , , , , , , , , , , , , , , , , , , , , , , , , , , , , , , , , , , , , , , , , , , , , , , , , , , , , , , , , , , , , , , , , , , , , , , , , , , , , , , , , , T T T T 7.7.7.T T T 7.7._.K..Xk k k k k k k k k k k k k G k k k k k k k k k k k k k k k k k k k k k k k k G k k k k k G k k k k k k k k k k k k k k k k k k k k k k k k k k k k ",
"k k G k G k k G k k G k k G k k k k k .Xq.> r gXr r r r > > > > > > > > > > > > > > > > > > > > > > > > > > > > > > > > > > > > > > > > > > > > > > > > > > > > > > > > > > > > > > > > > > > > > > > > > > > > > > > > > > > > > > > > > > > > > > > > > > > > > > > > > > > > > > > > > > > > > > > > > > > > > > > > > > > > > > > > > > r > r > gX> > r (.g 7.T T T , , , , , , , , , , , , , , , , , , , , , , , , , , , , , , , , , , , , , , , , , , , , , , , , , , , , , , , , , , , , , , , , , , , , , , , , , , , , , , , , , , , , , , , , , , , , , , , , , , , , , , , , , , , , , , , , , , , 7.T 7.7.T T 7._.(.gX> > > > > > > > > r > > > > > > > > r r > r r r > r r r ,.8.7.T T , , , , , , , , , , , , , , , , , , , , , , , , , , , , , , , , , , , , , , , , , , , , , , , , , , , , , , , , , , , , , , , , , , , , , , , , , , , , , , , , , , , , , , T T T T 7.7.7.7.7.T T 7.g 8.gX.Xk k k k G k k k k G k k k k G k G k G k G k G k G k G k G k G k G k G k k k G k G k k k G k G k G k G k G k G k G k G k G k G k G k G k G k k k ",
"G k k k k k k k G k k k G k k o.k k k k .X6 r r r r r r r r r r r r r r r r r r r r r r r r r r r r r r r r r r r r r r r r r r r r r r r r r r r r r r r r r r r r r r r r r r r r r r r r r r r r r r r r r r r r r r r r r r r r r r r r r r r r r r r r r r r r r r r r r r r r r r r r r r r r r r r r r r r r r r r r r r r r r r r r r r r r > r > r (.g 7.T T T , , 7.7.7.7.7.7.7.7.7.7.7.7.7.7.7.7.7.7.7.7.7.7.7.7.7.7.7.7.7.7.7.7.7.7.7.7.7.7.7.7.7.7.7.7.7.7.7.7.7.7.7.7.7.7.7.7.7.7.7.7.7.7.7.7.7.7.7.7.7.7.7.7.7.7.7.7.7.7.7.7.7.7.7.7.7.7.7.7.7.7.7.7.7.7.7.7.7.7.7.7.7.7.7.7.7.7.7.7.7.7.7.7.7.T T 7.T T 7._.7 r > > > r > > r r r r r r r r r r r r r r r r r r r > > r > gX(.7.T T 7.7.7.7.7.7.7.7.7.7.7.7.7.7.7.7.7.7.7.7.7.7.7.7.7.7.7.7.7.7.7.7.7.7.7.7.7.7.7.7.7.7.7.7.7.7.7.7.7.7.7.7.7.7.7.7.7.7.7.7.7.7.7.7.7.7.7.7.7.7.7.7.7.7.7.7.7.7.7.7.7.7.7.7.7.7.7.7.7.7.T T T T T 7.7.7.7.& 8.c..Xk k G k k G k G k k k k k k k k k k k k k k k k k k k k k k k k k k k G k k k k k G k k k k k k k k k k k k k k k k k k k k k k k k k k k G k ",
"k k G k G k G k k k G k k k k k k o.k k .Xq.r > > r r > r r > r r r r r r r r r r r r r r r r r r r r r r r r r r r r r r r r r r r r r r r r r r r r r r r r r r r r r r r r r r r r r r r r r r r r r r r r r r r r r r r r r r r r r r r r r r r r r r r r r r r r r r r r r r r r r r r r r r r r r r r r r r r r r r r r r r r r r r r > r r > r r > r (.g 7.T T 7., , 7.7.7.7.7.7.7.7.7.7.7.7.7.7.7.7.7.7.7.7.7.7.7.7.7.7.7.7.7.7.7.7.7.7.7.7.7.7.7.7.7.7.7.7.7.7.7.7.7.7.7.7.7.7.7.7.7.7.7.7.7.7.7.7.7.7.7.7.7.7.7.7.7.7.7.7.7.7.7.7.7.7.7.7.7.7.7.7.7.7.7.7.7.7.7.7.7.7.7.7.7.7.7.7.7.7.7.7.7.7.7.7.7.T T T T 7.8.(.gX> r r > > > > r r r r r r r r r r r r r r r r r r r > r > > gX(.7.T T 7.7.7.7.7.7.7.7.7.7.7.7.7.7.7.7.7.7.7.7.7.7.7.7.7.7.7.7.7.7.7.7.7.7.7.7.7.7.7.7.7.7.7.7.7.7.7.7.7.7.7.7.7.7.7.7.7.7.7.7.7.7.7.7.7.7.7.7.7.7.7.7.7.7.7.7.7.7.7.7.7.7.7.7.7.7.7.7., , T T T T T T 7.T 7.T 7.8.c..Xk k G k k k G G k k G k G k G k G k G k G k G k G k G k G k G k k G k k G k G k k k G k G k G k G k G k G k G k G k G k G k G k G k k G k k ",
"G k G k G k k o.k G k G k o.k o.k k k k k 5.h > > r r r r r r r r r r > r r > r r > r r > r r > r r > r r > r r > r r > r r > r r > r r > r r > r r > r r > r r > r r > r r > r r > r r > r r > r r > r r > r r > r r > r r > r r > r r > r r > r r > r r > r r > r r > r r > r r > r r > r r > r r > r r > r r > r r > r r > r r > r r > r r r r r r > > r (.g 7.T 7.T T , , , T T T T T , , , , , , , , , , , , , , , , , , , , , , , , , , , , , , , , , , , , , , , , , , , , , , , , , , , , , , , , , , , , , , , , , , , , , , , , , , , , , , , , , , , , , , , , , , , , , , , , , , , , , , , , , , T 7.T 7.8.(.gX> r r f r > > r r r r r r r r r r r r r r r r r r r > > > > > gX(.7.7.T 7., , , , , , , , , , , , , T T T T T T T T T T T T T T T T T 7., T T , , , , , , , , , , , , , , , , , , , , , , , , , , , , , , , , , , , , , , , , , , , , , , , , , , , T , , T 7.7.7.7.7.T 7.T 7.T T 7.8.> .Xk k G k k k k k G k G k G k G k G k G k G k G k G k G k k G k G k G k G k G k G G k G k G k G k G k G k G k G k G k G k k G k G k G k k G ",
"k G k G k G k k G k G k G k k k k o.k k .X.Xz 6 r r > > r r > > r > r r > > r > > r > > r > > r > > r > > r > > r > > r > > r > > r > > r > > r > > r > > r > > r > > r > > r > > r > > r > > r > > r > > r > > r > > r > > r > > r > > r > > r > > r > > r > > r > > r > > r > > r > > r > > r > > r > > r > > r > > r > > r > > r > > r > > > > > gX> r gX(.8.7.T T T 7.7.T T , 7.7.7., T 7.7.7.7.7.7.7.7.7.7.7.7.7.7.7.7.7.7.7.7.7.7.7.7.7.7.7.7.7.7.7.7.7.7.7.7.7.7.7.7.7.7.7.7.7.7.7.7.7.7.7.7.7.7.7.7.7.7.7.7.7.7.7.7.7.7.7.7.7.7.7.7.7.7.7.7.7.7.7.7.7.7.7.7.7.7.7.7.7.7.7.7.7.7.7.7.7.7.7.7.7.7.7.7.7.7.T 7.8.(.gX> r > > r r > > > > > > > > > > > > > > > > > > > > > > > r r > gX(.7.7.7.7.7.7.7.7.7.7.7.7.7.7.7.7.7.7.7.7.7.7., , , , , , , , 7.7.7.7., , 7.7.7.7.7.7.7.7.7.7.7.7.7.7.7.7.7.7.7.7.7.7.7.7.7.7.7.7.7.7.7.7.7.7.7.7.7.7.7.7.7.7.7.7.7.7.7.7.7.7.7.7.7.7.7.7.7.7.7.7., , T T T T T T T 7._.K.k G G G k G G G k G G k G k G k G k k G k G k G k G k G G k G k G k G k G k G k k G k G k G k G k G k G k G k G k G k G G k G k G k G G k ",
"G G G G G G G o.G G G G G G o.o.G G k o.k k .Xq.> r > > r r r r r r > r r r r r r r r r r r r r r r r r r r r r r r r r r r r r r r r r r r r r r r r r r r r r r r r r r r r r r r r r r r r r r r r r r r r r r r r r r r r r r r r r r r r r r r r r r r r r r r r r r r r r r r r r r r r r r r r r r r r r r r r r r r r r r r r r r r r r r r > r r > gX(._.7.T T T T 7.T T T T T T 7., , , , , , , , , , , , , , , , , , , , , , , , , , , , , , , , , , , , , , , , , , , , , , , , , , , , , , , , , , , , , , , , , , , , , , , , , , , , , , , , , , , , , , , , , , , , , , , , , , , , , , , , , T T 7._.,.> r r r > r r r r r r r r r r r r r r r r r r r r r r r r r r r r gXO.7.T T , , , , , , , , , , , , , , T T T T T T T T T T T T T T T T T T T T T , , , , , , , , , , , , , , , , , , , , , , , , , , , , , , , , , , , , , , , , , , , , , , , , , , , , , , , , , , , , T T T T , 7.T T 7.A .XG G G G G G G G G G G G G G G G G o.G G G G G G G G G G G G G G G G G G G G G o.G G G G G G G G G G G G G G G G G G G G G G G G G G G G ",
"G G G G o.G G G G o.G G o.G G G G o.G G G o..X.Xq.6 6 r r r f r r r r r f f f f f f f f f f f f f f f f f f f f f f f f f f f f f f f f f f f f f f f f f f f f f f f f f f f f f f f f f f f f f f f f f f f f f f f f f f f f f f f f f f f f f f f f f f f f f f f f f f f f f f f f f f f f f f f f f f f f f f f f f f f f f f f f f f f f f f r r r r r gX,._.7.7.T T T T T T T T T T , , , , , , , , , , , , , , , , , , , , , , , , , , , , , , , , , , , , , , , , , , , , , , , , , , , , , , , , , , , , , , , , , , , , , , , , , , , , , , , , , , , , , , , , , , , , , , , , , , , , , , , , , , T 7._.,.> r r f r f f f f f f f f f f f f f f f f f f f f f f f f r r r r f (.7.7.7., , , , , , , , , , , , , , T T T , T T T T T T T T T T T T T T T T T , , , , , , , , , , , , , , , , , , , , , , , , , , , , , , , , , , , , , , , , , , , , , , , , , , , , , , , , , , , , , , , , T T 7.T 7.x gX.XG G G G G G G G G G G G G o.G G G G o.G G o.G G o.G G o.G G o.G G o.G G o.G G G o.G G o.G G o.G G o.G G o.G G o.G G G o.G G o.G G G G ",
"G G G G G G G G G G G G G G G G G k G G k G k G .Xz > r r r r r r r r r r r r r r r r r r r r r r r r r r r r r r r r r r r r r r r r r r r r r r r r r r r r r r r r r r r f f r r f r r r r r r r r r r r r r r r r r r r r r r r r r r r r r r r r r r r r r r r r r r r r r r r r r r r r r r r r r r r r r r r r r r r r r r r r r r r r r r r r r r r r r gXgX_.8.7.T T T T T T T T T T T T T T T T T T T T T T T T T T T T T T T T T T T T T T T T T T T T T T T T T T T T T T T T T T T T T T T T T T T T T T T T T T T T T T T T T T T T T T T T T T T T T T T T T T T T T T T T T T T T T T T T T T T T 7._.,.> r r r r r r r r r r r r r r r r r r r r r r r r r r r r r r r r gX(.7.7.7.T T T T , , , T T T , , , , T T T 7.T T T , 7.7., 7.7.7.T T T T T T T T , T , , T T T 7.T T T T T T T T T , , 7.T T T T T T T T T T T T T T T T T T T T T T T T T T T T T T T T T T T T T T T T T T T T T T T T 7._.5.G G G G G G G G G G G G G G G G G G G G G G G G G G G G G G G G G G G G G G G G G G G G G G G G G G G G G G G G G G G G G G G G G G G ",
"G G G G G G G G G G G G G G G G G G G G o.k G G k .X5.X.8 f r r r f f r f f f f r f f f f f f f f f f f f f f f f f f f f f f f f f f f f f f f f f f f f f f f r f f f f f r r r r r r r r f f f f f f f f f f f f f f f f f f f f f f f f f f f f f f f f f f f f f f f f f f f f f f f f f f f f f f f f f f f f f f f f f f f f f f f f f f f f r r r r r r r r gX(._.8.7.7.T T T T T T 7.7., , , , , , , , , , , , , , , , , , , , , , , , , , , , , , , , , , , , , , , , , , , , , , , , , , , , , , , , , , , , , , , , , , , , , , , , , , , , , , , , , , , , , , , , , , , , , , , , , , , , , , , , T 7._.,.> r r f r f f f f f f f f f f f f f f f f f f f f f f f r r r r r r (.7.T T , , , , T T T , , , T T T T T , T T 7.7.7.8._._._._._._.8.7.7.T T T T , T , T T 7., , T 7., , , , , , , , T T T , , , , , , , , , , , , , , , , , , , , , , , , , , , , , , , , , , , , , , , , , , , , T T 7.T T g f .XG G G G G G G G G G G G G G G G G G G G G G G G G G G G G G G G G G G G G G G G G G G G G G G G G G G G G G G G G G G G G G G G G G ",
"G G G G G G G G G G G G G G G G G G G G G G o.k o.k G .X5.K.> r f f r r r r r r r r r r r r r r r r r r r r r r r r r r r r r r r r r r r r r r r r r r r r f r f r r r r f f f f f f f f f r r r r r r f f r r r r r r r r r r r r r r r r r r r r r r r r r r r r r r r r r r r r r r r r r r r r r r r r r r r r r r r r r r r r r r r r r r r r r r r r c.> r r r r gX(.(._.8.7.T T T T T T T T T T T T T T T T T T T T T T T T T T T T T T T T T T T T T T T T T T T T T T T T T T T T T T T T T T T T T T T T T T T T T T T T T T T T T T T T T T T T T T T T T T T T T T T T T T T T T T T T T T T T T T T 7._.,.> r r r r r r r r r r r r r r r r r r r r r r r r r r r r r r f r r (.8.7.T T T T T , , , T T T , , , 7.T T T 7.7._.(.(.gXgX,.gX,.gX(.(._.8.7.T T T 7.T , , T T T 7.T T T T T T T T T , , 7.T T T T T T T T T T T T T T T T T T T T T T T T T T T T T T T T T T T T T T T T T T T T T T T T T 7.e .Xk G G G G G G G G G G G G G G G G G G G G G G G G G G G G G G G G G G G G G G G G G G G G G G G G G G G G G G G G G G G G G G G G G ",
"G G G G G G G G G G G G G G G G G G k G G G k o.k o.k o.o..X5.5.K.K.> r f c.f r r r r r r r r r r r r r r r r r r r r r r r r r r r r r r r r r r r r r r r f r r r r r r 6 K.z Q Q z K.K.> r f f r r r r r r r r r r r r r r r r r r r r r r r r r r r r r r r r r r r r r r r r r r r r r r r r r r r r r r r r r r r r r r r r r r r r r r r r r r r r r gXr r r r r r r gXgX(.8.7.T T T T T T T T T T T T T T T T T T T T T T T T T T T T T T T T T T T T T T T T T T T T T T T T T T T T T T T T T T T T T T T T T T T T T T T T T T T T T T T T T T T T T T T T T T T T T T T T T T T T T T T T T T T T T T 7._.,.r r r r r r r r r r r r r r r r r r r r r r r r r r r r r r r f f r f e _.7.7.T T T T T T T T T 7.7.7.7.T T , 7._.,.gXr gXr gXgXgXr gXgX,._.7.T T T T T T T T T T T T T T T T T T T T T 7.T T T T T T T T T T T T T T T T T T T T T T T T T T T T T T T T T T T T T T T T T T T T T T T T T T 7._.K..Xk G G G G G G G G G G G G G G G G G G G G G G G G G G G G G G G G G G G G G G G G G G G G G G G G G G G G G G G G G G G G G G G G ",
"G G G G G G G G G G G G G G G G G G G o.G G o.G o.G G G k k k .X.X3 5.5.Q Q 5.K.> r gXr r r r f f f f f f f f f f f f f f f f f f f f f f f f f f f f f f f f r r r gXr 6 q..Xs s .Xs .X.X5.z h c.f r r r r r f f f f f f f f f f f f f f f f f f f f f f f f f f f f f f f f f f f f f f f f f f f f f f f f f f f f f f f f f f f f f f f f f f f f f f f f f r f f r r r r r gX(._.7.T T T T T T T , , , , , , , , , , , , , , , , , , , , , , , , , , , , , , , , , , , , , , , , , , , , , , , , , , , , , , , , , , , , , , , , , , , , , , , , , , , , , , , , , , , , , , , , , , , , , , , , , , , T T T 7._.,.r r r r r r f f f f f f f f f f f f f f f f f f f f f f r r r r r gXr gX(.(._.7.7.7.7.T T T T T T T T T T 7.7._.(.gXr r f r r f r r f r gXO.7.T T T T T T T T T T T T T T T T T T T T T T T T T T , , , , , , , , , , , , , , , , , , , , , , , , , , , , , , , , , , , , , , , , , T T T 7.T T x (.5.k G o.G G G G G G G G G G G G G G G G G G G G G G G G G G G G G G G G G G G G G G G G G G G G G G G G G G G G G G G G G G G G G G ",
"G G G G G G G G G G G G G G G G G G G G G G G G G k o.k o.G G k k G o..Xo..Xo..XQ > r r r r r f f f f f f f f f f f f f f f f f f f f f f f f f f f f f f f r r r r r r q..Xk G k k G G k k .X3 z > r r c.r r f f f f f f f f f f f f f f f f f f f f f f f f f f f f f f f f f f f f f f f f f f f f f f f f f f f f f f f f f f f f f f f f f f f f f f f f f f f c.r gXr r r r gX(._.7.T T T T T T , , , , , , , , , , , , , , , , , , , , , , , , , , , , , , , , , , , , , , , , , , , , , , , , , , , , , , , , , , , , , , , , , , , , , , , , , , , , , , , , , , , , , , , , , , , , , , , , , , , , T T 7._.,.r r r r r f f f f f f f f f f f f f f f f f f f f f f f r r r r r r r r r gX,.(._._.8.8.7.7.T , T T T T 7.7._.,.gXr r f r r r r r r f r r (.7.T T T T T T T T T T T T 7.7.T T 7.T 7.7.7.T T T T T , , , , , , , , , , , , , , , , , , , , , , , , , , , , , , , , , , , , , , , , , 7.T T T T T T g c..Xk G G G G G G G G G G G G G G G G G G G G G G G G G G G G G G G G G G G G G G G G G G G G G G G G G G G G G G G G G G G G G G G ",
"G G G G G G G G G G G G G G G G G G G k o.k o.k G o.k o.k G G o.o.k k k k k k k .Xq.> r r r r r f f r r r r r r r r r r r r r r r r f r f r r r r r f f f f f f r r r X.3 G o.G o.G G G G o.k k .X5.X.r c.r r r r r r r r r r r r r r r r r r r r r r r r r r r r r r r r r r r r r r r r r r r r r r r r r r r r r r r r r f r r r f f f f f f r r r r r r r r r r r r r r f r f r gX(._.7.7.T T T T T T T T T T T T T T T T T T T T T T T T T T T T T T T T T T T T T T T T T T T T T T T T T T T T T T T T T T T T T T T T T T T T T T T T T T T T T T T T T T T T T T T T T T T T T T T T T T T T T T T T T T T 8.(.r f r gXr r r r r r r r r r r r r r r r r r r r r r r r r r r r gXr f r r r gXf gX,.(.(.(.(._.7., T , 7.8.O.,.gXr f f r r r r r gXr c.r r (.8.7.T 7.& , , , , 7.7.7.7.8.8._.O.(.O.(.O._.7., T T T T T T T T T T T T T T T T T T T T T T T T T T T T T T T T T T T T T T T T T T T T T T T T T T T & (..Xk G G G G G G G G G G G G G G G G G G G G G G G G G G G G G G G G G G G G G G G G G G G G G G G G G G G G G G G G G G G G G G G ",
"G G G G G G G G G G G G G G G G G G G o.G G o.G o.G o.G G o.k G o.o.o.o.G o.o.o.o..XK.c.f r f f r r r f f f f f f f f f f f f f f f f f f f f c.f f f f f f f f r r X.5.o.G o.G o.G G o.o.o.G o.k .X3 K.c.f f f f f f f f f f f f f f f f f f f f f f f f f f f f f f f f f f f f f f f f f f f f f f f f f f f f f f f f f f f f f f f f f f f f f f f f f f f f f f f f f f f c.r f f ,._.8.7., T T , , , , , , , , , , , , , , , , , , , , , , , , , , , , , , , , , , , , , , , , , , , , , , , , , , , , , , , , , , , , , , , , , , , , , , , , , , , , , , , , , , , , , , , , , , , , , , , , , , , , , T 0.7.O.,.f f r f f f f f f f f f f f f f f f f f f f f f f f f f f f f f f f r r f f f f r r r r gX,.O.8.7.8._.(.gXr r f f f f f f f f r r f r r ,.(._.8.x 7.7.7.7.7.x 8._._.(.,.gXgXgXgXgXgXgX_.7., , , , , , , , , , , , , , , , , , , , , , , , , , , , , , , , , , , , , , , , , , , , , 7.T T T T T & _.5.G o.G G G G G G G G G G G G G G G G G G G G G G G G G G G G G G G G G G G G G G G G G G G G G G G G G G G G G G G G G G G G G G ",
"o.o.o.o.o.o.o.o.o.o.o.o.o.o.o.o.o.o.o.G o.o.G G G G G G o.k o.o.k o.k o.G o.G G o.k s Q h r f f f r r r f f f f f f f f f f r r r f c.f f r c.c.6 K.K.K.K.K.K.z z 5.; o.G G G o.k o.o.k G G G G o.G o.5.r f f f f f f f f f f f f f f f f f f f f f f f f f f f f f f f f f f f f f f f f f f f f f f f f f f f f f r f f f r r > > K.K.X.X.X.X.h 6 c.f r r r f f f f f f f f f f f f c.r gX(._.7.0., , 0.7.T T , 0.0., 0.0.0.0.0.0.0.0.0.0.0.0.0.0.0.0.0.0.0.0.0.0.0.0.0.0.0.0.0.0.0.0.0.0.0.0.0.0.0.0.0.0.0.0.0.0.0.0.0.0.0.0.0.0.0.0.0.0.0.0.0.0.0.0.0.0.0.0.0.0.0.0.0.0.0.0.0.0.0.0.0.0.0.0.0.0.0.0.0.0.0., , , & 8.(.,.f f f f f f f f f f f f f f f f f f f f f f f f f f f f f f f f f f f f f f f f f f f r r f 7 e ,.f r r N f r f f f f f f f f f c.f f f gXf ,.7 (.(.(.(.7 ,.,.,.gXgXr r f f f f f gX,._.& & T T , , , 0.0.0.0.0.0.0.0.0.0.0.0.0.0.0.0.0.0.0.0.0.0.0.0.0.0.0.0.0.0.0.0., , , 7.7.T T , T T 0., , & N .Xk o.G k o.G G o.G G o.o.o.o.o.o.o.o.o.o.o.o.o.o.o.o.o.o.o.o.o.o.o.o.o.o.o.o.o.o.o.o.o.o.o.o.o.o.o.o.o.o.o.o.o.o.o.o.o.o.o.o.o.",
"G G G G G G G G G G G G G G G G G G G o.k o.o.G o.o.G o.o.o.o.o.o.o.o.o.G G o.G o.G o..X.Xq.6 f c.c.c.c.c.f f f f f f f r f r r r r r f c.c.c.> 5..X.X.X.Xk .Xo..Xk .Xk .Xk o.G o.G o.o.o.G o.G G o..Xz r r f f f f f f f f f f f f f f f f f f f f f f f f f f f f f f f f f f f f f f f f f f f f f f f f f f f f f f 6 K.z 5..X.X.X.X.X.X.X.X.X5.q.h c.c.r r r r f r f f f f f f r f f gXgX,.O.8.7., T T T T , & , , 0., , , , , , , , , , , , , , , , , , , , , , , , , , , , , , , , , , , , , , , , , , , , , , , , , , , , , , , , , , , , , , , , , , , , , , , , , , , , , , , , , , , , , , , , , , T , T , , 8.(.gXf r r r f f r f f f f f f f f f f f f f f f f f f f f f f f f f f f f f f f f f f f f f f gXr gXr r f f f f f f f f f f f f f f f f f f r gXr > r r r r gXr gXr f f f f f c.f r r gX,._.g , T , , T , , , , , , , , , , , , , , , , , , , , , , , , , , , , , , , , , T , , T T , 7.7.7.7.T T & ,..Xk o.o.o.o.o.o.G o.o.G G G G G G G G G G G G G G G G G G G G G G G G G G G G G G G G G G G G G G G G G G G G G G G G G G G G G ",
"o.o.o.o.o.o.o.o.o.o.o.o.o.o.o.o.o.o.o.o.o.o.G o.G o.o.k o.o.k o.G G o.o.G o.o.G o.G o.k o..X5.K.> f c.f r f f f f f f f r f f r r f f N c.K.5..Xo.G G o.G o.G k G o.o.o.k G G o.G G o.G G o.G G o.o.5.h f f f f f f f f f f f f f f f f f f f f f f f f f f f f f f f f f f f f f f f f f f f f f f f f f f f f r f 6 K.5..X.Xo.G o.k o.k G G k .Xk .X.XQ h c.r r f f f f f f f f f f f f r r r gX,.O.8.7., , T T T , , 7., , , , 0.0.0.0.0.0.0.0.0.0.0.0.0.0.0.0.0.0.0.0.0.0.0.0.0.0.0.0.0.0.0.0.0.0.0.0.0.0.0.0.0.0.0.0.0.0.0.0.0.0.0.0.0.0.0.0.0.0.0.0.0.0.0.0.0.0.0.0.0.0.0.0.0.0.0.0.0.0.0.0.0.0.0.0.0.0., , , 0.0.7._.,.gXf f f f f r f f f f f f f f f f f f f f f f f f f f f f f f f f f f f f f f f f f f f f f f f f f f f f f f f f f f f f f f f f f f f f f r f gXf r r f f f f f f f f f f f r r r gXgX_.7.T T , , 0.0.0.0.0.0.0.0.0.0.0.0.0.0.0.0.0.0.0.0.0.0.0.0.0.0.0.0.0.0.0.0., 7., , T 7.8.(.(._.7.T T & ,..Xk o.G G o.G G o.G G o.o.o.o.o.o.o.o.o.o.o.o.o.o.o.o.o.o.o.o.o.o.o.o.o.o.o.o.o.o.o.o.o.o.o.o.o.o.o.o.o.o.o.o.o.o.o.o.o.o.o.o.o.",
"o.G o.G o.G o.G o.G o.G o.G o.G o.G o.G o.G o.o.o.o.o.o.o.o.G o.G G o.G o.o.G o.o.o.G G G G o..X5.Q X.6 f f f f f f f f f f f N N c.6 K.5..X.Xo.o.o.o.o.o.o.o.o.o.o.o.G o.o.o.o.o.G o.o.G o.G o.o..Xz c.r f f f f f f f f f f f f f f f f f f f f f f f f f f f f f f f f f f f f f f f f f f f f f f f f f f f r f h 5.o.o.G G o.o.o.o.o.o.o.o.G o.o.o..X.Xz 6 c.f f f f f f f f f f f f f f f f f gX,.O.8.7.7.0.0., , , 0.0., 0.0.0.0.0.0.0.0.0.0.0.0.0.0.0.0.0.0.0.0.0.0.0.0.0.0.0.0.0.0.0.0.0.0.0.0.0.0.0.0.0.0.0.0.0.0.0.0.0.0.0.0.0.0.0.0.0.0.0.0.0.0.0.0.0.0.0.0.0.0.0.0.0.0.0.0.0.0.0.0.0.0.0.0.0.0.0., , 7., 0.0.7.(.gXc.f r f f r f f f f f f f f f f f f f f f f f f f f f f f f f f f f f f f f f f f f f f f f f f r f f f f f f f f f f f f f f f f f f f f c.r f r f gXf f f f f f f f f f c.gXr f f gX(.7.T T , , 0.0.0.0.0.0.0.0.0.0.0.0.0.0.0.0.0.0.0.0.0.0.0.0.0.0.0.0.0.0.0.0., T , , & 7.O.gXgX(._.& 0.& ,..Xk o.G o.G G o.o.o.o.o.o.o.o.o.o.o.o.o.o.o.o.o.o.o.o.o.o.o.o.o.o.o.o.o.o.o.o.o.o.o.o.o.o.o.o.o.o.o.o.o.o.o.o.o.o.o.o.o.o.o.o.o.",
"o.o.o.o.o.o.o.o.o.o.o.o.o.o.o.o.o.o.o.o.o.o.o.o.o.o.o.o.o.o.o.o.o.o.o.o.o.o.o.o.o.o.o.o.o.o.o.k s .X.X3 5.K.K.> > > > 6 6 6 h K.z 5..X.Xo.o.o.o.s o.o.o.o.o.o.o.o.o.o.o.o.o.o.o.o.o.o.o.o.o.o.o.G .XK.f f f f f f f f f f f f f f f f f f f f f f f f f f f f f f f f f f f f f f f f f f f f f f f f f f f f f f c.K..Xo.o.o.o.o.o.o.o.o.o.o.o.o.o.o.o.o.o..X5.X.N f f f f f f f f f f f f f f f f f f gX,.(._.8.x 7.7., 7., , , 0.0.0.0.0.0.0.0.0.0.0.0.0.0.0.0.0.0.0.0.0.0.0.0.0.0.0.0.0.0.0.0.0.0.0.0.0.0.0.0.0.0.0.0.0.0.0.0.0.0.0.0.0.0.0.0.0.0.0.0.0.0.0.0.0.0.0.0.0.0.0.0.0.0.0.0.0.0.0.0.0.0.0.0.0.0., 0.7.7., 0.7._.,.r f f f f f f f f f f f f f f f f f f f f f f f f f f f f f f f f f f f f f f f f f f f f f f f f f f f f f f f f f f f f f f f f f N f f f f f f f f f f f f f f f f f f f f f f f gX_.T T , , , 0.0.0.0.0.0.0.0.0.0.0.0.0.0.0.0.0.0.0.0.0.0.0.0.0.0.0.0.0.0.0.0., , T 0.7._.,.f c.gX_.g 0.& ,..Xk o.o.o.o.o.o.o.o.o.o.o.o.o.o.o.o.o.o.o.o.o.o.o.o.o.o.o.o.o.o.o.o.o.o.o.o.o.o.o.o.o.o.o.o.o.o.o.o.o.o.o.o.o.o.o.o.o.o.o.o.o.o.",
"s s s o.s s o.s s o.s s o.s s o.s o.s o.s o.s o.s o.s s o.s s s s s s s o.s o.s o.o.o.o.s s o.s o.o.o.o..X.X.X3 5.5.5.5.5.5.3 .X.X.Xs o.o.o.s s s s s s o.o.o.o.s o.s s o.s o.o.s o.s s s o.o.o.s .XQ c.f f f f f f f f f N N N N f f f f f f f N f f f f f f f N N N N N N N N N N N N N N N N N N f N f f f f f r Q .Xo.s o.o.o.o.o.o.o.s s o.o.s o.s o.o.o..X3 X.N N f r f f f f N N N f N f f f N f f f f ,.,.(.(._.8.7.7.T , , , , , , , , , , , , , , , , , , , , , , , , , , , , , , , , , , , , , , , , , , , , , , , , , , , , , , , , , , , , , , , , , , , , , , , , , , , , , , , , , , , , , , , , , , , , , , x (.f f f f f f N N N N N N N N N N N N N N N N N N N N N N N N N N N N N N N N N N N N N N f f f f N N N N N N N N N N N N N N N N N N f f f f f f f f N f f N N N N f f f f f ,.N r ,._.7., T , , , , , , , , , , , , , , , , , , , , , , , , , , , , , , , , , , , T , T , 7.O.gXf f gX_.g 0.7.,..XG o.o.o.o.s s s s s s s s s s s s s s s s s s s s s s s s s s s s s s s s s s s s s s s s s s s s s s s s s s s s s s s s s s ",
"o.o.o.s o.o.o.o.o.o.o.o.o.o.o.o.o.s o.o.o.o.s o.o.s o.o.o.o.o.o.o.o.o.o.s o.o.o.o.s o.s s o.o.o.s s o.o.o.s s s s s o.s o.s s o.o.s s s o.s s o.o.o.o.o.s s o.o.o.o.o.o.o.o.s o.s o.o.o.o.s o.s o.o..Xh f f f f f f f f f N N N N f f f f r r f N N f f f f f f f f N N N N N N N N N N N N N N f f f f f f f f N h 3 o.o.s o.o.s o.o.s s s s s s s s s s s s G .X3 h : f f f N f f N N N f N N f N f f N f f f r gXgX,.(.8., , , , , , , , , , , , , , , , , , , , , , , , , , , , , , , , , , , , , , , , , , , , , , , , , , , , , , , , , , , , , , , , , , , , , , , , , , , , , , , , , , , , , , , , , , , , , , , , 7._.f f f f f f f N N N N N N N N N N N N N N N N N N N N N N N N N N N N N N N N N N N N N f N N f f f N N N N N N N N N N N N N N N N f N N N f f f f f f N f N f f f f f f f f f ,._.7.& , , , , , , , , , , , , , , , , , , , , , , , , , , , , , , , , , , , , , , , , 7.7.(.gXf f ,.(.7., & (.5.o.o.o.o.s o.o.o.o.o.o.o.o.o.o.o.o.o.o.o.o.o.o.o.o.o.o.o.o.o.o.o.o.o.o.o.o.o.o.o.o.o.o.o.o.o.o.o.o.o.o.o.o.o.o.o.o.o.o.o.o.o.o.",
"o.o.o.o.o.s o.s o.s o.s o.s o.s o.o.s o.s o.o.o.s o.o.s o.s o.o.s o.o.s o.o.o.o.o.o.s s o.o.o.o.s s s s o.s s o.o.s s o.o.o.s s s s s s o.o.o.o.o.o.o.o.o.o.o.s o.s s o.s o.o.o.o.s o.s o.o.s o.o.o..XQ 6 N f f f f f f f f N f f f f f f f f r 6 c.f f f f f f f f N N N N N N N N N N N N N N f f f f f f f f f z .Xo.o.o.o.o.o.o.o.o.o.o.s o.o.o.s o.o.o.o.o.o..X5.h f f f f f f f N f N N N N N f f N f f f f f ,.f ,._., 0.0.0.0.0.0.0.0.0.0.0.0.0.0.0.0.0.0.0.0.0.0.0.0.0.0.0.0.0.0.0.0.0.0.0.0.0.0.0.0.0.0.0.0.0.0.0.0.0.0.0.0.0.0.0.0.0.0.0.0.0.0.0.0.0.0.0.0.0.0.0.0.0.0.0.0.0.0.0.0.0.0.0.0.0.0.0.0.0.0.0.0.& & 0.7._.,.f f f f f f N N N N N N N N N N N N N N N N N N N N N N N N N N N N N N N N N f N N N f f N N f f f N N N N N N N N N N N N N N N N N N N N N N N N f f f f f f f f f f f gX,._.7.0.& & 7., 0.0.0.0.0.0.0.0.0.0.0.0.0.0.0.0.0.0.0.0.0.0.0.0.0.0.0.0.0.0.0.0.0.0.0.& 0.& 8.(.gXf f f ,._.7.& 8.gX.Xo.o.o.s o.o.o.o.o.o.o.o.o.o.o.o.o.o.o.o.o.o.o.o.o.o.o.o.o.o.o.o.o.o.o.o.o.o.o.o.o.o.o.o.o.o.o.o.o.o.o.o.o.o.o.o.o.o.o.o.o.o.",
"s s s s s s s s s s s s s s s s s s s s s s s s s s s s s s s s s s s s s s s s s s s s s s s o.s s o.o.o.o.o.o.s s s o.s o.s o.s o.o.s o.o.s s s s s s s s s s s s s s s s s s s s s s s o.o.o.o.o.o..XQ 6 f f f f f N f f f N f f f f f f 6 K.5.K.f f f f f N N N N N N N N N N N N N N N N N N N f f f f f f > 5.o.o.o.o.o.s o.o.s s s s o.s s o.o.o.o.o..X.X.X.X5.K.f f f f f f N N N N N N N N f f f f f f f f N f f (.7.0.0.& & & & & & & & & & & & & & & & & & & & & & & & & & & & & & & & & & & & & & & & & & & & & & & & & & & & & & & & & & & & & & & & & & & & & & & & & & & & & & & & & & & & & & & & 0.& & & 0.7._.,.f f f f f f N N N N N N N N N N N N N N N N N N N N N N N N N N N N N N N N N N N N N N N N N N N N N N N N N N N N N N N N N N N N N N N N N N N N N N N f N N f f f f ,.,._.7.0.0.0.& & 0.0.0.& & & & & & & & & & & & & & & & & & & & & & & & & & & & & & & & & 0.0.& _.,.r f f f gX(.8.7.* I 5.G s o.s s s s s s s s s s s s s s s s s s s s s s s s s s s s s s s s s s s s s s s s s s s s s s s s s s s s s s s s s s s ",
"s s s s s s s s s s s s s s s s s s s s s s s s s s s s s s s s s s s s s s s s s s s s s s s o.o.o.o.o.o.s s o.s s o.s s s s o.o.o.o.o.s o.s s s s s s s s s s s s s s s s s s s s s s s o.o.o.o.o.o..X.X5.K.K.h > r f f f f f f N N f r K.5..X.X5.> f f N N f f f N f f N N N N N N N N f f f f f f f f f f f z .Xo.o.o.o.s s o.o.s o.o.o.s s s s .X.X3 5.K.X.h 6 > r r f f f N f N N N N N N N N N f N f N f f f f N f ,.O.7.& 0.& 0.0.& 0.0.0.0.0.0.0.0.0.0.0.0.0.0.0.0.0.0.0.0.0.0.0.0.0.0.0.0.0.0.0.0.0.0.0.0.0.0.0.0.0.0.0.0.0.0.0.0.0.0.0.0.0.0.0.0.0.0.0.0.0.0.0.0.0.0.0.0.0.0.0.0.0.0.0.0.0.0.0.0.0.& 0.& 0.0.0.0.7.(.gXf f f f f f N N N N N N N N N N N N N N N N N N N N N N N N N N N N N N N N N N N N N N N N N N N N N N N N N N N N N N N N N N N N N N N N N N N N N f f N f f f f f gX(._.7.& 0.0.& & & 0.0.& 0.0.0.0.0.0.0.0.0.0.0.0.0.0.0.0.0.0.0.0.0.0.0.0.0.0.0.0.0.0.0.0.& & 0.7._.,.r r f f f gX(.8.0.8.K.o.o.o.o.s s s s s s s s s s s s s s s s s s s s s s s s s s s s s s s s s s s s s s s s s s s s s s s s s s s s s s s s s s ",
"s s s s s s s s s o.s o.s o.s o.s o.s o.s o.s o.s o.s o.s o.s o.s o.s s s s s s s s s s s s s s s s s s s s s s o.s s s s s s o.s s s s s s s s s s s s s s s s s s s s s s s s s s s s s s s s s s o.s s o..X.X.X.X5.6 f f c.c.c.c.6 X.5..X.Xs o.3 X.N f f f f f f f f f f f f f f f f f f f f f gXf f f f N X.3 s o.o.s s s s s s s o.o.s s s .X3 z K.6 N N N N N f N N N N N f N f f f f f f f f f N f f f f f f f f f f ,._.g & T , 0.0.& & & & & & & & & & & & & & & & & & & & & & & & & & & & & & & & & & & & & & & & & & & & & & & & & & & & & & & & & & & & & & & & & & & & & & & & & & & & & & & & & 0.0.0., 0.& & 8.(.f f N f f N N f f f f f f f f f f f f f f f f f f f f f f f f f f f f f f f f f f f f f f f f f f f f f f f f f f f f f f f f f f f f f f f f f f f f f ,.f r ,.f f f gX(._.& 0.7.& 0.0.0.0.& & 0.& & & & & & & & & & & & & & & & & & & & & & & & & & & 0.0.0.0.0.0.& 0.0._.,.f f f f f f f O.7.g gX.Xo.s o.s s s s s s s s s s s s s s s s s s s s s s s s s s s s s s s s s s s s s s s s s s s s s s s s s s s s s s s s s s ",
"s s s s s s s s s s s s s s s .Xo.s s .Xo.s s s s .Xo.s s s s s s s s s s s s s s s s s s s s s s s s s s s s s s s s s s s s s s s s s s s s s s s s s s s s s s s s s s s s s s s s s s s s s s s o.s o.o.o.o..X.X.X5.h c.: c h z 5..X.Xs s s s .XQ 6 N f f f f f f f N N N N N N N N N f N f f N N f ,.: h 5..Xo.s s s s s s o.s s s s s .X5.K.6 N N N N N N f f N f N N N N N N N N N N N N N N N N N N N N N N N N f N f ,._.7.0.0.& 0.0.0.& 0.0.0.0.& & 0.0.& 0.& & 0.0.0.0.0.0.0.0.0.0.0.0.0.0.0.0.0.0.0.0.0.0.0.0.0.0.0.0.0.0.0.0.0.0.0.0.0.0.0.0.0.0.0.0.0.0.0.0.0.0.0.0.0.0.0.0.0.0.0.0.0.0.0.0.0.0., & , 0.& & g _.,.f N N f ,.f f ,.f ,.,.f ,.,.f ,.,.f ,.,.f ,.,.f ,.,.f ,.,.f ,.,.f ,.,.f ,.,.f ,.,.f ,.,.f ,.,.f ,.,.f ,.,.f ,.,.f ,.,.f ,.,.f ,.,.f ,.,.f ,.,.f ,.f ,.f ,.f ,.N f N f (._.& 0.0.& & 0.& & & & 0.0.0.0.0.0.0.0.0.0.0.0.0.0.0.0.0.0.0.0.0.0.0.0.& 0.& & 0.0.0.0.0.7., 0.0.& 8.(.f f f f f N gX(.8.g 7 .Xo.s s s s s s s s s s s s s s s s s s s s s s s s s s s s s s s s s s s s s s s s s s s s s s s s s s s s s s s s s s s s ",
"s s s s s s s s K s s s s s s s s s s s s s s s s s s s s s s s s s s s s s s s s s s s s s s s s s s s s s s s s s s s s s s s s s s s s s s s s s s s s s s s s s s s s s s s s s s s K s s s s s s s s s s o.o.o.s K .X5.5.5.3 .X.Xs s s s s K s .Xz 6 N N N f N N N N N N N N N N N N N N N N f N N : < 5..Xs s s s s s s s s s s s .X.Xq.6 c.N ,.,.,.f N N N N N N N N N N N N N N N N N N N N N N N N N N N N N ,.f N N ,.,.O.x & 0.& & & 0.& & & & 0.0.& & 0.& 0.& & & & & & & & & & & & & & & & & & & & & & & & & & & & & & & & & & & & & & & & & & & & & & & & & & & & & & & & & & & & & & & & & & & , & , , , * g _.,.N N N f f ,.N N N N N N N N N N N N N N N N N N N N N N N N N N N N N N N N N N N N N N N N N N N N N N N N N N N N N N N N N N N N N N N N N N N N ,.N N ,.f N N gX,._.g 0.0.T & & 0.& & & & & & & & & & & & & & & & & & & & & & & & & & & & & & & 0.0.0.0., 0.* & g 7.8.O.,.f N N N N N f ,.8.r.I .Xo.s s s s s s s s s s s s s s s s s s s s s s s s s s s s s s s s s s s s s s s s s s s s s s s s s s s s s s s s s s s s ",
"s s s s s s s s s s s s .Xs s s s s s s s s .Xs s s s s .Xs s .Xs s s s s s s s s s s s s s s s s s s s s s s s s s s s s s s s s s s s s s s s s s s s s s s s s s s s s s s s s s s s s s s s s s s s s s s s s o.s s s s .Xs .Xs s s o.s s s s s K .X5.K.c.N N N N N N N N N N N N N N N N N N N N c.K.3 .Xs s s s s s s s s s s s s 3 K.f N : N f f f N N N N N N N N N N N N N N N N N N N N N N N N N N N N N N N N N ,.f f ,.(.7.& 0.0.0.& 0.0.0.0.0.0.0.0.0.0.& 0.0.0.0.0.0.0.0.0.0.0.0.0.0.0.0.0.0.0.0.0.0.0.0.0.0.0.0.0.0.0.0.0.0.0.0.0.0.0.0.0.0.0.0.0.0.0.0.0.0.0.0.0.0.0.0.0.0.0.0.0.0.0.0.0.0.0.0.& 0.0.* & _.(.f N N ,.N N N N N N N N N N N N N N N N N N N N N N N N N N N N N N N N N N N N N N N N N N N N N N N N N N N N N N N N N N N N N N N N N N N N N N N N N f N N N N ,.O.x 7., , , T , 0., 0.0.0.0.0.0.0.0.0.0.0.0.0.0.0.0.0.0.0.0.0.0.0.0.0.0.0.0.0.0.0.0.0.& & 7.7._._.(.(.,.,.N N f N N N N N O.g O..Xo.s s s s s s s s s s s s s s s s s s s s s s s s s s s s s s s s s s s s s s s s s s s s s s s s s s s s s s s s s s s s ",
"s s s s s s s s s s s s s s s s s s s s s s s s s s s s s s s s s s s s s s s s s s s s s s s s s s s s s s s s s s s s s s s s s s s s s s s s s s s s s s s s s s s s s s s s s s s s s s s s s s s s s K s s s s s s s s s s s s s s s s s s s s s s .X.X5.z K.6 6 c.N N 1 1 1 1 N N N N 1 1 N r K.5..Xs s s K s s s s s s s s s s s Q N N N N N N N N N N N N N N N N N N N N N N N N N N N N N N N N N N N N N N N f N f N N f ,.(.8.& & 0.0.0.0.0.& & 0.0.0.& , 0.& 0.0., , 0.0.0.0.0.0.0.0.0.0.0.0.0.0.0.0.0.0.0.0.0.0.0.0.0.0.0.0.0.0.0.0.0.0.0.0.0.0.0.0.0.0.0.0.0.0.0.0.0.0.0.0.0.0.0.0.& 0.0.0., , & & & & x _.(.,.N N N N N N N N N N N N N N N N N N N N N N N N N N N N N N N N N N N N N N N N N N N N N N N N N N N N N N N N N N N N N N N N N N N N N N N N N N N N N N N N N ,.(.8.7.0., , T , 0.0.0.0.0.0.0.0.0.0.0.0.0.0.0.0.0.0.0.0.0.0.0.0.0.0.0.0.0., & & & & & 7.8._.O.e ,.,.,.,.N N N N N N N f c.,.,.O.%X5.o.s s s s s s s s s s s s s s s s s s s s s s s s s s s s s s s s s s s s s s s s s s s s s s s s s s s s s s s s s s s s ",
"s s s s s s s s s s s s s s K s s K s K s s s s K s s K s s s s s K s s s s s s s s s s s s s s s s s s s s s s s s s s s s s s s s s s s s s s s s s s s s s s s s s s s s s s s s s s s s K s K s K s s s K s K s s s s s s s s s s s K s s K s K s s s s .X.X.X5.5.5.K.K.K.> > > r > r > > K.K.5..X.Xs s s s s s s s s K s s s s s .Xz N c.f N N N N N N N N N N N N N N N N N N N N N N N N N N N N N N N N N N N N N N N N N N N ,.(._.g & & & 7.7.7.8.7., 0.0.0.0.0.0., , , , 0.0.0.0.0.0.0.0.0.0.0.0.0.0.0.0.0.0.0.0.0.0.0.0.0.0.0.0.0.0.0.0.0.0.0.0.0.0.0.0.0.0.0.0.0.0.0.0.0.0.0.0.0., & & & , , 0., 0.* g 8.O.,.f N N N N N N N N N N N N N N N N N N N N N N N N N N N N N N N N N N N N N N N N N N N N N N N N N N N N N N N N N N N N N N N N N N N N N N N N N N N N N N N N N N ,.(.x 0.T 0.0.0.0.0.0.0.0.0.0.0.0.0.0.0.0.0.0.0.0.0.0.0.0.0.0.0.0.0., , 0.0.0.0.& 7.8._.(.(.,.,.N f N N N N N N N N N N N N f gX,.1 K..Xs s s s s s s s s s s s s s s s s s s s s s s s s s s s s s s s s s s s s s s s s s s s s s s s s s s s s s s s s s s s ",
"K K K K K K K K K K K K K K s K K s K s K K K K s K s K s K K K K s K K K K K K K K K K K K K K K K K K K K K K K K K K K K K K K K K K K K K K K K K K K K K K K K K K K K K K K K K K K K s K s K s K K K s s s s s K K K K K s K K s K s K K s K K K K s s s s .X.X.X.X.X3 5.5.5.5.5.5.5.5.3 .X.X.Xs s s K s s K K K K s K K s s s .Xz N f N N N N N N N N N N N N N N N N N N N N N N N N N N N N N N N N N N N N N N N N N N N N N gX(._.8._._._._.(.(.O.8.7.0.0.0., , 0.0.0.0., , , , , , , , , , , , , , , , , , , , , , , , , , , , , , , , , , , , , , , , , , , , , , , 0.0., 0.0.0.0.0.0.0.0.0.0.7.7.7._.(.,.,.N N N N N N N N N N N N N N N N N N N N N N N N N N N N N N N N N N N N N N N N N N N N N N N N N N N N N N N N N N N N N N N N N N N N N N N N N N N N N N N N N N f ,._.7.T 0.0.0., , , , 0.0.0., , , , , , , , , , , , , , , , , , , , 0.0.0.0.0.0.& 8.(.,.,.,.N N N N N N N N N N N N N N N N N ,.,.N h .Xs s s s s s s K K K K K K K K K K K K K K K K K K K K K K K K K K K K K K K K K K K K K K K K K K K K K K K K K K K K K ",
"K K K K K K K K s K s K K s K K .XK K K s K K s K K K K K K s K K K s K K K K K K K K K K K K K K K K K K K K K K K K K K K K K K K K K K K K K K K K K K K K K K K K K K K K K K K K s K K K K K K K s K K K K K K K K s K s K K s K K s K s K s K s s K K K K s s s s s s .Xs K K s s s s .Xs s s s K K K K K s K s s K K K s .Xs s .Xz N f f f N N N N N N N N N N N N N N N N N N N N N N N N N N N N N N N N N N N N N N N N N N N N gX,.(.,.,.,.,.,.,.,.(._.7.T 0.0.0.0.0.0.0.0.0.0.0.0.0.0.0.0.0.0.0.0.0.0.0.0.0.0.0.0.0.0.0.0.0.0.0.0.0.0.0.0.0.0.0.0.0.0.0.0.0.0.0.0.0.0., , 0.0.0.0.0., T T 7.7.8.8._.(.,.,.gXN f N N N N N N N N N N N N N N N N N N N N N N N N N N N N N N N N N N N N N N N N N N N N N N N N N N N N N N N N N N N N N N N N N N N N N N N N N N N N N N N N N f (.8.T T T 0.0., , , 0.0.0.0.0.0.0.0.0.0.0.0.0.0.0.0.0.0.0.0.0.0.0.0.0.0.0.0.0.0.0._.,.f N f N ,.N N N N N N N N N N N N N N N N N N 6 l .XK K s s K s K K K K K K K K K K K K K K K K K K K K K K K K K K K K K K K K K K K K K K K K K K K K K K K K K K K K K ",
"s s K s .Xs s K .Xs K .Xs K .Xs K s s .Xs .Xs .Xs .Xs .Xs .Xs K .Xs K .Xs K s .Xs K s .Xs K s .Xs K s .Xs K s .Xs K s .Xs K s .Xs K s .Xs K s .Xs K s .Xs K s .Xs K s .Xs K s .Xs s K K K .Xs .Xs .Xs K .Xs K s .Xs s K K s .Xs K K s K s s s s s K K K K K K K K K K K K .Xs K s K K K s K s K K K K K K s K K K K s K s .Xs K s K s .Xz N f f N N N N N N N N N N N N N N N N N N N N N N N N N N N N N N N N N N N N N N N N N N N N N N f ,.N N f N f f ,.gX(.7.0.0.0.0.0.0.0.0.0.0.0.0.0.0.0.0.0.0.0.0.0.0.0.0.0.0.0.0.0.0.0.0.0.0.0.0.0.0.0.0.0.0.0.0.0.0.0.0.0.0.0.0.0.0.0.0.0.0.0.0.0.7.8._._.(.O.(.,.,.,.f f N N N N N N N N N N N N N N N N N N N N N N N N N N N N N N N N N N N N N N N N N N N N N N N N N N N N N N N N N N N N N N N N N N N N N N N N N N N N N N N N N N N ,.f (.7.0.0., 0.0.0.0.0.0.0.0.0.0.0.0.0.0.0.0.0.0.0.0.0.0.0.0.0.0.0.0.0.0.0.0.0.0., , _.,.f N ,.,.,.N N N N N N N N N N N N N N N f f N c.5..XK K K .XK s .Xs K s .Xs s K s .Xs K s .Xs s K s .Xs K s .Xs s K s .Xs K s .Xs s K s .Xs K s .Xs s K s .Xs K s .Xs s K ",
"K K .XK K K K K s K K s K K s K K K K K K K K K K K K K K K K K K K K s K K K K K s K K K K K K K s K K K K K K K s K K K K K K K s K K K K K K K s K K K K K K K s K K K K K K K K .Xs K s K K K K K K s K K K K K K .Xs K K K K K K K K K K K K K K K K K K K K s K K K K K K K K K K .XK K K K K K K K K K K K K K .XK K K K .XK s .Xz N ,.N N N N N N N N N N N N N N N N N N N N N N N N N N N N N N N N N N N N N N N N N N N N N N N N N N N N ,.N f f ,.(.7.0.T 0.0.0.0.0.0.0.0.0.0.0.0.0.0.0.0.0.0.0.0.0.0.0.0.0.0.0.0.0.0.0.0.0.0.0.0.0.0.0.0.0.0.0.0.0.0.0.0.0.0.0.0., , , , , & 7._.e ,.gXgXgXf f f N N N N N N N N N N N N N N N N N N N N N N N N N N N N N N N N N N N N N N N N N N N N N N N N N N f N N N N N f N N N N N N N N N N N N N N N N N N N N N N N N N N N N N N ,.O.g 0.T 0.T 0.T 0.0.0.0.0.0.0.0.0.0.0.0.0.0.0.0.0.0.0.0.0.0.0.0.0.0.0.0.0., , , 0._.,.,.N N N N N N N N N N N N N N N N N N N N N N f z .XK K K s K K K K K K K K K .XK K K K K K K K .XK K K K K K K K .XK K K K K K K K .XK K K K K K K K .XK K K K K K K K K ",
"K K K K K K .XK l K K K K K K K K K K K K K K K K K K K K K K K K K K ; K .XK K K l K K K .XK K K l K K K .XK K K l K K K .XK K K l K K K .XK K K l K K K .XK K K l K K K .XK K K K K K K K K K K K K K K K .XK K K K K K K K K K K K K K K K K K K K K K K K K K K K K K K K K K K K K K K K K K K K K K K K K K K K K K K K K K K K .X5.c.,.N N N N N N N N N N N N N N N N N N N N N N N N N N N N N N N N N N N N N N N N N N N N N N N N N N N f N ,.,.f ,.(.7.0., 0.0.0.0.0.0.0.0.0.0.0.0.0.0.0.0.0.0.0.0.0.0.0.0.0.0.0.0.0.0.0.0.0.0.0.0.0.0.0.0.0.0.0.0.0.0.0.0.0.0.0.0., , 0.T 0.7.O.,.gX,.,.,.N ,.N N N N N N N N N N N N N N N N N N N N N N N N N N N N N N N N N N N N N N N N N N N N N N N N N N N f N ,.gXf ,.N N N N f f N f f N N f N N N N N N N N N N N N N N N N N N N N ,.O.x 0.0.0.0., 0.0.0.0.0.0.0.0.0.0.0.0.0.0.0.0.0.0.0.0.0.0.0.0.0.0.0.0.0.0.0.0.0.& _.,.f N N N N N N N N N N N N N N N N N N N N N N f K..XK K K K .XK K K .XK K K K K K K K K K K K K K K K K K K K K K K K K K K K K K K K K K K K K K K K K K K K K K K K K K ",
"K K K K K K K K .XK .XK K K K K K K K K K K K K K K K K K K K K K K K .XK K K .XK .XK K K K K .XK .XK K K K K .XK .XK K K K K .XK .XK K K K K .XK .XK K K K K .XK .XK K K K K .XK K K K K K K K K K K K .XK K K .XK K K K K K K K K K K K K K K K K K K K K K K .XK K .XK K K K K K K K K K K K K K K K K K K K K K K K K .XK .Xs K .XK 5.6 ,.f N ,.N N N N N N N N N N N N N N N N N N N N N N N N N N N N N N N N N N N N N N N N N N N N N N N N ,.N N N ,.(.8.0.T 0.0.0.0.0.0.0.0.0.0.0.0.0.0.0.0.0.0.0.0.0.0.0.0.0.0.0.0.0.0.0.0.0.0.0.0.0.0.0.0.0.0.0.0.0.0.0.0.0., , 0.0., , 0.0.7.(.gX,.,.f ,.f ,.f ,.,.N N N N N N N N N N N N N N N N N N N N N N N N N N N N N N N N N N N N N N N N N N N N N N N f N f ,.f f ,.N f > 6 c.f f f f f N N N N N N N N N N N N N N N N N N N N N N N ,.(.8.0.0.T T 0.0.0., 0., 0.0.0.0.0.0.0.0.0.0.0.0.0.0.0.0.0.0.0., 0.0.0.0., 0.0.0.0._.,.f N ,.N N N N N N N N N N N N N N N N N N N N N K..XK K s K s K K K K K .XK K K .XK K .XK .XK K K K .XK .XK .XK K K K .XK .XK .XK K K K .XK .XK .XK K K K .XK .XK .XK K .X",
"K K K K K K K K K K K K K K K K K K K K K K K K K K K K K K K K K K K K K K K K K K K K K K K K K K K K K K K K K K K K K K K K K K K K K K K K K K K K K K K K K K K K K K K K K K K K K K K K K K K K K K K K K K K K K K K K K K K K K K K K K K K K K K K K K K K K K K K K K K K K K K K K K K K K K K K K K K K K K K K K K K K .X.XK.N f N N f N N N N N N N N N N N N N N N N N N N N N N N N N N N N N N N N N N N N N N N N N N N N N N N f N N gX,.(.7., , , 0.0.0.0.0.0.0.0.0.0.0.0.0.0.0.0.0.0.0.0.0.0.0.0.0.0.0.0.0.0.0.0.0.0.0.0.0.0.0.0.0.0.0.0.0.0.0., 0.0.0.0., , 0.x _.gX,.f gX,.,.gXN N N N N N N N N N N N N N N N N N N N N N N N N N N N N N N N N N N N N N N N N N N N N N N N N N ,.N N f f ,.N N > 5..X.X5.K.N N ,.,.N N f N N N N N N N N N N N N N N N N N N N N N ,._.7.0.0., 0., 0.0.0.0.0.0.0.0.0.0.0.0.0.0.0.0.0.0.0.0.0.0.0.0.0.0., , , 0., 0.0._.,.f N N N N N N N N N N N N N N N N N N N N N N N K..XK .XK K K K K K K K K K K K K K K K K K K K K K K K K K K K K K K K K K K K K K K K K K K K K K K K K K K K K K K K K ",
"K K K K K K K K K K K K K K K K K K K K K K K K K K K K K K K K K K K K K K K K K K K K K K K K K K K K K K K K K K K K K K K K K K K K K K K K K K K K K K K K K K K K K K K K K K K K K K K K K K K K K K K K K K K K K K K K K K K K K K K K K K K K K K K K K K K K K K K K K K K K K K K K K K K K K K K K K K K K K K K K K K K s .Xz N ,.,.,.,.N N N N N N N N N N N N N N N N N N N N N N N N N N N N N N N N N N N N N N N N N N N N N N N N ,.N ,.(._.& , , 0.0.0.0.0.0.0.0.0.0.0.0.0.0.0.0.0.0.0.0.0.0.0.0.0.0.0.0.0.0.0.0.0.0.0.0.0.0.0.0.0.0.0.0.0.0.0.0.0., 0.0., 0.0.7.O.,.gX,.,.,.f ,.,.N N f N N N N N N N N N N N N N N N N N N N N N N N N N N N N N N N N N N N N N N N N N N N N N N ,.,.,.N ,.,.N 6 K.5..XK K .X.XK.> N 1 1 1 N ,.,.N N N ,.N N N N N N N N N N N N N N N ,.(._.7.0., , 0.0., 0., 0.0.0.0.0.0.0.0.0.0.0.0.0.0.0.0.0.0.0., 0.0.0., 0.0.0.0.0._.,.f N N N N N N N N N N N N N N N N N N N N N N N K..XK K K K .XK K K K K K K K K K K K K K K K K K K K K K K K K K K K K K K K K K K K K K K K K K K K K K K K K K K K K K ",
"K K .XK .XK .XK K K K K K K K K K K K K K K K K K K K K K K K K K K K K K K K K K K K .XK .XK K .XK K .XK .XK K .XK K .XK .XK K .XK K .XK .XK K .XK K .XK .XK .XK K .XK .XK .XK .XK K K K K K K K K K K K K K K K K K K K K K K K K K K K K K K K K K K K K K K K K K K K K K K K K K K K K K K K K K K K K K K K K K K K K K K K K K K .X5.h ,.f ,.,.,.N ,.,.,.,.,.,.,.,.,.,.,.,.,.,.,.,.,.,.,.,.,.,.,.,.,.,.,.,.,.,.,.,.,.,.,.,.,.,.,.,.,.,.,.,.,.,.,.,.,.(.7.& , 0.0.0.0.0.0.0.0.0.0.0.0.0.0.0.0.0.0.0.0.0.0.0.0.0.0.0.0.0.0.0.0.0.0.0.0.0.0.0.0.0.0.0.0.0.0.0., , , 0.0.T 0., 8.(.,.,.,.,.,.,.,.,.,.,.,.,.,.,.1 ,.,.,.,.N ,.,.,.,.,.,.,.,.,.,.,.,.,.,.,.,.,.,.,.,.,.,.,.,.,.,.,.,.,.,.,.,.,.,.,.,.,.,.,.,.,.1 N > K.5..X.XK K K ; .X.X5.K.K.c.c.N ,.,.N ,.,.,.,.,.,.,.,.,.,.,.,.,.,.,.,.,.,.gX,.(.8.7.T , 0., , 0.0.0.0.0.0.0.0.0.0.0.0.0.0.0.0.0.0.0.0.0.0.0.0.& , 0., 0.0., _.,.,.,.,.,.,.,.,.,.,.,.,.,.,.,.,.,.,.,.,.,.,.,.,.: K..XK K K K K K K .XK .XK K .XK .XK K .XK K .XK .XK K .XK K K .XK .XK K .XK K K .XK .XK K .XK K K .XK .XK .XK K .XK K K K ",
"K K K ; ; K ; K K K K K K K K K K K K K K K K K K K K K K K K K K K K K K K K K K ; K l K l K l K l K l K l K l K l K l K l K l K l K l K l K l K l K l K l K l K l K l K l K ; ; K K K K K K K K K K K K K K K K K K K K K K K K K K K K K K K K K K K K K K K K K K K K K K K K K K K K K K K K K K K K K K K K K K K K K K K K K K K K .Xz c.,.,.,.,.gX,.,.,.,.,.,.,.,.,.,.,.,.,.,.,.,.,.,.,.,.,.,.,.,.,.,.,.,.,.,.,.,.,.,.,.,.,.,.,.,.,.,.,.,.,.,.f ,.,.(.7.& 0.0., 0.0.0.0.0.0.0.0.0.0.0.0.0.0.0.0.0.0.0.0.0.0.0.0.0.0.0.0.0.0.0.0.0.0.0.0.0.0.0.0.0.0.0.0.0.0., T T 0.& 7._.(.,.,.,.,.,.f ,.,.f ,.,.f ,.,.,.,.,.,.,.,.,.,.,.,.,.,.,.,.,.,.,.,.,.,.,.,.,.,.,.,.,.,.,.,.,.,.,.,.,.,.,.,.,.,.,.,.f ,.,.,.1 c.h z 5..X.XK K K K K K K K .X.X5.5.5.K.c.N ,.,.,.,.gX,.,.,.,.,.,.,.,.,.,.,.,.,.,.,.,.gX(.8.& 0.0.0.0.T 0.0.0.0.0.0.0.0.0.0.0.0.0.0.0.0.0.0.0.0.0.0.0., , & , 0.& 8.(.,.,.,.,.,.,.,.,.,.,.,.,.,.,.,.,.,.,.,.,.,.,.,.,.N q..XK K K K K K K K ; ; K l K l K l K l K l K l K l K l K l K l K l K l K l K l K l K l K l K l K l K l K l K l K ; K K ; ",
"; ; ; ; ; ; ; ; ; ; ; ; ; ; ; ; ; ; ; ; ; ; ; ; ; ; ; ; ; ; ; ; ; ; ; ; ; ; ; ; ; ; ; ; ; ; ; ; ; ; ; ; ; ; ; ; ; ; ; ; ; ; ; ; ; ; ; ; ; ; ; ; ; ; ; ; ; ; ; ; ; ; ; ; ; ; ; ; ; ; ; ; ; ; ; ; ; ; ; ; ; ; ; ; ; ; ; ; ; ; ; ; ; ; ; ; ; ; ; ; ; ; ; ; ; ; ; ; ; ; ; ; ; ; ; ; ; ; ; ; ; ; ; ; ; ; ; ; ; ; ; ; ; ; ; ; ; ; ; ; ; K K K ; .X3 X.N N ,.,.,.,.,.,.,.,.,.,.,.,.,.,.,.,.,.,.,.,.,.,.,.,.,.,.,.,.,.,.,.,.,.,.,.,.,.,.,.,.,.,.,.,.,.,.,.,.,.,.gX,.O.& 0.0.0.0.0.0.0.0.0.0.0.0.0.0.0.0.0.0.0.0.0.0.0.0.0.0.0.0.0.0.0.0.0.0.0.& & & & & & & & & & & 0.0.0.0.0.& 0.& 8._.(.,.,.,.,.f ,.,.,.,.,.,.f ,.,.,.N f c.c.N ,.,.f ,.,.,.,.,.,.,.,.,.,.,.,.,.,.,.,.,.,.,.,.,.,.,.,.,.,.,.,.,.,.,.,.,.,.,.,.,.f K.Q 5..X.X.XK K K K K K K K ; K K .X.X.X.Xz > ,.,.,.,.,.,.,.,.,.,.,.,.,.,.,.,.,.f ,.,.,.,.(.O.7.* * 0.& 0.0.0.0.0.0.0.& & & & & & & 0.0.0.0.0.0.0.0.0.0.0.0.& * 7.8.(.,.,.,.,.,.,.,.,.,.,.,.,.,.,.,.,.,.,.,.,.,.,.,.N ,.N z .X; K K K K ; ; ; ; ; l ; ; ; ; ; ; ; ; ; ; ; ; ; ; ; ; ; ; ; ; ; ; ; ; ; ; ; ; ; ; ; ; ; ; ; ; ; ; ; ; ; ; ; ; ; ; ; ; ",
"; ; ; ; ; ; ; ; ; ; ; ; ; ; ; ; ; ; ; ; ; ; ; ; ; ; ; ; ; ; ; ; ; ; ; ; ; ; ; ; ; ; ; ; ; ; ; ; ; ; ; ; ; ; ; ; ; ; ; ; ; ; ; ; ; ; ; ; ; ; ; ; ; ; ; ; ; ; ; ; ; ; ; ; ; ; ; ; ; ; ; ; ; ; ; ; ; ; ; ; ; ; ; ; ; ; ; ; ; ; ; ; ; ; ; ; ; ; ; ; ; ; ; ; ; ; ; ; ; ; ; ; ; ; ; ; ; ; ; ; ; ; ; ; ; ; ; ; ; ; ; ; ; ; ; ; ; ; ; ; ; K K ; K ; ; 5.> N ,.,.,.f ,.,.,.,.,.,.,.,.,.,.,.,.,.,.,.,.,.,.,.,.,.,.,.,.,.,.,.,.,.,.,.,.,.,.,.,.,.,.,.,.,.,.,.,.,.,.,.,._.& 0.0.0.0.0.0.0.0.0.0.0.0.0.0.0.0.0.0.0.0.0.0.0.0.0.0.0.0.0.0.0.0.0.0.0.& & & & & & & & & & & 0.0.0.0.& & x 8.(.,.,.,.,.,.,.,.,.,.,.,.,.,.,.gX,.f K.K.z z K.> N ,.,.,.,.,.,.,.,.,.,.,.,.,.,.,.,.,.,.,.,.,.,.,.,.,.,.,.,.,.,.,.,.,.,.,.,.,.N K..X.X.XK K K K ; ; K ; ; K K K ; ; K K K .X.X5.c.N ,.,.,.f ,.,.,.,.,.,.,.,.,.,.,.,.,.,.,.,.gX(.O.8.7.7.0.0.& 0.0.0.0.0.& & & & & & 0.0.0.0.0.0.0.0.0.0.0.0.* * 7._.(.,.,.,.,.,.,.,.,.,.,.,.,.,.,.,.,.,.,.,.,.,.,.,.,.,.,.f Q .XK K K K K ; ; ; ; ; ; ; ; ; ; ; ; ; ; ; ; ; ; ; ; ; ; ; ; ; ; ; ; ; ; ; ; ; ; ; ; ; ; ; ; ; ; ; ; ; ; ; ; ; ; ; ; ; ; ",
"K K K K K K K K K K K K K K K K K K K K K K K K K K K K K K K K K K K K K K K K K K K K K K K K K K K K K K K K K K K K K K K K K K K K K K K K K K K K K K K K K K K K K K K K K K K K K K K K K K K K K K K K K K K K K K K K K K K K K K K K K K K K K K K K K K K K K K K K K K K K K K K K K K K K K K K K K K K K K K K K K K ; ; K ; K .X5.> N ,.,.,.,.,.,.,.,.,.,.,.,.,.,.,.,.,.,.,.,.,.,.,.,.,.,.,.,.,.,.,.,.,.,.,.,.,.,.,.,.,.,.,.,.,.,.,.,.,.,.gXO.& 0.0.0.0.0.0.0.0.0.0.0.0.0.0.0.0.0.0.0.0.0.0.0.0.0.0.0.0.0.0.& 0.0.0.0.0.0.0.0.0.0.0.0.0.0.0.0.& & 7.7.8.O.(.,.gX,.,.,.,.f ,.f ,.,.,.f ,.,.,.N h 5..X.X.X.Xz f ,.f ,.,.,.,.,.,.,.,.,.,.,.,.,.,.,.,.,.,.,.,.,.,.,.,.,.,.,.,.,.,.,.,.,.,.,.c.5..XK ; K K ; ; ; ; ; ; K K K K K K K K K ; K .Xz c.,.,.,.,.,.,.,.,.,.,.,.,.,.,.,.,.,.,.gX,.,.,.,.(.(.O.8.7.7.7.& & & & 0.0.0.0.0.0.0.0.0.0.0.0.0.0.0.0.0.& & 8.(.,.,.N ,.,.,.,.,.,.,.,.,.,.,.,.,.,.,.,.,.,.,.,.,.,.,.,.,.c.5..XK K ; K K K K K K K K K K K K K K K K K K K K K K K K K K K K K K K K K K K K K K K K K K K K K K K K K K K K K K K K ",
"K K K K K K K K K K K K K K K K K K K K K K K K K K K K K K K K K K K K K K K K K K K K K K K K K K K K K K K K K K K K K K K K K K K K K K K K K K K K K K K K K K K K K K K K K K K K K K K K K K K K K K K K K K K K K K K K K K K K K K K K K K K K K K K K K K K K K K K K K K K K K K K K K K K K K K K K K K K K K K K K K ; ; ; ; K K K .X5.f ,.,.,.,.,.,.,.,.,.,.,.,.,.,.,.,.,.,.,.,.,.,.,.,.,.,.,.,.,.,.,.,.,.,.,.,.,.,.,.,.,.,.,.,.,.,.,.,.,.,.,.(.g * 0.& & 0.0.0.0.0.0.0.0.0.0.0.0.0.0.0.0.0.0.0.0.& 0.0.0.0.0.0.0.0.0.& & 0.& , 0.& * & & & & 7.x 8._.(.(.,.,.,.,.,.,.,.,.,.,.,.,.,.,.,.,.1 1 > 5.; ; K K .XK.1 ,.,.,.,.,.,.,.,.,.,.,.,.,.,.,.,.,.,.,.,.,.,.,.,.,.,.,.,.,.,.,.,.,.,.,.,.f q.l .X; ; K ; K K ; ; ; ; K ; ; K K l ; ; ; K ; K 3 h N ,.,.,.,.,.,.,.,.,.,.,.,.,.,.,.,.,.,.,.,.,.,.,.,.1 7 (.(._._.8.8.7.7.& 0.& 0.0.0.0.0.0.0.0.0.& & & 7.8._.(.,.,.,.,.,.,.,.,.,.,.,.,.,.,.,.,.,.,.,.,.,.,.,.,.,.,.,.,.,.6 l K ; ; ; ; ; ; K K K K K K K K K K K K K K K K K K K K K K K K K K K K K K K K K K K K K K K K K K K K K K K K K K K K K ",
"; ; ; ; ; ; ; ; ; ; ; ; ; ; ; ; ; ; ; ; ; ; ; ; ; ; ; ; ; ; ; ; ; ; ; ; ; ; ; ; ; ; ; ; ; ; ; ; ; ; ; ; ; ; ; ; ; ; ; ; ; ; ; ; ; ; ; ; ; ; ; ; ; ; ; ; ; ; ; ; ; ; ; ; ; ; ; ; ; ; ; ; ; ; ; ; ; ; ; ; ; ; ; ; ; ; ; ; ; ; ; ; ; ; ; ; ; ; ; ; ; ; ; ; ; ; ; ; ; ; ; ; ; ; ; ; ; ; ; ; ; ; ; ; ; ; ; ; ; ; ; ; ; ; ; ; ; ; ; ; ; ; ; ; ; K ; l .XK.N ,.,.1 ,.1 1 1 1 1 1 1 1 1 1 1 1 1 1 1 1 1 1 1 1 1 1 1 1 1 1 1 1 1 1 1 1 1 1 1 1 1 1 1 1 1 1 ,.,.,.1 ,.(.g & 0.& 0.0.0.0.0.0.0.0.0.0.0.0.0.0.0.0.& 0.0.0.0.0.0.0.0.0.0.0.0., 7.x 8._._.8.8.8.8.8.8.8._.O.(.(.,.,.,.,.,.,.,.,.,.1 ,.,.,.,.,.,.,.,.,.1 6 5..X; K ; K 3 K.1 ,.,.1 1 1 1 1 1 1 1 1 1 1 1 1 1 1 1 1 1 1 1 1 1 1 1 1 1 1 1 1 ,.1 ,.,.1 K.5..X; l K K ; K ; ; ; ; ; ; ; ; ; ; ; ; ; ; ; K l .XK.N ,.,.,.1 ,.1 1 1 ,.,.,.,.7 ,.7 ,.,.,.,.,.,.,.7 ,.,.,.,.,.,.7 (.(.(.O._.8.8.x x g 7.7.& & & & g g 8._.(.,.,.7 1 ,.1 1 1 1 1 1 1 1 1 1 1 1 1 1 1 1 1 1 1 1 ,.,.,.,.,.N X.l K K ; ; ; ; ; ; ; ; ; ; ; ; ; ; ; ; ; ; ; ; ; ; ; ; ; ; ; ; ; ; ; ; ; ; ; ; ; ; ; ; ; ; ; ; ; ; ; ; ; ; ; ; ; ; ; ; ; ; ",
"; ; ; ; ; ; ; ; ; ; ; ; ; ; ; ; ; ; ; ; ; ; ; ; ; ; ; ; ; ; ; ; ; ; ; ; ; ; ; ; ; ; ; ; ; ; ; ; ; ; ; ; ; ; ; ; ; ; ; ; ; ; ; ; ; ; ; ; ; ; ; ; ; ; ; ; ; ; ; ; ; ; ; ; ; ; ; ; ; ; ; ; ; ; ; ; ; ; ; ; ; ; ; ; ; ; ; ; ; ; ; ; ; ; ; ; ; ; ; ; ; ; ; ; ; ; ; ; ; ; ; ; ; ; ; ; ; ; ; ; ; ; ; ; ; ; ; ; ; ; ; ; ; ; ; ; ; ; ; ; ; ; ; ; ; ; ; .X5.> ,.7 1 ,.,.,.,.,.,.,.,.,.,.,.,.,.,.,.,.,.,.,.,.,.,.,.,.,.,.,.,.,.,.,.,.,.,.,.,.,.,.,.,.,.,.,.,.,.,.,.1 ,.(.7.* 0.& 0.0.0.0.0.0.0.0.0.0.0.0.0.0.0.0.0.0.0.0.0.0.0.0.0.0.& 7._._.O.(.(.,.,.(.(.(.(.(.(.(.,.,.,.,.,.,.,.,.,.,.,.,.,.,.,.,.,.,.,.,.1 1 N > 5..Xl l ; K K 5.K.,.,.,.,.,.,.,.,.,.,.,.,.,.,.,.,.,.,.,.,.,.,.,.,.,.,.,.,.,.,.,.,.,.,.,.,.N K..XK l ; l ; ; ; ; ; ; ; ; ; ; ; ; ; ; ; ; ; ; ; ; .Xz c.1 ,.,.,.,.,.,.,.,.,.,.,.,.,.,.,.,.,.,.,.,.,.,.,.,.,.,.,.,.,.,.,.,.,.,.(.(.(.(.(.O.O.O._._._._.(.(.,.,.,.1 1 ,.,.,.,.,.,.,.,.,.,.,.,.,.,.,.,.,.,.,.,.,.,.,.,.,.,.,.: K..X; ; ; ; ; ; ; ; ; ; ; ; ; ; ; ; ; ; ; ; ; ; ; ; ; ; ; ; ; ; ; ; ; ; ; ; ; ; ; ; ; ; ; ; ; ; ; ; ; ; ; ; ; ; ; ; ; ; ; ; ",
"; ; ; ; ; ; ; ; ; ; ; ; ; ; ; ; ; ; ; ; ; ; ; ; ; ; ; ; ; ; ; ; ; ; ; ; ; ; ; ; ; ; ; ; ; ; ; ; ; ; ; ; ; ; ; ; ; ; ; ; ; ; ; ; ; ; ; ; ; ; ; ; ; ; ; ; ; ; ; ; ; ; ; ; ; ; ; ; ; ; ; ; ; ; ; ; ; ; ; ; ; ; ; ; ; ; ; ; ; ; ; ; ; ; ; ; ; ; ; ; ; ; ; ; ; ; ; ; ; ; ; ; ; ; ; ; ; ; ; ; ; ; ; ; ; ; ; ; ; ; ; ; ; ; ; ; ; ; ; ; ; ; ; ; ; ; ; K z : ,.,.,.,.,.,.1 1 1 1 1 1 1 1 1 1 1 1 1 1 1 1 1 1 1 1 1 1 1 1 1 1 1 1 1 1 1 1 1 1 1 1 1 1 1 1 1 1 1 ,.1 ,.(.8.* 0.& 0.0.0.0.0.0.0.0.0.0.0.0.0.0.0.0.0.0.0.0.0.0.0.& & 8._.(.7 (.,.7 ,.,.,.,.,.,.,.,.,.,.,.,.,.,.1 ,.,.1 1 ,.,.,.1 1 1 1 ,.1 ,.,.1 c.K.5.; l l ; ; ; K 5.6 7 ,.1 1 1 1 1 1 1 1 1 1 1 1 1 1 1 1 1 1 1 1 1 1 1 1 1 1 1 1 1 ,.1 ,.,.7 c.5..X; ; ; l ; ; ; ; ; ; ; ; ; ; ; ; ; ; ; ; ; ; ; ; .X5.c.1 ,.,.1 ,.1 1 1 ,.,.,.,.7 ,.7 ,.,.,.,.,.,.,.7 ,.1 7 7 7 7 7 1 ,.1 ,.,.,.,.,.,.,.,.,.,.,.,.,.,.,.7 7 7 7 7 ,.,.,.,.1 1 1 1 1 1 1 1 1 1 1 1 1 1 1 1 1 1 1 ,.1 ,.,.1 c.5..X; ; K ; ; ; ; ; ; ; ; ; ; ; ; ; ; ; ; ; ; ; ; ; ; ; ; ; ; ; ; ; ; ; ; ; ; ; ; ; ; ; ; ; ; ; ; ; ; ; ; ; ; ; ; ; ; ; ; ; ",
"l l l l l l l l l l l l l l l l l l l l l l l l l l l l l l l l l l l l l l l l l l l l l l l l l l l l l l l l l l l l l l l l l l l l l l l l l l l l l l l l l l l l l l l l l l l l l l l l l l l l l l l l l l l l l l l l l l l l l l l l l l l l l l l l l l l l l l l l l l l l l l l l l l l l l l l l l l l l l l l l ; l l ; ; ; .X5.6 1 7 ,.,.,.7 7 7 7 7 7 7 7 7 7 7 7 7 7 7 7 7 7 7 7 7 7 7 7 7 7 7 7 7 7 7 7 7 7 7 7 7 7 7 7 7 7 7 7 7 7 7 ,.(.8.* 0.& 0.0.0.0.0.0.0.0.0.0.0.0.0.0.0.0.0.0.0.& & 0., 8.O.(.7 ,.1 ,.1 7 7 7 1 7 7 7 7 7 7 7 7 7 7 1 ,.,.7 ,.7 7 1 ,.7 ,.,.7 7 1 W c.K.5..Xl ; ; ; ; K ; .XQ c.7 ,.7 7 7 7 7 7 7 7 7 7 7 7 7 7 7 7 7 7 7 7 7 7 7 7 7 7 7 7 1 1 1 7 %X7 > 5..X; ; ; ; ; ; ; l l l l l l l l l l l l l l ; ; ; K 3 h 7 7 ,.7 7 7 7 7 7 7 7 7 7 7 7 7 7 7 7 7 7 7 7 7 7 7 7 7 7 7 ,.,.7 7 7 7 7 ,.7 7 7 7 7 7 ,.7 ,.7 7 1 7 ,.7 7 7 7 7 7 7 7 7 7 7 7 7 7 7 7 7 7 7 7 7 7 7 7 7 7 ,.,.7 h .X.Xl ; l l ; ; l l l l l l l l l l l l l l l l l l l l l l l l l l l l l l l l l l l l l l l l l l l l l l l l l l l l l l ",
"l l l l l l l l l l l l l l l l l l l l l l l l l l l l l l l l l l l l l l l l l l l l l l l l l l l l l l l l l l l l l l l l l l l l l l l l l l l l l l l l l l l l l l l l l l l l l l l l l l l l l l l l l l l l l l l l l l l l l l l l l l l l l l l l l l l l l l l l l l l l l l l l l l l l l l l l l l l l l l ; l l ; ; ; l l .X5.N 7 7 1 7 7 7 7 7 7 7 7 7 7 7 7 7 7 7 7 7 7 7 7 7 7 7 7 7 7 7 7 7 7 7 7 7 7 7 7 7 7 7 7 7 7 7 7 7 7 7 7 ,.7 (.8.0.0.0.0.0.0.0.0.0.0.0.0.0.0.0.0.0.0.0.0.0.0.0.* & _.(.,.,.7 1 ,.,.7 7 7 7 7 7 7 7 7 7 7 ,.1 7 7 7 7 7 ,.7 7 ,.,.,.,.7 7 c.K.K.K.5.5..X.X; ; ; .Xl l l .Xz : 5 ,.7 7 7 7 7 7 7 7 7 7 7 7 7 7 7 7 7 7 7 7 7 7 7 7 7 7 ,.7 ,.,.,.,.%X: z .X; l ; ; ; l l l l l l l l l l l l l l l l l ; K l .Xl X.1 7 7 7 7 7 7 7 7 7 7 7 7 7 7 7 7 7 7 7 7 7 7 7 7 7 7 7 7 7 7 7 7 7 7 7 7 7 7 ,.7 ,.(.,.7 7 7 7 7 7 7 7 7 7 7 7 7 7 7 7 7 7 7 7 7 7 7 7 7 7 7 7 7 7 7 7 7 ,.,.7 N z .X; ; ; ; l l l l l l l l l l l l l l l l l l l l l l l l l l l l l l l l l l l l l l l l l l l l l l l l l l l l l l l l l ",
"l l l l l l l l l l l l l l l l l l l l l l l l l l l l l l l l l l l l l l l l l l l l l l l l l l l l l l l l l l l l l l l l l l l l l l l l l l l l l l l l l l l l l l l l l l l l l l l l l l l l l l l l l l l l l l l l l l l l l l l l l l l l l l l l l l l l l l l l l l l l l l l l l l l l l l l l l l l l l l l l .X; l l b ; 5.h 1 7 7 1 7 7 7 7 7 7 7 7 7 7 7 7 7 7 7 7 7 7 7 7 7 7 7 7 7 7 7 7 7 7 7 7 7 7 7 7 7 7 7 7 7 7 7 7 7 7 7 7 ,.,.(.8.& 0.0.0.0.0.0.& & & & & 0.& & & & & & 0.0.& & 7._.(.,.7 ,.7 7 ,.,.7 7 7 7 7 7 7 7 7 7 7 7 7 7 7 7 7 7 7 7 7 ,.,.,.,.7 : K.5.3 3 .Xl l l l l l l l .X; .X5.6 7 7 7 ,.7 7 7 7 7 7 7 7 7 7 7 7 7 7 7 7 7 7 7 7 7 7 7 7 7 ,.,.,.7 7 : K.5.l l l ; l l l l l l l l l l l l l l l l l l l l .Xl ; .Xz N 7 7 7 7 7 7 7 7 7 7 7 7 7 7 7 7 7 7 7 7 7 7 7 7 7 7 7 7 7 7 7 7 7 7 7 7 7 7 7 7 7 7 7 7 7 7 7 7 7 7 7 7 7 7 7 7 7 7 7 7 7 7 7 7 7 7 7 7 7 7 7 7 7 7 7 7 ,.7 w 6 5.l l l l l l l l l l l l l l l l l l l l l l l l l l l l l l l l l l l l l l l l l l l l l l l l l l l l l l l l l l l l l l ",
"l l l l l l l l l l l l l l l l l l l l l l l l l l l l l l l l l l l l l l l l l l l l l l l l l l l l l l l l l l l l l l l l l l l l l l l l l l l l l l l l l l l l l l l l l l l l l l l l l l l l l l l l l l l l l l l l l l l l l l l l l l l l l l l l l l l l l l l l l l l l l l l l l l l l l l l l l l l l l l l l l l ; 3 ; 3 5.: 7 ,.,.7 7 7 7 7 7 7 7 7 7 7 7 7 7 7 7 7 7 7 7 7 7 7 7 7 7 7 7 7 7 7 7 7 7 7 7 7 7 7 7 7 7 7 7 7 7 7 7 7 ,.,.O.8.* 0.0.0.0.& 0.0.0.0.0.& 0.& 0.0.0.0.0.0.0.& 8._.(.,.,.7 ,.,.,.7 ,.,.7 7 7 7 7 7 7 7 7 7 7 ,.,.,.7 7 7 7 7 7 ,.,.,.7 1 K.5.; ; l l l l ; l l l l l l l ; 3 z c.7 7 7 ,.7 7 7 7 7 7 7 7 7 7 7 7 7 7 7 7 7 7 7 7 7 7 7 7 7 7 1 1 c.K.5.l l l l l l l l l l l l l l l l l l l l l l l l l l l ; ; 5.r 7 7 ,.7 7 7 7 7 7 7 7 7 7 7 7 7 7 7 7 7 7 7 7 7 7 7 7 7 7 7 7 7 7 7 7 7 7 7 7 7 7 7 7 7 7 7 7 7 7 7 7 7 7 7 7 7 7 7 7 7 7 7 7 7 7 7 7 7 7 7 7 7 7 7 ,.7 ,.7 : z 3 l l l l l l l l l l l l l l l l l l l l l l l l l l l l l l l l l l l l l l l l l l l l l l l l l l l l l l l l l l l l l l ",
"l l l l l l l l l l l l l l l l l l l l l l l l l l l l l l l l l l l l l l l l l l l l l l l l l l l l l l l l l l l l l l l l l l l l l l l l l l l l l l l l l l l l l l l l l l l l l l l l l l l l l l l l l l l l l l l l l l l l l l l l l l l l l l l l l l l l l l l l l l l l l l l l l l l l l l l l l l l l l l l l l l 3 .Xl b 5.N 7 7 7 7 7 7 7 7 7 7 7 7 7 7 7 7 7 7 7 7 7 7 7 7 7 7 7 7 7 7 7 7 7 7 7 7 7 7 7 7 7 7 7 7 7 7 7 7 7 7 7 7 7 7 (._.& 0.0.0.0.& 0.0.0.0.0.& & 0.0.0.0.& & 0.7.8.O.(.7 ,.7 ,.(.,.7 ,.7 7 ,.7 ,.,.7 7 7 7 ,.7 ,.7 7 ,.7 ,.7 7 7 7 ,.7 7 1 > 5..Xl l ; 3 l l l 3 l l l l l 3 l ; 5.z 6 : 7 7 7 7 ,.7 7 7 7 7 7 7 7 7 7 7 7 7 7 7 7 7 7 7 7 ,.N N 6 K.Q 3 3 l l l l l l l l l l l l l l l l l l l l l l l l l l l b ; 5.> 7 7 7 7 7 7 7 7 7 7 7 7 7 7 7 7 7 7 7 7 7 7 7 7 7 7 7 7 7 7 7 7 7 7 7 7 7 7 7 7 7 7 7 7 7 7 7 7 7 7 7 7 7 7 7 7 7 7 7 7 7 7 7 7 7 7 7 7 7 7 7 7 7 7 7 7 7 1 K.5.; 3 l l l l l l l l l l l l l l l l l l l l l l l l l l l l l l l l l l l l l l l l l l l l l l l l l l l l l l l l l l l l l ",
"3 3 3 3 3 3 3 3 3 3 3 3 3 3 3 3 3 3 3 3 3 3 3 3 3 3 3 3 3 3 3 3 3 3 3 3 3 3 3 3 3 3 3 3 3 3 3 3 3 3 3 3 3 3 3 3 3 3 3 3 3 3 3 3 3 3 3 3 3 3 3 3 3 3 3 3 3 3 3 3 3 3 3 3 3 3 3 3 3 3 3 3 3 3 3 3 3 3 3 3 3 3 3 3 3 3 3 3 3 3 3 3 3 3 3 3 3 3 3 3 3 3 3 3 3 3 3 3 3 3 3 3 3 3 3 3 3 3 3 3 3 3 3 3 3 3 3 3 3 3 3 3 3 3 3 3 3 3 3 3 3 3 3 3 ; 3 Q N 7 ,.,.,.7 7 7 7 7 7 7 7 7 7 7 7 7 7 7 7 7 7 7 7 7 7 7 7 7 7 7 7 7 7 7 7 7 7 7 7 7 7 7 7 7 7 7 7 7 7 ,.,.7 7 ,.(._.& 0.0.0.0.& & & & & 0.0.0.0.& & & 7.8._.(.7 ,.,.7 ,.7 ,.7 7 7 ,.7 7 7 7 7 7 7 7 7 7 7 7 ,.7 7 7 7 7 ,.7 ,.7 ,.,.6 5.3 l l 3 3 3 l 3 l l l l l l l 3 3 l 3 3 5.K.c.1 7 7 7 ,.,.,.7 7 7 7 7 7 7 ,.7 7 7 7 5 7 1 N c.h K.Q 5.3 l ; l .Xl l 3 3 l 3 3 3 3 3 3 3 3 l 3 l l l l 3 l l l l l l l .XQ c.7 7 7 7 7 7 7 7 7 7 7 7 7 7 7 7 7 7 7 7 7 7 7 7 7 7 7 7 7 7 7 7 7 7 7 7 7 7 7 7 7 7 7 7 7 7 7 7 7 7 7 7 7 7 7 7 7 7 7 7 7 7 7 7 7 7 7 7 7 ,.7 7 7 7 7 7 1 > 5.3 b l l 3 3 3 3 3 3 3 3 3 3 3 3 3 3 3 3 3 3 3 3 3 3 3 3 3 3 3 3 3 3 3 3 3 3 3 3 3 3 3 3 3 3 3 3 3 3 3 3 3 3 3 3 3 3 3 3 3 3 3 3 ",
"b b b b b b b b b b b b b b b b b b b b b b b b b b b b b b b b b b b b b b b b b b b b b b b b b b b b b b b b b b b b b b b b b b b b b b b b b b b b b b b b b b b b b b b b b b b b b b b b b b b b b b b b b b b b b b b b b b b b b b b b b b b b b b b b b b b b b b b b b b b b b b b b b b b b b b b b b b b b b b b b 3 3 3 3 l 3 z 1 7 ,.7 ,.7 ,.,.,.7 7 7 7 7 7 7 7 7 7 7 7 7 7 7 7 7 7 7 7 7 7 7 7 7 7 7 7 7 7 7 7 7 7 7 7 7 7 7 7 ,.,.7 ,.7 7 7 ,.(._.7.7.& & 0.0.0.0.0.0.0.0.0.7.7.8._.(.,.,.7 7 ,.(.,.7 7 7 7 7 7 7 7 7 7 7 7 7 7 7 7 7 7 7 7 7 7 7 7 7 7 7 ,.7 N K.l 3 3 3 b b b 3 3 3 l l l 3 l l b 3 3 3 l l .X5.X.c.1 1 7 ,.7 7 7 7 7 7 7 ,.,.7 7 1 1 N > K.K.5.5.l l l l b l 3 l l 3 3 b 3 b b b b b b b b 3 b l l l b b b l l 3 3 3 3 5.K.1 7 7 7 7 7 7 7 7 7 7 7 7 7 7 7 7 7 7 7 7 7 7 7 7 7 7 7 7 7 7 7 7 7 7 7 7 7 7 7 7 7 7 7 7 7 7 7 7 ,.,.7 7 ,.7 7 7 7 7 7 7 7 7 7 7 ,.7 7 ,.,.,.7 ,.,.,.,.1 c.5..Xb b 3 3 b 3 b b b b b b b b b b b b b b b b b b b b b b b b b b b b b b b b b b b b b b b b b b b b b b b b b b b b b b b b b b ",
"3 3 3 3 3 3 3 3 3 3 3 3 3 3 3 3 3 3 3 3 3 3 3 3 3 3 3 3 3 3 3 3 3 3 3 3 3 3 3 3 3 3 3 3 3 3 3 3 3 3 3 3 3 3 3 3 3 3 3 3 3 3 3 3 3 3 3 3 3 3 3 3 3 3 3 3 3 3 3 3 3 3 3 3 3 3 3 3 3 3 3 3 3 3 3 3 3 3 3 3 3 3 3 3 3 3 3 3 3 3 3 3 3 3 3 3 3 3 3 3 3 3 3 3 3 3 3 3 3 3 3 3 3 3 3 3 3 3 3 3 3 3 3 3 3 3 3 3 3 3 3 3 3 3 3 3 3 3 3 3 l l 3 3 l b Q 1 7 7 ,.7 ,.7 7 7 7 7 7 7 7 7 7 7 7 7 7 7 7 7 7 7 7 7 7 7 7 7 7 7 7 7 7 7 7 7 7 7 7 7 7 7 7 7 ,.7 7 7 ,.7 ,.,.7 ,.(.,.(.O._.8.8.7.7.7.7.x 8.8._._.(.(.,.,.,.7 ,.,.7 ,.,.7 ,.7 ,.7 ,.7 7 ,.7 7 7 7 7 7 7 7 7 7 7 7 ,.7 7 7 7 ,.,.7 c.z .Xb 3 b 3 3 3 3 3 3 3 3 l 3 l 3 3 3 3 3 l b 3 3 3 5.K.h c.: 1 7 5 7 7 7 1 1 N c.6 K.K.5.5.3 l l l 3 3 3 3 3 l b l 3 3 3 3 3 3 3 3 3 3 3 3 3 b 3 3 b b b b b l 3 l 3 5.5.K.r ,.,.,.7 ,.7 7 7 7 7 7 7 7 7 7 7 7 7 7 7 7 7 7 7 7 7 7 7 7 7 7 7 7 7 7 7 7 7 7 7 7 7 7 7 7 7 7 7 7 7 ,.,.,.,.,.7 ,.7 7 7 7 7 7 7 7 7 ,.,.7 7 ,.,.e 7 7 W 6 5.3 b b 3 3 3 b 3 3 3 3 3 3 3 3 3 3 3 3 3 3 3 3 3 3 3 3 3 3 3 3 3 3 3 3 3 3 3 3 3 3 3 3 3 3 3 3 3 3 3 3 3 3 3 3 3 3 3 3 3 3 3 3 3 3 3 ",
"b b b b b b b b b b b b b b b b b b b b b b b b b b b b b b b b b b b b b b b b b b b b b b b b b b b b b b b b b b b b b b b b b b b b b b b b b b b b b b b b b b b b b b b b b b b b b b b b b b b b b b b b b b b b b b b b b b b b b b b b b b b b b b b b b b b b b b b b b b b b b b b b b b b b b b b b b b b b b b b b 3 b 3 3 l 3 z 1 7 ,.,.(.,.7 ,.7 7 7 7 7 7 7 7 7 7 7 7 7 7 7 7 7 7 7 7 7 7 7 7 7 7 7 7 7 7 7 7 7 7 7 7 7 7 7 7 ,.7 ,.7 ,.7 ,.7 ,.,.,.,.,.,.(.(.(.(.(.(.(.(.(.7 (.,.,.(.7 7 ,.(.,.7 ,.7 7 ,.7 7 7 7 7 7 7 7 7 7 7 7 7 7 7 7 7 7 7 7 7 7 7 7 ,.7 7 1 X.b 3 3 3 b b b b b b b b b b b b b 3 3 3 3 3 b b b b 3 5.5.z K.K.X.K.K.X.X.K.Q 5.5.3 3 3 3 l b b b b 3 l 3 l b l b b b b 3 3 b b b 3 3 3 3 b b 3 b b b 3 .X.X5.5.Q z X.c.N 1 ,.7 7 7 7 7 7 7 7 7 7 7 7 7 7 7 7 7 7 7 7 7 7 7 7 7 7 7 7 7 7 7 7 7 7 7 7 7 7 7 7 7 7 7 7 7 7 7 7 ,.,.7 7 7 7 7 7 7 7 7 7 7 7 7 7 7 ,.7 ,.7 7 7 7 w c.K.5.3 3 b 3 3 3 3 3 3 b b b b b b b b b b b b b b b b b b b b b b b b b b b b b b b b b b b b b b b b b b b b b b b b b b b b b b b b b b ",
"3 3 3 3 3 3 3 3 3 3 3 3 3 3 3 3 3 3 3 3 3 3 3 3 3 3 3 3 3 3 3 3 3 3 3 3 3 3 3 3 3 3 3 3 3 3 3 3 3 3 3 3 3 3 3 3 3 3 3 3 3 3 3 3 3 3 3 3 3 3 3 3 3 3 3 3 3 3 3 3 3 3 3 3 3 3 3 3 3 3 3 3 3 3 3 3 3 3 3 3 3 3 3 3 3 3 3 3 3 3 3 3 3 3 3 3 3 3 3 3 3 3 3 3 3 3 3 3 3 3 3 3 3 3 3 3 3 3 3 3 3 3 3 3 3 3 3 3 3 3 3 3 3 3 3 3 3 3 3 3 3 ; 3 3 ; 3 Q N ,.,.7 ,.,.,.7 7 7 7 7 7 7 7 7 7 7 7 7 7 7 7 7 7 7 7 7 7 7 7 7 7 7 7 7 7 7 7 7 7 7 7 7 7 ,.7 ,.7 7 7 ,.(.,.(.7 7 ,.,.7 ,.,.,.,.,.,.,.,.,.,.,.7 ,.,.7 ,.,.,.,.7 7 ,.e ,.7 7 7 7 7 7 ,.7 7 7 7 7 7 7 7 7 7 7 ,.7 ,.7 7 7 7 7 ,.,.7 7 6 5.3 b 3 b 3 3 3 3 3 3 3 3 3 3 3 3 3 b l 3 3 3 3 3 b b 3 3 .X3 b b 5.b 3 3 b b b l 3 l b 3 l l 3 3 3 3 3 .X3 l 3 3 3 3 3 b b 3 3 3 b b b b 3 3 l 3 3 5.5.5.K.> c.N 1 7 ,.7 7 ,.,.7 7 7 7 7 7 7 7 7 7 7 7 7 7 7 7 7 7 7 7 7 7 7 7 7 7 7 7 7 7 7 7 7 7 7 7 7 7 7 7 7 7 7 7 7 7 ,.,.7 7 ,.r > 6 > > > N N 1 1 7 5 5 7 7 5 1 1 1 f K.5.5.b 3 l 3 3 3 3 3 3 3 3 3 3 3 3 3 3 3 3 3 3 3 3 3 3 3 3 3 3 3 3 3 3 3 3 3 3 3 3 3 3 3 3 3 3 3 3 3 3 3 3 3 3 3 3 3 3 3 3 3 3 3 3 3 3 3 3 3 ",
"3 3 3 3 3 3 3 3 3 3 3 3 3 3 3 3 3 3 3 3 3 3 3 3 3 3 3 3 3 3 3 3 3 3 3 3 3 3 3 3 3 3 3 3 3 3 3 3 3 3 3 3 3 3 3 3 3 3 3 3 3 3 3 3 3 3 3 3 3 3 3 3 3 3 3 3 3 3 3 3 3 3 3 3 3 3 3 3 3 3 3 3 3 3 3 3 3 3 3 3 3 3 3 3 3 3 3 3 3 3 3 3 3 3 3 3 3 3 3 3 3 3 3 3 3 3 3 3 3 3 3 3 3 3 3 3 3 3 3 3 3 3 3 3 3 3 3 3 3 3 3 3 3 3 3 3 3 3 3 3 3 3 3 3 3 b 5.X.1 ,.7 7 7 7 ,.,.7 ,.7 ,.7 ,.7 ,.7 ,.7 ,.7 ,.7 ,.7 ,.7 ,.7 ,.7 ,.7 ,.7 ,.7 ,.7 ,.7 ,.7 ,.7 7 ,.7 ,.7 ,.7 ,.,.,.,.7 ,.7 7 7 7 7 7 7 7 7 7 7 7 ,.7 (.,.7 7 (.,.7 ,.e ,.7 ,.(.,.,.7 ,.(.,.,.7 ,.7 ,.7 ,.7 ,.7 ,.7 7 ,.7 ,.,.7 ,.,.7 7 c.z 3 3 3 b 3 3 3 3 3 3 3 3 3 3 3 3 3 3 3 3 3 3 l 3 b 3 3 3 3 3 3 3 3 3 3 3 3 3 3 b 3 b b 3 3 3 3 3 3 3 3 3 3 3 3 3 3 3 3 3 3 3 3 3 b 3 .X3 5.5.Q z K.c.c.N N ,.7 7 7 7 ,.,.7 ,.(.,.,.7 ,.7 ,.7 ,.7 ,.7 ,.7 ,.7 ,.7 ,.7 ,.7 ,.7 ,.7 ,.7 ,.7 ,.7 ,.7 ,.7 ,.7 ,.7 ,.7 ,.7 ,.7 ,.,.7 ,.,.r 5.5.5.5.5.5.5.Q K.K.K.6 K.> > h X.K.Q 5.5.b 3 b 3 3 l 3 3 3 3 3 3 3 3 3 3 3 3 3 3 3 3 3 3 3 3 3 3 3 3 3 3 3 3 3 3 3 3 3 3 3 3 3 3 3 3 3 3 3 3 3 3 3 3 3 3 3 3 3 3 3 3 3 3 3 3 3 3 3 3 ",
"3 3 3 3 3 3 3 3 3 3 3 3 3 3 3 3 3 3 3 3 3 3 3 3 3 3 3 3 3 3 3 3 3 3 3 3 3 3 3 3 3 3 3 3 3 3 3 3 3 3 3 3 3 3 3 3 3 3 3 3 3 3 3 3 3 3 3 3 3 3 3 3 3 3 3 3 3 3 3 3 3 3 3 3 3 3 3 3 3 3 3 3 3 3 3 3 3 3 3 3 3 3 3 3 3 3 3 3 3 3 3 3 3 3 3 3 3 3 3 3 3 3 3 3 3 3 3 3 3 3 3 3 3 3 3 3 3 3 3 3 3 3 3 3 3 3 3 3 3 3 3 3 3 3 3 3 3 3 3 3 3 3 3 3 3 b 3 5.6 1 7 (.,.,.(.7 7 7 7 7 7 7 7 7 7 7 7 7 7 7 7 7 7 7 7 7 7 7 7 7 7 7 7 7 7 7 7 7 7 7 7 7 7 7 7 e ,.e 7 7 7 7 e 7 (.7 7 7 7 7 7 7 7 7 7 7 7 7 7 7 7 7 7 7 ,.e ,.e ,.7 7 7 7 ,.(.7 7 7 7 7 7 e ,.e ,.e ,.e ,.(.7 7 7 7 e ,.(.,.7 ,.7 f K.3 3 3 b 3 3 3 3 3 3 3 3 3 3 3 3 3 3 3 3 3 3 3 3 b 3 3 b b b b 3 b 3 3 3 3 3 ; b b b 3 3 3 3 3 3 3 3 3 3 3 3 3 3 3 3 b 3 3 3 5.5.5.5.z K.h 6 c.N 1 1 7 ,.,.7 ,.,.7 7 7 7 7 7 7 7 7 7 7 7 7 7 7 7 7 7 7 7 7 7 7 7 7 7 7 7 7 7 7 7 7 7 7 7 7 7 7 7 7 7 7 7 7 7 7 7 7 e ,.e ,.7 7 ,.7 gX5.3 .X3 .X3 3 5.3 5.5.5.5.5.5.5.5.5.5.3 b 3 b b b b 3 3 b 3 3 3 3 3 3 3 3 3 3 3 3 3 3 3 3 3 3 3 3 3 3 3 3 3 3 3 3 3 3 3 3 3 3 3 3 3 3 3 3 3 3 3 3 3 3 3 3 3 3 3 3 3 3 3 3 3 3 3 3 3 3 ",
"3 3 3 3 3 3 3 3 3 3 3 3 3 3 3 3 3 3 3 3 3 3 3 3 3 3 3 3 3 3 3 3 3 3 3 3 3 3 3 3 3 3 3 3 3 3 3 3 3 3 3 3 3 3 3 3 3 3 3 3 3 3 3 3 3 3 3 3 3 3 3 3 3 3 3 3 3 3 3 3 3 3 3 3 3 3 3 3 3 3 3 3 3 3 3 3 3 3 3 3 3 3 3 3 3 3 3 3 3 3 3 3 3 3 3 3 3 3 3 3 3 3 3 3 3 3 3 3 3 3 3 3 3 3 3 3 3 3 3 3 3 3 3 3 3 3 3 3 3 3 3 3 3 3 3 3 3 3 3 3 3 3 3 b b b b 5.5.> ,.7 ,.7 ,.,.e 7 e 7 7 (.,.e ,.(.7 7 ,.(.,.e ,.(.,.e ,.(.,.e ,.(.,.e ,.(.,.e ,.(.,.e ,.(.,.7 7 ,.e ,.e ,.7 ,.7 ,.e ,.7 (.,.7 (.,.7 (.,.e ,.7 7 7 ,.e ,.e ,.e ,.e ,.e ,.e ,.7 7 7 7 7 ,.e ,.e ,.e ,.e ,.7 ,.e ,.e ,.7 7 ,.e ,.7 1 K.3 3 3 3 3 3 3 3 3 3 3 3 3 3 3 3 3 3 3 3 3 3 3 3 b 3 3 3 b b b b b b 3 3 3 3 b b 3 b 3 3 3 3 3 3 3 3 3 3 3 b 3 3 b b b 5.5.z K.h > f N 1 7 7 7 7 7 7 7 7 7 7 7 7 7 7 7 7 7 7 ,.e ,.e ,.e ,.(.,.e ,.(.,.e ,.(.,.e ,.(.,.e ,.(.,.e ,.(.,.e ,.(.,.e ,.(.,.e ,.(.,.7 7 ,.e ,.7 (.,.7 ,.f 5.b b b b b 3 3 3 b .Xb 3 b b .Xb 3 3 b b b b b b b 3 3 b 3 3 3 3 3 3 3 3 3 3 3 3 3 3 3 3 3 3 3 3 3 3 3 3 3 3 3 3 3 3 3 3 3 3 3 3 3 3 3 3 3 3 3 3 3 3 3 3 3 3 3 3 3 3 3 3 3 3 3 3 3 3 ",
"3 3 3 3 3 3 3 3 3 3 3 3 3 3 3 3 3 3 3 3 3 3 3 3 3 3 3 3 3 3 3 3 3 3 3 3 3 3 3 3 3 3 3 3 3 3 3 3 3 3 3 3 3 3 3 3 3 3 3 3 3 3 3 3 3 3 3 3 3 3 3 3 3 3 3 3 3 3 3 3 3 3 3 3 3 3 3 3 3 3 3 3 3 3 3 3 3 3 3 3 3 3 3 3 3 3 3 3 3 3 3 3 3 3 3 3 3 3 3 3 3 3 3 3 3 3 3 3 3 3 3 3 3 3 3 3 3 3 3 3 3 3 3 3 3 3 3 3 3 3 3 3 3 3 3 3 3 3 3 3 b 3 3 b b b 3 3 5.Q c.1 7 7 7 7 7 7 7 e 7 ,.e ,.e 7 7 7 e 7 7 7 7 7 7 7 7 7 7 7 7 7 7 7 7 7 7 7 7 7 7 7 7 7 7 e 7 e 7 7 7 e 7 e 7 e ,.e 7 7 7 7 7 7 e ,.e ,.e 7 7 e 7 e 7 7 e 7 7 7 e 7 7 7 e 7 7 7 7 7 e ,.e 7 7 7 e 7 7 e 7 e 7 7 7 7 7 7 7 7 %X1 h 5.3 3 3 3 b 3 3 3 3 3 3 3 3 3 3 3 3 3 3 b 3 3 3 b b 3 b b b b b b b b b b b b b b b b 3 3 3 b 3 3 3 3 3 3 b b b b 5.Q K.6 N 1 7 7 7 5 5 5 7 (.7 7 7 ,.7 7 7 7 ,.e ,.e 7 7 7 e 7 e ,.e 7 7 7 7 7 7 7 7 7 7 7 7 7 7 7 7 7 7 7 7 7 7 7 7 7 7 7 7 7 7 7 7 7 7 7 7 e 7 e 7 e ,.7 ,.(.7 r 5.b b b b b b b b b b b b b b b b b b b b b b b b b b b b 3 3 3 3 3 3 3 3 3 3 3 3 3 3 3 3 3 3 3 3 3 3 3 3 3 3 3 3 3 3 3 3 3 3 3 3 3 3 3 3 3 3 3 3 3 3 3 3 3 3 3 3 3 3 3 3 3 3 3 3 3 3 ",
"b b b b b b b b b b b b b b b b b b b b b b b b b b b b b b b b b b b b b b b b b b b b b b b b b b b b b b b b b b b b b b b b b b b b b b b b b b b b b b b b b b b b b b b b b b b b b b b b b b b b b b b b b b b b b b b b b b b b b b b b b b b b b b b b b b b b b b b b b b b b b b b b b b b b b b b b b b b b b b b b b b b b b b 5.b 3 3 Q h 1 7 7 7 e ,.(.,.7 e 7 7 7 7 7 e 7 e 7 e 7 e 7 e 7 e 7 e 7 e 7 e 7 e 7 e 7 e 7 e 7 e 7 7 e 7 7 e 7 7 e 7 7 e 7 e 7 e 7 e 7 7 7 e 7 e 7 e 7 7 e 7 7 e 7 7 e 7 7 e 7 7 7 e 7 e 7 e 7 e 7 e 7 e 7 7 e 7 7 7 e 7 e 7 (.,.7 (.7 7 h 5.3 b 3 b b b b b b b b b b b b b b b b b b 3 b b b b b b b b b b b b q q q b b b b b b b b b b b b 3 3 3 b b b 5.z c.1 7 7 e 7 7 e 7 5 5 5 5 7 7 7 e 7 7 (.7 e 7 e 7 e 7 e ,.e 7 e 7 e 7 e 7 e 7 e 7 e 7 e 7 e 7 e 7 e 7 e 7 e 7 e 7 e 7 e 7 e 7 e 7 e 7 e 7 7 7 7 7 e 7 e ,.,.7 f Q 3 b b b b b 5.b b b b b b b b b 5.b 5.b b 5.b q b b b b b b 3 b b b b b b b b b b b b b b b b b b b b b b b b b b b b b b b b b b b b b b b b b b b b b b b b b b b b b b b b b b b ",
"b b b b b b b b b b b b b b b b b b b b b b b b b b b b b b b b b b b b b b b b b b b b b b b b b b b b b b b b b b b b b b b b b b b b b b b b b b b b b b b b b b b b b b b b b b b b b b b b b b b b b b b b b b b b b b b b b b b b b b b b b b b b b b b b b b b b b b b b b b b b b b b b b b b b b b b b b b b b b b b b b b b b b 3 b 3 b b 5.5.X.c.7 7 7 (.,.e 7 e ,.7 e ,.(.7 7 7 7 7 7 7 7 7 7 7 7 7 7 7 7 7 7 7 7 7 7 7 7 7 7 7 7 7 7 7 7 7 7 7 7 7 7 7 7 7 7 7 7 7 7 e 7 7 7 7 7 7 7 7 7 7 7 7 7 7 7 7 7 7 7 e 7 7 7 7 7 7 7 7 7 7 7 7 7 7 7 7 e 7 7 7 7 7 ,.7 7 ,.%X1 X.5.b b b b b b b b b b b b b b b b b b 3 3 b 3 b b b b b b b b b b b q b b b b b b b b b b b b b b b b b 5.b 5..XK.c.5 7 7 7 7 7 7 5 5 5 5 5 5 5 7 5 5 5 7 7 7 7 e ,.e ,.e ,.e 7 7 7 7 7 7 7 7 7 7 7 7 7 7 7 7 7 7 7 7 7 7 7 7 7 7 7 7 7 7 7 7 7 7 7 7 7 7 7 7 7 7 e 7 7 7 ,.(.7 5 ,.> 5.3 3 b 5.b b b 5.b 5.b 5.b 5.b b b b b q b b b b b b b b b b b b b b b b b b b b b b b b b b b b b b b b b b b b b b b b b b b b b b b b b b b b b b b b b b b b b b b b b b b b b ",
"b b b b b b b b b b b b b b b b b b b b b b b b b b b b b b b b b b b b b b b b b b b b b b b b b b b b b b b b b b b b b b b b b b b b b b b b b b b b b b b b b b b b b b b b b b b b b b b b b b b b b b b b b b b b b b b b b b b b b b b b b b b b b b b b b b b b b b b b b b b b b b b b b b b b b b b b b b b b b b b b b b b b b 3 b 3 3 q b b 5.z 6 : 7 7 (.,.(.,.(.,.(.,.,.7 7 7 7 e e 7 (.7 e e e 7 (.7 e e e 7 (.7 e e e 7 (.7 e e (.7 e (.7 e e 7 (.7 e e 7 (.7 e 7 e 7 e e 7 (.7 (.7 e (.7 e e e 7 (.7 e 7 e 7 (.7 e (.7 e 7 (.7 e e 7 (.7 e 7 (.7 e e ,.(.7 7 (.7 1 X.b b b b b b b b b b b b b b b b b b b 3 3 3 3 3 b b 3 b b b b b b b b b b b b b b b b b b b b b b b b b b q b z c.7 7 7 5 5 5 5 5 7 7 7 7 7 7 7 5 7 7 7 7 5 e 7 7 e e 7 e e 7 e e 7 (.7 e e 7 (.7 e e e 7 (.7 e e 7 (.7 e e e 7 (.7 e e e 7 (.7 e e 7 (.7 e e (.7 e 7 (.7 7 ,.7 ,.5 : X.5.5.q b 3 b b b b b b b b b b M b q b b b b b b b b b b b b b b b b b b b b b b b b b b b b b b b b b b b b b b b b b b b b b b b b b b b b b b b b b b b b b b b b b b b b b b b ",
"q q q q q q q q q q q q q q q q q q q q q q q q q q q q q q q q q q q q q q q q q q q q q q q q q q q q q q q q q q q q q q q q q q q q q q q q q q q q q q q q q q q q q q q q q q q q q q q q q q q q q q q q q q q q q q q q q q q q q q q q q q q q q q q q q q q q q q q q q q q q q q q q q q q q q q q q q q q q q q q q q q q q q b q b b b q M b b 5.K.> N 1 7 7 (.7 7 7 7 (.7 7 (.7 7 7 7 7 e 7 7 7 7 7 e 7 7 7 7 7 e 7 7 7 7 7 e 7 7 7 7 7 7 7 7 7 7 7 e 7 7 7 7 e 7 7 7 (.7 7 7 7 7 7 7 7 7 7 7 7 7 e 7 7 7 (.7 7 7 7 7 7 7 e 7 7 7 7 7 7 7 e 7 7 7 7 7 7 7 7 7 7 ,.7 c.z b q b q q q q q q q q q q q q q b b b b 3 b 3 b b b b b q q q q q q q q q q q q q q q q q q q q q q b q b b 5.K.1 e 7 7 7 7 7 7 7 5 5 5 5 5 5 5 7 5 5 5 5 7 7 7 (.7 7 7 7 7 (.7 7 7 7 7 7 7 7 7 e 7 7 7 7 7 e 7 7 7 7 e 7 7 7 7 7 e 7 7 7 7 7 e 7 7 7 7 e 7 7 7 7 7 7 7 7 7 (.,.7 7 5 : K.5.b b b q b q b 5.b 5.b 5.b q b q b 5.b q q q q q q q q q q q q q q q q q q q q q q q q q q q q q q q q q q q q q q q q q q q q q q q q q q q q q q q q q q q q q q q q q q q q ",
"q q q q q q q q q q q q q q q q q q q q q q q q q q q q q q q q q q q q q q q q q q q q q q q q q q q q q q q q q q q q q q q q q q q q q q q q q q q q q q q q q q q q q q q q q q q q q q q q q q q q q q q q q q q q q q q q q q q q q q q q q q q q q q q q q q q q q q q q q q q q q q q q q q q q q q q q q q q q q q q q q q q q q b q b b b b b q q q 5.5.z K.> c.1 7 5 7 7 7 5 7 7 5 7 7 5 7 5 5 7 5 7 e 7 7 (.7 e 7 7 (.7 e 7 7 7 7 (.7 e 7 e 7 (.7 e 7 7 (.7 e 7 7 (.7 7 7 7 (.7 e 7 e 7 e 7 (.7 7 (.7 7 e 7 7 7 e 7 e 7 e 7 7 (.7 e 7 (.7 7 7 e 7 7 e 7 e 5 7 7 7 7 7 c.5.b q q q q q q q q q q q q q q q q q b b 3 b 3 b q q b q q q q q q q q q q q q q q q q q q q q q q q q q q 3 5.h 7 e 7 5 7 5 5 5 5 5 5 5 5 5 5 5 5 5 5 5 5 7 e 7 5 7 (.5 7 7 7 7 (.7 e 7 (.7 e 7 7 (.7 e 7 7 7 (.7 e 7 7 (.7 e 7 7 7 (.7 e 7 7 7 (.7 e 7 7 7 (.7 e 7 (.7 7 7 ,.(.,.(.,.7 c.5.b q q q q q q q q q q q q q q q q q q q q q q q q q q q q q q q q q q q q q q q q q q q q q q q q q q q q q q q q q q q q q q q q q q q q q q q q q q q q q q q q q q q q q q ",
"q q q q q q q q q q q q q q q q q q q q q q q q q q q q q q q q q q q q q q q q q q q q q q q q q q q q q q q q q q q q q q q q q q q q q q q q q q q q q q q q q q q q q q q q q q q q q q q q q q q q q q q q q q q q q q q q q q q q q q q q q q q q q q q q q q q q q q q q q q q q q q q q q q q q q q q q q q q q q q q q q q q q q q q q b q q q q q b q q M 5.5.Q z K.K.K.K.h 1 7 7 7 5 e e 5 7 e e 7 e 7 e e 7 e 7 e e 7 e 7 e e e e e 7 e e 7 e 5 e 7 e e 7 e 7 e e e e e e e e 5 e e 7 e e e e e e 7 5 e 7 e e e 7 e e (.7 e e e e 7 e e e e (.7 e e e 7 7 7 7 7 5 5 1 K.5.q q q q q q q q q q q q q q q q q q q q q q q q q q q q q q q q q q q q q q q q q q q q q q q q q q q q q 5.5.c.5 e 7 5 e e e e e e e e e e e e e e e 7 e e 5 e e e e e e e e e e e e e e e 7 e e 7 e 7 e e e 7 e 7 e e 7 e 7 e e e 7 e 7 e e e 7 e 7 e e e 7 e 5 e 7 e 7 e e 7 7 5 7 7 W K.5.q q b q q 5.q 5.q 5.q 5.q M q q q q q q q q q q q q q q q q q q q q q q q q q q q q q q q q q q q q q q q q q q q q q q q q q q q q q q q q q q q q q q q q q q q q q q q q ",
"M M M M M M M M M M M M M M M M M M M M M M M M M M M M M M M M M M M M M M M M M M M M M M M M M M M M M M M M M M M M M M M M M M M M M M M M M M M M M M M M M M M M M M M M M M M M M M M M M M M M M M M M M M M M M M M M M M M M M M M M M M M M M M M M M M M M M M M M M M M M M M M M M M M M M M M M M M M M M M M M M M M M M M M M M M q M M q q q q q 5.M M M M M 5.5.5.K.c.7 e e e e e e e e e e e e e e e e e e e e e e e e e e e e e e e e e e e e e e e e e e e e e e e e e e e e e e e e e e e e e e e e e e e e e e e e e e e e e e e e e e e 7 7 e 7 7 e 5 c.5.b q 5.M M M M M M M M M M M M M M M M M M M M M M M M M M M M M M M M M M M M M M M M M M M M M M M M M M q 5.K.1 5 7 e e e e e e e e e e e e e e e e e e e e e e e e e e e e e e e e e e e e e e e e e e e e e e e e e e e e e e e e e e e e e e e e e e e e e e e e e e 7 e 7 5 5 5 5 7 7 K.5.b q M 5.q M M q M q M q M M M M M M M M M M M M M M M M M M M M M M M M M M M M M M M M M M M M M M M M M M M M M M M M M M M M M M M M M M M M M M M M M M M M M M M M M M ",
"q q q q q q q q q q q q q q q q q q q q q q q q q q q q q q q q q q q q q q q q q q q q q q q q q q q q q q q q q q q q q q q q q q q q q q q q q q q q q q q q q q q q q q q q q q q q q q q q q q q q q q q q q q q q q q q q q q q q q q q q q q q q q q q q q q q q q q q q q q q q q q q q q q q q q q q q q q q q q q q q q q q q q q q q M q q q q q q q q M M M M M q q 5.5.5.5.z 6 1 5 e e e e e 7 e e e e e e e e e e 5 e e e e e e e e e e e e e e e e e e e e e e e e e e e e e e e e e e e e e e e e e e e e e e e e e e e e e e e e e e e e e e e 7 e e e 7 5 e N K.5.q q M q q q q q q q q q q q q q q q q q q q q q q q q q q q q q q q q q q q q q q q q q q q q q q q q b M q 5.6 7 e e e e e e e e e e e e e e e e e e e e e e e e e e e e e e e e e e e e e e e e e e e e e e e 5 e e e 5 e e e %Xe e e %Xe e e e e e e e e e e e e e e e e e e e e e e e 5 c.5.5.q M M q q 5.q 5.q 5.q 5.q q q q q q q q q q q q q q q q q q q q q q q q q q q q q q q q q q q q q q q q q q q q q q q q q q q q q q q q q q q q q q q q q q q q q q q q q ",
"q q q q q q q q q q q q q q q q q q q q q q q q q q q q q q q q q q q q q q q q q q q q q q q q q q q q q q q q q q q q q q q q q q q q q q q q q q q q q q q q q q q q q q q q q q q q q q q q q q q q q q q q q q q q q q q q q q q q q q q q q q q q q q q q q q q q q q q q q q q q q q q q q q q q q q q q q q q q q q q q q q q q q q q q q q q q q q q M q M q M M M M M 5.M M q 5.Q K.c.7 5 e e e e e 7 e e (.7 e e e (.e e e 7 e e e e e e e e e e e e e e e e e e e e e e e e e e e e e e e e e e e e e e e e e e e e e e e e e e e e e e e e e e e e e e e e 7 5 N K.5.b 5.5.M 5.q q q q q q q q q q q q q q q q q q q q q q q q q q q q q q q q q q q q q q q q q q q q q q q q M b 5.c.5 e e e e e e e e e e e e e e e e e e e e e e e e e e e e e e e e e e e e e e e e e e e e e e e e e e e e e e e e e e e e e e e e e e e e e e e e e e e e e e e e e e e e 5 1 K.5.M M M q q q q q q q q q q q q q q q q q q q q q q q q q q q q q q q q q q q q q q q q q q q q q q q q q q q q q q q q q q q q q q q q q q q q q q q q q q q q q q q q q q ",
"q q q q q q q q q q q q q q q q q q q q q q q q q q q q q q q q q q q q q q q q q q q q q q q q q q q q q q q q q q q q q q q q q q q q q q q q q q q q q q q q q q q q q q q q q q q q q q q q q q q q q q q q q q q q q q q q q q q q q q q q q q q q q q q q q q q q q q q q q q q q q q q q q q q q q q q q q q q q q q q q q q q q q q q q q q M M M M M M M M q M M M M 5.M M M M 5.5.5.z c.7 e e 7 e 7 (.7 e e e e e 7 e 7 e e e e e e e e e e e e e e e e e e e e e e e e e e e e e e e e e e e e e e e e e e e e e e e e e e e e e e e e e e e e e 7 e 7 e 7 e 5 ,.K.5.5.q b 5.M M q q q q q q q q q q q q q q q q q q q q q q q q q q q q q q q q q q q q q q q q q q q q q q q M M q 5.c.7 e e e e e e e e e e e e e e e e e e e e e e e e e e e e e e e e e e e e e e e e e e e e e e e e e e e e e e e e e e e e e e e e e e e e e e e e e e e e e 7 e 7 (.7 e (.(.5 > 5.5.M M q q M q M M q M q q q q q q q q q q q q q q q q q q q q q q q q q q q q q q q q q q q q q q q q q q q q q q q q q q q q q q q q q q q q q q q q q q q q q q q q q q ",
"M M M M M M M M M M M M M M M M M M M M M M M M M M M M M M M M M M M M M M M M M M M M M M M M M M M M M M M M M M M M M M M M M M M M M M M M M M M M M M M M M M M M M M M M M M M M M M M M M M M M M M M M M M M M M M M M M M M M M M M M M M M M M M M M M M M M M M M M M M M M M M M M M M M M M M M M M M M M M M M M M M M M M M M M M M M M M M M M M M M M 5.b 5.5.M M M 5.M M b 5.K.N 5 e 7 e e 7 e e e e e e e e e e e e e e e e e e e e e e e e e e e e e e e e e e e e e e e e e e e e e e e e e e e e e e e e e e e e e e e e e e e e e e e 7 e e e 5 : K.5.5.5.5.5.5.M M M M M M M M M M M M M M M M M M M M M M M M M M M M M M M M M M M M M M M M M M M M M M M M M 5.5.M 5.> 7 e 7 e 7 e e e e e e e e e e e e e e e e e e e e e e e e e e e e e e e e e e e e e e e e e e e e e e e e e e e e e e e e e e e e e e e e e e e e e e e e e e 7 (.7 7 e 7 (.5 c.Q 5.5.5.M M M M 5.q 5.q M M M M M M M M M M M M M M M M M M M M M M M M M M M M M M M M M M M M M M M M M M M M M M M M M M M M M M M M M M M M M M M M M M M M M M M M M M ",
"5.5.5.5.5.5.5.5.5.5.5.5.5.5.5.5.5.5.5.5.5.5.5.5.5.5.5.5.5.5.5.5.5.5.5.5.5.5.5.5.5.5.5.5.5.5.5.5.5.5.5.5.5.5.5.5.5.5.5.5.5.5.5.5.5.5.5.5.5.5.5.5.5.5.5.5.5.5.5.5.5.5.5.5.5.5.5.5.5.5.5.5.5.5.5.5.5.5.5.5.5.5.5.5.5.5.5.5.5.5.5.5.5.5.5.5.5.5.5.5.5.5.5.5.5.5.5.5.5.5.5.5.5.5.5.5.5.5.5.5.5.5.5.5.5.5.5.5.5.5.5.5.5.5.5.5.5.5.5.5.5.5.5.5.5.5.5.5.5.5.5.5.5.5.5.5.5.5.5.5.5.5.5.5.5.5.5.5.5.5.5.5.5.> 5 e (.e 7 e (.7 e e e e e 7 (.7 e e e e e e e e e e e e e e e e e e e e e e e e e e e e e e e e e e e e e e e e e e e e e e 7 (.e e e e e e e e e e 7 (.7 e e 5 1 c.K.Q 5.5.5.M M M 5.5.5.5.5.5.5.5.5.5.5.5.5.5.5.5.5.5.5.5.5.5.5.5.5.5.5.5.5.5.5.5.5.5.5.5.5.5.5.5.5.5.5.5.5.5.5.5.5.5.5.M 5.> 7 e 7 e e e e e e e e e e e e e e e e e e e e e e e e e e e e e e e e e e e e e e e e e e e e e e e e e e e e e e e e e e e e e e e e e e e e e e e e e e 7 e e 7 5 e e e (.5 6 Q 5.5.5.5.5.5.5.5.5.5.5.5.5.5.5.5.5.5.5.5.5.5.5.5.5.5.5.5.5.5.5.5.5.5.5.5.5.5.5.5.5.5.5.5.5.5.5.5.5.5.5.5.5.5.5.5.5.5.5.5.5.5.5.5.5.5.5.5.5.5.5.5.5.5.5.5.5.5.5.5.5.5.5.5.5.",
"M M M M M M M M M M M M M M M M M M M M M M M M M M M M M M M M M M M M M M M M M M M M M M M M M M M M M M M M M M M M M M M M M M M M M M M M M M M M M M M M M M M M M M M M M M M M M M M M M M M M M M M M M M M M M M M M M M M M M M M M M M M M M M M M M M M M M M M M M M M M M M M M M M M M M M M M M M M M M M M M M M M M M M M M M M M M M M M M M M M M M M M M M M M M M 5.5.5.5.K.1 e e e (.7 e e (.7 e e e (.7 e e e e e e e e e e e e e e e e e e e e e e e e e e e e e e e e e e e e e e e e e e e e e e (.e e 7 5 5 5 7 5 e e e e (.(.e e 7 N K.5.5.Q M 5.M M M M M M M M M M M M M M M M M M M M M M M M M M M M M M M M M M M M M M M M M M M M M M M M M M M M M M 5.M 5.> 7 e e e e 7 e e e e e e e e e e e e e e e e e e e e e e e e e e e e e e e e e e e e e e e e e e e e e e e e e e e e e e e e e e e e e e e e e e e e e e e e e e e e e e e 5 : K.5.5.5.M M M M M M M M M M M M M M M M M M M M M M M M M M M M M M M M M M M M M M M M M M M M M M M M M M M M M M M M M M M M M M M M M M M M M M M M M M M M M M M M M M M ",
"M M M M M M M M M M M M M M M M M M M M M M M M M M M M M M M M M M M M M M M M M M M M M M M M M M M M M M M M M M M M M M M M M M M M M M M M M M M M M M M M M M M M M M M M M M M M M M M M M M M M M M M M M M M M M M M M M M M M M M M M M M M M M M M M M M M M M M M M M M M M M M M M M M M M M M M M M M M M M M M M M M M M M M M M M M M M M M M M M M M M M M M M M M M M M M 5.M 5.Q 8 w 5 e e e e e 7 e e e 7 e e e e e e e e e e e e e e e e e e e e e e e e e e e e e e e e e e e e e e e e e e e e e e e e 5 5 1 c.6 > 6 > c.1 7 5 5 5 w : c.K.5.5.Q M M M M M M M M M M M M M M M M M M M M M M M M M M M M M M M M M M M M M M M M M M M M M M M M M M M M M M M M M M M M 5.6 5 e e e e e e e e e e e e e e e e e e e e e e e e e e e e e e e e e e e e e e e e e e e e e e e e e e e e e e e e e e e e e e e e e e e e e e e e e e e e e e e e e 5 5 5 W < 5.M M M M M M M M M M M M M M M M M M M M M M M M M M M M M M M M M M M M M M M M M M M M M M M M M M M M M M M M M M M M M M M M M M M M M M M M M M M M M M M M M M M M M M ",
"M M M M M M M M M M M M M M M M M M M M M M M M M M M M M M M M M M M M M M M M M M M M M M M M M M M M M M M M M M M M M M M M M M M M M M M M M M M M M M M M M M M M M M M M M M M M M M M M M M M M M M M M M M M M M M M M M M M M M M M M M M M M M M M M M M M M M M M M M M M M M M M M M M M M M M M M M M M M M M M M M M M M M M M M M M M M M M M M M M M M M M M M M M M M M M M M M Q z K.N 5 7 5 5 5 5 5 5 7 7 7 7 7 7 5 e e e e e e e e e e e e e e e e e e e e e e e e e e e e e e e e e e e e e e e e e 7 1 c.K.K.z 5.5.5.5.Q K.K.K.6 h K.z Q Q M Q M M M M M M M M M M M M M M M M M M M M M M M M M M M M M M M M M M M M M M M M M M M M M M M M M M M M M M M M M M M M M 5.c.5 e 7 e e e e e e e e e e e e e e e e e e e e e e e e e e e e e e e e e e e e e e e e e e e e e e e e e e e e e e e e e e e e e e e e e e e e e e e e e e e e e e 5 ,.gXK.K.5.M M M M M M M M M M M M M M M M M M M M M M M M M M M M M M M M M M M M M M M M M M M M M M M M M M M M M M M M M M M M M M M M M M M M M M M M M M M M M M M M M M M M M M M ",
"Q Q Q Q Q Q Q Q Q Q Q Q Q Q Q Q Q Q Q Q Q Q Q Q Q Q Q Q Q Q Q Q Q Q Q Q Q Q Q Q 5.Q 5.5.5.5.5.5.5.Q 5.Q Q Q Q Q Q Q Q Q 5.Q 5.5.5.5.5.5.Q 5.Q Q Q Q Q Q Q Q Q 5.Q 5.5.5.5.5.5.Q 5.5.Q Q Q Q Q Q Q Q 5.Q 5.5.5.5.5.5.5.Q 5.Q Q Q Q Q Q Q Q 5.Q 5.5.5.5.5.5.5.Q 5.Q Q Q 5.Q Q 5.5.5.5.5.5.5.5.5.5.5.Q 5.Q Q Q 5.Q Q Q 5.5.5.5.5.5.5.5.5.5.Q 5.Q Q Q Q 5.Q Q 5.5.5.5.5.5.5.5.5.5.5.Q 5.Q Q Q Q Q 5.5.5.5.5.z K.K.K.K.K.K.K.K.K.K.K.K.K.K.K.K.> f 1 5 e e e e e e e e e e e e e e e e e e e e e e e e e e e e e e e e e e (.e c.K.Q 5.5.Q Q Q Q Q 5.5.5.Q Q Q 5.5.5.5.Q Q Q Q Q Q Q Q 5.Q 5.5.5.5.5.Q 5.Q Q Q Q Q Q Q Q Q Q Q Q Q Q Q Q Q Q Q Q Q Q Q Q Q Q Q Q Q Q Q Q Q Q Q Q Q Q Q Q Q Q M M M 5.K.N 5 5 e e e e e e e e e e e e e e e e e e e e e e e e e e e e e e e e e e e e e e e e e e e e e e e e e e e e e e e e e e e e e e e e e e e e e e e e e e e e 5 5 7 > K.5.5.5.5.Q M M M M M M M M M M 5.5.5.5.5.5.Q 5.Q 5.5.5.5.5.5.5.Q 5.Q Q Q Q Q Q Q Q 5.Q 5.5.5.5.5.5.5.Q 5.Q Q Q 5.Q Q 5.5.5.5.5.5.Q 5.Q Q Q Q Q Q Q Q 5.Q Q 5.5.5.5.5.5.Q 5.Q Q Q Q Q Q ",
"Z Z Z Z Z Z Z Z Z Z Z Z Z Z Z Z Z Z Z Z Z Z Z Z Z Z Z Z Z Z Z Z Z Z Z Z Z Z Z Z Q Z Q Q 5.5.Q 5.Q Z Q Z Z Z Z Z Z Z Z Z Q Z Q 5.5.Q 5.Q Z Q Z Z Z Z Z Z Z Z Z Q Z Q 5.5.5.5.Q Z Q Q Z Z Z Z Z Z Z Z Q Z Q 5.5.5.5.Q Q Z Q Z Z Z Z Z Z Z Z Q Z Q Q 5.5.5.5.Q Z Q Z Z Z Q Q Q 5.5.Q Q Q Q Q Q 5.5.Q Z Q Z Z Z Q Q Z Q 5.5.Q Q Q Q Q 5.5.Q Z Q Z Z Z Z Q Q Q 5.5.Q Q Q Q Q 5.5.Q Q Z Q Z Z Z Q Q Q 5.5.Q 5.Q 5.5.5.5.5.Q 5.5.Q Q Q Q Q Q 5.5.Q z K.> N 7 5 e e e e e e e e e e e e e e e e e e e e e e e e e e e e e e e e 7 K.5.Q 5.5.Q Z Q Q Z Z Q 5.Q Q Q Q Q 5.5.Q Z Q Z Z Z Z Q Q Z Q 5.Q 5.Q Z Q Q Z Z Z Z Z Z Z Z Z Z Z Z Z Z Z Z Z Z Z Z Z Z Z Z Z Z Z Z Z Z Z Z Z Z Z Z Z Z Q Q Z Z Q Q z > 7 I e e e e e e e e e e e e e e e e e e e e e e e e e e e e e e e e e e e e e e e e e e e e e e e e e e e e e e e e e e e e e e e e e e e e e e e e e e e e I 5 N K.z 5.M 5.Q Q Q Q Q Q Q Q Q Q Q Q Q Q Q Q 5.5.Q Z Q Z Q 5.5.5.5.Q Q Z Q Z Z Z Z Z Z Z Z Q Z Q Q 5.5.5.5.Q Z Q Z Z Z Q Q Q 5.5.Q Q 5.Q Z Q Q Z Z Z Z Z Z Z Q Q Q Q Q 5.Q 5.Q Z Q Q Z Z Z Z Z ",
"Q Q Q Q Q Q Q Q Q Q Q Q Q Q Q Q Q Q Q Q Q Q Q Q Q Q Q Q Q Q Q Q Q Q Q Q Q Q Q Q Z Q Z Z Q Q Z Q Z Q Z Q Q Q Q Q Q Q Q Q Z Q Z Q Q Z Q Z Q Z Q Q Q Q Q Q Q Q Q Z Q Z Q Z Z Q Z Q Z Z Q Q Q Q Q Q Q Q Z Q Z Q Z Z Q Z Z Q Z Q Q Q Q Q Q Q Q Z Q Z Z Q Z Z Q Z Q Z Q Q Q Z Z Z Z Q Z Z Z Z Z Z Q Q Z Q Z Q Q Q Z Q Q Z Z Q Z Z Z Z Z Q Q Z Q Z Q Q Q Q Z Q Z Z Q Z Z Z Z Z Q Z Z Z Q Z Q Q Q Z Q Z Z Q Z Z Q Q Q Q Q Q Q 5.Q Q Q Q Q Q Q Q Q 5.5.Q Q K.K.c.1 7 e e %X%Xe e e e e e e e e e e e e e e e e e e e e e e %Xe 5 c.K.Q Z Q Q Z Q Z Z Q Q Z Q Z Z Z Z Z Z Q Z Q Z Q Q Q Q Z Z Q Z Q Z Q Z Q Z Z Q Q Q Q Q Q Q Q Q Q Q Q Q Q Q Q Q Q Q Q Q Q Q Q Q Q Q Q Q Q Q Q Q Q Q Q Q Q Q Q Z Z z X.c.7 7 e e e e e e e e e e e e e e e e e e e e e e e e e e e e e e e e e e e e e e e e e e e e e e e e e e e e e e e e e e e e e e e e e e e e e e e I e e e e e e 7 K.5.5.Q Q Q Q Q Q Z Z Z Z Z Z Z Z Z Z Z Z Z Z Q Z Q Q Q Z Q Z Z Q Z Z Q Z Q Q Q Q Q Q Q Q Z Q Z Z Q Z Z Q Z Q Z Q Q Q Z Z Q Z Q Z Z Q Z Q Z Z Q Q Q Q Q Q Q Z Q Z Z Z Q Z Q Z Q Z Q Q Q Q Q Q ",
"Q Q Q Q Q Q Q Q Q Q Q Q Q Q Q Q Q Q Q Q Q Q Q Q Q Q Q Q Q Q Q Q Q Q Q Q Q Q Q Z Z Q Z Z Z Z Z - Z Q Z Z Q Q Q Q Q Q Q Z Z Q Z Z Z Z - Z Q Z Z Q Q Q Q Q Q Q Z Z Q Z Z Z Z - Z Q Z Z Z Q Q Q Q Q Q Z Z Q Z - Z Z Z Z Z Q Z Z Q Q Q Q Q Q Z Z Q Z Z Z Z Z Z Z Q Z Z Q Q Z Q Q Z - Z Z - - - Z Z Z Z Q Z Z Q Q Z Q Q Q Z - Z - - - Z Z Z Z Q Z Z Q Q Q Z Q Q Z Z Z - - - Z Z Z Z Z Q Z Z Q Q Z Q Q Z Z Z Z z z Q Q Z Q Q Q Q Q Q Q Q Q Q Q z Q Q Q Q 5.K.K.K.c.1 5 5 5 e e e e e e e e e e e e e e e e e e e e e e e e e 7 6 Q Q Z Z Z Z Q Z Z Q Q Z - Z - - - Z Z Z Z Q Z Z Q Q Q Z Z Q Z - Z - Z Q Z Z Q Q Q Q Q Q Q Q Q Q Q Q Q Q Q Q Q Q Q Q Q Q Q Q Q Q Q Q Q Q Q Q Q Q Q Q Q Z Q Q Q Q K.: 5 e e e e (.e e e e e e e e e e e e e e e e e e e e e e e e e e e e e e e e e e e e e e e e e e e e e e e e e e e e e e e e e e e e e e e e e e e e e e e e e e e 7 r K.z Q Q Q Z Z Z Z Q Q Q Q Q Z Q Q Q Z Z Z Z Z Z Q Z Q Z Z Z Z Z Z Z Q Z Z Q Z Z Q Q Q Z Z Q Z Z Z Z Z - Z Q Z Z Q Q Z Q Q Z - Z Z - Z Q Z Z Q Q Q Q Q Q Q Z Q Q Z Z - Z - Z Q Z Z Q Q Q Q Q ",
"- - - - - - - - - - - - - - - - - - - - - - - - - - - - - - - - - - - - - - - - Z Z Z Z - - - - Z Z Z - - - - - - - - - Z Z Z - - - - Z Z Z - - - - - - - - - Z Z Z - - - - Z Z Z Z - - - - - - - - Z Z Z - - - - Z Z Z Z - - - - - - - - Z Z Z Z - - - - Z Z Z - - - - Z Z - - Z Z - - - - - - Z Z Z - - - - Z Z Z - - Z - - - - - - Z Z Z - - - - - Z Z - - Z - - - Z - - - Z Z Z - - - - Z Z - - Z Z z z z Q Q Q Q Q Q z Q Q Q Q Q Z Z Q Q Q Z Q Q Q Q K.6 w I e e e e I I e e I I I I I I I I e e e e I e e e e 5 c.K.Q Z Z Z Z - Z Z Z Z Z Z - Z - - - - - - Z Z Z - - - - - Z Z - - Z - - Z Z - - - - - - - - - - - - - - - - - - - - - - - - - - - - - - - - - - - - - - Z Z Z Z Q K.5 I I e e e e e e e e I I I I I I I I I I I I I I I I I I I I I I I I I I I I I I I I I I I I I I I I I I I I I I I I I I I I I I I I I I I I I I I I e e e e e e e e %X1 c.h K.Q Z Q Q z z z q.q.u q.q.z z z Q Q Z Z Z Q Z Q Q Z Z Z Z Z Z Q Z Z Z Z Z Z - - - Z Z Z Z - - - - Z Z Z - - - - Z Z - - Z Z - - Z Z - - - - - - - - - Z Z - - - Z - Z Z Z - - - - - - ",
"- - - - - - - - - - - - - - - - - - - - - - - - - - - - - - - - - - - - - - - - - - - - Z Z - Z - - - - - - - - - - - - - - - Z Z - Z - - - - - - - - - - - - - - - Z Z - Z - - - - - - - - - - - - - - - Z - Z Z - - - - - - - - - - - - - - - - Z - - Z - - - - - - - - - - Z - - Z Z Z - Z Z - - - - - - - - - - - Z - Z Z Z - Z Z - - - - - - - - - - - Z - Z Z Z - Z - - - - - - - - - - - Z Z - Z Z Z - Z Z Z Z - Z - Z Z Z Z Z Z Z Z Z Z Z Z Z Z Z Q K.: I I I e I I I e e I I I I I I I I e e e e I e I I 5 N X.z Q Q Z Z Z - - - - - - - Z - Z Z Z - - Z - - - - - - - - - - - Z - Z - - - - - - - - - - - - - - - - - - - - - - - - - - - - - - - - - - - - - - - - - Z Z Z Z Q K.7 e e e e e I I I e I I I I I I I I I I I I I I I I I I I I I I I I I I I I I I I I I I I I I I I I I I I I I I I I I I I I I I I I I I I I I I I I I I e I e e e e I I I 5 5 c.K.z K.K.6 c.c.c.: : : c.c.c.h K.z z Z Z Q Q Q Z Z Z Z Z Z Z Z Z Z Z Z Z Z - - - - - - - Z Z - Z - - - - - - - - - - Z - - Z - - - - - - - - - - - - - - - - Z - Z - - - - - - - - - ",
"Z Z Z Z Z Z Z Z Z Z Z Z Z Z Z Z Z Z Z Z Z Z Z Z Z Z Z Z Z Z Z Z Z Z Z Z Z Z Z Z Z Z Z Z - - Z - Z Z Z Z Z Z Z Z Z Z Z Z Z Z Z - - Z - Z Z Z Z Z Z Z Z Z Z Z Z Z Z Z - - - - Z Z Z Z Z Z Z Z Z Z Z Z Z Z Z - - - - Z Z Z Z Z Z Z Z Z Z Z Z Z Z Z Z - - - - Z Z Z Z Z Z Z Z Z - - Z Z - - - Z - - Z Z Z Z Z Z Z Z Z Z Z - Z - - - Z - - Z Z Z Z Z Z Z Z Z Z - - Z - - - Z - - Z Z Z Z Z Z Z Z Z Z - - Z - - Z Z Z - - Z Z Z Z Z Z Z Z Z - Z Z Z Z Z - Z Z Z Z z h w I e I I e e e e e e e e e e e e e e e e %XI %XI 1 K.z Q Q Q Z Q - Z Z Z Z Z Z Z - Z - - - - - - Z Z Z Z Z Z Z Z Z Z Z - Z - Z Z Z Z Z Z Z Z Z Z Z Z Z Z Z Z Z Z Z Z Z Z Z Z Z Z Z Z Z Z Z Z Z Z Z Z Z Z Z Z Z Z Z Z Q z K.5 e e e I I I I I I e e e e e e e e e e e e e e e e e e e e e e e e e e e e e e e e e e e e e e e e e e e e e e e e e e e e e e e e e e e e e e e e e I I e I I I e e e e I I 5 c.> c.W 5 I I I I I e I I 5 w : 6 K.K.z Q Q Q Z Z Z Z Z Q Q Q Q Q Q Z Q Q Z Z Z Z Z Z Z - - - - Z Z Z Z Z Z Z Z Z Z - Z Z - Z Z Z Z Z Z Z Z Z Z Z Z Z Z Z Z - Z - Z Z Z Z Z Z Z Z Z ",
"- - - - - - - - - - - - - - - - - - - - - - - - - - - - - - - - - - - - - - - - - - - - - - - - - - - - - - - - - - - - - - - - - - - - - - - - - - - - - - - - - - - - - - - - - - - - - - - - - - - - - - - - - - - - - - - - - - - - - - - - - - - - - - - - - - - - - - - - - - - - - - - - - - - - - - - - - - - - - - - - - - - - - - - - - - - - - - - - - - - - - - - - - - - - - - - - - - - - - - - - Z Z - - - - - Z - Z - Z Z Z Z Z Z Z Z Z Z Z Q K.6 5 I I e e I e e I I I I e I e e I e e I I 5 w c.K.z Q Q Q Q Z Z - - - - - - - - - - - - - - - - - - - - - - - - - - - - - - - - - - - - - - - - - - - - - - - - - - - - - - - - - - - - - - - - - - - - - - - Z Z Z Q z K.5 e I I e e e I I I I I I I I I I I I I I I I I I I I I I I I I I I I I I I I I I I I I I I I I I I I I I I I I I I I I I I I I I I I I I I I I I I I I I I I e e I e e I e e e 5 5 5 I I e e e I e e e I I I ( 5 w c.K.z Q z - Z Z Z Z Z Q Z Q Q Z Z Z Z Z Z - - - - - - - - - - - - - - - - - - - - - - - - - - - - - - - - - - - - - - - - - - - - - - - - - - - ",
"Z Z Z Z Z Z Z Z Z Z Z Z Z Z Z Z Z Z Z Z Z Z Z Z Z Z Z Z Z Z Z Z Z Z Z Z Z Z Z Z Z Z Z Z Z Z Z Z Z Z Z Z Z Z Z Z Z Z Z Z Z Z Z Z Z Z Z Z Z Z Z Z Z Z Z Z Z Z Z Z Z Z Z Z Z Z Z Z Z Z Z Z Z Z Z Z Z Z Z Z Z Z Z Z Z Z Z Z Z Z Z Z Z Z Z Z Z Z Z Z Z Z Z Z Z Z Z Z Z Z Z Z Z Z Z Z Z Z Z Z Z Z Z Z Z Z Z Z Z Z Z Z Z Z Z Z Z Z Z Z Z Z Z Z Z Z Z Z Z Z Z Z Z Z Z Z Z Z Z Z Z Z Z Z Z Z Z Z Z Z Z Z Z Z Z Z Z Z Z Z Z Z Z Z Z Z Z Z Z Z Z Z Z Z Z Z Z Z Z Q Z z z 5.z > 1 5 e e I e e e e e e I e e I I I I e 7 c.h K.Q Z Z Q Q Z Z Q Z Z Z Z Z Z Z Z Z Z Z Z Z Z Z Z Z Z Z Z Z Z Z Z Z Z Z Z Z Z Z Z Z Z Z Z Z Z Z Z Z Z Z Z Z Z Z Z Z Z Z Z Z Z Z Z Z Z Z Z Z Z Z Z Z Z Z Z Z Z Z Z Z Z Q Q K.5 e e e e I I I I I I I I I I I I I I I I I I I I I I I I I I I I I I I I I I I I I I I I I I I I I I I I I I I I I I I I I I I I I I I I I I I I I I I I I I I e e e e e e e I A I e (.e e %XI I I 5 %X5 5 e e e I I 5 c.K.z Q Z Z Z Z Q Z Q Z Z Z Z Z Z Z Z Z Z Z Z Z Z Z Z Z Z Z Z Z Z Z Z Z Z Z Z Z Z Z Z Z Z Z Z Z Z Z Z Z Z Z Z Z Z Z Z Z Z Z Z Z Z Z Z Z Z Z ",
"- - - - - - - - - - - - - - - - - - - - - - - - - - - - - - - - - - - - - - - - - - - - - - - - - - - - - - - - - - - - - - - - - - - - - - - - - - - - - - - - - - - - - - - - - - - - - - - - - - - - - - - - - - - - - - - - - - - - - - - - - - - - - - - - - - - - - - - - - - - - - - - - - - - - - - - - - - - - - - - - - - - - - - - - - - - - - - - - - - - - - - - - - - - - - - - - - - - - - - - - - - - - - - - - - - - - - - - - - - Z - Z z z Q Q 5.K.: 5 e I e e I I I I I 5 5 5 5 1 ,.c.K.z Q - - Q Q Z Z Q - Z - - - - - - - - - - - - - - - - - - - - - - - - - - - - - - - - - - - - - - - - - - - - - - - - - - - - - - - - - - - - - - - - - - - - - - - Z Z Z Z Q K.7 I e I I I I I I I I I I I I I I I I I I I I I I I I I I I I I I I I I I I I I I I I I I I I I I I I I I I I I I I I I I I I I I I I I I I I I I I I I I I I I I e I I e e I I I I I I I I I I I I e e I I I I I I e e e 1 c.K.Q Q Z Z Z Q Q Q Q Q Z Z Z Z Z - Z - - - - - - - - - - - - - - - - - - - - - - - - - - - - - - - - - - - - - - - - - - - - - - - - - ",
"z z z z z z z z z z z z z z z z z z z z z z z z z z z z z z z z z z z z z z z z z z z z z z z z z z z z z z z z z z z z z z z z z z z z z z z z z z z z z z z z z z z z z z z z z z z z z z z z z z z z z z z z z z z z z z z z z z z z z z z z z z z z z z z z z z z z z z z z z z z z z z z z z z z z z z z z z z z z z z z z z z z z z z z z z z z z z z z z z z z z z z z z z z z z z z z z z z z z z z z z z z z z z z z z z z z z z z z z z z - z - z z z z z Q K.K.c.1 7 7 7 7 1 N c.c.6 K.K.K.K.z z z z z z z z z - - z - z z z z z z z z z z z z z z z z z z z z z z z z z z z z z z z z z z z z z z z z z z z z z z z z z z z z z z z z z z z z z z z z z z z z z z z z z z z z K.1 I e I I I I I I I I I I I I I I I I I I I I I I I I I I I I I I I I I I I I I I I I I I I I I I I I I I I I I I I I I I I I I I I I I I I I I I I I I I I I I I I I I I I I I I I I I e I I I I I I I I I I I I I e e e I I 1 c.K.z Q Q Z Z z z Q Z Z Z Z z - z z z z z z z z z z z z z z z z z z z z z z z z z z z z z z z z z z z z z z z z z z z z z z z z z z ",
"z z z z z z z z z z z z z z z z z z z z z z z z z z z z z z z z z z z z z z z z z z z z z z z z z z z z z z z z z z z z z z z z z z z z z z z z z z z z z z z z z z z z z z z z z z z z z z z z z z z z z z z z z z z z z z z z z z z z z z z z z z z z z z z z z z z z z z z z z z z z z z z z z z z z z z z z z z z z z z z z z z z z z z z z z z z z z z z z z z z z z z z z z z z z z z z z z z z z z z z z z z z z z z z z z z z z z z z z z z z z z z z z z z z z z K.K.K.X.K.K.K.K.z K.Q z z z Q Z z z z - z z z z z z z z z z z z z z z z z z z z z z z z z z z z z z z z z z z z z z z z z z z z z z z z z z z z z z z z z z z z z z z z z z z z z z z z z z z z z z z z z Z z z z c.5 I I I I I I I I I I I I I I I I I I I I I I I I I I I I I I I I I I I I I I I I I I I I I I I I I I I I I I I I I I I I I I I I I I I I I I I I I I I I I I I I I I I I I I I I I I I I I I I I I I I I I I I I I I I e I I 5 1 c.K.z Q Q Z - z z z z Z Z - z z z z z z z z z z z z z z z z z z z z z z z z z z z z z z z z z z z z z z z z z z z z z z z z z z ",
"- - - - - - - - - - - - - - - - - - - - - - - - - - - - - - - - - - - - - - - - - - - - - - - - - - - - - - - - - - - - - - - - - - - - - - - - - - - - - - - - - - - - - - - - - - - - - - - - - - - - - - - - - - - - - - - - - - - - - - - - - - - - - - - - - - - - - - - - - - - - - - - - - - - - - - - - - - - - - - - - - - - - - - - - - - - - - - - - - - - - - - - - - - - - - - - - - - - - - - - - - - - - - - - - - - - - - - - - - - - - - - z Z z z Q z Q Q Q z z z z Z z z z Z z z Z Z Z z z z - - - - - - - - - - - - - - - - - - - - - - - - - - - - - - - - - - - - - - - - - - - - - - - - - - - - - - - - - - - - - - - - - - - - - - - - - - - - - - - - z z Z z z z K.5 I I I A A A A A A A A A A A A A A A A A A A A A A A A A A A A A A A A A A A A A A A A A A A A A A A A A A A A A A A A A A A A A A A A A A A A A A A A A A A A A A A A A A A A A A A A A A A A A A A A A A A I I I I I e e I I I 5 w c.h K.z z z z z z z z z z z - - - - - - - - - - - - - - - - - - - - - - - - - - - - - - - - - - - - - - - - - - - - - - - - ",
"z z z z z z z z z z z z z z z z z z z z z z z z z z z z z z z z z z z z z z z z z z z z z z z z z z z z z z z z z z z z z z z z z z z z z z z z z z z z z z z z z z z z z z z z z z z z z z z z z z z z z z z z z z z z z z z z z z z z z z z z z z z z z z z z z z z z z z z z z z z z z z z z z z z z z z z z z z z z z z z z z z z z z z z z z z z z z z z z z z z z z z z z z z z z z z z z z z z z z z z z z z z z z z z z z z z z z z z z z z z z z - z z z z z Q z z z z z z z z z z z z z z Z Z - z z z z z z z z z z z z z z z z z z z z z z z z z z z z z z z z z z z z z z z z z z z z z z z z z z z z z z z z z z z z z z z z z z z z z z z z z z z z z z z z z z z z z z z Q z K.c.I I I A A I A I I I I I I I I I I I I I I I I I I I I I I I I I I I I I I I I I I I I I I I I I I I I I I I I I I I I I I I I I I I I I I I I I I I I I I I I I I I I I I I I I I I I I I I I I I I I I I A I I I I I I I I (.(.I I I 5 1 c.6 K.z z z z z z z z z z z - z z z z z z z z z z z z z z z z z z z z z z z z z z z z z z z z z z z z z z z z z z z z ",
"z z z z z z z z z z z z z z z z z z z z z z z z z z z z z z z z z z z z z z z z z z z z z z z z z z z z z z z z z z z z z z z z z z z z z z z z z z z z z z z z z z z z z z z z z z z z z z z z z z z z z z z z z z z z z z z z z z z z z z z z z z z z z z z z z z z z z z z z z z z z z z z z z z z z z z z z z z z z z z z z z z z z z z z z z z z z z z z z z z z z z z z z z z z z z z z z z z z z z z z z z z z z z z z z z z z z z z z z z z z z z z z z z z z z z z z z z z z z z Q z z z z z z z z z z z z z z z z z z z z z z z z z z z z z z z z z z z z z z z z z z z z z z z z z z z z z z z z z z z z z z z z z z z z z z z z z z z z z z z z z z z z z z z z z z z z z z z Q z K.5 I I A A I I I I I I I I I I I I I I I I I I I I I I I I I I I I I I I I I I I I I I I I I I I I I I I I I I I I I I I I I I I I I I I I I I I I I I I I I I I I I I I I I I I I I I I I I I I I I I I I I I I I I I I I I I (.(.I I O.I 5 5 1 c.6 K.K.K.z z z z z z z z z z z z z z z z z z z z z z z z z z z z z z z z z z z z z z z z z z z z z z z z z z z ",
"z z z z z z z z z z z z z z z z z z z z z z z z z z z z z z z z z z z z z z z z z z z z z z z z z z z z z z z z z z z z z z z z z z z z z z z z z z z z z z z z z z z z z z z z z z z z z z z z z z z z z z z z z z z z z z z z z z z z z z z z z z z z z z z z z z z z z z z z z z z z z z z z z z z z z z z z z z z z z z z z z z z z z z z z z z z z z z z z z z z z z z z z z z z z z z z z z z z z z z z z z z z z z z z z z z z z z z z z z z z z z z z z z z z z z z z z z z z z z z z z z z z z z z z z z z z z z z z z z z z z z z z z z z z z z z z z z z z z z z z z z z z z z z z z z z z z z z z z z z z z z z z z z z z z z z z z z z z z z z z z z z z z z z z z z z z z K.z z K.7 I I I I I I I I I I I I I I I I I I I I I I I I I I I I I I I I I I I I I I I I I I I I I I I I I I I I I I I I I I I I I I I I I I I I I I I I I I I I I I I I I I I I I I I I I I I I I I I I I I I I I I I I I I I I I O.I I I I I I I I A I %X5 ,.c.K.z z - z z z z z z z z z z z z z z z z z z z z z z z z z z z z z z z z z z z z z z z z z z z z z z z ",
"q.q.q.q.q.q.q.q.q.q.q.q.q.q.q.q.q.q.q.q.q.q.q.q.q.q.q.q.q.q.q.q.q.q.q.q.q.q.q.q.q.q.q.q.q.q.q.q.q.q.q.q.q.q.q.q.q.q.q.q.q.q.q.q.q.q.q.q.q.q.q.q.q.q.q.q.q.q.q.q.q.q.q.q.q.q.q.q.q.q.q.q.q.q.q.q.q.q.q.q.q.q.q.q.q.q.q.q.q.q.q.q.q.q.q.q.q.q.q.q.q.q.q.q.q.q.q.q.q.q.q.q.q.q.q.q.q.q.q.q.q.q.q.q.q.q.q.q.q.q.q.q.q.q.q.q.q.q.q.q.q.q.q.q.q.q.q.q.q.q.q.q.q.q.q.q.q.q.q.q.q.q.q.q.q.q.q.q.q.q.q.q.q.q.q.q.q.q.q.q.q.q.q.q.q.q.q.q.q.q.q.q.q.q.q.q.q.q.q.q.q.q.q.q.q.q.q.q.q.q.q.q.q.q.q.q.q.q.q.q.q.q.z q.q.q.q.q.q.q.q.q.q.q.q.q.q.q.q.q.q.q.q.q.q.q.q.q.q.q.q.q.q.q.q.q.q.q.q.q.q.q.q.q.q.q.q.q.q.q.q.q.q.q.q.q.q.q.q.q.q.q.q.q.q.q.q.q.q.q.q.q.q.q.q.q.q.q.q.q.q.q.q.q.q.q.q.q.q.q.q.q.q.q.z K.N I (.I I I (.I I I I I I I I I I I I I I I I I I I I I I I I I I I I I I I I I I I I I I I I I I I I I I I I I I I I I I I I I I I I I I I I I I I I I I I I I I I I I I I I I I I I I I I I I I I I I I I I I I I I I I I I I I I I I (.I I I (.I A A 5 c.K.z - z z z z q.q.q.q.q.q.q.q.q.q.q.q.q.q.q.q.q.q.q.q.q.q.q.q.q.q.q.q.q.q.q.q.q.q.q.q.q.q.q.q.q.q.q.",
"z z z z z z z z z z z z z z z z z z z z z z z z z z z z z z z z z z z z z z z z z z z z z z z z z z z z z z z z z z z z z z z z z z z z z z z z z z z z z z z z z z z z z z z z z z z z z z z z z z z z z z z z z z z z z z z z z z z z z z z z z z z z z z z z z z z z z z z z z z z z z z z z z z z z z z z z z z z z z z z z z z z z z z z z z z z z z z z z z z z z z z z z z z z z z z z z z z z z z z z z z z z z z z z z z z z z z z z z z z z z z z z z z z z z z z z z z z z z z z z z z z z z z z z z z z z z z z z z z z z z z z z z z z z z z z z z z z z z z z z z z z z z z z z z z z z z z z z z z z z z z z z z z z z z z z z z z z z z z z z z z z z z z z z z z z z z z z z K.c.5 A A A I (.I I I I I I I I I I I I I I I I I I I I I I I I I O.I (.I I O.(.I (.I I I I I I O.O.I O.O.I O.O.I O.O.I O.O.I O.O.I O.O.I O.O.I O.O.I O.O.I O.O.I O.O.I O.O.I O.O.I O.O.I O.O.I O.O.I O.O.I O.O.I I I I I I I I I I I I I I I I I (.(.(.O.I 5 c.K.q.q.z z z z z z z z z z z z z z z z z z z z z z z z z z z z z z z z z z z z z z z z z z z z z z ",
"q.q.q.q.q.q.q.q.q.q.q.q.q.q.q.q.q.q.q.q.q.q.q.q.q.q.q.q.q.q.q.q.q.q.q.q.q.q.q.q.q.q.q.q.q.q.q.q.q.q.q.q.q.q.q.q.q.q.q.q.q.q.q.q.q.q.q.q.q.q.q.q.q.q.q.q.q.q.q.q.q.q.q.q.q.q.q.q.q.q.q.q.q.q.q.q.q.q.q.q.q.q.q.q.q.q.q.q.q.q.q.q.q.q.q.q.q.q.q.q.q.q.q.q.q.q.q.q.q.q.q.q.q.q.q.q.q.q.q.q.q.q.q.q.q.q.q.q.q.q.q.q.q.q.q.q.q.q.q.q.q.q.q.q.q.q.q.q.q.q.q.q.q.q.q.q.q.q.q.q.q.q.q.q.q.q.q.q.q.q.q.q.q.q.q.q.q.q.q.q.q.q.q.q.q.q.q.q.q.q.q.q.q.q.q.q.q.q.q.q.q.q.q.q.q.q.q.q.q.q.q.q.q.q.q.q.q.q.q.q.q.q.q.q.q.q.q.q.q.q.q.q.q.q.q.q.q.q.q.q.q.q.q.q.q.q.q.q.q.q.q.q.q.q.q.q.q.q.q.q.q.q.q.q.q.q.q.q.q.q.q.q.q.q.q.q.q.q.q.q.q.q.q.q.q.q.q.q.q.q.q.q.q.q.q.q.q.q.q.q.q.q.q.q.q.q.q.q.q.q.q.q.q.q.q.z K.w A I I I I I I I I I I I I I I I I I I I I I I I I I I I I I I I I I (.I I I I I I I I I I I (.I (.I (.I (.I (.I (.I (.I (.I (.I (.I (.I (.I (.I (.I (.I (.I (.I (.I (.I (.I (.I (.I (.I (.I (.I (.I (.I (.I I I I I I I I I I I I I I (.I I I I I (.I ( w K.K.q.z z z q.q.q.q.q.q.q.q.q.q.q.q.q.q.q.q.q.q.q.q.q.q.q.q.q.q.q.q.q.q.q.q.q.q.q.q.q.q.q.q.q.q.q.",
"u u u u u u u u u u u u u u u u u u u u u u u u u u u u u u u u u u u u u u u u u u u u u u u u u u u u u u u u u u u u u u u u u u u u u u u u u u u u u u u u u u u u u u u u u u u u u u u u u u u u u u u u u u u u u u u u u u u u u u u u u u u u u u u u u u u u u u u u u u u u u u u u u u u u u u u u u u u u u u u u u u u u u u u u u u u u u u u u u u u u u u u u u u u u u u u u u u u u u u u u u u u u u u u u u u u u u u u u u u u u u u u u u u u u u u u u u u u u u u u u u u u = q.u u u u u u u u u u u u u u u u u u u u u u u u u u u u u u u u u u u u u u u u u u u u u u u u u u u u u u u u u u u u u u u u u u u u u u u u u u u u u u u u u u u u u u u u q.u q.K.W A I (.I I I I I I I I I I I I I I I I I I I I I I I I I I I I A I I I A I I I A A I I I I I I I I I I I I I I I I I I I I I I I I I I I I I I I I I I I I I I I I I I I I I I I I I I I I I I I I I I I I I I I I I I I I I I I I I I I I A A I I I O.I w K.z q.q.q.q.u u u u u u u u u u u u u u u u u u u u u u u u u u u u u u u u u u u u u u u u u u u ",
"q.q.q.q.q.q.q.q.q.q.q.q.q.q.q.q.q.q.q.q.q.q.q.q.q.q.q.q.q.q.q.q.q.q.q.q.q.q.q.q.q.q.q.q.q.q.q.q.q.q.q.q.q.q.q.q.q.q.q.q.q.q.q.q.q.q.q.q.q.q.q.q.q.q.q.q.q.q.q.q.q.q.q.q.q.q.q.q.q.q.q.q.q.q.q.q.q.q.q.q.q.q.q.q.q.q.q.q.q.q.q.q.q.q.q.q.q.q.q.q.q.q.q.q.q.q.q.q.q.q.q.q.q.q.q.q.q.q.q.q.q.q.q.q.q.q.q.q.q.q.q.q.q.q.q.q.q.q.q.q.q.q.q.q.q.q.q.q.q.q.q.q.q.q.q.q.q.q.q.q.q.q.q.q.q.q.q.q.q.q.q.q.q.q.q.q.q.q.q.q.q.q.q.q.q.q.q.q.q.q.q.q.q.q.q.q.q.q.q.q.q.q.q.q.q.q.q.q.q.q.q.q.q.q.q.q.q.q.q.q.q.q.q.q.q.q.q.q.q.q.q.q.q.q.q.q.q.q.q.q.q.q.q.q.q.q.q.q.q.q.q.q.q.q.q.q.q.q.q.q.q.q.q.q.q.q.q.q.q.q.q.q.q.q.q.q.q.q.q.q.q.q.q.q.q.q.q.q.q.q.q.q.q.q.q.q.q.q.q.q.q.q.q.q.q.q.q.q.q.q.q.q.q.q.q.z K.c.5 A I I I I I I A I I A A A A A A A A A A A A A I O.I I (.I A A A A I A A I I O.A A I I A A A A A A A A A A A A A A A A A A A A A A A A A A A A A A A A A A A A A A A A A A A A A A A A A A A A A A A A A A A A A A A A A A A A A A A A A O.O.O.I I O.I P K.q.q.q.q.u q.q.q.q.q.q.q.q.q.q.q.q.q.q.q.q.q.q.q.q.q.q.q.q.q.q.q.q.q.q.q.q.q.q.q.q.q.q.q.q.q.q.q.",
"u u u u u u u u u u u u u u u u u u u u u u u u u u u u u u u u u u u u u u u u u u u u u u u u u u u u u u u u u u u u u u u u u u u u u u u u u u u u u u u u u u u u u u u u u u u u u u u u u u u u u u u u u u u u u u u u u u u u u u u u u u u u u u u u u u u u u u u u u u u u u u u u u u u u u u u u u u u u u u u u u u u u u u u u u u u u u u u u u u u u u u u u u u u u u u u u u u u u u u u u u u u u u u u u u u u u u u u u u u u u u u u u u u u u u u u u u u u u u u u u u u u u u u u u u u u u u u u u u u u u u u u u u u u u u u u u u u u u u u u u u u u u u u u u u u u u u u u u u u u u u u u u u u u u u u u u u u u u u u u u u u u u u u u u u u u u u u q.q.z K.: A A I I I A A O.A A A A A I I A A I I I O.O.O.I A I I O.A ( w N N N 1 7 I I O.O.I I O.I I O.O.O.O.O.O.O.O.O.I I I I I O.O.O.O.O.I I I I O.O.O.O.O.O.O.O.O.O.O.O.O.O.O.O.O.O.O.O.O.O.O.O.O.O.O.O.O.O.O.O.O.O.O.O.O.O.O.O.O.O.O.O.I I I I A A I I I O.A P h q.u q.q.u u u u u u u u u u u u u u u u u u u u u u u u u u u u u u u u u u u u u q.q.q.u u u u ",
"q.q.q.q.q.q.q.q.q.q.q.q.q.q.q.q.q.q.q.q.q.q.q.q.q.q.q.q.q.q.q.q.q.q.q.q.q.q.q.q.q.q.q.q.q.q.q.q.q.q.q.u u q.q.q.q.q.q.u q.q.q.q.q.q.q.q.q.q.q.q.q.q.q.q.q.q.q.q.q.q.q.q.q.q.q.q.q.q.q.q.q.q.q.q.q.q.q.q.q.q.q.q.q.q.q.q.q.q.q.q.q.q.q.q.q.q.q.q.q.q.q.q.q.q.q.q.q.q.q.q.q.q.q.q.q.q.q.q.q.q.q.q.q.q.q.q.q.q.q.q.q.q.q.q.q.q.q.q.q.q.q.q.q.q.q.q.q.q.q.q.q.q.q.q.q.q.q.q.q.q.q.q.q.q.q.q.q.q.q.q.q.q.q.q.q.q.q.q.q.q.q.q.q.q.q.q.q.q.q.q.q.q.q.q.q.q.q.q.q.q.q.q.q.q.q.q.q.q.q.q.q.q.q.q.q.q.q.q.q.q.q.q.q.q.q.q.q.q.q.q.q.q.q.q.q.q.q.q.q.q.q.q.q.q.q.q.q.q.q.q.q.q.q.q.q.q.q.q.q.q.q.q.q.q.q.q.q.q.q.q.q.q.q.q.q.q.q.q.q.q.q.q.q.q.q.q.q.q.q.q.q.q.q.q.q.q.q.q.q.q.q.q.q.q.q.q.q.q.q.q.q.q.q.z = z > : I O.I I I I A I I I I O.A A O.O.A A A A A A A I I A A I 1 6 X.K.X.K.K.N 5 I O.O.I I A A A A A A A A A A A A O.A O.O.A A A A A A O.A O.I A A A A A A A A A A A A A A A A A A A A A A A A A A A A A A A A A A A A A A A A A A A A O.A O.O.A I I I O.A w K.q.q.q.q.q.q.q.q.q.q.q.q.q.q.q.q.q.q.q.u q.q.q.q.q.u u q.q.q.q.q.q.q.q.q.q.q.u q.q.u u u u q.q.q.",
"q.q.q.q.q.q.q.q.q.q.q.q.q.q.q.q.q.q.q.q.q.q.q.q.q.q.q.q.q.q.q.q.q.q.q.q.q.q.q.q.q.q.q.q.q.q.q.q.q.q.q.q.q.q.q.q.q.q.q.q.q.q.q.q.q.q.q.q.q.q.q.q.q.q.q.q.q.q.q.q.q.q.q.q.q.q.q.q.q.q.q.q.q.q.q.q.q.q.q.q.q.q.q.q.q.q.q.q.q.q.q.q.q.q.q.q.q.q.q.q.q.q.q.q.q.q.q.q.q.q.q.q.q.q.q.q.q.q.q.q.q.q.q.q.q.q.q.q.q.q.q.q.q.q.q.q.q.q.q.q.q.q.q.q.q.q.q.q.q.q.q.q.q.q.q.q.q.q.q.q.q.q.q.q.q.q.q.q.q.q.q.q.q.q.q.q.q.q.q.q.q.q.q.q.q.q.q.q.q.q.q.q.q.q.q.q.q.q.q.q.q.q.q.q.q.q.q.q.q.q.q.q.q.q.q.q.q.q.q.q.q.q.q.q.q.q.q.q.q.q.q.q.q.q.q.q.q.q.q.q.q.q.q.q.q.q.q.q.q.q.q.q.q.q.q.q.q.q.q.q.q.q.q.q.q.q.q.q.q.q.q.q.q.q.q.q.q.q.q.q.q.q.q.q.q.q.q.q.q.q.q.q.q.q.q.q.q.q.q.q.q.q.q.q.q.q.q.q.q.q.q.q.q.q.q.q.q.q.K.K.1 I I I (.I A I I A A A A A A A I I A A A I I I I A 5 1 > K.q.q.q.q.z K.1 A A O.I I A A A A A A A A A A A O.O.O.O.O.A A A A A O.O.O.O.I A A A A A A A A A A A A A A A A A A A A A A A A A A A A A A A A A A A A A A A A A A A O.O.O.O.O.A I I I O.I c.K.q.q.q.u q.q.q.q.q.q.q.q.q.q.q.q.q.q.q.q.q.q.q.q.q.q.q.q.q.q.q.q.q.q.q.q.q.u u u q.q.q.q.q.u u u ",
"u u u u u u u u u u u u u u u u u u u u u u u u u u u u u u u u u u u u u u u u u u u u u u u u u u u u u = u u u = u q.u = u X.u u u u u u u u u u u u u u u u u u u u u u u u u u u u u u u u u u u u u u u u u u u u u u u u u u u u u u u u u u u u u u u u u u u u u u u u u u u u u u u u u u u u u u u u u u u u u u u u u u u u u u u u u u u u u u u u u u u u u u u u u u u u u u u u u u u u u u u u u u u u u u u u u u u u u u u u u u u u u u u u u u u u u u u u u u u u u u u u u u u u u u u u u u u u u u u u u u u u u u u u u u u u u u u u u u u u u u u u u u u u u u u u u u u u u u u u u u u u u u u u u u u u u u u u u u u u u u u u u u u u u u u u u u u = u u u u = = z X.h c.5 I O.O.O.O.O.A A I I I A A I I O.O.O.O.A A I 1 c.K.K.q.u u q.u u K.c.I A I I I A O.O.O.O.O.O.O.O.O.O.I I I I I O.O.O.O.O.I I I I O.O.O.O.O.O.O.O.O.O.O.O.O.O.O.O.O.O.O.O.O.O.O.O.O.O.O.O.O.O.O.O.O.O.O.O.O.O.O.O.O.O.O.O.I I I O.O.A I I I I 5 c.K.u u u u u = u u u u u u u u u u u u u u u u u u = u u u u u u u u u u u = u u u = u u u q.u u u ",
"= = = = = = = = = = = = = = = = = = = = = = = = = = = = = = = = = = = = = = = = = = = = = = = = = = = = = = = = = = = X.= = = = = = = = = = = = = = = = = = = = = = = = = = = = = = = = = = = = = = = = = = = = = = = = = = = = = = = = = = = = = = = = = = = = = = = = = = = = = = = = = = = = = = = = = = = = = = = = = = = = = = = = = = = = = = = = = = = = = = = = = = = = = = = = = = = = = = = = = = = = = = = = = = = = = = = = = = = = = = = = = = = = = = = = = = = = = = = = = = = = = = = = = = = = = = = = = = = = = = = = = = = = = = = = = = = = = = = = = = = = = = = = = = = = = = = = = = = = = = = = = = = = = = = = = = = = = = = = = = = = = = = = = = = = = = = = = = = = = X.u u X.K.c.1 5 A A O.O.O.O.I e I O.O.O.O.O.O.O.A I 5 : 6 K.X.u = u u u u = q.6 5 A I I I I O.O.O.O.O.O.O.O.O.O.O.A I I I O.O.O.O.O.O.A I I O.O.O.O.O.O.O.O.O.O.O.O.O.O.O.O.O.O.O.O.O.O.O.O.O.O.O.O.O.O.O.O.O.O.O.O.O.O.O.O.O.O.O.O.I A I O.A A A I I I 7 K.u u u u u u = = = = = = = = = = = = = = X.= = = = = = X.= = = = = = = = = = = q.= X.u u u z u q.u ",
"u u u u u u u u u u u u u u u u u u u u u u u u u u u u u u u u u u u u u u u u u u u u X.u u X.u u = = X.X.u u u X.X.= X.u u u u X.u u u u u u u u u u u u u u u u u u u u u u u u u u u u u u u u u u u u u u u u u u u u u u u u u u u u u u u u u u u u u u u u u u u u u u u u u u u u u u u u u u u u u u u u u u u u u u u u u u u u u u u u u u u u u u u u u u u u u u u u u u u u u u u u u u u u u u u u u u u u u u u u u u u u u u u u u u u u u u u u u u u u u u u u u u u u u u u u u u u u u u u u u u u u u u u u u u u u u u u u u u u u u u u u u u u u u u u u u u u u u u u u u u u u u u u u u u u u u u u u u u u u u u u u u u u u u u u u u u u u u u u u u u u u u u u = u u = = K.K.c.w 5 I A O.O.O.O.O.O.O.O.O.O.A I 5 1 c.K.= = X.X.X.u X.u X.= u K.: ( A I I I O.O.I O.O.O.O.O.O.O.O.O.O.O.O.O.O.O.O.O.O.O.O.O.O.O.O.O.O.O.O.O.O.O.O.O.O.O.O.O.O.O.O.O.O.O.O.O.O.O.O.O.O.O.O.O.O.O.O.O.O.O.O.O.O.O.O.O.O.O.O.O.O.I A I I I : K.= u q.u = u u u u u u u u u u u u u = = = = = = u u = = = u u u u u u X.u u X.u u q.q.X.u = -.X.K.",
"= = = = = = = = = = = = = = = = = = = = = = = = = = = = = = = = = = = u u = = u = X.= u u X.X.u = u = u u X.X.= X.X.= u X.X.X.u u = = X.= = = = = = = = = = = = = = = = = = = = = = = = = = = = = = = = = = = = = = = = = = = = = = = = = = = = = = = = = = = = = = = = = = = = = = = = = = = = = = = = = = = = = = = = = = = = = = = = = = = = = = = = = = = = = = = = = = = = = = = = = = = = = = = = = = = = = = = = = = = = = = = = = = = = = = = = = = = = = = = = = = = = = = = = = = = = = = = = = = = = = = = = = = = = = = = = = = = = = = = = = = = = = = = = = = = = = = = = = = = = = = = = = = = = = = = = = = = = = = = = = = = = = = = = = = = = = = = = = = = = = = = = = = = = = = u u u = u X.K.K.c.: 5 I I A A I A A I 5 5 5 : 6 K.K.X.= u = X.u u u = q.u = K.6 1 I O.I A I O.O.O.O.O.O.O.O.O.O.O.O.O.O.O.O.O.O.O.O.O.O.O.O.O.O.O.O.O.O.O.O.O.O.O.O.O.O.O.O.O.O.O.O.O.O.O.O.O.O.O.O.O.O.O.O.O.O.O.O.O.O.O.O.O.O.O.O.O.O.O.(.I I I I 5 c.X.= = u u = = = = = = = = = = = = = = u u = X.X.u q.q.u = u X.X.X.X.u u u X.u u u u u = X.K.K.HXGXGX",
"X.X.X.X.X.X.X.X.X.X.X.X.X.X.X.X.X.X.X.X.X.X.X.X.X.X.X.X.X.X.X.u X.= = = = u q.X.= = X.X.= u X.X.u = -.-.-.-.-.K.K.K.-.-.= u u = X.X.X.= X.X.X.X.X.X.X.X.X.X.X.X.X.X.X.X.X.X.X.X.X.X.X.X.X.X.X.X.X.X.X.X.X.X.X.X.X.X.X.X.X.X.X.X.X.X.X.X.X.X.X.X.X.X.X.X.X.X.X.X.X.X.X.X.X.X.X.X.X.X.X.X.X.X.X.X.X.X.X.X.X.X.X.X.X.X.X.X.X.X.X.X.X.X.X.X.X.X.X.X.X.X.X.X.X.X.X.X.X.X.X.X.X.X.X.X.X.X.X.X.X.X.X.X.X.X.X.X.X.X.X.X.X.X.X.X.X.X.X.X.X.X.X.X.X.X.X.X.X.X.X.X.X.X.X.X.X.X.X.X.X.X.X.X.X.X.X.X.X.X.X.X.X.X.X.X.X.X.X.X.X.X.X.X.X.X.X.X.X.X.X.X.X.X.X.X.X.X.X.X.X.X.X.X.X.X.X.X.X.X.X.X.X.X.X.X.X.X.X.X.X.X.X.X.X.X.X.X.X.X.X.X.X.X.X.X.X.X.X.X.X.X.X.X.X.X.X.X.X.X.X.X.X.X.X.X.X.X.X.X.X.X.X.X.X.X.X.X.X.u u u u u q.u X.u X.K.K.c.,.,.,.,.,.1 N c.c.K.K.X.X.= u K.X.X.X.u u q.u u q.q.X.K.c.5 I O.I O.O.O.O.O.O.O.O.O.O.O.O.O.O.O.O.O.O.O.O.O.O.O.O.O.O.O.O.O.O.O.O.O.O.O.O.O.O.O.O.O.O.O.O.O.O.O.O.O.O.O.O.O.O.O.O.O.O.O.O.O.O.O.O.O.O.O.O.O.O.O.O.O.I I O.I 1 K.= = u u X.X.X.X.X.X.X.X.X.X.X.X.X.X.X.q.q.u q.X.X.q.q.X.X.q.u u q.u u = = q.X.q.= -.6 gXGXAXFXSXSXNX",
"X.X.X.X.X.X.X.X.X.X.X.X.X.X.X.X.X.X.X.X.X.X.X.X.X.X.X.X.X.X.X.X.X.X.X.X.= X.X.X.u = = < h h 6 K.gXHXHXGXAXJXAXAXAXAXGXGXHXgX4 < q.K.u = X.X.X.X.X.X.X.X.X.X.X.X.X.X.X.X.X.X.X.X.X.X.X.X.X.X.X.X.X.X.X.X.X.X.X.X.X.X.X.X.X.X.X.X.X.X.X.X.X.X.X.X.X.X.X.X.X.X.X.X.X.X.X.X.X.X.X.X.X.X.X.X.X.X.X.X.X.X.X.X.X.X.X.X.X.X.X.X.X.X.X.X.X.X.X.X.X.X.X.X.X.X.X.X.X.X.X.X.X.X.X.X.X.X.X.X.X.X.X.X.X.X.X.X.X.X.X.X.X.X.X.X.X.X.X.X.X.X.X.X.X.X.X.X.X.X.X.X.X.X.X.X.X.X.X.X.X.X.X.X.X.X.X.X.X.X.X.X.X.X.X.X.X.X.X.X.X.X.X.X.X.X.X.X.X.X.X.X.X.X.X.X.X.X.X.X.X.X.X.X.X.X.X.X.X.X.X.X.X.X.X.X.X.X.X.X.X.X.X.X.X.X.X.X.X.X.X.X.X.X.X.X.X.X.X.X.X.X.X.X.X.X.X.X.X.X.X.X.X.X.X.X.X.X.X.X.X.X.X.X.X.X.X.X.X.X.X.X.X.X.X.X.X.X.X.X.X.X.X.X.X.X.X.X.X.< X.X.K.K.K.X.X.X.X.X.X.X.X.X.X.X.X.X.X.X.X.X.X.X.X.h 1 I A A O.O.O.O.(.O.I O.O.O.O.(.A A A I O.O.O.O.O.O.O.O.O.O.O.O.O.O.O.O.O.O.O.O.O.O.O.O.O.O.O.O.O.O.O.O.O.O.O.O.O.O.O.O.O.O.O.O.O.O.O.O.O.O.O.O.O.(.O.O.(.O.A 7 > q.X.X.X.X.X.X.X.X.X.X.X.X.X.X.X.X.X.X.X.X.X.X.K.X.X.X.X.X.X.u -.4 4 4 6 c.c.gXgXgXHXAXJXFXNXNXh.;X;X;X",
"< < < < < < < < < < < < < < < < < < < < < < < < < < < < < < < X.= X.K.X.u q.u -.4 c gXHXGXGXAXAXKXKXdXkXV.V.V.i.B n.yXyXKXKXAXHX< u = X.X.= < < < < < < < < < < < < < < < < < < < < < < < < < < < < < < < < < < < < < < < < < < < < < < < < < < < < < < < < < < < < < < < < < < < < < < < < < < < < < < < < < < < < < < < < < < < < < < < < < < < < < < < < < < < < < < < < < < < < < < < < < < < < < < < < < < < < < < < < < < < < < < < < < < < < < < < < < < < < < < < < < < < < < < < < < < < < < < < < < < < < < < < < < < < < < < < < < < < < < < < < < < < < < < < < < < < < < < < < < < < < < < < < < < < < < < < < < < < < < < < < < < < < < < < < < < < < < < < < < < < < < < < < < < < < < < < < < < < < < < < < = X.X.= X.X.X.X.X.X.X.< X.< < < < < < < < < < < < < X.= X.K.K.c.5 A O.O.O.(.O.(.(.(.O.O.O.A 5 5 5 I O.O.O.O.O.O.O.O.O.O.O.O.O.O.O.O.O.O.O.O.O.O.O.O.O.O.O.O.O.O.O.O.O.O.O.O.O.O.O.O.O.O.O.O.O.O.O.O.O.O.O.O.O.O.O.(.O.I 7 c.K.X.X.X.X.X.X.X.X.< < < < < < < < < < < < X.X.X.K.K.X.u < 4 8 f HXGXGXAXJXFXFXFXFXSXSXNXNXh.;X;X' ;X' ' ",
"X.X.X.X.X.X.X.X.X.X.X.X.X.X.X.X.X.X.X.X.X.X.X.X.X.X.X.X.X.X.X.X.X.X.X.X.= 4 : gXGXAXKXKXKXyXyXD yXhXhXhXhXW.n.i.V.B m.hXn.i.kXKXGX4 = X.X.X.X.X.X.X.X.X.X.X.X.X.X.X.X.X.X.X.X.X.X.X.X.X.X.X.X.X.X.X.X.X.X.X.X.X.X.X.X.X.X.X.X.X.X.X.X.X.X.X.X.X.X.X.X.X.X.X.X.X.X.X.X.X.X.X.X.X.X.X.X.X.X.X.X.X.X.X.X.X.X.X.X.X.X.X.X.X.X.X.X.X.X.X.X.X.X.X.X.X.X.X.X.X.X.X.X.X.X.X.X.X.X.X.X.X.X.X.X.X.X.X.X.X.X.X.X.X.X.X.X.X.X.X.X.X.X.X.X.X.X.X.X.X.X.X.X.X.X.X.X.X.X.X.X.X.X.X.X.X.X.X.X.X.X.X.X.X.X.X.X.X.X.X.X.X.X.X.X.X.X.X.X.X.X.X.X.X.X.X.X.X.X.X.X.X.X.X.X.X.X.X.X.X.X.X.X.X.X.X.X.X.X.X.X.X.X.X.X.X.X.X.X.X.X.X.X.X.X.X.X.X.X.X.X.X.X.X.X.X.X.X.X.X.X.X.X.X.X.X.X.X.X.X.X.X.X.X.X.X.X.X.X.X.X.X.X.X.X.X.X.X.X.X.X.X.X.X.X.X.X.X.< < < < < < X.< < < < X.< X.X.X.X.X.X.X.X.X.X.X.X.X.X.X.X.X.< K.c.7 I A A A A A A A A A 5 7 c.> > 1 I O.O.O.O.O.O.O.O.O.O.O.O.O.O.O.O.O.O.O.O.O.O.O.O.O.O.O.O.O.O.O.O.O.O.O.O.O.O.O.O.O.O.O.O.O.O.O.O.O.O.O.O.O.O.O.A 7 c.K.X.< X.X.< < X.< < X.X.X.X.X.X.X.X.X.X.X.X.X.X.X.X.u = 6 gXGXJXFXSXNXNXNXNXNXNXh.NXh.;Xh.;X;X' ' ' ' ' ' ",
"< < < < < < < < < < < < < < < < < < < < < < < < < < < < < < < < X.X.-.8 c.GXJXFXdXyXyXyXm.m.m.m.m.m.D D D D d m.hXm.d m.m.m.BXkXAXc.q.X.X.X.X.X.X.< < < < < < < < < < < < < < < < < < < < < < < < < < < < < < < < < < < < < < < < < < < < < < < < < < < < < < < < < < < < < < < < < < < < < < < < < < < < < < < < < < < < < < < < < < < < < < < < < < < < < < < < < < < < < < < < < < < < < < < < < < < < < < < < < < < < < < < < < < < < < < < < < < < < < < < < < < < < < < < < < < < < < < < < < < < < < < < < < < < < < < < < < < < < < < < < < < < < < < < < < < < < < < < < < < < < < < < < < < < < < < < < < < < < < < < < < < < < < < < < < < < < < < < < < < < < < < < < < < < < < < < < < < < < < < < < < < X.X.X.X.< X.< < < < < < < < X.< < < < < < < < < < < < < < < X.X.< -.< < 6 c.1 5 5 5 %X%X5 7 : c.6 h < X.c.7 A O.O.O.O.O.O.O.O.O.O.O.O.O.O.O.O.O.O.O.O.O.O.O.A O.O.O.O.O.O.O.O.O.O.O.O.O.O.O.O.O.O.O.O.O.O.O.O.O.O.A A O.I 1 6 X.X.X.< < < < < X.X.< < < < < < < < < < < < < X.= X.X.< 8 GXFXNXNXNXNXNXh.h.h.;X;X;X;X' ' `.' ' ' ' ' ' ' ' ",
"< < < < < < < < < < < < < < < < < < < < < < < < < < < < < < X.X.= 4 c.GXJXdXkXi.n.hXm.d d m.d D D D D d d D D D D D d D d D m.hXJXc.< -.h < < = X.X.= = = < < = < < < < < < < < < < < < < < < < < < < < < < < < < < < < < < < < < < < < < < < < < < < < < < < < < < < < < < < < < < < < < < < < < < < < < < < < < < < < < < < < < < < < < < < < < < < < < < < < < < < < < < < < < < < < < < < < < < < < < < < < < < < < < < < < < < < < < < < < < < < < < < < < < < < < < < < < < < < < < < < < < < < < < < < < < < < < < < < < < < < < < < < < < < < < < < < < < < < < < < < < < < < < < < < < < < < < < < < < < < < < < < < < < < < < < < < < < < < < < < < < < < < < < < < < < < < < < < < < < < < < < < < < < < < < < < < X.X.X.< < < < < < < < < < < < < < < < < < < < < < < < < -.-.< < X.h h 6 c.c.c.c.c.K.4 < X.< -.< X.c.5 A A A O.O.O.O.O.O.O.O.O.O.O.O.O.O.O.O.O.O.O.O.O.O.O.O.O.O.O.O.O.O.O.O.O.O.O.O.O.O.O.A A I I I I A A I 5 5 c.6 X.< -.X.< < < < < < < < < < < < < < < < < < < X.X.= X.X.c GXFXNX7Xs.h.;X' ' `.' ' ' ' ' ' ' ' ' ' ' ' ' ' ' ' ",
"< < < < < < < < < < < < < < < < < < < < < < < < -.< < < < -.X.X.4 HXAXdXV.i.n.m.D D D d d D D d d d d d d D d d D D D D d D m.yXAXgXK.K.K.K.4 4 h 4 4 -.= = = -.< < < < < -.< < < < < < < < < < < < < < < < < < < < < < < < < < < < < < < < < < < < < < < < < < < < < < < < < < < < < < < < < < < < < < < < < < < < < < < < < < < < < < < < < < < < < < < < < < < < < < < < < < < < < < < < < < < < < < < < < < < < < < < < < < < < < < < < < < < < < < < < < < < < < < < < < < < < < < < < < < < < < < < < < < < < < < < < < < < < < < < < < < < < < < < < < < < < < < < < < < < < < < < < < < < < < < < < < < < < < < < < < < < < < < < < < < < < < < < < < < < < < < < < < < < < < < < < < < < < < < < < < < < < < < -.-.< < -.< < < < -.< < -.-.< < < < < < < < < < < < < < < -.-.-.-.< -.-.-.< < < < < < < X.< < < < < < X.h 1 A A A O.O.O.O.O.O.O.O.O.O.O.O.O.O.O.O.O.O.O.O.O.O.O.O.O.O.O.O.O.O.O.O.O.O.O.O.O.O.A 5 1 c.c.c.c.: : c.c.6 < X.< < -.< < < < < < -.-.< < < < < < < < < < < < X.X.= = 8 GXFXNXh.;X' ' ' ' ' ' ' ' ' ' ' ' ' ' ' ' ' ' ' ' ' ' ",
"-.-.-.-.-.-.-.-.-.-.-.-.-.-.-.-.-.-.-.-.-.-.-.-.-.-.< < = -.= < HXKXkXV.n.m.D d d d d d d D D D d d D D D d d d d d d d d d m.yXKXAXAXAXJXAXAXGXHXK.K.K.< < X.-.-.< < < < -.-.-.-.-.-.-.-.-.-.-.-.-.-.-.-.-.-.-.-.-.-.-.-.-.-.-.-.-.-.-.-.-.-.-.-.-.-.-.-.-.-.-.-.-.-.-.-.-.-.-.-.-.-.-.-.-.-.-.-.-.-.-.-.-.-.-.-.-.-.-.-.-.-.-.-.-.-.-.-.-.-.-.-.-.-.-.-.-.-.-.-.-.-.-.-.-.-.-.-.-.-.-.-.-.-.-.-.-.-.-.-.-.-.-.-.-.-.-.-.-.-.-.-.-.-.-.-.-.-.-.-.-.-.-.-.-.-.-.-.-.-.-.-.-.-.-.-.-.-.-.-.-.-.-.-.-.-.-.-.-.-.-.-.-.-.-.-.-.-.-.-.-.-.-.-.-.-.-.-.-.-.-.-.-.-.-.-.-.-.-.-.-.-.-.-.-.-.-.-.-.-.-.-.-.-.-.-.-.-.-.-.-.-.-.-.-.-.-.-.-.-.-.-.-.-.-.-.-.-.-.-.-.-.-.-.-.-.-.-.-.-.-.-.-.-.-.-.-.-.-.-.-.-.-.-.-.-.-.-.-.-.-.-.-.-.-.-.-.-.-.-.-.-.-.-.-.-.-.-.-.-.-.-.-.-.-.-.-.-.-.-.-.< < < -.-.-.-.-.-.-.-.-.-.-.-.-.< < < < X.< < c.5 A A O.O.O.O.O.O.O.O.O.O.O.O.O.O.O.O.O.O.O.O.O.O.O.O.O.O.O.O.O.O.O.O.O.O.O.O.O.A 5 c.K.X.X.-.-.X.K.X.X.< -.< < < < -.-.-.-.-.-.-.-.-.-.-.-.-.-.-.-.-.< < -.X.< = 4 HXFXNXh.' ' ' ' ' ' ' ' ' ' ' ' ' ' ' ' ' ' ' ' ' ' fXfX",
"< < < < < < < < < < < < < < < < < < < < -.< < < < < -.< < = 4 HXKXV.B m.D D d d d d d d D D D d D D d d d D D D D D D D d d d d yXyXhXBXf.[.t yXKXAXAXGXHXK.< X.X.= < < < < < < < < < < < < < < < < < < < < < < < < < < < < < < < < < < < < < < < < < < < < < < < < < < < < < < < < < < < < < < < < < < < < < < < < < < < < < < < < < < < < < < < < < < < < < < < < < < < < < < < < < < < < < < < < < < < < < < < < < < < < < < < < < < < < < < < < < < < < < < < < < < < < < < < < < < < < < < < < < < < < < < < < < < < < < < < < < < < < < < < < < < < < < < < < < < < < < < < < < < < < < < < < < < < < < < < < < < < < < < < < < < < < < < < < < < < < < < < < < < < < < < < < < < < < < < < < < < < < < < < < < < < < < < < < < < < < < < < < < < < < < < < < < < < < < < < < < < < < < < < < < < < < < < < < < < < < X.< < K.1 A A O.O.O.O._.O.O.O.O.O.O.O.O.O.O.O.O.O.O.O.O.O.O.O.O.O.O.O.O.O.O.O.O.O.O.O.A %Xc.K.X.< < X.X.X.< < = = < < < < < < < < < < < < < < < < < < < < -.-.< < -.X.X.-.gXFXNXh.' ' ' ' ' ' ' ' ' ' ' ' ' ' ' ' ' ' ' ' ' ' ' `.e.",
"-.-.-.-.-.-.-.-.-.-.-.-.-.-.-.-.< -.-.-.< -.-.-.-.< < < X.X.gXJXV.n.D D D d m.D d d d d D D d D D D D D D D D D D D D D d d d d m.m.m.d m.hXhXyXyXd yXyXKXGXK.< X.X.-.< < -.-.< -.-.< -.-.-.-.-.-.-.-.-.-.-.-.-.-.-.-.-.-.-.-.-.-.-.-.-.-.-.-.-.-.-.-.-.-.-.-.-.-.-.-.-.-.-.-.-.-.-.-.-.-.-.-.-.-.-.-.-.-.-.-.-.-.-.-.-.-.-.-.-.-.-.-.-.-.-.-.-.-.-.-.-.-.-.-.-.-.-.-.-.-.-.-.-.-.-.-.-.-.-.-.-.-.-.-.-.-.-.-.-.-.-.-.-.-.-.-.-.-.-.-.-.-.-.-.-.-.-.-.-.-.-.-.-.-.-.-.-.-.-.-.-.-.-.-.-.-.-.-.-.-.-.-.-.-.-.-.-.-.-.-.-.-.-.-.-.-.-.-.-.-.-.-.-.-.-.-.-.-.-.-.-.-.-.-.-.-.-.-.-.-.-.-.-.-.-.-.-.-.-.-.-.-.-.-.-.-.-.-.-.-.-.-.-.-.-.-.-.-.-.-.-.-.-.-.-.-.-.-.-.-.-.-.-.-.-.-.-.-.-.-.-.-.-.-.-.-.-.-.-.-.-.-.-.-.-.-.-.-.-.-.-.-.-.-.-.-.-.-.-.-.-.-.-.-.-.-.-.-.-.-.-.-.-.-.-.-.-.-.-.-.-.-.-.-.-.-.-.-.-.< < -.X.X.X.X.X.< < < K.c.A A O.O._.O.O.O.O._.O._.O._.A _.A _.A _.O._.O.O.O.O.O.O.O.O.O.O.O.O.O._.O.O.A c.K.-.-.< X.X.X.X.< X.X.X.< < < < -.-.-.-.-.-.-.-.-.-.-.-.< -.< -.< < < < X.K.X.4 HXNXh.' `.' ' ' ' ' ' ' ' ' ' ' ' ' ' ' ' ' ' ' ' ' fXfX`.",
"< < < < < < < < < < < < < < < < -.< < < -.< < < < < X.X.X.gXJXkXn.d d d d d d d d d d d D D d D D D D D D D D D D D D D d d d d D d d D D D D D d d d d m.D AXc.h < < < < < < -.< < -.< < < < < < < < < < < < < < < < < < < < < < < < < < < < < < < < < < < < < < < < < < < < < < < < < < < < < < < < < < < < < < < < < < < < < < < < < < < < < < < < < < < < < < < < < < < < < < < < < < < < < < < < < < < < < < < < < < < < < < < < < < < < < < < < < < < < < < < < < < < < < < < < < < < < < < < < < < < < < < < < < < < < < < < < < < < < < < < < < < < < < < < < < < < < < < < < < < < < < < < < < < < < < < < < < < < < < < < < < < < < < < < < < < < < < < < < < < < < < < < < < < < < < < < < < < < < < < < < < < < < < < < < < < < < < < < < < < < < < < < < < < < < < < < < < < < < < < < < < < < < < < < h h < h h h < < 6 %XR A O.O._.O._.O._.A _.O.O._.O._.O._.R O.A _._.O.O.O._.O.A _.O._.O.O.A A I N h < -.< h h h h h h h h h h < < < < < < < < < < < < < < < -.< -.< < h < -.h c.c.gXJXNX;X' ' ' ' ' ' ' ' ' ' ' ' ' ' ' ' ' ' ' ' ' ' ' ' ' ' ",
"h h h h h h h h h h h h h X.h < < h < < -.< < < K.X.h c.c.AXSXn.m.d d d d D D d D D D D D D D D D D D D D D D D D D D D D D D D D D D D d d d d d d m.hXBXyXKXGXK.h h h h h h < h h < h X.h h h h h h h h h h h h h h h h h h h h h h h h h h h h h h h h h h h h h h h h h h h h h h h h h h h h h h h h h h h h h h h h h h h h h h h h h h h h h h h h h h h h h h h h h h h h h h h h h h h h h h h h h h h h h h h h h h h h h h h h h h h h h h h h h h h h h h h h h h h h h h h h h h h h h h h h h h h h h h h h h h h h h h h h h h h h h h h h h h h h h h h h h h h h h h h h h h h h h h h h h h h h h h h h h h h h h h h h h h h h h h h h h h h h h h h h h h h h h h h h h h h h h h h h h h h h h h h h h h h h h h h h h h h h h h h h h h h h h h h h h h h h h h h h h h h h h h h h h h h h h h h h h h h h h K.c.w I A O.O.O.O._.A R A R A R R A _.A _.O.O._.O._.O._.O.O._._.O.O.O.A R %Xc.h < h h h h h h h h h h h h h h h h h h h h h h h h h h h h < h < h h X.h c.HXAXJXFXNXh.;X' ' ' ' ' ' ' ' ' ' ' ' ' ' ' ' ' ' ' ' ' ' ' ' ' ' ",
"h h h h h h h h h h h h h h h h h h h h K.-.h 8 c c.HXGXAXSXB m.D d d d d d d D d D d d D D d D D D D D D D D D D D D D d d d d d d d d d d d d d m.m.m.m.m.yXKXHXh h h X.h h h h h h h h h h h h h h h h h h h h h h h h h h h h h h h h h h h h h h h h h h h h h h h h h h h h h h h h h h h h h h h h h h h h h h h h h h h h h h h h h h h h h h h h h h h h h h h h h h h h h h h h h h h h h h h h h h h h h h h h h h h h h h h h h h h h h h h h h h h h h h h h h h h h h h h h h h h h h h h h h h h h h h h h h h h h h h h h h h h h h h h h h h h h h h h h h h h h h h h h h h h h h h h h h h h h h h h h h h h h h h h h h h h h h h h h h h h h h h h h h h h h h h h h h h h h h h h h h h h h h h h h h h h h h h h h h h h h h h h h h h h h h h h h h h h h h h h h h h h h h h h h h h h h h h h h h h h h < h h 6 c.N 7 %XI I %X5 7 5 5 7 5 5 5 5 P A A A O._.A _._._._._.A _._.A I 7 c.6 < h h h h h h h h h h h h h h h h h h h h h h h h h h X.h h h < h < X.X.K.AXSXNXNXU.h.;X' ' ' ' ' ' ' ' ' ' ' ' ' ' ' ' ' ' ' ' ' ' ' ' ' ' ' ",
"h h h h h h h h h h h h h h h h h h X.K.X.c.gXGXAXFXdXSXZXV.W.d d d d d d D D D D D D D D D D D D D D D D D D D D D D D D D D D D D D D D d d d d d d d m.m.m.yXGXK.h X.< h h h h h h h h h h h h h h h h h h h h h h h h h h h h h h h h h h h h h h h h h h h h h h h h h h h h h h h h h h h h h h h h h h h h h h h h h h h h h h h h h h h h h h h h h h h h h h h h h h h h h h h h h h h h h h h h h h h h h h h h h h h h h h h h h h h h h h h h h h h h h h h h h h h h h h h h h h h h h h h h h h h h h h h h h h h h h h h h h h h h h h h h h h h h h h h h h h h h h h h h h h h h h h h h h h h h h h h h h h h h h h h h h h h h h h h h h h h h h h h h h h h h h h h h h h h h h h h h h h h h h h h h h h h h h h h h h h h h h h h h h h h h h h h h h h h h h h h h h h h h h h h h h h h h h h h h h h h h X.h < X.X.h 6 c.c.c.c.c.c.c.c.c.> c.c.c.c.N ,.5 I A A O.O.O.O.A A ( %X,.c.> h < < h X.h h h h h h h h h h h h h h h h h h h h h h h h h h h h h X.< X.6 HXFXNXh.;X' ' ' ' ' ' ' ' ' ' ' ' ' ' ' ' ' ' ' ' ' ' ' ' ' ' ' ' ' ' ",
"h h h h h h h h h h h h h h h h h h < < c.GXFXSXkXV.V.i.B W.m.d m.d d d d D D D D D D D D D D D D D D D D D D D D D D D D D D D D D D D D d D d d d d d d d D yXGX-.h X.h h h h h h h h h h h h h h h h h h h h h h h h h h h h h h h h h h h h h h h h h h h h h h h h h h h h h h h h h h h h h h h h h h h h h h h h h h h h h h h h h h h h h h h h h h h h h h h h h h h h h h h h h h h h h h h h h h h h h h h h h h h h h h h h h h h h h h h h h h h h h h h h h h h h h h h h h h h h h h h h h h h h h h h h h h h h h h h h h h h h h h h h h h h h h h h h h h h h h h h h h h h h h h h h h h h h h h h h h h h h h h h h h h h h h h h h h h h h h h h h h h h h h h h h h h h h h h h h h h h h h h h h h h h h h h h h h h h h h h h h h h h h h h h h h h h h h h h h h h h h h h h h h h h h h h h h h h h h h h h K.h h h K.< < < < K.h K.h K.< -.K.< < h > c.c.1 %X,.%X1 %X,.1 c.c.6 h X.< < h h h h h h h h h h h h h h h h h h h h h h h h h h h h h h h h h < h c.JXNXh.' ' ' ' ' ' ' ' ' ' ' ' ' ' ' ' ' ' ' ' ' ' ' ' ' ' ' ' ' ' ' ' ",
"4 4 4 4 4 4 4 4 4 4 4 4 4 4 -.< h h < c.GXdXV.V.B hXm.m.D D D d d d D d d D D D D D D D D D D D D D D D D D D D D D D D D D D D D D D D D D d D d d d d d d D yXAXgXc h K.h h 4 4 4 4 4 4 4 4 4 4 4 4 4 4 4 4 4 4 4 4 4 4 4 4 4 4 4 4 4 4 4 4 4 4 4 4 4 4 4 4 4 4 4 4 4 4 4 4 4 4 4 4 4 4 4 4 4 4 4 4 4 4 4 4 4 4 4 4 4 4 4 4 4 4 4 4 4 4 4 4 4 4 4 4 4 4 4 4 4 4 4 4 4 4 4 4 4 4 4 4 4 4 4 4 4 4 4 4 4 4 4 4 4 4 4 4 4 4 4 4 4 4 4 4 4 4 4 4 4 4 4 4 4 4 4 4 4 4 4 4 4 4 4 4 4 4 4 4 4 4 4 4 4 4 4 4 4 4 4 4 4 4 4 4 4 4 4 4 4 4 4 4 4 4 4 4 4 4 4 4 4 4 4 4 4 4 4 4 4 4 4 4 4 4 4 4 4 4 4 4 4 4 4 4 4 4 4 4 4 4 4 4 4 4 4 4 4 4 4 4 4 4 4 4 4 4 4 4 4 4 4 4 4 4 4 4 4 4 4 4 4 4 4 4 4 4 4 4 4 4 4 4 4 4 4 4 4 4 4 4 4 4 4 4 4 4 4 4 4 4 4 4 4 4 4 4 4 4 4 4 4 4 4 4 4 4 4 4 4 4 4 4 4 4 4 4 4 4 4 4 4 4 4 4 4 4 4 4 4 4 4 4 4 4 4 4 4 6 < 4 4 4 4 4 h 4 h h 4 4 4 4 4 4 4 4 h h h 6 h 6 h 6 h 6 6 h h h 4 4 4 4 4 4 4 4 4 4 4 4 4 4 4 4 4 4 4 4 4 4 4 4 4 4 4 4 4 4 4 4 4 4 4 -.h < 8 HXFXh.;X' ' ' ' ' ' ' ' ' ' ' ' ' ' ' ' ' ' ' ' ' ' ' ' ' ' ' ' ' ' ' ' ",
"4 4 4 4 4 4 4 4 4 4 4 4 4 4 -.h X.h c.GXdXi.n.m.D D D D D D D D D d d d d D D D D D D D D D D D D D D D D D D D D D D D D D D D D D D D D D d D D D d d d d d d D AXHXgX6 < 4 4 4 4 4 4 4 4 4 4 4 4 4 4 4 4 4 4 4 4 4 4 4 4 4 4 4 4 4 4 4 4 4 4 4 4 4 4 4 4 4 4 4 4 4 4 4 4 4 4 4 4 4 4 4 4 4 4 4 4 4 4 4 4 4 4 4 4 4 4 4 4 4 4 4 4 4 4 4 4 4 4 4 4 4 4 4 4 4 4 4 4 4 4 4 4 4 4 4 4 4 4 4 4 4 4 4 4 4 4 4 4 4 4 4 4 4 4 4 4 4 4 4 4 4 4 4 4 4 4 4 4 4 4 4 4 4 4 4 4 4 4 4 4 4 4 4 4 4 4 4 4 4 4 4 4 4 4 4 4 4 4 4 4 4 4 4 4 4 4 4 4 4 4 4 4 4 4 4 4 4 4 4 4 4 4 4 4 4 4 4 4 4 4 4 4 4 4 4 4 4 4 4 4 4 4 4 4 4 4 4 4 4 4 4 4 4 4 4 4 4 4 4 4 4 4 4 4 4 4 4 4 4 4 4 4 4 4 4 4 4 4 4 4 4 4 4 4 4 4 4 4 4 4 4 4 4 4 4 4 4 4 4 4 4 4 4 4 4 4 4 4 4 4 4 4 4 4 4 4 4 4 4 4 4 4 4 4 4 4 4 4 4 4 4 4 4 4 4 4 4 4 4 4 4 4 4 4 4 4 4 4 4 4 4 4 4 4 4 4 4 4 4 4 4 4 4 4 4 4 4 4 4 4 4 4 4 4 4 4 4 -.< 4 -.-.4 -.4 4 4 4 4 4 4 4 4 4 4 4 4 4 4 4 4 4 4 4 4 4 4 4 4 4 4 4 4 4 4 4 4 4 4 4 4 4 4 4 < =.GXSXh.' ' ' ' ' ' ' ' ' ' ' ' ' ' ' ' ' ' ' ' ' ' ' ' ' ' ' ' ' ' ' ' ' ",
"4 4 4 4 4 4 4 4 4 4 4 4 4 4 4 h h c.GXdXV.m.D D d d d d d d d d d D D d d d D d d d d d d D D D d d d d d D d D D D D D d D D D d d d d d d D d d D d d D d d d d yXKXGXgX4 -.4 4 4 4 4 4 4 4 4 4 4 4 4 4 4 4 4 4 4 4 4 4 4 4 4 4 4 4 4 4 4 4 4 4 4 4 4 4 4 4 4 4 4 4 4 4 4 4 4 4 4 4 4 4 4 4 4 4 4 4 4 4 4 4 4 4 4 4 4 4 4 4 4 4 4 4 4 4 4 4 4 4 4 4 4 4 4 4 4 4 4 4 4 4 4 4 4 4 4 4 4 4 4 4 4 4 4 4 4 4 4 4 4 4 4 4 4 4 4 4 4 4 4 4 4 4 4 4 4 4 4 4 4 4 4 4 4 4 4 4 4 4 4 4 4 4 4 4 4 4 4 4 4 4 4 4 4 4 4 4 4 4 4 4 4 4 4 4 4 4 4 4 4 4 4 4 4 4 4 4 4 4 4 4 4 4 4 4 4 4 4 4 4 4 4 4 4 4 4 4 4 4 4 4 4 4 4 4 4 4 4 4 4 4 4 4 4 4 4 4 4 4 4 4 4 4 4 4 4 4 4 4 4 4 4 4 4 4 4 4 4 4 4 4 4 4 4 4 4 4 4 4 4 4 4 4 4 4 4 4 4 4 4 4 4 4 4 4 4 4 4 4 4 4 4 4 4 4 4 4 4 4 4 4 4 4 4 4 4 4 4 4 4 4 4 4 4 4 4 4 4 4 4 4 4 4 4 4 4 4 4 4 4 4 4 4 4 4 4 4 4 4 4 4 4 4 4 4 4 4 4 4 4 4 4 4 4 4 4 4 4 4 4 4 4 4 4 4 4 4 4 4 4 4 4 4 4 4 4 4 4 4 4 4 4 4 4 4 4 4 4 4 4 4 4 4 4 4 4 4 4 4 4 4 4 4 4 < =.GXSXh.' ' ' ' ' ' ' ' ' ' ' ' ' ' ' ' ' ' ' ' ' ' ' ' ' fX`.fXfX' ' ' ' ",
"4 4 4 4 4 4 4 4 4 4 4 4 4 4 4 4 c HXKXV.W.D D d d D d d d D d d D D D D D D d D D D d D D d d d D D d D D d d D D D D D D D D d d d D d D d d D D D d d D d d d d m.BXKXGXc.6 4 4 4 4 4 4 4 4 4 4 4 4 4 4 4 4 4 4 4 4 4 4 4 4 4 4 4 4 4 4 4 4 4 4 4 4 4 4 4 4 4 4 4 4 4 4 4 4 4 4 4 4 4 4 4 4 4 4 4 4 4 4 4 4 4 4 4 4 4 4 4 4 4 4 4 4 4 4 4 4 4 4 4 4 4 4 4 4 4 4 4 4 4 4 4 4 4 4 4 4 4 4 4 4 4 4 4 4 4 4 4 4 4 4 4 4 4 4 4 4 4 4 4 4 4 4 4 4 4 4 4 4 4 4 4 4 4 4 4 4 4 4 4 4 4 4 4 4 4 4 4 4 4 4 4 4 4 4 4 4 4 4 4 4 4 4 4 4 4 4 4 4 4 4 4 4 4 4 4 4 4 4 4 4 4 4 4 4 4 4 4 4 4 4 4 4 4 4 4 4 4 4 4 4 4 4 4 4 4 4 4 4 4 4 4 4 4 4 4 4 4 4 4 4 4 4 4 4 4 4 4 4 4 4 4 4 4 4 4 4 4 4 4 4 4 4 4 4 4 4 4 4 4 4 4 4 4 4 4 4 4 4 4 4 4 4 4 4 4 4 4 4 4 4 4 4 4 4 4 4 4 4 4 4 4 4 4 4 4 4 4 4 4 4 4 4 4 4 4 4 4 4 4 4 4 4 4 4 4 4 4 4 4 4 4 4 4 4 4 4 4 4 4 4 4 4 4 4 4 4 4 4 4 4 4 4 4 4 4 4 4 4 4 4 4 4 4 4 4 4 4 4 4 4 4 4 4 4 4 4 4 4 4 4 4 4 4 4 4 4 4 4 4 4 4 4 4 4 4 4 4 4 4 4 4 4 4 -.=.GXSXh.' ' ' ' ' ' ' ' ' ' ' ' ' ' ' ' ' ' ' ' ' ' ' fX`.`.`.`.fX' ' ' ' ",
"4 4 4 4 4 4 4 4 4 4 4 4 4 4 4 c gXJXV.W.D d d d d d d d D d D D d d d D d d d d d D D d d D D D d d D d d d d d D D D D d d d d D d d d d D D d d D D d d d d D d d m.hXKXGXc.4 4 4 4 4 4 4 4 4 4 4 4 4 4 4 4 4 4 4 4 4 4 4 4 4 4 4 4 4 4 4 4 4 4 4 4 4 4 4 4 4 4 4 4 4 4 4 4 4 4 4 4 4 4 4 4 4 4 4 4 4 4 4 4 4 4 4 4 4 4 4 4 4 4 4 4 4 4 4 4 4 4 4 4 4 4 4 4 4 4 4 4 4 4 4 4 4 4 4 4 4 4 4 4 4 4 4 4 4 4 4 4 4 4 4 4 4 4 4 4 4 4 4 4 4 4 4 4 4 4 4 4 4 4 4 4 4 4 4 4 4 4 4 4 4 4 4 4 4 4 4 4 4 4 4 4 4 4 4 4 4 4 4 4 4 4 4 4 4 4 4 4 4 4 4 4 4 4 4 4 4 4 4 4 4 4 4 4 4 4 4 4 4 4 4 4 4 4 4 4 4 4 4 4 4 4 4 4 4 4 4 4 4 4 4 4 4 4 4 4 4 4 4 4 4 4 4 4 4 4 4 4 4 4 4 4 4 4 4 4 4 4 4 4 4 4 4 4 4 4 4 4 4 4 4 4 4 4 4 4 4 4 4 4 4 4 4 4 4 4 4 4 4 4 4 4 4 4 4 4 4 4 4 4 4 4 4 4 4 4 4 4 4 4 4 4 4 4 4 4 4 4 4 4 4 4 4 4 4 4 4 4 4 4 4 4 4 4 4 4 4 4 4 4 4 4 4 4 4 4 4 4 4 4 4 4 4 4 4 4 4 4 4 4 4 4 4 4 4 4 4 4 4 4 4 4 4 4 4 4 4 4 4 4 4 4 4 4 4 4 4 4 4 4 4 4 4 4 4 4 4 4 4 4 4 4 4 4 8 gXFXNX;X' ' ' ' ' ' ' ' ' ' ' ' ' ' ' ' ' ' ' ' `.fX`.fX' fX' ' ' ' ' ' ",
"8 8 6 8 8 6 4 4 6 6 6 4 4 c gXHXJXkXB D d d d d d d d d d D m.m.d d d D d d D d d d d d d d d D d d d m.d d d d D D D D d D d d d d D d d D d D D d d d d d d d m.m.d D BXdXGXc -.4 6 6 4 4 6 8 8 8 8 8 8 8 8 8 8 8 8 8 8 8 8 8 8 8 8 8 8 8 8 8 8 8 8 8 8 8 8 8 8 8 8 8 8 8 8 8 8 8 8 8 8 8 8 8 8 8 8 8 8 8 8 8 8 8 8 8 8 8 8 8 8 8 8 8 8 8 8 8 8 8 8 8 8 8 8 8 8 8 8 8 8 8 8 8 8 8 8 8 8 8 8 8 8 8 8 8 8 8 8 8 8 8 8 8 8 8 8 8 8 8 8 8 8 8 8 8 8 8 8 8 8 8 8 8 8 8 8 8 8 8 8 8 8 8 8 8 8 8 8 8 8 8 8 8 8 8 8 8 8 8 8 8 8 8 8 8 8 8 8 8 8 8 8 8 8 8 8 8 8 8 8 8 8 8 8 8 8 8 8 8 8 8 8 8 8 8 8 8 8 8 8 8 8 8 8 8 8 8 8 8 8 8 8 8 8 8 8 8 8 8 8 8 8 8 8 8 8 8 8 8 8 8 8 8 8 8 8 8 8 8 8 8 8 8 8 8 8 8 8 8 8 8 8 8 8 8 8 8 8 8 8 8 8 8 8 8 8 8 8 8 8 8 8 8 8 8 8 8 8 8 8 8 8 8 8 8 8 8 8 8 8 8 8 8 8 8 8 8 8 8 8 8 8 8 8 8 8 8 8 8 8 8 8 8 8 8 8 8 8 8 8 8 8 8 8 8 8 8 8 8 8 8 8 8 8 8 8 8 8 8 8 8 8 8 8 8 8 8 8 8 8 8 8 8 8 8 8 8 8 8 8 8 8 8 8 8 8 8 8 8 8 8 8 8 8 8 8 8 8 8 8 8 6 8 6 h : AXZX;X' ' ' ' ' ' ' ' ' ' ' ' ' ' ' ' ' ' ' ' ' ' ' ' ' ' ' ' ' ' ' ' ",
"6 6 6 6 6 6 6 6 6 4 -.8 ,.GXFXSXkXn.m.d d d d d d d d d d m.hXhXm.d d d d d d d d d d d D D d m.d D D d d d d d D D D D d d d m.hXhXhXm.D d m.d d d d d d m.d m.d d D m.t [.JX: 4 4 h 6 4 6 6 6 6 6 6 6 6 6 6 6 6 6 6 6 6 6 6 6 6 6 6 6 6 6 6 6 6 6 6 6 6 6 6 6 6 6 6 6 6 6 6 6 6 6 6 6 6 6 6 6 6 6 6 6 6 6 6 6 6 6 6 6 6 6 6 6 6 6 6 6 6 6 6 6 6 6 6 6 6 6 6 6 6 6 6 6 6 6 6 6 6 6 6 6 6 6 6 6 6 6 6 6 6 6 6 6 6 6 6 6 6 6 6 6 6 6 6 6 6 6 6 6 6 6 6 6 6 6 6 6 6 6 6 6 6 6 6 6 6 6 6 6 6 6 6 6 6 6 6 6 6 8 8 6 8 6 6 6 6 6 6 6 6 6 6 6 6 6 6 6 6 6 6 6 6 6 6 6 6 6 6 6 6 6 6 6 6 6 6 6 6 6 6 6 6 6 6 6 6 6 6 6 6 6 6 6 6 6 6 6 6 6 6 6 6 6 6 6 6 6 6 6 6 6 6 6 6 6 6 6 6 6 6 6 6 6 6 6 6 6 6 6 6 6 6 6 6 6 6 6 6 6 6 6 6 6 6 6 6 6 6 6 6 6 6 6 6 6 6 6 6 6 6 6 6 6 6 6 6 6 6 6 6 6 6 6 6 6 6 6 6 6 6 6 6 6 6 6 6 6 6 6 6 6 6 6 6 6 6 6 6 6 6 6 6 6 6 6 6 6 6 6 6 6 6 6 6 6 6 6 6 6 6 6 6 6 6 6 6 6 6 6 6 6 6 6 6 6 6 6 6 6 6 6 6 6 6 6 6 6 6 6 6 6 6 6 6 6 6 6 6 6 6 6 6 6 6 6 6 4 6 > c AXZX/.' ' ' ' ' ' ' ' ' ' ' ' ' ' ' ' ' ' ' ' ' ' ' ' ' ' ' ' ' ' ' ' ",
"6 6 6 6 6 6 6 6 6 h =.gXJXSXV.B m.D d d d d d d d d d d m.BXt hXm.d d d d d d d d d D m.yXhXhXhXhXm.m.m.d d d d D D D D d d d yXBXt t hXm.d d d d d d d D d m.d d m.hXBXf.f.yXGX=.8 h h 6 6 6 6 6 6 6 6 6 6 6 6 6 6 6 6 6 6 6 6 6 6 6 6 6 6 6 6 6 6 6 6 6 6 6 6 6 6 6 6 6 6 6 6 6 6 6 6 6 6 6 6 6 6 6 6 6 6 6 6 6 6 6 6 6 6 6 6 6 6 6 6 6 6 6 6 6 6 6 6 6 6 6 6 6 6 6 6 6 6 6 6 6 6 6 6 6 6 6 6 6 6 6 6 6 6 6 6 6 6 6 6 6 6 6 6 6 6 6 6 6 6 6 6 6 6 6 6 6 6 6 6 6 6 6 6 6 6 6 6 6 6 6 6 6 6 6 6 6 6 6 8 6 6 6 6 6 6 6 6 6 6 6 6 6 6 6 6 6 6 6 6 6 6 6 6 6 6 6 6 6 6 6 6 6 6 6 6 6 6 6 6 6 6 6 6 6 6 6 6 6 6 6 6 6 6 6 6 6 6 6 6 6 6 6 6 6 6 6 6 6 6 6 6 6 6 6 6 6 6 6 6 6 6 6 6 6 6 6 6 6 6 6 6 6 6 6 6 6 6 6 6 6 6 6 6 6 6 6 6 6 6 6 6 6 6 6 6 6 6 6 6 6 6 6 6 6 6 6 6 6 6 6 6 6 6 6 6 6 6 6 6 6 6 6 6 6 6 6 6 6 6 6 6 6 6 6 6 6 6 6 6 6 6 6 6 6 6 6 6 6 6 6 6 6 6 6 6 6 6 6 6 6 6 6 6 6 6 6 6 6 6 6 6 6 6 6 6 6 6 6 6 6 6 6 6 6 6 6 6 6 6 6 6 6 6 6 6 6 6 6 6 6 6 6 6 6 6 6 6 6 6 h h W JXNX/.' ' ' ' ' ' ' `.' ' ' ' ' ' ' ' ' ' ' ' ' ' ' ' ' ' ' ' ' ' ' ' ",
"8 8 4 6 6 4 8 6 6 =.GXFXV.B W.m.D D d d d d d d d d d m.hXt BXm.d d d d d d d d d d m.hXBXt t t BXhXyXm.d d d d D D D D d d d m.hXt f.t BXm.d d d d d d d d d m.m.BXt f.t f.t KXHX6 6 6 6 6 6 8 8 8 8 8 8 8 8 8 8 8 8 8 8 8 8 8 8 8 8 8 8 8 8 8 8 8 8 8 8 8 8 8 8 8 8 8 8 8 8 8 8 8 8 8 8 8 8 8 8 8 8 8 8 8 8 8 8 8 8 8 8 8 8 8 8 8 8 8 8 8 8 8 8 8 8 8 8 8 8 8 8 8 8 8 8 8 8 8 8 8 8 8 8 8 8 8 8 8 8 8 8 8 8 8 8 8 8 8 8 8 8 8 8 8 8 8 8 8 8 8 8 8 8 8 8 8 8 8 8 8 8 8 8 8 8 8 8 8 8 8 8 8 8 8 8 8 8 6 8 8 8 8 8 8 6 6 8 8 8 8 8 8 8 8 8 8 8 8 8 8 8 8 8 8 8 8 8 8 8 8 8 8 8 8 8 8 8 8 8 8 8 8 8 8 8 8 8 8 8 8 8 8 8 8 8 8 8 8 8 8 8 8 8 8 8 8 8 8 8 8 8 8 8 8 8 8 8 8 8 8 8 8 8 8 8 8 8 8 8 8 8 8 8 8 8 8 8 8 8 8 8 8 8 8 8 8 8 8 8 8 8 8 8 8 8 8 8 8 8 8 8 8 8 8 8 8 8 8 8 8 8 8 8 8 8 8 8 8 8 8 8 8 8 8 8 8 8 8 8 8 8 8 8 8 8 8 8 8 8 8 8 8 8 8 8 8 8 8 8 8 8 8 8 8 8 8 8 8 8 8 8 8 8 8 8 8 8 8 8 8 8 8 8 8 8 8 8 8 8 8 8 8 8 8 8 8 8 8 8 8 8 8 8 8 8 8 8 8 8 8 8 8 8 8 8 6 h h < W HXFX7X;X' ' ' ' ' fXfX`.e.' ' ' ' ' ' ' ' ' ' ' ' ' ' ' ' ' ' ' ' ' ;X;X",
"6 8 8 4 4 4 4 c : GXdXkXn.m.D D d d d d d d d d D d d d m.hXm.D d d d d d d d d d d m.BXf.t t BXhXm.m.d d d d D D D D D d d d d m.hXhXBXhXm.d d d d d d d d d hXBXt f.f.t f.f.t GXc 8 6 8 8 8 8 8 6 8 8 8 8 8 8 8 8 8 8 8 8 8 8 8 8 8 8 8 8 8 8 8 8 8 8 8 8 8 8 8 8 8 8 8 8 8 8 8 8 8 8 8 8 8 8 8 8 8 8 8 8 8 8 8 8 8 8 8 8 8 8 8 8 8 8 8 8 8 8 8 8 8 8 8 8 8 8 8 8 8 8 8 8 8 8 8 8 8 8 8 8 8 8 8 8 8 8 8 8 8 8 6 8 4 4 4 8 8 8 8 8 8 8 8 8 8 8 8 8 8 8 8 8 8 8 8 8 8 8 8 8 8 8 8 8 8 8 8 8 8 8 8 8 8 8 8 8 8 8 8 8 8 8 8 8 8 8 8 8 8 8 8 8 8 8 8 8 8 8 8 8 8 8 8 8 8 8 8 8 8 8 8 8 8 8 8 8 8 8 8 8 8 8 8 8 8 8 8 8 8 8 8 8 8 8 8 8 8 8 8 8 8 8 8 8 8 8 8 8 8 8 8 8 8 8 8 8 8 8 8 8 8 8 8 8 8 8 8 8 8 8 8 8 8 8 8 8 8 8 8 8 8 8 8 8 8 8 8 8 8 8 8 8 8 8 8 8 8 8 8 8 8 8 8 8 8 8 8 8 8 8 8 8 8 8 8 8 8 8 8 8 8 8 8 8 8 8 8 8 8 8 8 8 8 8 8 8 8 8 8 8 8 8 8 8 8 8 8 8 8 8 8 8 8 8 8 8 8 8 8 8 8 8 8 8 8 8 8 8 8 8 8 8 8 8 8 8 8 8 8 8 8 8 8 8 8 8 8 8 8 8 8 8 8 8 8 8 8 6 6 6 6 8 c =.w HXFXNXh.' ' ' ' ' fX`.e.e.`.' ' ' ' ' ' ' ' ' ' ' ' ' ' ' ' ;X;X;X/././.` ",
"6 6 6 6 6 6 c.gXGXdXB W.d d d d d d D D D D D D D d d d d d d D D D D d d d d d d D m.BXBXhXhXyXm.D d d D D D D D D D D D D d d D d m.m.m.d d D D D D D d D m.BXt f.f.f.f.f.f.f.KXgXc 8 8 8 8 8 6 6 6 6 6 6 6 6 6 6 6 6 6 6 6 6 6 6 6 6 6 6 6 6 6 6 6 6 6 6 6 6 6 6 6 6 6 6 6 6 6 6 6 6 6 6 6 6 6 6 6 6 6 6 6 6 6 6 6 6 6 6 6 6 6 6 6 6 6 6 6 6 6 6 6 6 6 6 6 6 6 6 6 6 6 6 6 6 6 6 6 6 6 6 6 6 6 6 6 6 6 6 6 6 6 6 6 8 8 8 8 8 8 8 8 8 8 8 6 6 6 6 6 6 6 6 6 6 6 6 6 6 6 6 6 6 6 6 6 6 6 6 6 6 6 6 6 6 6 6 6 6 6 6 6 6 6 6 6 6 6 6 6 6 6 6 6 6 6 6 6 6 6 6 6 6 6 6 6 6 6 6 6 6 6 6 6 6 6 6 6 6 6 6 6 6 6 6 6 6 6 6 6 6 6 6 6 6 6 6 6 6 6 6 6 6 6 6 6 6 6 6 6 6 6 6 6 6 6 6 6 6 6 6 6 6 6 6 6 6 6 6 6 6 6 6 6 6 6 6 6 6 6 6 6 6 6 6 6 6 6 6 6 6 6 6 6 6 6 6 6 6 6 6 6 6 6 6 6 6 6 6 6 6 6 6 6 6 6 6 6 6 6 6 6 6 6 6 6 6 6 6 6 6 6 6 6 6 6 6 6 6 6 6 6 6 6 6 6 6 6 6 6 6 6 6 6 6 6 6 6 6 6 6 6 6 6 6 6 6 6 6 6 6 6 6 6 6 6 6 6 6 6 6 6 6 6 6 6 6 6 6 6 6 6 6 6 6 6 c 6 h 4 =.W c.gXHXAXFXNXh.;X' ' ' ' ' e.e.`.`.fX' ' ' ' ' ' ' ' ' ' ' ' ' ' ;X/./.` ` ` ` ` ` ",
"6 6 6 6 6 c gXAXdXB m.D d m.m.d d d D D D D D d d d D D D D D d D d d d d d d D d d d m.m.m.m.d d d d d d d d d D D D D D D d d d d d D D d D D d d D d d D m.BXt f.t f.f.f.f.f.SXGXc.8 6 6 6 8 6 6 6 6 6 6 6 6 6 6 6 6 6 6 6 6 6 6 6 6 6 6 6 6 6 6 6 6 6 6 6 6 6 6 6 6 6 6 6 6 6 6 6 6 6 6 6 6 6 6 6 6 6 6 6 6 6 6 6 6 6 6 6 6 6 6 6 6 6 6 6 6 6 6 6 6 6 6 6 6 6 6 6 6 6 6 6 6 6 6 6 6 6 6 6 6 6 6 6 6 6 6 6 6 6 6 6 8 8 6 6 6 6 6 6 6 6 6 6 6 6 6 6 6 6 6 6 6 6 6 6 6 6 6 6 6 6 6 6 6 6 6 6 6 6 6 6 6 6 6 6 6 6 6 6 6 6 6 6 6 6 6 6 6 6 6 6 6 6 6 6 6 6 6 6 6 6 6 6 6 6 6 6 6 6 6 6 6 6 6 6 6 6 6 6 6 6 6 6 6 6 6 6 6 6 6 6 6 6 6 6 6 6 6 6 6 6 6 6 6 6 6 6 6 6 6 6 6 6 6 6 6 6 6 6 6 6 6 6 6 6 6 6 6 6 6 6 6 6 6 6 6 6 6 6 6 6 6 6 6 6 6 6 6 6 6 6 6 6 6 6 6 6 6 6 6 6 6 6 6 6 6 6 6 6 6 6 6 6 6 6 6 6 6 6 6 6 6 6 6 6 6 6 6 6 6 6 6 6 6 6 6 6 6 6 6 6 6 6 6 6 6 6 6 6 6 6 6 6 6 6 6 6 6 6 6 6 6 6 6 6 6 6 6 6 6 6 6 6 6 6 6 6 6 6 6 6 6 6 6 6 6 6 6 6 6 6 6 6 c.6 c c.gXGXJXFXFXSX;X;X' ' ' ' ' ' ' `.e.fXfX' ' ' ' ' ' ' ' ' ' ' ' ' ;X/.` ` ` ` ` ` ` ` ` ",
"6 6 6 6 c.gXGXdXi.m.d d d m.m.d d d d d d d d D D D d d d d d D d D D d d d d d d d D D d d d d d d d d d d d D D D D D d D d d d d m.d d d d d d d d d d d m.hXt f.t t f.f.t f.[.KXgXc.6 6 6 6 8 8 8 8 8 8 8 8 8 8 8 8 8 8 8 8 8 8 8 8 8 8 8 8 8 8 8 8 8 8 8 8 8 8 8 8 8 8 8 8 8 8 8 8 8 8 8 8 8 8 8 8 8 8 8 8 8 8 8 8 8 8 8 8 8 8 8 8 8 8 8 8 8 8 8 8 8 8 8 8 8 8 8 8 8 8 8 8 8 8 8 8 8 8 8 8 8 8 8 8 8 8 8 6 6 6 6 6 c.c.,.,.%X,.,.c.c.c.6 4 6 6 8 8 8 8 8 8 8 8 8 8 8 8 8 8 8 8 8 8 8 8 8 8 8 8 8 8 8 6 8 8 8 8 8 8 8 8 8 8 8 8 8 8 8 8 8 8 8 8 8 8 8 8 8 8 8 8 8 8 8 8 8 8 8 8 8 8 8 8 8 8 8 8 8 8 8 8 8 8 8 8 8 8 8 8 8 8 8 8 8 8 8 8 8 8 8 8 8 8 8 8 8 8 8 8 8 8 8 8 8 8 8 8 8 8 8 8 8 8 8 8 8 8 8 8 8 8 8 8 8 8 8 8 8 8 8 8 8 8 8 8 8 8 8 8 8 8 8 8 8 8 8 8 8 8 8 8 8 8 8 8 8 8 8 8 8 8 8 8 8 8 8 8 8 8 8 8 8 8 8 8 8 8 8 8 8 8 8 8 8 8 8 8 8 8 8 8 8 8 8 8 8 8 8 8 8 8 8 8 8 8 8 8 8 8 8 8 8 8 8 8 8 8 8 8 8 8 8 8 8 8 8 8 8 8 8 8 8 8 8 8 8 8 8 8 6 6 6 6 c gXGXFXSXNXh.h.;X' ' ' ' ' ' ' ' ' fX`.fX' `.' ' ' ' ' ' ' ' ' ' ' ;X/.` ` ` ` ` ` ` ` ` ` ",
"6 6 c.c.c.GXdXi.m.d d d d d d d D d D D D D D D D D D D D D D D D D D d d D d d d d d d d d d d d d d D D D D D D D D D D D d d d d m.d D d D D D D d d d d m.hXt f.t t f.f.t f.f.f.AXgX8 6 c.6 8 6 6 6 6 6 6 6 6 6 6 6 6 6 6 6 6 6 6 6 6 6 6 6 6 6 6 6 6 6 6 6 6 6 6 6 6 6 6 6 6 6 6 6 6 6 6 6 6 6 6 6 6 6 6 6 6 6 6 6 6 6 6 6 6 6 6 6 6 6 6 6 6 6 6 6 6 6 6 6 6 6 6 6 6 6 6 6 6 6 8 8 6 8 6 6 6 6 6 6 6 6 6 6 6 6 c.,.%X_.8.g g g 8._.%X,.c.6 6 6 6 6 6 6 8 6 8 8 6 6 6 6 6 6 8 6 8 6 6 6 6 6 6 6 6 6 6 8 8 6 8 6 6 6 6 6 6 6 6 6 6 6 6 6 6 6 6 6 6 6 6 6 6 6 6 6 6 6 6 6 6 6 6 6 6 6 6 6 6 6 6 6 6 6 6 6 6 6 6 6 6 6 6 6 6 6 6 6 6 6 6 6 6 6 6 6 6 6 6 6 6 6 6 6 6 6 6 6 6 6 6 6 6 6 6 6 6 6 6 6 6 6 6 6 6 6 6 6 6 6 6 6 6 6 6 6 6 6 6 6 6 6 6 6 6 6 6 6 6 6 6 6 6 6 6 6 6 6 6 6 6 6 6 6 6 6 6 6 6 6 6 6 6 6 6 6 6 6 6 6 6 6 6 6 6 6 6 6 6 6 6 6 6 6 6 6 6 6 6 6 6 6 6 6 6 6 6 6 6 6 6 6 6 6 6 6 6 6 6 6 6 6 6 6 6 6 6 6 6 6 6 6 6 6 6 6 6 6 6 6 6 6 8 6 6 6 6 c.gXJXSXs.h.h.' ' ' ' ' ' ' ' ' ' ' `.' ' ' ' ' ' ' ' ' ' ' ' ' ' ' ' ;X` ` ` ` ` ` ` ` ` ` ` ",
"8 6 c.gXGXKXB m.D d m.d m.d d d d d D D D D D D D D D D D D D D D D D D d d d d D d d d d d D d d D d D D D D D D D D D D D d D D d d d D d D D D D D d D d m.hXt f.f.f.t f.f.t f.[.KXHX: 6 c.8 8 8 8 8 8 8 8 8 8 8 8 8 8 8 8 8 8 8 8 8 8 8 8 8 8 8 8 8 8 8 8 8 8 8 8 8 8 8 8 8 8 8 8 8 8 8 8 8 8 8 8 8 8 8 8 8 8 8 8 8 8 8 8 8 8 8 8 8 8 8 8 8 8 8 8 8 8 8 8 8 8 6 6 c 8 8 8 8 8 8 6 6 6 6 6 6 6 6 6 6 6 c.6 6 6 gX(.8.& r.) ) ) ) ) r.& 8.(.,.c.6 8 8 8 8 8 8 6 6 8 8 8 8 8 8 8 8 8 c c 6 c c 8 8 8 8 8 6 6 6 8 8 8 8 8 8 8 8 8 8 8 8 8 8 8 8 8 8 8 8 8 8 8 8 8 8 8 8 8 8 8 8 8 8 8 8 8 8 8 8 8 8 8 8 8 8 8 8 8 8 8 8 8 8 8 8 8 8 8 8 8 8 8 8 8 8 8 8 8 8 8 8 8 8 8 8 8 8 8 8 8 8 8 8 8 8 8 8 8 8 8 8 8 8 8 8 8 8 8 8 8 8 8 8 8 8 8 8 8 8 8 8 8 8 8 8 8 8 8 8 8 8 8 8 8 8 8 8 8 8 8 8 8 8 8 8 8 8 8 8 8 8 8 8 8 8 8 8 8 8 8 8 8 8 8 8 8 8 8 8 8 8 8 8 8 8 8 8 8 8 8 8 8 8 8 8 8 8 8 8 8 8 8 8 8 8 8 8 8 8 8 8 8 8 8 8 8 8 8 8 8 8 8 8 8 8 8 8 8 8 8 8 6 8 8 6 c gXJXNXh.' ' ' ' ' ' ' ' ' ' ' ' ' ' fX' ' ' ' ' ' ' ' ' ' ' ' ' ' ' ;X/.` ` ` ` ` ` ` ` ` ` ` ",
"c c.: AXSXB m.m.d d m.m.m.d d d d d D D D D D D D D D D D D D D D D D D D D D D d D D D D D d D D d D D D D D D D D D D D D D D D D D D D D D D D D D d d d D hXt f.f.f.f.f.f.f.t f.U.JXgX: 6 c c c c c c c c c c c c c c c c c c c c c c c c c c c c c c c c c c c c c c c c c c c c c c c c c c c c c c c c c c c c c c c c c c c c c c c c c c c c c c c c c c c c c.6 c.c c c c 6 6 c c c c c c c c c c 8 c.c.(.g r.) ) ) ) ) ) ) ) ) r.* 8.,.c.c.8 c c c 8 c.c c c c c c c c c c 6 6 c c c 6 6 c c c.c.6 4 c c c c c c c c c c c c c c c c c c c c c c c c c c c c c c c c c c c c c c c c c c c c c c c c c c c c c c c c c c c c c c c c c c c c c c c c c c c c c c c c c c c c c c c c c c c c c c c c c c c c c c c c c c c c c c c c c c c c c c c c c c c c c c c c c c c c c c c c c c c c c c c c c c c c c c c c c c c c c c c c c c c c c c c c c c c c c c c c c c c c c c c c c c c c c c c c c c c c c c c c c c c c c c c c c c c c 8 c c h W GXNXs.' ' ' ' ' ' ' ' ' ' ' ' ' ' ' ' ' ' ' ' ' ' ' ' ' ' ' ' ' ' ;X/.` ` ` ` ` ` ` ` ` ` ` ` ",
"r : HXdXV.m.d m.m.m.hXm.d d d d d d D d d D d d D D d d D D D D D D D D d D d d d d d d d d d d d d d d d D D d D D D D D D d D D d d d D d D d d d d d d d d m.t f.f.f.f.f.f.f.t t U.ZXAX%Xc c 4 c 6 c c c c c c c c c c c c c c c c c c c c c c c c c c c c c c c c c c c c c c c c c c c c c c c c c c c c c c c c c c c c c c c c c c c c c c c c c c c c 6 c.8 c c 8 6 6 6 6 c.c.c.c.c.c.c 8 6 8 8 8 4 c c.%Xx r.) ) ) ) ) ) 0.) ) ) ) ) r.g (.c.6 c c c c c c c.c c.c c c c c c 6 8 c c c.c.gXgXgXc.c.c.6 c c 6 c c c.c c c c c c c c c c c c c c c c c c c c c c c c c c c c c c c c c c c c c c c c c c c c c c c c c c c c c c c c c c c c c c c c c c c c c c c c c c c c c c c c c c c c c c c c c c c c c c c c c c c c c c c c c c c c c c c c c c c c c c c c c c c c c c c c c c c c c c c c c c c c c c c c c c c c c c c c c c c c c c c c c c c c c c c c c c c c c c c c c c c c c c c c c c c c c c c c c c c c c c c c c c c c c c 6 c 6 8 ,.FXNXh.' ' ' ' ' ' ' ' ' ' ' ' ' ' ' ' ' ' ' ' ' ' ' ' ;X;X;X/././.` ` ` ` ` ` ` ` ` ` ` ` ` ` ",
"6 w AXdXn.D d m.hXBXBXm.d d d d d D D D D D D D D D D D D D D D D D D D D D D D D d D d d D D d d d D D D d d D D D D D D D D D D D D D D D D D D D d d d d m.m.BXf.f.f.f.f.f.f.t t f.h.SXGXW c.c c c c c c c c c c c c c c c c c c c c c c c c c c c c c c c c c c c c c c c c c c c c c c c c c c c c c c c c c c c c c c c c c c c c c c c c c c c c c c 6 c.c.c.c.c.c.c.,.%X%X%X%X(.%X%X(.,.,.c.,.c.c.c.c.gX_.r.) ) ) ) 0.) ) ) ) ) ) ) ) ) ) g A ,.c.c.c.c c c c.c.c.c.c.c c c c.6 c.c.: %X_._._._._._.O.%X,.c.c.c.c.c.c.c 6 c c c c c c c c c c c c c c c c c c c c c c c c c c c c c c c c c c c c c c c c c c c c c c c c c c c c c c c c c c c c c c c c c c c c c c c c c c c c c c c c c c c c c c c c c c c c c c c c c c c c c c c c c c c c c c c c c c c c c c c c c c c c c c c c c c c c c c c c c c c c c c c c c c c c c c c c c c c c c c c c c c c c c c c c c c c c c c c c c c c c c c c c c c c c c c c c c c c c c c c c c c c c.c c.c HXSXh.;X' ' ' ' ' ' ' ' ' ' ' ' ' ' ' ' ' ' ' ' ;X;X/././.` /.` ` ` ` ` ` ` ` ` ` ` ` ` ` ` ` ` ",
"4 w AXdXm.D d hXBXt hXm.d d d d d D D d d D D d D D d d D D D D D D D D D D D D d D d D D d d D D D D D d D D D D D D D D D D D D D D D D d D d d d d d d d m.m.BXf.f.t t f.f.f.t t f./.h.FXHX=.6 c 6 c c c c c c c c c c c c c c c c c c c c c c c c c c c c c c c c c c c c c c c c c c c c c c c c c c c c c c c c c c c c c c c c c c c c c c c c c c c 6 c.c.c.%XA _.8.7.7.& & & & & & 7.7.x 8.8.8.8._._.8.& ) ) ) ) ) ) ) ) ) ) ) 0.) ) ) r.r.r.x A 1 c.c.c.c.c.c.6 c.c.c.c.c.c.,.%X_.8.g r.r.r.r.r.r.* g _.%Xc.c.c.c.c c c c c c c c c c c c c c c c c c c c c c c c c c c c c c c c c c c c c c c c c c c c c c c c c c c c c c c c c c c c c c c c c c c c c c c c c c c c c c c c c c c c c c c c c c c c c c c c c c c c c c c c c c c c c c c c c c c c c c c c c c c c c c c c c c c c c c c c c c c c c c c c c c c c c c c c c c c c c c c c c c c c c c c c c c c c c c c c c c c c c c c c c c c c c c c c c c c c c c c c c c c c c c c c.c.W GXNXh.' ' ' ' ' ' ' ' ' ' ' ' ' ' ' ' ' ' ;X;X/./.` ` ` ` ` ! ` ` ` ` ` ` ` ` ` ` ` ` ` ` ` ` ` ",
"6 w AXyXm.D d hXBXhXm.d d d d d d d d d d d d d d d d d D D D D D D D D D D D D d d d d d d d m.m.m.m.m.d d d d D D D D D D D D D D D D D d D d d d d d d d m.m.hXt f.[.' [.f.f.t f.t ' m NXJXgX=.c c c c c c c c c c c c c c c c c c c c c c c c c c c c c c c c c c c c c c c c c c c c c c c c c c c c c c c c c c c c c c c c c c c c c c c c c c c c.c.c.,.I 8.7.& * ) ) ) ) ) ) ) ) ) ) ) ) ) ) r.r.) * ) 0.) ) ) ) ) ) ) 0.) ) ) ) ) ) ) ) ) ) ) g 8.O.(.%X%X5 5 7 5 %X(.O._._.8.7.* ) ) ) ) ) ) ) ) ) ) * x _.,.c.c c c c.c c c c c c c c c c c c c c c c c c c c c c c c c c c c c c c c c c c c c c c c c c c c c c c c c c c c c c c c c c c c c c c c c c c c c c c c c c c c c c c c c c c c c c c c c c c c c c c c c c c c c c c c c c c c c c c c c c c c c c c c c c c c c c c c c c c c c c c c c c c c c c c c c c c c c c c c c c c c c c c c c c c c c c c c c c c c c c c c c c c c c c c c c c c c c c c c c c c c c c c c c c.c c c c W GXNXh.' ' ' ' ' ' ' ' ' ' ' ' ' ' ' ' ' /./.` ` ` ` ` ` ` ` ` ` ` ` ` ` ` ` ` ` ` ` ` ` ` ` ` ` ",
"6 w AXdXhXD d m.m.d D d d D D D d d d d d d d d d d d d D D D D D D D D D D D D d d d d d m.hXhXhXhXm.m.d d d D D D D D D D D D D D D D D D D D D D d d d d m.d m.BXf.' ;X' f.t t f.t [./.a.ZXAX%Xc c c c c c c : : : : : : : : : : : : : : : : : : : : : : : : : : : : : : : : : : : : : : : : : : : : : : : : : : : : : : : : : : : c c c c c c c c c.c.,.A 8.7.r.) ) ) ) ) ) ) ) ) ) ) ) ) ) ) ) ) ) ) ) ) ) ) ) ) ) 0.) ) ) ) ) ) ) ) ) 0.) ) ) ) ) ) r.& 7.g x x x x x g & * r.) ) ) ) ) ) ) ) ) ) ) ) ) ) ) ) r.8.(.c.c c : c.c.c c c : : : : : : : : : : : : : : : : : : : : : : : : : : : : : : : : : : : : : : : : : : : : : : : : : : : : : : : : : : : : : : : : : : : : : : : : : : : : : : : : : : : : : : : : : : : : : : : : : : : : : : : : : : : : : : : : : : : : : : : : : : : : : : : : : : : : : : : : : : : : : : : : : : : : : : : : : : : : : : : : : : : : : : : : : : : : : : : : : : : : : : : : : : : : : : : : : : : c c c c c.c.*.GXNXh.' ' ' ' ' ' ' ' ' ' ' ' ' ' ' ;X/.` ` ` ` ` ` ` ` ` ` ` ` /.` /.! ` ` ` ` ` ` ` ` ` ` ` ` ",
"c *.AXdXhXD d d d d d d d D D d d d d d d d d d d d d d D D D D D D D D D D D D d d d d d m.hXhXhXhXm.d d d D D D D D D D D D D D D D D D D d d D D d d d d d d hXBXf.[.' [.f.f.f.f.f.' /.y.y.SXGX%X: c c c c c : : c.: c.: c.: c.: c.: c.: c.: c.: c.: c.: c.: c.: c.: c.: c.: c.: c.: c.: c.: c.: c.: c.: c.: c.: c.: c.: c.: : : : : : c : : : c.,.%X(.8.& r.) ) ) ) r.) ) ) ) ) ) ) ) ) ) ) ) ) ) ) ) ) ) ) ) ) ) ) ) ) ) ) ) ) ) ) ) ) ) ) ) ) ) ) ) ) ) ) ) ) ) ) ) ) ) F F ) ) ) ) ) ) ) ) ) ) ) ) ) ) ) ) r.) r.g O.,.c.: : : c c : : c.: c.: c.: c.: c.: c.: c.: c.: c.: c.: c.: c.: c.: c.: c.: c.: c.: c.: c.: c.: c.: c.: c.: c.: c.: c.: c.: c.: c.: c.: c.: c.: c.: c.: c.: c.: c.: c.: c.: c.: c.: c.: c.: c.: c.: c.: c.: c.: c.: c.: c.: c.: c.: c.: c.: c.: c.: c.: c.: c.: c.: c.: c.: c.: c.: c.: c.: c.: c.: c.: c.: c.: c.: c.: c.: c.: c.: c.: c.: c.: c.: c.: c.: c.: c.: c.: c.: c.: c.: c.: c.: c.: c.: c.: c.: c.: c.: c : c c c.c *.GXNXh.' ' ' ' ' ' ' ' ' ' ' ;X' ;X/.` ` ` ` ` ` ` ` ` ` ` ` ` ` ! /./././.` ` ` ` ` ` ` ` ` ` ` ",
"c P AXdXhXD d d d d d d d d d d d d d d d d d d d d d d D D D D D D D D D D D D d d d d d d m.d D D D D d d D D D D D D d d d d d d d d d d D D D D d d d d m.m.BXt f.f.t t f.f.[.[.;X/.m m y.y.SXHXW c c : : : : : : : : : : : : : : : : : : : : : : : : : : : : : : : : : : : : : : : : : : : : : : : : : : : : : : : : : : : : : : =.=.: : : ,.A _.7.* r.) ) ) ) r.) 0.) 0.) ) ) ) ) ) ) ) ) ) ) ) ) ) ) ) ) ) ) ) ) ) ) ) ) ) ) ) ) ) ) ) ) ) ) 0.) ) ) ) ) ) ) ) ) ) ) ) ) ) r.) ) ) ) ) ) ) ) ) ) ) ) ) ) ) ) ) ) ) g A c.: =.: : : : : : : : : : : : : : : : : : : : : : : : : : : : : : : : : : : : : : : : : : : : : : : : : : : : : : : : : : : : : : : : : : : : : : : : : : : : : : : : : : : : : : : : : : : : : : : : : : : : : : : : : : : : : : : : : : : : : : : : : : : : : : : : : : : : : : : : : : : : : : : : : : : : : : : : : : : : : : : : : : : : : : : : : : : : : : : : : : : : : : : : : : : : : : : : : : : : : : : c : c c : c *.AXNXh.' ' ' ' ' ' ' ' ;X;X/././.` ` ` ` ` ` ` ` ` ` ` ` ` ` ` ` /./././.! ` ` ` ` ` ` ` ` ` ` ` ",
"W gXKXn.m.D D d d d d d d D D D D D d D d m.m.d d d d D D D D D D D D D D D D D d d d d d d d d d m.d d d d d D D D D D D D D D D d d D D d d d d d d d d m.yXBXt t t f.f.f.f.f.[.U.m y.y.m m y.m KXgX: c c : : =.=.=.=.=.=.=.=.=.=.=.=.=.=.=.=.=.=.=.=.=.=.=.=.=.=.=.=.=.=.=.=.=.=.=.=.=.=.=.=.=.=.=.=.=.=.=.=.=.=.=.=.=.=.=.=.=.: : =.c : : 1 _.g r.F ) ) ) ) ) ) ) 0.0.0.) ) 0.) ) ) ) ) ) ) ) ) ) ) ) ) ) ) ) ) ) ) ) ) ) ) ) ) ) ) ) ) ) ) ) ) ) ) ) 0.) ) ) ) 0.) ) 0.) ) ) ) ) ) 0.) ) ) ) ) ) ) ) ) ) ) 0.) ) ) ) ) g (.c.: c : : =.=.=.=.=.=.=.=.=.=.=.=.=.=.=.=.=.=.=.=.=.=.=.=.=.=.=.=.=.=.=.=.=.=.=.=.=.=.=.=.=.=.=.=.=.=.=.=.=.=.=.=.=.=.=.=.=.=.=.=.=.=.=.=.=.=.=.=.=.=.=.=.=.=.=.=.=.=.=.=.=.=.=.=.=.=.=.=.=.=.=.=.=.=.=.=.=.=.=.=.=.=.=.=.=.=.=.=.=.=.=.=.=.=.=.=.=.=.=.=.=.=.=.=.=.=.=.=.=.=.=.=.=.=.=.=.=.=.=.=.=.=.=.=.=.=.=.=.=.=.=.=.=.=.=.=.=.=.=.=.=.=.=.=.=.=.=.=.=.=.=.=.=.=.=.=.=.=.=.=.=.=.=.=.=.=.=.=.=.=.=.=.=.=.=.=.=.: : =.: c *.JXoXh.' ' ' ' ' ' ' ;X/.` ` ! ` ` ` ` ` ` ` ` ` ` ` ` ` ` ` ` ` ! ` ! /.` ` ` ` ` ` ` ` ` ` ` ` ",
"%XJXkXhXD d d D D d d D d d d d d d d d m.hXm.d d d d d D D D D D D D D D D D D D d D D D d d d d d D D d D D d D D D D d d d d d d d m.m.m.hXhXhXhXhXhXhXBXt f.t f.t t f.f.f.[.U.U.m m m m m m y.` JXgX: c =.: : : : : : : : : : : : : : : : : : : : : : : : : : : : : : : : : : : : : : : : : : =.=.: : =.c c =.: : : : : : : : : : : =.=.,._.r.) ) ) ) ) ) ) ) ) ) ) ) ) ) ) ) ) ) ) ) ) ) ) ) ) ) ) ) ) ) ) ) ) ) ) ) ) ) ) ) ) ) ) ) ) ) ) ) ) ) ) ) ) ) ) ) ) ) ) ) ) ) ) ) ) ) ) ) ) ) ) ) ) ) ) ) ) ) ) ) ) ) ) ) ) r.g (.: c : =.=.=.=.: : : : : : : : : : : : : : : : : : : : : : : : : : : : : : : : : : : : : : : : : : : : : : : : : : : : : : : : : : : : : : : : : : : : : : : : : : : : : : : : : : : : : : : : : : : : : : : : : : : : : : : : : : : : : : : : : : : : : : : : : : : : : : : : : : : : : : : : : : : : : : : : : : : : : : : : : : : : : : : : : : : : : : : : : : : : : : : : : : : : : : : : : : : : : : : : : : : : : c.c %XFXoXh.' ' ' ' ' ' ' /.` ` ` ` ` ` ` ` ` ` ` ` ` ` ` ` ` ` ` ` ` ` ` ` ` ! ` ` ` ` ` ` ` ` ` ` ` ",
"GXKXn.m.d d d d d D D d d D d m.d m.m.yXBXhXm.d d d d d D D D D D D D D D D D D d D d d d D D D D D d d D d d D D D D D d d d d d m.hXBXBXt t t t t BXt t f.f.f.f.f.f.f.f.f.f.[.U.h.m m m m m m m m NXAX%X=.: : : : : : : : : : : : : : : : : : : : : : : : : : : : : : : : : : : : : : : =.: : : : : : : : : : c.: : : : : : =.: : : : c : (.7.) ) ) ) F ) ) ) ) ) ) ) ) ) ) ) F ) F F F F F F F F F F F F F F F F F ) ) ) ) ) ) ) ) ) ) ) ) ) ) ) ) ) ) ) ) ) ) ) ) F F ) F ) ) ) ) ) ) ) F ) F F F F F F ) ) ) ) ) ) ) ) ) r._.,.: : : : : =.: : : : : =.: : =.: : : : : : : : : : : : : : : : : : : : : : : : : : : : : : : : : : : : : : : : : : : : : : : : : : : : : : : : : : : : : : : : : : : : : : : : : : : : : : : : : : : : : : : : : : : : : : : : : : : : : : : : : : : : : : : : : : : : : : : : : : : : : : : : : : : : : : : : : : : : : : : : : : : : : : : : : : : : : : : : : : : : : : : : : : : : : : : : : : : : : : : : : : : c.c c (.FX7Xh.' ' ' ' ' ' /.` ` ` ` ` ` ` ` ` ` ` ` ` ` ` ` ` ` ` ` ` ` ` ` ` ` ` ` ` ` ` ` ` ` ` ` ` ` ",
"JXhXm.d m.d d d D d d D d D d m.d d m.BXBXm.D d d d D d D D D D d D D d d D D d D d D D D d d d d d D D d D D d D d d d d D d d m.hXt f.f.f.f.f.f.f.f.f.f.f.t t f.f.f.f.f.f.f.[.U.h.m m m y.m m m m y.SXGX,.: : : : =.: : : : : : : : : : : : : : : : : : : : : : : : : : : : : : : : : =.: : : : : =.=.c =.: c c : : : : =.=.=.: : : : : %X8.r.) ) ) ) ) ) ) F ) ) ) ) ) ) ) ) ) F ) ) ) ) ) ) ) ) ) ) ) ) ) ) ) ) ) ) ) ) ) ) ) ) ) ) ) ) ) ) ) ) ) ) ) ) ) ) ) ) ) ) ) ) ) ) ) ) ) ) ) ) ) ) ) ) ) ) ) ) ) ) ) ) ) ) ) ) ) r.g (.c.: : : : : : : : : =.: : : : : : : : : : : : =.=.: : : : : : : : : : : : : : : : : : : : : : : : : : : : : : : : : : : : : : : : : : : : : : : : : : : : : : : : : : : : : : : : : : : : : : : : : : : : : : : : : : : : : : : : : : : : : : : : : : : : : : : : : : : : : : : : : : : : : : : : : : : : : : : : : : : : : : : : : : : : : : : : : : : : : : : : : : : : : : : : : : : : : : : : : : : : : : : : : : c =.HXNXs.;X' ' ' ' ' ;X/.` ` ` ` ` ` ` ` ` ` ` ` ` ` ` ` ` ` ` ` ` ` ` ` ` ` ` ` ` ` ` ` ` ` ` ` ` ` ",
"kXW.m.d d d d d D D D D d d d d d m.BXt hXm.d d d d d d D D D D D D D D D d D D d d d D D d D D D D D D D D D D d D D D d d d d m.BXf.f.f.f.f.f.f.f.f.f.f.f.f.t f.f.f.f.f.f.f.U.h.m m m m m m m m m y.a.FXHXw : : : : =.: =.=.=.=.=.=.=.=.=.=.=.=.=.=.=.=.=.=.=.=.=.=.=.=.=.=.=.=.=.=.=.: : : : : : : c.c.c.c.c.c.: : : : : : : =.=.=.: ,._.r.) ) ) ) ) F F F ) F ) ) ) ) ) ) ) ) F F F F F F F F F F F F F F F F F F F F F F F F F F F F F F F F F F F F F F F F F F F F F F F F F F F F F F F F F F F F F F F F F F ) ) ) ) ) r._.,.: : : : =.=.=.=.=.=.=.=.=.=.=.=.=.=.=.=.=.=.=.: =.=.=.=.=.=.=.=.=.=.=.=.=.=.=.=.=.=.=.=.=.=.=.=.=.=.=.=.=.=.=.=.=.=.=.=.=.=.=.=.=.=.=.=.=.=.=.=.=.=.=.=.=.=.=.=.=.=.=.=.=.=.=.=.=.=.=.=.=.=.=.=.=.=.=.=.=.=.=.=.=.=.=.=.=.=.=.=.=.=.=.=.=.=.=.=.=.=.=.=.=.=.=.=.=.=.=.=.=.=.=.=.=.=.=.=.=.=.=.=.=.=.=.=.=.=.=.=.=.=.=.=.=.=.=.=.=.=.=.=.=.=.=.=.=.=.=.=.=.=.=.=.=.=.=.=.=.=.=.=.=.=.=.=.=.=.=.=.=.=.=.=.=.=.: : : c.: ( AXNXh.' ' ' ' ' ' /.` ` ` ` ` ` ` /.` ` ` ` ` ` ` ` ` ` ` ` ` ` ` ` ` /.` ` ` ` ` ` ` ` ` ` ` ` p.",
"i.m.d d d d d d D D D D d D d d m.hXBXBXm.d d d d d d D D D D D d D D d d D D d D D D D D D D D D D D D D D D d D d d d d d d m.hXt t t t t f.f.t f.f.f.t t f.f.f.f.f.f.f.f.[.h.m m m m m p.m y.m m m a.ZXGXw : : =.=.: : =.=.=.=.=.=.=.=.=.=.=.=.=.=.=.=.=.=.=.=.=.=.=.=.=.=.=.=.=.: =.=.=.=.: c.: %X( A A I (.(.%X: =.=.=.=.=.=.: : ,._.r.) ) ) ) ) ) ) ) ) ) ) ) ) ) ) ) ) ) ) ) ) ) ) ) ) ) ) ) ) ) ) ) ) ) ) ) ) ) ) ) ) ) ) ) ) ) ) ) ) ) ) ) ) ) ) ) ) ) ) ) ) ) ) ) ) ) ) ) ) ) ) ) ) ) ) ) ) ) ) ) ) ) ) ) ) ) ) ) ) ) ) x 7 : =.=.: =.=.=.=.=.=.=.: : : : : : : =.=.=.=.=.=.=.: =.=.=.=.=.=.=.=.=.=.=.=.=.=.=.=.=.=.=.=.=.=.=.=.=.=.=.=.=.=.=.=.=.=.=.=.=.=.=.=.=.=.=.=.=.=.=.=.=.=.=.=.=.=.=.=.=.=.=.=.=.=.=.=.=.=.=.=.=.=.=.=.=.=.=.=.=.=.=.=.=.=.=.=.=.=.=.=.=.=.=.=.=.=.=.=.=.=.=.=.=.=.=.=.=.=.=.=.=.=.=.=.=.=.=.=.=.=.=.=.=.=.=.=.=.=.=.=.=.=.=.=.=.=.=.=.=.=.=.=.=.=.=.=.=.=.=.=.=.=.=.=.=.=.=.=.=.=.=.=.=.=.=.=.=.=.=.: =.: : : : : *.y %XGXSXh.;X' ' ' ' ' ;X` ` ` ` ` ` ` ` ` ` ` ` ` ` ` ` ` ` ` ` ` ` ` ` ` ` ` ` ` ` ` ` ` ` ` ` ` ` p.x.",
"i.m.d m.d d d d D D D D d d d d m.BXBXm.d d d d d D D D D D D D d D D d d d d d d d d d d D D D D D D D D D D d d d d d d m.m.hXt f.t f.f.f.t t t t t t f.f.t f.f.f.f.t f.[./.m m y.m m m m m m m m m y.h.AX%X=.: : : : : : : : : : : : : : : : : : : : : : : : : : : : : : : : : : : =.=.=.: : %X_.x * r.* * & & 8.%Xc.=.: : : : ,.%X_.r.F ) ) ) ) ) ) ) ) ) ) ) ) ) ) ) ) ) ) ) ) ) ) ) ) ) ) ) ) ) ) ) ) ) ) ) ) ) ) ) ) ) ) ) ) ) ) ) ) ) ) ) ) ) ) ) ) ) ) ) ) ) ) ) ) ) ) ) ) ) ) ) ) ) ) ) ) ) ) ) ) ) ) ) ) ) ) ) ) ) ) ) r.(.c.: W =.=.=.=.W : : c.1 %X%X%X%X%X: : : =.=.=.: : : : : : : : : : : : : : : : : : : : : : : : : : : : : : : : : : : : : : : : : : : : : : : : : : : : : : : : : : : : : : : : : : : : : : : : : : : : : : : : : : : : : : : : : : : : : : : : : : : : : : : : : : : : : : : : : : : : : : : : : : : : : : : : : : : : : : : : : : : : : : : : : : : : : : : : : : : : : : : : : : : : : : : : =.=.: =.=.: : W %XHXGXJXSX;X;X' ' ' ' ' ;X/.` ` ` ` ` ` ` ` ` ` ` ` ` ` ` ` ` ` ` ` ` ` ` /.` ` ` ` ` ` ` ` ` ` ` ` ` _ p.x.",
"i.yXm.m.d d d d D D D D d d d d m.hXhXm.d d d D d d d D D D D D d d d D d d d d d d d d d d D D D D D D D D d d d d d d m.m.hXt f.f.t f.f.f.t t f.t t t f.f.f.f.f.f.f.t f.;Xm m m m m m m m m m m m m p.h.AX%X=.: : : : : : : : : : : : : : : : : : : : : : : : : : : : : : : : : : : : : : %X( x r.F F F ) F F F r.8.(.%X%X(.(._._.8.* F ) ) ) ) ) ) ) F F F F F F F F F F F F F F F F F F F F F F F F F F F F F F F F F F F F F F F F F F F F F F F F F F F F F F F F F F F F F ) F ) ) ) F ) ) F F F F F F F F F F ) ) ) ) ) F r._.%Xc.: =.=.=.: : : (.O._.8.g g 7.8._.%X1 : =.=.: : : : : : : : : : : : : : : : : : : : : : : : : : : : : : : : : : : : : : : : : : : : : : : : : : : : : : : : : : : : : : : : : : : : : : : : : : : : : : : : : : : : : : : : : : : : : : : : : : : : : : : : : : : : : : : : : : : : : : : : : : : : : : : : : : : : : : : : : : : : : : : : : : : : : : : : : : : : : : : : : : : : : =.: : : : : =.c =.w gXAXFXSX`.;X' ' ' ' ' ' ' ;X` ` ` ` ` ` ` ` ` ` ` ` ` ` ` ` ` ` ` ` ` ` ` ` ` ` ` ` ` /.` ` ` ` ` ` ` ` p.x.x.",
"kXn.m.d d d d d D D D D d d d d m.m.m.d d d d d D D D D D D D d D D D D D d d d d d d d d d D D D D D d D D d d d d D D m.hXt t f.f.f.t f.t f.f.f.f.f.f.f.f.f.f.f.f.t f.' m m m m m ` y.m ` y.m m m y.y.SXHXw =.: : : : : W W W W W W W W W W W W W W W W W W W W W W W W W W : : : : : : %XA x r.V ) ) ) ) r.) ) ) g 7.8.8.7.7.* r.r.) ) ) ) ) ) ) ) ) F F F F F F F F F F F F F F F F F F F F F F F F F F F F F F F F F F F F F F F F F F F F F F F F F F F F F F F F F F F F F F F F F F F F F F F F F F F F F F F ) ) ) ) ) ) r.g _.(.%X,.,.: ,.,.I 8.* r.r.F F F r.r.g _.%X: : : : : : W W W W W W W W W W W W W W W W W W W W W W W W W W W W W W W W W W W W W W W W W W W W W W W W W W W W W W W W W W W W W W W W W W W W W W W W W W W W W W W W W W W W W W W W W W W W W W W W W W W W W W W W W W W W W W W W W W W W W W W W W W W W W W W W W W W W W W W W W W W W W W W W W W W W W W W W W W W W W W W W W =.: : : : =.: W gXGXJXSXh.h.;X' ' ' ' ' ' ' ' /.` ` ` ` ` ` ` ` ` ` ` ` ` ` ` ` ` ` ` ` ` ` ` ` ` ` ` ` ` ` ` ` ` ` ` ` ` _ x.x.x.",
"dXn.m.D d d d d D D D D d d d d m.d d d d d D D D D D D D D D D D D d d d d d d d d d d d d D D D D d D d D d d d d m.yXBXf.f.t t f.f.f.f.f.t f.f.f.t t f.t t t f.f.f.[./.m m m m m m m m m m m y.y.` SXGXgX=.=.: W : : : : : : : : : : : : : : : : : : : : : : : : : : : : : : : W : : %XR 8.g r.F ) ) F ) ) ) ) ) ) F F V V F ) ) ) ) ) ) ) ) ) ) ) ) ) ) ) ) ) ) ) ) ) ) ) ) ) ) ) ) ) ) ) ) ) ) ) ) ) ) ) ) ) ) ) ) ) ) ) ) ) ) ) ) ) ) ) ) ) ) ) ) ) ) ) ) ) ) ) ) ) ) ) ) ) ) ) ) ) ) ) ) ) ) ) ) ) ) ) ) ) ) ) ) ) ) ) ) ) ) F r.* x 8._._._.8.g r.F ) ) ) ) ) ) ) F * 8.(.: : : : : W W W W W W W W : W : : : : : : : : : : : : : : : : : : : : : : : : : : : : : : : : : : : : : : : : : : : : : : : : : : : : : : : : : : : : : : : : : : : : : : : : : : : : : : : : : : : : : : : : : : : : : : : : : : : : : : : : : : : : : : : : : : : : : : : : : : : : : : : : : : : : : : : : : : : : : : : : : : : : : : : : : : : : : W (.AXSXNXh.;X' `.' ' ' ' ' ' ' /.` ` ` ` ` ` ` ` ` ` ` ` ` ` ` ` /./.` ` ` ` ` ` ` ` ` ` ` ` ` ` ` ` ` ` y.y.p.x.a.a.",
"KXn.m.D d d d d D D D D d d d d d d d D d D D D D D D D D D D d d d d m.m.m.m.m.d d D d d D d D D D D d d d d d d hXBXf.;X' f.f.f.t t f.f.f.f.t t t f.f.f.f.f.f.f.f.[.;Xm m m y.m m m m m m m m y.`.KXHX%XW =.=.: W =.: W W W W W W W W W W W W W W W W W W W W W W W W W W W W : W : %XU 8._.7.) F ) F ) F ) ) ) ) ) ) ) F F ) ) F F ) ) F F F ) ) ) F F F F F F F F F F F F F F F F F F F F F F F F F F F F F F F F F F F F F F F F F F F F F F F F F F F F F F F F F F F F F ) ) ) ) ) ) ) ) ) ) ) ) ) ) ) F F F ) ) ) ) ) F F ) F F F V F r.r.r.F ) ) ) ) ) ) ) F ) ) ) F r.x A %X: : : W W W W W W =.=.: : W W W W W W W W W W W W W W W W W W W W W W W W W W W W W W W W W W W W W W W W W W W W W W W W W W W W W W W W W W W W W W W W W W W W W W W W W W W W W W W W W W W W W W W W W W W W W W W W W W W W W W W W W W W W W W W W W W W W W W W W W W W W W W W W W W W W W W W W W W W W W W W W W W W W W W W W W =.: : : %XAXZXh.;X' ' ' ' ' ' ' ' ' ;X;X/.` ` ` ` ` ` ` ` ` ` ` ` ` ` ! /./././.` ` ` ` ` ` ` ` ` ` ` ` ` m m m y.a.s.7Xs.s.h.",
"AXyXm.d d d d d D D D D d D D D d D d d d d D D D D D D D D D d d d d yXBXBXBXm.d d D d d d D D D D d d d d d m.hXf.;Xm /.[.f.f.f.f.t t f.f.f.f.t f.f.f.[.;X/.' f.[./.m m m m m m m m m m m y.m SXGX%Xw : W W W W W W W W W W W W W W W W W W W W W W W W W W W W W W W W W W W W W %X_.8.8._.8.0.) ) ) F ) ) F F ) ) F ) ) ) F F F F F ) F F F F F F F F F F F F F F F F F F F F F F F F F F F F F F F F F F F F F F F F F F F F F F F F F F F F F F F F F F F F F F F ) F F F ) ) ) ) ) ) F F r.* & 7.7.g 7.& r.r.F V F ) ) ) ) F F F F F F F F F F F ) F F F F ) ) ) ) ) ) F r.r.8.(.%X%XW : 1 1 w 1 : %X: : : =.W : W W W W W W W W W W W W W W W W W W W W W W W W W W W W W W W W W W W W W W W W W W W W W W W W W W W W W W W W W W W W W W W W W W W W W W W W W W W W W W W W W W W W W W W W W W W W W W W W W W W W W W W W W W W W W W W W W W W W W W W W W W W W W W W W W W W W W W W W W W W W W W W W W W W W W W : : %XAXNXh.' ' ' ' ' ' ' ' ' ;X/./.` ! ` ` ` ` ` ` ` ` ` ` ` ` ` /./.;X/./.! ` ` ` ` ` m ` ` ` ` ` m y.a.s.h.h./.;X;X;X'.'.",
"AXyXm.d d d d d D D D D D D D d D d D D D d D D D D D D D D D d d D m.hXt t hXd d d d d d d d D D D d d d d m.hXt ' /.;X[.f.f.f.f.f.f.f.t f.t f.f.f.f.' /.m m ' f.;Xm m m m m _ m m m m m m p.h.KX(.: : : W W W W W W W W W W W W W W W W W W W W W W W W W W W W W W =.W : =.W W %XU 8._.8.8.7.) ) F ) F ) F F F F F F F F F F ) ) F F F F F F F ) F F F F F F F F F F F F F F F F F F F F F F F F F F F F F F F F F F F F F F F F F F F F F F F F F F F F F F F F F F ) F F F ) ) F F F F ) * 7.8.8.xX8.8.8.8.8.x r.r.) ) F F ) F F F F F F F ) ) ) F F F F F F F F F ) F ) ) ) F r.MXx 8._._.8.8.8.8.8._.O.%XW W W W W W W : W W W W W W W W W W W W W W W W W W W W W W W W W W W W W W W W W W W W W W W W W W W W W W W W W W W W W W W W W W W W W W W W W W W W W W W W W W W W W W W W W W W W W W W W W W W W W W W W W W W W W W W W W W W W W W W W W W W W W W W W W W W W W W W W W W W W W W W W W W W W W W W W W W W %XHXSXNX;X' ' ' ' ' ' ' ' /.` ` ` ` ` ` ` ` ` ` ` ` ` ` ` ` ` ! /./././.! ` ` ` ` ` ` ` ` m a.s.s.s.h.h./.;X'.R.4.4.#.#.#.",
"dXhXm.D d d D d d d D d d D D D d d d D d D D D D D D D D D D d d d hXt t hXm.d d d d d d d d D d d d d d d yXBXf.f.' f.f.f.f.f.f.f.t t f.f.f.f.f.f.[./.m m ;Xf.[./.m m m m m m m m m m m m m y.SXHXw w W W W W W W W W W W W W W W W W W W W W W W W W W W W W W W W W W W W W w A n 8._.8.8.0.) ) ) ) ) F ) F F ) ) F ) F F F ) F F F F F F F F F F F F F F F F F F F F F F F F F F F F F F F F F F F F F F F F F F F F F F F F F F F F F F F F F F F F F F F F F ) ) F ) ) ) F F r.r.* * 7.7.8._.8._.8._.8._.8._.8.0.F ) ) F ) ) F F F F F F F F F ) F F F ) F F F F ) F F ) ) ) ) ) ) F F r.F F r.) F r.* 8.(.%XW W W W W W W W W W W W W W W W W W W W W W W W W W W W W W W W W W W W W W W W W W W W W W W W W W W W W W W W W W W W W W W W W W W W W W W W W W W W W W W W W W W W W W W W W W W W W W W W W W W W W W W W W W W W W W W W W W W W W W W W W W W W W W W W W W W W W W W W W W W W W W W W W W W W W W W W w gXFXh.;X' ' ' ' ' ' ' ;X/.` ` ` ` ` ` ` ` ` ` ` ` ` ` ` ` ` ` ` ` /.` ! ` ` ` ` ` ` ` m a.s.s.h.h./.'.R.4.4.#.#.#.#.#.#.#.",
"i.m.m.d D d D d D D d D D D D D D D D D D D D D D D D D D D D d D m.hXt hXm.d d d d d d d d D d d D D d d m.hXt f.f.f.f.f.f.f.f.f.f.f.f.f.f.f.f.f.f.[.;X/.;X[.f.;Xm m m m m m m m m m m m m m p.ZXGX*.W W W W W W W W W W W W W W W W W W W W W W W W W W W W W W W W W W W W W %XR 8.8._.8.7.) F ) ) F ) F ) F F F F F F F F F F F F F F F F ) ) ) F F F F F F F F F F F F F F F F F F F F F F F F F F F F F F F F F F F F F F F F F F F F F F F F F F F F F F F F F ) F ) ) F F r.7.7.8.8.8._.8.8.8.8.8.8._.8._.8.7.r.F F ) F ) F F F F F F F F F F F F F F F F F F F F ) ) F ) F F ) ) ) F ) F ) ) V F F ) r.g R %Xw w W W W W W W W W W W W W W W W W W W W W W W W W W W W W W W W W W W W W W W W W W W W W W W W W W W W W W W W W W W W W W W W W W W W W W W W W W W W W W W W W W W W W W W W W W W W W W W W W W W W W W W W W W W W W W W W W W W W W W W W W W W W W W W W W W W W W W W W W W W W W W W W W W W W W W %XAXNXh.' ' ' ' ' ' ' ;X` ` ` ` ` ` ` ` ` ` ` ` ` ` ` ` ` ` ` ` ` ` ` ` /.` ` ` ` y.` p.s.s.h.;X'.4.4.4.4.#.#.#.#.#.#.#.#.#.",
"B W.m.d d d d d d d D d d D D D D D D D D D D D D D D D D D D d D d m.hXm.d d D d d d d d d d d d m.m.m.D m.BXf.t f.t f.f.t t f.f.f.f.t f.f.t f.f.f.f.[.[.f.f.f./.m y.m m m p.m m m m m m m m y.h.AX*.W 1 W W W W W W W W W W W W W W W W W W W W W W W W W W W W W W W W W W 1 ( n 8._.8.8.7.) F ) ) F F ) F F F F F F F F F F F F F F F F F F F F F F F F F F F F F F F F F F F F F F F F F F F F F F F F F F F F F F F F F F F F F F F F F F F F F F F F F F F F F F F ) ) F F & 8._.8._.8.8.8._.8._.8.8.8.8._.7.r.F F F ) ) F F F F F F F F F F F F F F F F F F F F F F F F F F F ) F F ) F ) F F F F ) ) F F g _.%Xw W W W W W W W W W W W W W W W W W W W W W W W W W W W W W W W W W W W W W W W W W W W W W W W W W W W W W W W W W W W W W W W W W W W W W W W W W W W W W W W W W W W W W W W W W W W W W W W W W W W W W W W W W W W W W W W W W W W W W W W W W W W W W W W W W W W W W W W W W W W W W W W W W W W : *.gXFXs.;X' ' ' ' ' ' ;X/.` ` ` ` ` ` ` ` ` ` ` ` ` ` ` ` ` ` ` ` ` ` ` _ _ p.p.p.p.x.x.a.s.h.'.R.4.#.#.#.#.#.#.#.#.#.#.4.#.#.",
"[.f.n.m.d d d d d d d d d d D D D D D D D D D D D D D D D D D D d d d d D D D d d d d d d m.d d m.hXBXhXm.hXt f.t t f.f.f.f.f.f.f.f.t f.f.t f.t t t t t f.f.f.f./.m y.m m m m m m m m m m m m y.h.AX*.: 1 W W W w w w w w w w w w w w w w w w w w w w w w w w w w w w w W w : W I _._.8.8._.7.r.F F ) ) ) F F F F F F F F F F F F F F F F ) ) ) ) F ) ) ) F F F F F F F F F F F F F F F F F F F F F F F F F F F F F F F F F F F F F F F F F F F F F F F F F F F F F ) F F F F F r.g 8.8.8._.8._.8.8.8.8._.8._.8._.7.r.F F F F F F F F F F F F F F F F F F F F F F F F F F F F F F F ) F F F F F F F F F F F V ) F F 8.%XW W W W W w w w w w w w w w w w w w w w w w w w w w w w w w w w w w w w w w w w w w w w w w w w w w w w w w w w w w w w w w w w w w w w w w w w w w w w w w w w w w w w w w w w w w w w w w w w w w w w w w w w w w w w w w w w w w w w w w w w w w w w w w w w w w w w w w w w w w w W W W 1 W 1 W W W W P GXNXh.' ' ' ' ' ' ;X/.` ` ` ` ` ` ` ` ` ` ` ` ` ` ` ` ` ` ` _ p.p.p.x.p.x.x.x.x.x.x.a.s.;XR.4.#.#.#.#.#.#.#.#.#.#.#.#.#.#.#.",
"f.[.[.B m.m.m.d d d d d d d D D D d d d d d d d d D D D D D D D d d D D D D D d d d d d d m.m.m.hXt t hXhXBXt t t t t t f.f.f.f.t t f.f.f.t t f.t t f.f.f.f.f.f.;Xm m m m m m m p.m m m m m m y.h.JX( : W w W w w w w w w w w w w w w w w w w w w w w w w w w w w w w W w W W ,.%XR 8.8._.8.8.7.r.F ) ) ) ) ) ) F ) F F F F F F F F F F F F F F F F F ) ) F F F F F F F F F F F F F F F F F F F F F F F F F F F F F F F F F F F F F F F F F F F F F F F F F F F F ) ) ) F F F r.7.8._.8._.8.8.8.8._.8._.8.8.8.8.8.8.7.r.F F ) F F F F F F F F F F F F F F F F F F F F F F F F F F F F F ) F ) F F F ) F ) F F F ) V * _.1 W w W W W w w w w w w w w w w w w w w w w w w w w w w w w w w w w w w w w w w w w w w w w w w w w w w w w w w w w w w w w w w w w w w w w w w w w w w w w w w w w w w w w w w w w w w w w w w w w w w w w w w w w w w w w w w w w w w w w w w w w w w w w w w w w w w w w w w w w w W W W W W w W W W w %XAXNXh.' ' ' ' ;X;X/.` ` ` ` ` ` ` ` ` ` ` ` ` ` ` ` ` _ _ p.x.x.x.x.x.x.x.x.x.x.x.a.h.;XR.4.#.#.#.#.#.#.#.#.#.#.#.#.#.#.#.#.",
"yXf.U.U.B m.d m.m.d d d d D D D D d d d d d d d d d D d D D D d D D d d d d d D d d d d d d m.BXt f.f.BXBXt f.f.f.f.t f.f.f.t t t f.f.f.f.t t t f.t f.f.f.f.f.f.;X/.m m y.m m m m m m m m m m m ` dXgXw W W w W W W W W W W W W W W W W W W W W W W W W W W W W W W W W W %XW W %XR 8.8.8.8.8.8.& r.F ) ) F F F ) ) F F F F F F F F F F F F F F F F ) ) F F F F F F F F F F F F F F F F F F F F F F F F F F F F F F F F F F F F F F F F F F F F F F F F F F F F F ) F ) ) r.r.g 8._.8.8.8.8.8._.8.8.8.8._.8._.8._.8.8.7.r.) F F ) F F F F F F F F F F F F F F F F F F F F F F F F F F F ) F F F ) ) F F F F F F ) V r._.%XW W w W W w W W W W W W W W W W W W W W W W W W W W W W W W W W W W W W W W W W W W W W W W W W W W W W W W W W W W W W W W W W W W W W W W W W W W W W W W W W W W W W W W W W W W W W W W W W W W W W W W W W W W W W W W W W W W W W W W W W W W W W W W W W W W W W W W W W W W w W 1 %X: %X: %XW *.(.JX7XU.' ' ' ;X/.` ` ` ` ` ` ` ` ` ` ` ` ` ` ` ` ` p.p.p.x.x.x.x.x.x.x.x.x.x.x.x.x.a.;XR.#.#.#.#.#.#.#.#.#.#.4.#.#.#.#.#.#.#.",
"yXyXe.' [.hXD m.m.D d d d D D D D D D D D D D D D d d D D D D D D D D D D D D D d d d d d m.hXt f.f.f.t t f.f.f.f.f.f.f.t f.f.f.f.t f.f.t f.t t t t t f.f.f.f.f.[.;X/.m m m p.m m m m m m m m m y.h.JX%X%XW w W w w w w w w w w w w w w w w w w w w w w w w w w w w w w W w W w %X%X8.8._.8.8.8.8.7.r.) ) ) ) ) ) ) F F ) F F F F F F F F ) r.* & & * r.) ) F F F F F F F F F F F F F F F F F F F F F F F F F F F F F F F F F F F F F F F F F F F F F F F F F F F ) F r.* 7.x 8.8.8.8._.8._.8.8.8.8.8.8.8.8.8._.T _.8.8.7.0.F F F F F F F F F F F F F F F F F F F F F F F F F F F F F F F F F F F F F F F F F ) F F r.8.%XW w w W w w w w w w w w w w w w w w w w w w w w w w w w w w w w w w w w w w w w w w w w w w w w w w w w w w w w w w w w w w w w w w w w w w w w w w w w w w w w w w w w w w w w w w w w w w w w w w w w w w w w w w w w w w w w w w w w w w w w w w w w w w w w w w w w w w w w w w W w W w w W 1 %XW *.(.FX7XU.' ' ' /.` ` ` ` ` ` ` ` ` ` ` ` ` ` ` ` _ p.x.x.x.x.x.x.x.x.x.x.x.x.x.x.x.s.;XR.#.#.#.#.#.#.#.#.#.#.#.#.#.4.4.#.#.4.4.",
"yXyXyXf.`.t m.m.m.d d d d D D D D d d d d d d d d d d d D D D D D D D D D D D D d d d d m.hXt f.t f.f.f.f.t t f.f.f.f.f.t f.[.f.f.t t f.f.f.t t t t f.f.f.f.t f.f.' /.m m m m m m m m m m m m m m ` ;XGX%Xw W w w w w W w w w w w w w w w w w w w w w w w w w w w w w w W w W w w %X( 8.8.8.8.8.8.8.7.g 7.& & & & * ) F F ) F F F F F F ) & 7.8.8.8.8.7.& ) F ) F F F F F F F F F F ) F F ) ) F F F ) F F F F F F F F F F F F F F F F F F F F F F F F F F F F ) ) * & g 8.8.8.8.8._.8.8.8.8._.8.8.8._.8.8._.8.8.8.8.8.8.xX7.) F F F F F F F F F F F F F F F F F F F F F F F F F F F F F F F F F F F F F F F F F ) V r._.%Xw w W w w W w w w w w w w w w w w w w w w w w w w w w w w w w w w w w w w w w w w w w w w w w w w w w w w w w w w w w w w w w w w w w w w w w w w w w w w w w w w w w w w w w w w w w w w w w w w w w w w w w w w w w w w w w w w w w w w w w w w w w w w w w w w w w w w w w w w w W w w 1 w W %XW W *.(.FX7X' ' ' ;X/.` ` ` ` ` ` ` ` ` ` ` ` ` p._ p.x.x.x.x.x.x.x.x.x.x.x.x.x.x.x.x.a.h.R.#.#.#.#.#.#.#.#.#.#.#.#.#.#.4.4.#.#.#.#.",
"yXyXyXyX`.' i.W.m.d d d d D D D D d d d d d d d d d D d D D D D D D D D D D D D d d d d m.BXf.f.t f.t t t f.t f.f.t f.f.t f.f.f.f.f.f.t f.t t t t t f.f.f.f.f.f.t ' m m m m m m m m m m m m m m ` m p.SXHXP w w w w w %XW w W %XW w W %XW w W %XW w W %XW w W %XW w W %XW %XW w w w w A 8.8._.8.8.8.8.8.8.8.8.8.8.7.) F ) ) F F F ) F ) r.7.8.8.8.8.8.8.7.) F ) F F F F F F F F F F F F F ) ) F F ) F F ) F F F F F F F F F F F F F F F F F F F F F ) F ) ) ) F * x 8.8.8.8._.8.8.8.8.8.8.8.8.8.8.8.8.8.8.8.8.8.8.8.8.8.8.7.r.F ) F F F F F F F F F F F F F F F F F F F F F F F F ) F ) ) ) F ) ) F F F F F F F ) F r._.%Xw w W w w w w W %XW w w W %XW w w W %XW w w W %XW w w W %XW w w W %XW w w W %XW w w W %XW w w W %XW w w W %XW w w W %XW w w W %XW w w W %XW w w W %XW w w W %XW w w W %XW w w W %XW w w W %XW w w W %XW w w W %XW w w W %XW w w W %XW w w W %XW w w W %XW w w W %XW w w W %XW w W %XW %XW w %XW W %XW *.(.JX7XU.' ' ;X` ` ` ` ` ` ` ` ` ` ` ` ` p.p.x.x.x.x.x.x.x.x.x.x.x.x.x.x.x.x.x.7Xs.;X4.#.#.#.#.#.#.#.#.#.#.#.#.#.#.4.4.4.#.#.#.",
"yXyXyXyXt ' U.V.W.d d d d d d D d d D d d d d d d D d d D D D D d D D D D D D d d d d d hXt f.f.f.f.f.f.f.t t f.f.f.f.f.f.f.f.f.f.f.t f.f.t f.f.f.t t f.f.f.t f.t ' m y.m m m m m m m m m m m y.m m y.NXGXP w %Xw w w w w %Xw w w %Xw w w %Xw w w w w w w %Xw w w %Xw w w W w w w %Xw %XR 8.8.8.8.8.8.8.8.8.8.8.8.& F F ) ) F ) ) F F ) & 8._.8.8.8.8.8.7.) F F F F F F F F F ) F F F ) r.* * * * * r.F ) ) F F F F F F F F F F F F F F F F F F F F ) F ) ) ) r.7.8.8.8.8.8.8.8.8.8.8.8.8.8.8.8.8.8.8.8.8.8.8.8.8.8.8.8.7.r.F F ) F F F F F F F F F F F F F F F F F F F F F F F F F F ) ) ) F F ) F F F F F F ) F ) g A w w W w w w w %Xw w w w %Xw w w w %Xw w w w %Xw w w w %Xw w w w %Xw w w w %Xw w w w %Xw w w w %Xw w w w %Xw w w w %Xw w w w %Xw w w w %Xw w w w %Xw w w w %Xw w w w %Xw w w w %Xw w w w %Xw w w w %Xw w w w %Xw w w w %Xw w w w %Xw w w w %Xw w w w %Xw w w w %Xw w w w %Xw w w %Xw w w w w w W %XW %XW *.%XAXNXU.' ' ;X` ` ` ` ` ` ` ` ` ` ` _ p.x.x.x.x.x.x.x.x.x.x.x.x.x.x.x.x.x.x.a.7Xh.R.#.#.#.#.#.#.#.#.#.#.#.#.#.#.#.#.#.#.#.#.#.",
"yXyXyXyXyX`.U.U.n.d d d d D D D D d d D d d d d d d d d D D D D D D D d d d d D d d D D hXt f.t t f.t f.t f.f.f.f.f.f.f.f.f.f.f.f.f.f.f.t f.t t t t f.f.t f.f.f.f.[./.m ` y.m m m m m m m m m m m m y.ZXHXP w W W %XW w W w W w W w W w W w W w w w w W w W w W w W w w %XW %XW %Xw w w %XA u.8.8.8.8.8.8.8.8.8.8.g r.F F F F ) F F ) r.g 8.8.8.8.8.8.8.& ) F ) F F F F F F F ) F F ) 7.7.8.8.x 8.8.7.* F F ) F F F F F F F F F F F F F F F F F F F F ) F F ) * 8.8.8.8.8.8.8.8.8.8.8.8.8.8.8.8.8.8.8.8.8.8.8.8.8.8._.7.0.) F F F F F F F F F F F F F F F F F F F F F F F F F F F F F F ) F ) F F ) ) ) F ) F ) F r._.(.w w ,.w w w W w W w w W w W w w W w W w w W w W w w W w W w w W w W w w W w W w w W w W w w W w W w w W w W w w W w W w w W w W w w W w W w w W w W w w W w W w w W w W w w W w W w w W w W w w W w W w w W w W w w W w W w w W w W w w W w W w w W w W w w W w W w w W w W w w W w w w w w w w W W %XW w %XGXNXh.' ' /.` ` ` ` ` ` ` ` ` ` p.x.x.x.x.x.x.x.x.x.x.x.x.x.x.x.x.x.x.x.x.7XC.'.4.#.#.#.#.#.#.#.#.#.#.#.#.#.#.#.#.#.#.#.4.4.",
"yXyXyXyXyXBX`.U.V.m.d d d d d d d d d m.hXm.m.d d d d d D D D d d d d D D D D d d d D d hXt f.f.f.f.f.t f.t f.f.f.f.f.f.f.f.t t t f.f.f.f.f.f.f.f.f.f.f.f.f.t f.f.[./.m m m m m m m m m m m m m m m p.SXlX( W W w w w w %Xw w w w w w %Xw w w w %Xw w %Xw w w %Xw w w w w w w w w w w *.w %X_.8.8.8.8.8.8.8.8.8.8.x 7.* ) F F F F F ) & 8.8.8.8.8.x 8.8.7.) F ) ) F F F F F F F F ) 0.8.8.8.8.8.8.8.8.& F F ) F F F F F F F F F F F F F F F F F F F F F ) F F * 8.8.8.8.8.8.8.8.8.8.8.8.8.8.8.8.8.8.8.8.8.8.8.8.8.8.8.7.) F ) F ) F F F F F F F F F F F F F F F F F F F F F F F F F F F F ) ) ) ) ) ) ) ) ) F ) F r.8.%Xw w %Xw w %Xw w %Xw w %Xw w w %Xw w %Xw w %Xw w w %Xw w %Xw w %Xw w w %Xw w %Xw w %Xw w w %Xw w %Xw w %Xw w w %Xw w %Xw w %Xw w w %Xw w %Xw w %Xw w w %Xw w %Xw w %Xw w w %Xw w %Xw w %Xw w w %Xw w %Xw w %Xw w w %Xw w %Xw w %Xw w w %Xw w %Xw w w %Xw w w %Xw w %Xw %Xw %Xw w %Xw w w w w w w %Xw w %Xw P HXSXh.' ' /.` ` ` ` ` ` ` ` ` p.x.x.x.x.x.x.x.x.x.x.x.x.x.x.x.x.x.x.x.x.7XoX;XR.#.#.#.#.#.#.#.#.#.#.#.#.#.#.#.#.#.4.4.R.R.'.",
"yXyXyXyXyXyX`.U.V.m.d d d d d d d d d hXBXhXm.d d d d d D D D D d d D d d m.d d m.d d m.BXt t t f.f.f.f.f.f.f.f.f.f.f.f.f.f.f.f.f.f.f.t f.f.f.f.f.f.f.f.f.f.f.f.t ' m m m m p.m m m m m m m m m m m y.h.JXDXP w w *.*.w *.w *.w w *.*.*.*.w P w *.*.*.*.*.*.*.*.*.w %X*.w w w w w %Xw *.w %X_.8.8.8.8.8.8.8.8.8.8.8.8.x g & & * r.r.7.8.8.8.8.8.x x 8.8.x 0.) F ) ) F F F F F ) ) ) 7.8.8.8.8.8.8.8.8.& F F F ) F F F F F F F F F F F F F F F F F F ) F F ) ) r.x 8.8.8.8.8.8.8.8.8.8.x 8.x x 8.x 8.8.8.8.8.8.8.8.8.8.g r.F ) ) F F F F F F F F F F F F F F F F F F F F F F F F F F ) F F * 7.g g 7.* ) ) ) F F ) ) r._.%Xw w w w w w w w *.w w w w *.*.*.*.*.*.*.*.*.w *.*.*.*.*.*.*.*.*.w *.*.*.*.*.*.*.*.*.w *.*.*.*.*.*.*.*.*.w *.*.*.*.*.*.*.*.*.w *.*.*.*.*.*.*.*.*.w *.*.*.*.*.*.*.*.*.w *.*.*.*.*.*.*.*.*.w *.*.*.*.*.*.*.*.*.w *.*.*.*.*.*.*.*.*.w *.*.*.*.*.*.w w *.w *.w w *.*.w w *.*.*.w *.w w w w w *.w w w w w *.w P (.JXs.U.' /.` ` ` ` ` ` ` ` ` p.x.x.x.x.x.x.x.x.x.x.x.x.x.x.x.x.x.x.p.a.oXh.R.#.4.#.#.#.#.#.#.#.#.#.#.#.#.#.#.#.#.4.R.'.9 9 ",
"yXyXyXyXyXBX`.' [.yXD d d d d d d d d hXBXm.m.d d d d d D d d d d d d d m.m.m.d d m.D hXBXf.t f.f.f.f.f.f.f.f.f.f.f.f.f.f.f.f.f.f.f.t t f.f.f.f.f.f.f.f.f.f.f.f.f.;Xm y.m m m m m m m m m m ` y.m m ` y.h.JXgXP w *.w w *.%X*.*.*.*.*.*.*.*.*.*.*.*.*.*.*.*.*.*.*.*.*.*.*.*.w %X*.w *.w %XA 8.8.8.8.8.x x x x 8.8.8.8.x 8.8.8.7.7.7.x 8.8.8.x x x x 8.8.8.7.r.F F F F F F ) ) ) ) * 7.8.8.8.8.8.8.8.8.& F F F ) F F F F F F F F F F F F F F V ) F F F ) F ) ) r.7.x 8.8.8.x x x x x x 8.x 8.8.x x x x x x x x 8.8.8.8.x * ) F ) F F F F F F F F F F F F F F F F F F F F F F F F F ) F ) ) 7.8.8.8.8.7.r.F F ) F F F F 8.%Xw *.w *.w *.w *.*.P w *.*.*.*.*.*.*.*.*.*.*.*.*.*.*.*.*.*.*.*.*.*.*.*.*.*.*.*.*.*.*.*.*.*.*.*.*.*.*.*.*.*.*.*.*.*.*.*.*.*.*.*.*.*.*.*.*.*.*.*.*.*.*.*.*.*.*.*.*.*.*.*.*.*.*.*.*.*.*.*.*.*.*.*.*.*.*.*.*.*.*.*.*.*.*.*.*.*.*.*.*.*.*.*.*.*.*.*.*.*.*.w *.w P P *.P P *.*.*.*.*.*.*.*.*.*.*.w w w *.w w *.w ( HXSXh.' /.` ` ` ` ` ` ` ` ` p.x.x.x.x.x.x.x.x.x.x.x.x.x.x.x.x.p.` h.C.h.'.4.#.#.#.#.#.#.#.#.#.#.#.#.#.#.#.#.#.#.R.'.9 9 t.",
"yXyXyXyXyXe.`.`.[.BXm.d d m.m.d d d d m.m.d d d d d d d d d d d d d d d d m.d d d d d hXt f.t f.f.f.f.f.f.f.f.f.f.f.f.f.f.t t t f.f.f.f.f.f.f.f.f.f.f.f.f.f.f.f.[./.m m m m m m m m ;X/.m m m m m m m y.p.ZXAX( *.w w *.*.w *.*.*.*.*.*.*.*.*.*.*.*.*.*.*.*.*.*.*.*.*.*.*.*.*.w *.*.*.%X( n x x 8.8.8.x x x x x 8.x x x 8.7.x 8.8.8.x 8.8.x x 8.x x 8.8.8.x g * ) ) F F F F F ) r.g x 8.8.8.8.8.x 8.8.& F F ) ) F F F F F F V F V F V F F F F F ) F ) F ) F ) r.g x 8.x x x 8.x 8.x x x x x x x 8.x 8.x 8.x 8.8.8.x x x 7.* F F F F F F F F F F F F F F F F F F F F F F F F F F F ) ) F r.7.8.8.8.8.x * F F ) F F F F & _.%X%X*.P P P P *.*.P w *.*.*.*.*.*.*.*.*.*.*.*.*.*.*.*.*.*.*.*.*.*.*.*.*.*.*.*.*.*.*.*.*.*.*.*.*.*.*.*.*.*.*.*.*.*.*.*.*.*.*.*.*.*.*.*.*.*.*.*.*.*.*.*.*.*.*.*.*.*.*.*.*.*.*.*.*.*.*.*.*.*.*.*.*.*.*.*.*.*.*.*.*.*.*.*.*.*.*.*.*.*.*.*.*.*.*.*.*.*.P w *.*.P P P P P *.*.w *.%X*.%X*.*.w *.*.*.*.*.*.*.%X*.*.%XAXNXh./.` ` ` ` ` ` ` ` ` p.x.x.x.x.x.x.x.x.x.x.x.x.x.x.x.x._ ;XC.h.'.4.#.#.#.#.#.#.#.#.#.#.#.#.#.#.#.#.#.#.#.4.'.9 9 9 ",
"yXyXyXyXyXe.`.`.`.[.n.m.m.m.d d d d D D d d d d d d d d d d D d d d d d d D d d d d d hXt f.t f.f.f.f.t f.f.f.f.f.f.f.f.f.f.t f.f.t t f.f.f.f.f.f.f.f.f.f.f.f.f.;Xm m m m m m m m ;X[./.m m m m y.m y.m a.a.JX(.( w P P *.w *.*.*.*.*.*.*.*.*.*.*.*.*.*.*.*.*.*.*.*.*.*.*.*.*.%X*.P P %X( 8.x x 8.x x x 8.x 8.x x 8.x 8.x 8.x x 7.8.x x 8.x x x 8.x x x 8.x 8.x * ) F F F F ) r.& x 8.x x 8.x x x x x & F F ) ) F ) F F F F F F F F F F F F F ) F F F ) F ) ) r.g x 8.x 8.x x x x x 8.x 8.x 8.x x x x x x x x x x x x x x 7.) F F F F F F F F F F F F F F F F F F F F F F F F F F F ) ) ) 7.x 8.8.x x 7.r.F ) F ) ) ) F g _.%Xw %X%XP P P P w w *.*.*.*.*.*.*.*.*.*.*.*.*.*.*.*.*.*.*.*.*.*.*.*.*.*.*.*.*.*.*.*.*.*.*.*.*.*.*.*.*.*.*.*.*.*.*.*.*.*.*.*.*.*.*.*.*.*.*.*.*.*.*.*.*.*.*.*.*.*.*.*.*.*.*.*.*.*.*.*.*.*.*.*.*.*.*.*.*.*.*.*.*.*.*.*.*.*.*.*.*.*.*.*.*.*.*.*.*.*.P %X*.P P %Xw w *.P P P ( ( ( ( ( ( y y y ( ( ( y P *.*.w %X(.FXNXh.` ` ` ` ` ` ` ` ` ` x.x.x.x.x.x.x.x.x.x.x.x.x.x.x.x.a.h.h.'.4.#.#.#.#.#.4.#.#.#.#.#.#.#.#.#.#.#.#.#.#.R.'.t.t.t.",
"yXyXyXe.`.`.`.`.`.U.V.W.d d d d d d d D d d d d d d d d d d d m.d d d d d d d d d D m.BXf.f.t t t f.t f.f.t f.f.f.t f.t t f.f.f.f.f.f.' ;X' f.f.f.f.f.f.t f.f.f./.m m m m m m m /.[.' m m m m m m m m m y.s.JX(.( w P P P P *.*.*.*.*.*.*.*.*.*.*.*.*.*.*.*.*.*.*.*.*.*.*.*.*.P P %XP *.( 8.8.8.8.x 8.x x x x x x x x x x x 8.8.8.x x x x x x x x x x x x x x 8.g * ) ) ) ) 0.7.x 8.8.x 8.x x 8.x 8.x & r.F ) F F F F F F V F F F F V F F V F V F F F ) ) ) F r.x x x x x x x x x x x x x x x x x x x x x x x x 8.x 8.x x 7.r.F ) F F F F F F F F F F F F F F F F F F F F F F F F F ) F F * 7.x 8.x x g r.F ) F F F ) F F g _.%X%X%X%X*.w P P *.*.*.*.*.*.*.*.*.*.*.*.*.*.*.*.*.*.*.*.*.*.*.*.*.*.*.*.*.*.*.*.*.*.*.*.*.*.*.*.*.*.*.*.*.*.*.*.*.*.*.*.*.*.*.*.*.*.*.*.*.*.*.*.*.*.*.*.*.*.*.*.*.*.*.*.*.*.*.*.*.*.*.*.*.*.*.*.*.*.*.*.*.*.*.*.*.*.*.*.*.*.*.*.*.*.*.*.*.*.*.*.*.%X%X%Xw *.*.*.%X%X(.(.gXHXHXHXHXHXHXHXHXHXHXHXgX%XP w w y UXNX7X` ` ` ` ` ` ` ` ` p.x.x.x.x.x.x.x.x.x.x.x.x.x.x.x.a.s.h.'.4.#.#.#.#.#.#.#.#.#.#.#.#.#.#.#.#.#.#.#.#.#.R.9 t.t.t.",
"yXe.`.`.`.`.`.`.`.' C.i.D D m.m.m.d d d d d d d d d d d d m.hXhXm.d d d d d d D d m.hXt f.f.f.f.t f.f.f.t f.f.f.f.f.f.f.t f.f.f.f.' /.m m ;Xf.f.f.f.f.f.f.f.f.[.m m m m m m m m /.[./.m m ` y.m m m m m a.NXAX( P *.*.P *.P P P P P P P P P P P P P P P P P P P P P P P P P P P P P P *.%Xn x x x x x x x x x x x x x 8.x x x x x x x x x x x x x x x x x 8.x x x x 8.g 7.g x 7.x 8.x x 8.x 8.x x x x x g r.) ) ) ) ) F F F F F V F F V ) F F F F ) ) F ) F ) & x x x x x x x x x x x x x x x x x x x x x x x x x 8.x x 8.7.r.F ) F F F F F ) F F F F F F F F F F F F F F F F F ) F F ) ) ) 7.7.x 8.8.g r.F F ) F ) ) r.* * g 8.(.5 P P P P P P P P P P P P P P P P P P P P P P P P P P P P P P P P P P P P P P P P P P P P P P P P P P P P P P P P P P P P P P P P P P P P P P P P P P P P P P P P P P P P P P P P P P P P P P P P P P P P P P P P P P P P P P P P P P *.*.*.w %XP P P %X(.HXGXAXcXcXFXdXSXSXSXSXBXSXt SXSXSXJXGX%X%Xw ( UXNX7Xy.` ` ` ` ` ` p.p.x.x.x.x.x.x.x.x.x.x.x.x.x.x.x.7Xs.h.fX4.#.#.#.#.#.#.#.4.4.#.#.#.#.#.#.#.#.#.4.#.#.4.'.9 t.9 9 ",
"e.`.`.`.`.`.`.`.`.`.C.V.m.d hXhXm.m.m.m.D d d d d d m.m.hXBXt BXm.d d d d d d d m.hXt f.f.t t t t t t t f.t t f.f.f.f.f.f.f.' ;X;Xm m m /.[.f.f.f.f.f.f.f.f.f.;Xm m m m m m m m m /.m m m m m m y.m ` y.a.SXHXy %XP %XP P P P P P P P P P P P P P P P P P P P P P P P P P P P P %X%XP P P n x 8.x x x x x x x x x x x x x x x x x x x x x x x x x x x x x x x 8.x x x 8.8.8.x 8.x x x x x x x x x x x x x 7.r.) ) ) F ) F ) F ) ) F ) F ) F ) F ) V ) ) ) ) * 7.8.x x x x x x x x x x x x x x x x x x x x x 8.x x x x x 8.7.r.F F F F F F F F F F F F F F F F F F F F F F F F F F ) F ) ) ) * 7.x x 8.g r.F F F F r.* 7.7.7.* r._.%XP P %XP w P P P %X*.P P P P P P P P P P P P P P P P P P P P P P P P P P P P P P P P P P P P P P P P P P P P P P P P P P P P P P P P P P P P P P P P P P P P P P P P P P P P P P P P P P P P P P P P P P P P P P P P P P P %X*.P P P P P 5 5 P P %XHXAXFX>XE.E.oXs.h./.'.'.R.R.R.R.R.R.'.9 h.SXGX( P (.FX7Xa.` ` ` ` ` ` _ p.x.x.x.x.x.x.x.x.x.x.x.x.x.x.a.7Xh.;XR.4.#.#.#.#.#.#.#.4.R.R.R.4.4.#.#.#.4.#.#.#.#.4.R.'.9 9 9 9 ",
"e.`.`.`.`.`.`.`.`.`.h.U.n.m.hXBXBXhXm.d d d d d m.m.hXBXt t t t hXm.d d d d d m.yXBXf.f.f.f.f.t t f.t f.t t t t f.f.t f.t f./.m m m /.;X[.f.f.f.f.f.f.f.f.f.[./.m m m m p.m m m m m m m m m m ` m m m y.a.JX(.y %X%XP *.%XP P P P P P P P P P P P P P P P P P P P P P P P P P *.P P *.P %XU 8.x x x x x x x x x x x x x x x x x x x x x x x x x x x x x x x x x 7.x x x x x x x 7.8.x x x x x x x x 8.8.x 7.7.r.F F F F F V F V F V F F V F F F F ) F F r.& x 8.8.8.x x x x x x x x x x x x x x x x x x x x 8.x x 8.x 8.8.7.r.) F F F F F F F F F F F F F F F F F F F F F F F F F F F V ) ) F * x x 8.x 7.& & & & 7.7.7.8.x g r.8.%XP *.P P P *.P P P P P P P P P P P P P P P P P P P P P P P P P P P P P P P P P P P P P P P P P P P P P P P P P P P P P P P P P P P P P P P P P P P P P P P P P P P P P P P P P P P P P P P P P P P P P P P P P P P P P P *.P *.%Xw P w P %XP ( lXcXJ.oXoXs.h.;X;X'.R.4.4.#.#.#.#.#.#.#.#.4.'.h.SXlXR HXNXa.y.` ` ` ` ` ` p.x.x.x.x.x.x.x.x.x.x.x.x.x.x.a.s.h.'.R.#.4.#.#.#.#.#.#.4.4.R.'.'.R.4.#.#.#.4.#.4.#.#.R.'.9 9 9 9 9 ",
"e.`.`.`.`.`.`.`.`./.` h.U.n.m.hXBXBXm.D d d d D yXBXt t t f.f.f.BXm.D d d d d yXBXt f.f.f.f.f.t t t t t t t t f.f.f.f.t f.f.' /./.' [.f.t f.f.f.f.f.f.f.f.f.;Xm m m m m m m m m m m m m m m m m m ` m p.ZXGXy *.%XP P P *.P P P P P P P P P P P P P P P P P P P P P P P P P P P *.P P P ( _.8.x x x x x x x x x x x x x x 8.7.8.8.7.8.x 8.x x x x x x x x x x x x 8.x x x x x x x x x x 7.x 7.8.x x x 8.x x 7.r.V F F F V V V V V V V V F F F V ) F V ) & x x x x 8.x x x x x x x x x x x x x x x x x x x x x x x x 8.x x 7.r.F F ) F F F F ) ) F V F V V V V V V V V V V V V V F F F F ) F V r.7.8.x x 8.x 8.7.8.x 8.x x 8.7.7.8.%XP P P P P P P P P P P P P P P P P P P P P P P P P P P P P P P P P P P P P P P P P P P P P P P P P P P P P P P P P P P P P P P P P P P P P P P P P P P P P P P P P P P P P P P P P P P P P P P P P P P P P P P P P P P P P P P P *.P %Xw ( DXcXZXC.h.;X;X'.R.4.4.#.#.#.#.#.#.#.#.#.#.#.#.#.4.'.U.JXxXGXNXa.` ` ` ` ` ` _ x.x.x.x.x.x.x.x.x.x.x.x.x.a.s./.'.R.4.#.4.#.#.4.#.#.#.#.#.4.4.R.R.R.4.4.#.#.#.4.#.4.R.'.9 9 9 9 9 9 ",
"`.`.`.`.`.`.`.`.`.` ` y.s.i.m.m.hXBXBXm.d d D m.BXt t t t f.f.f.t hXd D D m.hXBXt t f.f.f.t f.t t t t t t t t f.f.t f.f.f.t f.f.f.f.t t t f.t f.f.f.f.f.f.[./.m m y.m m m m m m m m m m m m m m m m y.p.dXHXy %XP P P P P P P P P P P P P P P P P P P P P P P P P P P P P P P P P %XP P %X( U 8.x x x x 8.8.8.x x x x x x x 8.7.x x 8.7.x x x x x x x 8.8.x 8.8.x x 7.x 7.8.x 8.x 8.8.x x 8.x x x x x x x 8.8.* F V F F F F V F F F V F F V ) F F ) V ) 0.x x 8.x x x x x x x x x x x x x x x x x x x x x x x x x x x x x x & ) F F F F F F F F F F F F F F F F F F F F F F F F V F F F V F V r.g x x x x x x 8.x x x 8.x x 8.8.8.A P P P P P P P P P P P P P P P P P P P P P P P P P P P P P P P P P P P P P P P P P P P P P P P P P P P P P P P P P P P P P P P P P P P P P P P P P P P P P P P P P P P P P P P P P P P P P P P P P P P P P P P P P P P %XP P %XP %XP *.( lXFXNXh.'.R.4.#.4.#.#.#.#.#.#.4.4.R.R.4.#.#.#.#.#.#.R./.SXlXAX7Xy.` ` ` ` ` ` _ x.x.x.x.x.x.x.x.x.x.x.a.m /.'.R.4.#.#.#.#.#.#.#.#.#.#.#.#.#.#.#.4.4.4.#.#.#.#.#.#.R.'.9 9 9 9 9 9 9 ",
"`.`.`.`.`.`.`.`.;X` ` _ h.i.m.d m.BXt hXm.m.yXhXt f.t f.f.f.t t f.BXhXm.yXhXBXf.f.f.t t t t t t t t t t t t t t t t t f.t f.t f.f.t t f.t f.f.f.f.f.f.f.[./.m m m m ` y.m m m m m m m m m m m m m m y.a.cX_.( %XP *.P %XP %XP %XP %XP %XP %XP %XP %XP %XP %XP %XP %XP %XP %XP %XP P %XP P P A R 8.x x x 8.8.7.8.8.8.8.x 8.x 8.x 8.7.x x 8.7.8.7.8.8.8.7.8.7.8.x x x 8.8.8.8.8.8.x x x x x x x x x x x x x x 7.7.r.V V F F V F F F F F F F F F F F F V ) & x 8.x x x x x x x x x x x x x x x x x x x x x x x x x x x x x x x 7.& r.F F V V F V F F F F F F F F F V V V V V V V V F F V V ) F V r.x x x x x x x x x x x x x 8.7.x 8.A P P %X%XP P P %XP %XP %XP %XP %XP %XP %XP %XP %XP %XP %XP %XP %XP %XP %XP %XP %XP %XP %XP %XP %XP %XP %XP %XP %XP %XP %XP %XP %XP %XP %XP %XP %XP %XP %XP %XP %XP %XP %XP %XP %XP %XP %XP %XP %XP %XP %XP %XP %XP %XP P %XP %X%X%X*.( lXFXh./.R.4.#.#.#.#.#.#.#.#.#.#.4.R.'.'.R.4.#.#.#.#.#.#.'.U.cXcXa.` ` ` m y.a.s.a.a.a.a.a.a.a.a.7Xa.a.m /.'.R.4.#.#.#.#.#.#.#.#.#.#.#.#.#.#.#.#.#.#.#.#.#.#.#.#.#.4.R.9 t.9 9 t.t.9 9 ",
"`.`.`.`.`.`.`.`.`./.` ` m V.W.m.hXt f.t BXhXBXt f.f.t f.f.f.t t f.t BXBXBXt t f.f.t f.f.t t t t t t t t t t t f.f.f.f.f.f.t f.f.f.t t t f.f.f.f.f.f.f.f.;Xm m m m y.m m m m m m m m m m m m p.m m y.m y.KXlXy P *.P P P P P P P P P P P P P P P P P P P P P P P P P P P P P P P P %XP P %XP %X%XA _.8.8.8.x x 7.8.7.x 7.8.8.8.8.7.8.x x 7.8.x 8.7.8.x x x 8.x x x x 7.8.7.8.8.8.x 8.x x 8.x x x x x x x x 8.8.7.7.r.F F F V F F ) F F F V F F F F ) ) * 7.x x x x x x x x x x x x x x x x x x x x x x x x x x x x x x x x x 8.x g * r.) ) ) ) ) F F F F F F F F V V F F V V V V V F F V F V ) & x x x x x x 8.x x x x 8.x x 8.x _.%XP P P P P P P P P P P P P P P P P P P P P P P P P P P P P P P P P P P P P P P P P P P P P P P P P P P P P P P P P P P P P P P P P P P P P P P P P P P P P P P P P P P P P P P P P P P P P P P P P P P P P P P P P P P P P P P %Xw ( lXFXU.'.4.#.#.#.#.#.#.#.#.#.#.#.#.#.R.'.'.'.R.4.#.#.#.#.#.R.'.SXT.7Xy.m m h.h.s.s.s.oXs.7X7XoX7XoXs.s./.'.R.4.4.#.#.#.#.#.#.#.#.#.#.#.#.#.#.#.#.#.#.4.#.4.#.#.#.#.#.4.R.9 t.9 9 9 9 9 9 ",
"`.`.`.`.`.`.`.`.`.;X/.` y.h.V.n.BXf.f.f.t t t t f.f.t f.f.f.t t t f.f.f.f.f.f.f.f.t t f.t t t t t t t t t t t f.f.f.f.f.f.t t f.t t t t f.f.f.f.f.f.f.' /.m m m m _ m m m m m m m m m m m m m m m m m y.h.KXHXy P P %XP P P P P P P P P P P P P P P P P P P P P P P P P P P P P %XP P P P P P %X%X( A A _.8.8.x x x x x x 7.x x 8.x x 8.x 8.7.8.8.x x x 8.8.8.8.8.x 8.x x x x x x 8.8.8.7.x 8.x x x x 8.x x 7.8.7.7.& * r.r.) ) ) ) ) F ) ) ) ) r.* 7.7.x x x x 8.x x x x x x x x x x x x x x x x x x x x x x x x x x x x x x x 7.8.7.7.& & & & * r.F F F F F F V F F F V V V V F F F V V r.& 7.x x x x x x x x 8.7.x x x 8.x 8._.%XP P P P P P P P P P P P P P P P P P P P P P P P P P P P P P P P P P P P P P P P P P P P P P P P P P P P P P P P P P P P P P P P P P P P P P P P P P P P P P P P P P P P P P P P P P P P P P P P P P P P P P P P P P P P P P P %XP (.cXU.'.4.#.#.#.#.#.#.#.#.#.#.#.#.#.#.4.R.'.'.R.4.#.#.4.4.#.#.R.;XC.s././.'.;X;X;X;X;X;X;X;X;X;X;X;X;X'.'.R.4.4.#.#.#.#.#.#.#.#.#.#.#.#.#.#.#.#.#.#.#.4.#.#.#.#.#.#.#.4.R.9 t.9 9 t.9 9 9 ",
"`.`.`.`.`.`.`.`.`.`.`./.` y.h.[.f.f.t f.f.f.t f.f.f.f.f.f.t f.f.f.f.t t t f.f.f.f.t t t t t t t t t t t t t t t t t t t t f.t t t t f.f.t f.t f.f.f.[./.m m m m m m m m m m m m m m m m m m m m m m m y.p.y.KXDXR P %XP P P P P P P P P P P P P P P P P P P P P P P P P P P P P P P P P P P P P P %XP P A _._.8.8.x 8.8.8.x 8.x 8.x 8.x 8.x 8.x 8.8.8._.R ( ( A R n _.8.8.8.8.8.x x x 8.x 8.x 7.x x x x 8.x 8.x 8.8.7.7.7.7.7.& & & & & & & & 7.7.g 8.8.8.8.7.x x x x x x x x x x x x x x x x x x x x x x x x x x x x x 8.x x x 8.7.8.x x 8.8.8.7.7.0.) F F F F V F V V V F F F F F F F * 7.x x x x x x x x x x x x 8.7.x x x 8.A P P P P P P P P P P P P P P P P P P P P P P P P P P P P P P P P P P P P P P P P P P P P P P P P P P P P P P P P P P P P P P P P P P P P P P P P P P P P P P P P P P P P P P P P P P P P P P P P P P P P P P P P P P P P P P P P ( ( nXSX9 4.#.#.#.#.#.#.#.#.#.#.#.#.#.#.#.#.#.4.R.R.4.#.#.#.#.#.#.#.R.'.fXR.R.R.R.4.4.4.4.4.4.4.R.4.4.4.R.'.9 '.4.#.#.#.#.#.#.#.#.#.#.#.#.#.#.#.#.#.#.#.#.#.#.#.#.#.#.#.#.4.R.9 t.9 9 t.t.9 9 ",
"`.`.`.`.`.`.`.`.`.`.`.;X` ` a.C.[.t f.f.t t f.t t f.f.f.t f.f.f.f.f.f.t t t t f.t t t t t t t t t t t t t t t t t t t t f.t f.f.f.t t t f.f.f.t f.[./.m m m m m m m m m m m m /.m m m m ` y.m m y.m m m m a.h.JXxXy P P P P P ( ( ( ( ( ( ( ( ( ( ( ( ( ( ( ( ( ( ( ( ( ( ( ( ( ( ( ( ( ( ( ( ( ( ( ( ( P %XA A R R _.R R R _.8.8.8.8.8.8.8.8._.R R ( ( %XP P P ( ( A ( A A R _.8.x 8.x x g x 8.x x x 7.x x x x x x x x x x x 8.x 8.x 8.x x 8.x x g x x x x x x x x x x x x x x x x x x x x x x x x x x x x x x x x x x x x 7.8.7.8.x x x 7.x g x x 7.& r.F F F V V F F F V F V F ) r.* 7.8.x x x x x x x x x x x x x x 8.8._.R ( ( ( ( ( ( ( ( ( ( ( ( ( ( ( ( ( ( ( ( ( ( ( ( ( ( ( ( ( ( ( ( ( ( ( ( ( ( ( ( ( ( ( ( ( ( ( ( ( ( ( ( ( ( ( ( ( ( ( ( ( ( ( ( ( ( ( ( ( ( ( ( ( ( ( ( ( ( ( ( ( ( ( ( ( ( ( ( ( ( ( ( ( ( ( ( ( ( ( ( ( ( ( ( ( ( ( ( ( P P ( P y DXKX/.R.#.#.4.#.#.#.#.#.#.#.#.#.#.#.#.#.#.#.4.4.4.#.#.#.4.#.#.#.#.#.#.#.#.#.#.#.#.#.#.#.#.#.#.#.#.#.#.R.t._ 9 R.#.#.#.#.#.#.#.#.#.#.#.#.#.#.#.#.#.#.#.#.#.#.#.#.#.#.#.#.4.R.9 t.9 9 9 9 9 9 ",
"`.`.`.`.`.`.`.`.`.`.`.`.` ` y.s.U.f.t f.f.f.f.f.f.f.f.f.f.f.f.f.t t f.f.f.f.f.t f.t t t t t t t t t t t t t t t t t t t t f.f.t t t f.t f.t t t [./.m m m m m m m m m m m ;X' [.;Xm ` y.m m m m ` m m m m m x.ZXAX2 P ( P ( ( ( ( ( ( ( ( ( ( ( ( ( ( ( ( ( ( ( ( ( ( ( ( ( ( ( ( ( ( ( ( ( ( ( ( ( ( ( ( P P P P P P P ( P ( ( ( ( ( R R ( ( ( P P P ( P ( ( ( ( P %X( ( P P ( R 8.x x x x x g x g x g g g g g g g g x g x g g x g x g g g g g x g g g g g g g g g g g g g g g g g g g g g g g g g g g g g g g g g g g g g g x g g g g g g g g g x x x g r.F F V V F F V V F ) r.& 7.x x x g g g x x x x x x x x x 8.u._.A ( ( ( ( ( ( ( ( ( ( ( ( ( ( ( ( ( ( ( ( ( ( ( ( ( ( ( ( ( ( ( ( ( ( ( ( ( ( ( ( ( ( ( ( ( ( ( ( ( ( ( ( ( ( ( ( ( ( ( ( ( ( ( ( ( ( ( ( ( ( ( ( ( ( ( ( ( ( ( ( ( ( ( ( ( ( ( ( ( ( ( ( ( ( ( ( ( ( ( ( ( ( ( ( ( ( ( ( ( ( ( ( ( ( P U AX`.R.#.#.#.#.#.#.#.#.#.#.#.#.#.#.#.#.#.#.#.#.#.#.4.4.R.R.R.4.#.#.#.#.#.#.#.#.#.#.#.#.#.#.#.#.#.#.4.4.'.! _ '.4.#.#.#.#.4.#.#.#.#.#.#.#.#.#.#.#.#.#.#.#.#.#.#.#.#.#.#.#.4.'.9 9 9 9 9 9 9 9 ",
"`.`.`.`.`.`.`.`.`.`.`.`.` ` a.s.U.f.t f.f.f.f.t t t f.f.f.[.fXf.t t f.f.f.t t f.t t t t t t t t t t t t t t t t t t t t f.f.f.f.f.f.[.[.[.f.f.[.;Xm m m m m m m m m y.m /.[.f.[.;Xm m m m m m m m m m y.` m y.y.FXDXy ( ( ( ( ( ( ( ( ( ( ( ( ( ( ( ( ( ( ( ( ( ( ( ( ( ( ( ( ( ( ( ( ( ( ( ( ( ( ( ( ( ( P ( ( ( ( ( ( ( P ( ( ( ( ( ( ( P ( %XP ( ( P P ( ( ( ( ( P ( ( ( ( ( ( _.u.x x x x x g x g x x x x x x x x g x g x x x x x x x x x x x x x x x x x x x x x x x x x x x x x x x x x x x x x x x x x x x x x x x x x x x x x x x x x x x x x x g & r.r.F ) ) F ) r.r.& 7.7.x x x x x x x x x x x 7.8.x x u.U A ( ( ( ( ( ( ( ( ( ( ( ( ( ( ( ( ( ( ( ( ( ( ( ( ( ( ( ( ( ( ( ( ( ( ( ( ( ( ( ( ( ( ( ( ( ( ( ( ( ( ( ( ( ( ( ( ( ( ( ( ( ( ( ( ( ( ( ( ( ( ( ( ( ( ( ( ( ( ( ( ( ( ( ( ( ( ( ( ( ( ( ( ( ( ( ( ( ( ( ( ( ( ( ( ( ( ( ( ( ( ( ( ( y ( P U DXKX'.4.#.#.#.#.#.#.#.#.#.#.#.#.#.#.#.#.4.4.4.4.4.R.R.'.'.9 '.R.#.#.#.#.#.#.#.#.#.#.#.#.#.#.4.4.4.4.R.'.t.! ! '.4.#.#.#.#.#.#.#.#.#.#.#.#.#.#.#.#.#.#.#.#.#.#.#.#.#.#.#.4.R.'.9 9 9 9 9 9 9 9 ",
"`.`.`.`.`.`.`.`.`.`.`.`.` ` y.s.U.[.t f.f.f.t t t t f.t f.f.t t f.f.f.f.f.t t t t t t t t t t t t t t t t t t t t t t t f.f.f.f.' /./././.;X[.;Xm m m m m m m m m m y.m ;Xf.[./.m m m m m ` y.m m m m m m m m p.NXAX2 %X( ( P ( ( ( ( ( ( ( ( ( ( ( ( ( ( ( ( ( ( ( ( ( ( ( ( ( ( ( ( ( ( ( ( ( ( ( ( ( ( ( ( ( ( ( ( ( ( ( ( P ( P y ( ( y y ( ( ( ( ( ( ( ( ( ( ( ( ( ( ( ( y ( ( R 8.x x x x x x x x x x x g x g x g x x g x x x x x x x x x x x x x x x x x x x x x x x x x x x x x x x x x x x x x x x x x x x x x x x x x x x x x x x x x x x x x x x g & & 0.0.0.7.7.7.x x x x x x x x g x x x x x x x 8.8.R ( ( y y ( ( ( ( ( ( ( ( ( ( ( ( ( ( ( ( ( ( ( ( ( ( ( ( ( ( ( ( ( ( ( ( ( ( ( ( ( ( ( ( ( ( ( ( ( ( ( ( ( ( ( ( ( ( ( ( ( ( ( ( ( ( ( ( ( ( ( ( ( ( ( ( ( ( ( ( ( ( ( ( ( ( ( ( ( ( ( ( ( ( ( ( ( ( ( ( ( ( ( ( ( ( ( ( ( ( ( ( ( ( ( P P ( U AX`.R.#.#.#.#.#.#.#.#.#.#.4.#.#.4.R.R.R.R.R.R.R.'.'.'.9 9 t.9 '.R.4.#.#.#.#.#.#.#.#.#.#.4.4.R.R.R.'.9 ! _ _ t.R.#.#.4.#.#.4.#.#.#.#.#.#.#.4.4.4.4.4.4.#.#.#.#.#.#.#.4.4.R.'.9 9 9 9 9 9 9 9 9 ",
"`.`.`.`.`.`.`.`.`.`.`.`.` ` y.s.C.[.t t f.t t t t t f.f.f.f.f.f.f.f.f.f.t t t t t t t t t t t t t t t t t t t t t t t t f.f.t f./.m m m m m /.m m m m m m m m m m m m m /.[.;Xm m m m m y.m m m m ` m m y.m m p.y.FX( ( ( ( ( ( ( ( ( ( ( ( ( ( ( ( ( ( ( ( ( ( ( ( ( ( ( ( ( ( ( ( ( ( ( ( ( ( ( ( ( ( ( ( ( ( ( ( ( ( ( ( ( ( P ( ( ( ( ( ( ( ( ( ( ( ( ( ( ( ( ( ( ( ( ( ( ( ( ( A 8.x g x x x g x g g g g x g x g x g g x g g g g g g g g g g g g g g g g g g g g g g g g g g g g g g g g g g g g g g g g g g g g g g g g g g g g g g g g g g g x x x x x x 7.g 7.x x g x x g x x x x x g x g x x x x x 8.U R ( ( ( ( ( P ( ( ( ( ( ( ( ( ( ( ( ( ( ( ( ( ( ( ( ( ( ( ( ( ( ( ( ( ( ( ( ( ( ( ( ( ( ( ( ( ( ( ( ( ( ( ( ( ( ( ( ( ( ( ( ( ( ( ( ( ( ( ( ( ( ( ( ( ( ( ( ( ( ( ( ( ( ( ( ( ( ( ( ( ( ( ( ( ( ( ( ( ( ( ( ( ( ( ( ( ( ( ( ( ( ( ( ( ( ( ( P y ( KXfX4.#.#.#.#.#.#.#.#.#.#.4.4.R.'.'.9 9 t.t.9 9 9 9 9 9 9 9 9 9 '.R.R.4.4.4.4.#.4.4.4.R.R.'.'.9 t.! ! _ _ _ t.R.#.#.#.#.#.#.#.#.#.#.#.#.4.R.R.'.'.R.4.#.#.#.#.#.#.#.4.R.'.9 t.9 9 9 9 9 9 9 9 ",
"`.`.`.`.`.`.`.`.`.`.`.;X` ` y.s.h.f.t t f.t t t t t t f.t f.f.f.t f.f.t f.t t t t t t t t t t t t t t t t t t t t t t t f.f.f.f.' /.m /./.m m m m m p.m m m m m m m m m m /./.m m m m m m m m m m m m m ` y.m y.y.SXlXR P ( ( ( ( ( ( ( ( ( ( ( ( ( ( ( ( ( ( ( ( ( ( ( ( ( ( ( ( ( ( ( ( ( ( ( ( ( ( ( ( ( ( ( ( ( ( ( ( ( ( ( ( ( ( ( ( ( ( ( ( ( ( ( ( ( ( ( ( ( ( ( ( ( P ( ( ( %X8.x g g g x x g g g g g g g g g g g g g g g g g g g g g g g g g g g g g g g g g g g g g g g g g g g g g g g g g g g g g g g g g g g g g g g g g g g g g g g g g g g g g g g g x g g g g g g g g x x g g g g x x x x u.R ( %X( ( ( ( ( ( ( ( ( ( ( ( ( ( ( ( ( ( ( ( ( ( ( ( ( ( ( ( ( ( ( ( ( ( ( ( ( ( ( ( ( ( ( ( ( ( ( ( ( ( ( ( ( ( ( ( ( ( ( ( ( ( ( ( ( ( ( ( ( ( ( ( ( ( ( ( ( ( ( ( ( ( ( ( ( ( ( ( ( ( ( ( ( ( ( ( ( ( ( ( ( ( ( ( ( ( ( ( ( ( ( ( ( ( ( ( ( P 2 HXSXR.#.#.4.#.#.#.#.#.4.4.R.R.'.9 9 9 9 9 9 9 t.9 t.t.9 9 9 9 9 9 9 9 '.'.'.R.R.R.'.'.'.9 t.t.! ! _ _ _ _ _ _ '.4.#.#.#.#.#.#.#.#.#.#.#.#.4.R.'.;X'.'.4.#.#.#.#.#.4.4.R.'.9 9 9 9 9 9 9 9 9 9 9 ",
"`.`.`.`.`.`.`.`.`.`.`./.` ` a.s.U.f.f.f.f.f.t t t t f.t f.t t t f.t t f.t t t t t t t t t t t t t t t t t t t t t t t t f.f.f.f.f.[.[.[.' m m m m m m m m m m m m m m m m m m m m m m m m m m m m m m m m m m m p.ZXIX2 P P ( ( ( ( ( ( ( ( ( ( ( ( ( ( ( ( ( ( ( ( ( ( ( ( ( ( ( ( ( ( ( ( ( ( ( ( ( ( ( ( ( ( ( ( ( ( ( ( ( ( ( ( ( ( ( ( ( ( ( ( ( ( ( ( ( ( ( ( ( ( ( ( ( ( ( A R 8.x g g g g g g g g g g g g g g g g g g g g g g g g g g g g g g g g g g g g g g g g g g g g g g g g g g g g g g g g g g g g g g g g g g g g g g g g g g g g g g g g g g g g g g g g g g g g g g g g g x g x g g x 8.R ( ( ( ( P ( ( ( ( ( ( ( ( ( ( ( ( ( ( ( ( ( ( ( ( ( ( ( ( ( ( ( ( ( ( ( ( ( ( ( ( ( ( ( ( ( ( ( ( ( ( ( ( ( ( ( ( ( ( ( ( ( ( ( ( ( ( ( ( ( ( ( ( ( ( ( ( ( ( ( ( ( ( ( ( ( ( ( ( ( ( ( ( ( ( ( ( ( ( ( ( ( ( ( ( ( ( ( ( ( ( ( ( ( ( ( ( ( P ( ( n JX`.R.#.#.#.#.#.#.#.4.R.R.'.9 9 9 9 9 9 9 9 9 9 9 9 9 9 9 9 9 9 9 9 9 9 9 9 '.9 9 t.! ! _ ! _ _ _ _ _ _ _ ! 9 R.4.#.#.#.#.#.#.#.#.#.#.#.#.4.R.R.'.R.R.4.#.#.#.#.4.R.'.9 9 9 9 9 9 9 9 9 9 9 9 9 ",
"`.`.`.`.`.`.`.`.`.`.`.` ` ` a.C.U.f.f.f.f.f.t t t t f.f.t f.f.f.f.f.f.f.t f.f.t f.t t f.t t t t f.t f.f.f.f.f.f.f.f.f.f.f.f.t t t t t f.[.m m m m m m m m m m m m m m m m m m m m m m m m m ` m m ` y.m m m m m p.U.nX2 P P ( ( ( ( ( ( ( ( ( ( ( ( ( ( ( ( ( ( ( ( ( ( ( ( ( ( ( ( ( ( ( ( ( ( ( ( ( ( ( ( ( ( ( ( ( ( ( ( ( ( ( ( ( ( ( ( ( ( ( ( ( ( ( ( ( ( ( ( ( ( ( ( ( ( A _.8.x x x g g g g g g g g g g g g g g g g g g g g g g g g g g g g g g g g g g g g g g g g g g g g g g g g g g g g g g g g g g g g g g g g g g g g g g g g g g g g g g g g g g g x g g g g g g g g g g g x g g g g x 8._.( ( ( y ( ( ( ( ( ( ( ( ( ( ( ( ( ( ( ( ( ( ( ( ( ( ( ( ( ( ( ( ( ( ( ( ( ( ( ( ( ( ( ( ( ( ( ( ( ( ( ( ( ( ( ( ( ( ( ( ( ( ( ( ( ( ( ( ( ( ( ( ( ( ( ( ( ( ( ( ( ( ( ( ( ( ( ( ( ( ( ( ( ( ( ( ( ( ( ( ( ( ( ( ( ( ( ( ( ( ( ( ( ( ( ( ( ( ( ( ( y DXdX'.4.#.#.#.#.#.4.R.R.'.9 9 9 9 9 9 9 9 9 9 9 9 9 9 9 9 9 9 9 9 9 9 t.9 9 9 9 t.t.! _ _ _ _ _ _ _ _ ! ! t.'.R.4.#.#.#.#.#.#.#.#.#.#.#.#.#.#.4.4.4.R.4.#.#.#.#.4.R.'.9 9 9 9 9 9 9 9 9 9 9 9 9 9 ",
"`.`.`.`.`.`.`.`.`.' /.` ` ` s.C.[.f.f.f.f.f.t t t t f.f.t f.f.f.f.t t t t f.f.t f.t f.f.f.t t t f.t f.f.f.f.f.f.t t t t f.f.t t f.f.f.f.' m m m m m m m m m m m m m m m m m m m m m m m m m m m m m m m m y.m m p.h.AX2 P ( ( ( ( ( y y y y y y y y y y y y y y y y y y y y y y y y y y y y y y y y y y y y y y y y y y y y y y y y y y y y y y y y y y y y y y y y y ( ( ( ( ( _.8.x g g x x 7.g g g g g g g g g g g g g g g g g g g g g g g g g g g g g g g g g g g g g g g g g g g g g g g g g g g g g g g g g g g g g g g g g g g g g g g g g g g g g g g g 7.g x 7.g g g g g g g g g g g g x x n R ( ( y y ( ( ( ( y y y y y y y y y y y y y y y y y y y y y y y y y y y y y y y y y y y y y y y y y y y y y y y y y y y y y y y y y y y y y y y y y y y y y y y y y y y y y y y y y y y y y y y y y y y y y y y y y y y y y y y y y y y y y ( ( ( ( ( 8.AX`.R.#.#.#.#.#.4.R.'.9 9 t.9 9 t.9 9 9 9 9 9 9 9 9 9 9 9 9 9 9 9 9 9 9 9 9 9 9 t.! _ _ _ _ _ _ _ _ _ ! 9 R.4.4.#.#.#.#.#.#.#.#.#.#.#.#.#.#.#.#.#.#.#.#.#.4.4.R.'.9 t.t.t.9 9 9 t.9 9 9 9 9 9 9 9 ",
"`.`.`.`.`.`.`.' ;X/.` ` ` ` y.h.[.t t t f.f.t t t t t t f.t f.t t f.f.f.f.t t f.t f.t t t f.f.f.t f.t t t t t t t f.f.f.f.f.f.f.f.f.f.f.[.m m m m m m m m m m m m m m m m ` m m m m m m m m m m m m m m y.` m y.p.h.AX2 y ( y ( ( ( y y ( y y y y y y y y y y y ( y y y y y y ( y y y y y y ( ( y y y y y y y y y y y ( y y y y y ( ( y y y y y y ( y y y y y y y y y ( y ( ( R u.x g g g x x x g g g g g g g g g g g g g g g g g g g g g g g g g g g g g g g g g g g g g g g g g g g g g g g g g g g g g g g g g g g g g g g g g g g g g g g g g g g g g g g g g g g g g g g g g g g g g g g x 8._.( ( y y y ( ( y y ( ( y y ( y ( y y y y y y y y y y y ( y y y y y y ( y y y y y y y y y y y ( y y y y y y y ( y y y y y y ( y y y y y y y y y y y ( y y y y y y ( y y y y y y y y y y y ( y y y y y y y ( y y y y y ( y y y y y y y y y y y y ( y ( ( U lXSX'.4.#.#.#.#.4.R.'.9 9 9 9 9 9 9 9 9 9 9 9 9 9 9 9 9 9 9 9 9 9 9 9 9 9 9 9 9 9 t.! _ _ _ _ _ _ _ ! ! 9 R.4.#.#.#.4.#.#.#.#.#.#.#.#.#.#.#.#.#.#.4.#.#.4.4.R.R.'.9 9 t.t.t.9 9 9 9 9 9 9 9 9 9 9 9 ",
"`.`.`.`.;X/.` ` ` ! ` ` ` ` ` h.U.f.f.f.f.f.t t t f.f.f.t f.f.f.f.[.[.f.t f.f.t f.t f.f.f.t t t f.t f.f.f.f.f.f.[.' ;Xf.f.f.f.f.f.f.f.f.' m m m m m m m m m m m m m m y.m m m m m m m m m m m ` m m m p.m m m m p.h.AXn ( ( ( y y y y ( ( y y y y y y y y y y y ( y y y y y ( ( y y y y y y y ( y y y y y y y y y y ( ( y y y y y ( ( y y y y y y ( y y y y y y y y y ( y ( ( R x g g g g g g g g g g g g g g g g g g g g g g g g g g g g g g g g g g g g g g g g g g g g g g g g g g g g g g g g g g g g g g g g g g g g g g g g g g g x x g x x g g g g 7.7.g g g g g g g g g g g g g x x 8.8.R ( ( ( y ( y ( y y y y y y ( ( y ( y y y y y y y y y y y ( y y y y y y ( y y y y y y y y y y y ( y y y y y y y ( y y y y y ( ( y y y y y y y y y y y ( y y y y y ( ( y y y y y y y y y y y ( y y y y y y y ( y y y y y ( ( y y y y y y y y y ( y ( ( ( y xXcX;XR.#.#.#.#.4.'.'.9 9 9 9 9 9 9 9 9 9 9 9 9 9 9 9 9 9 9 9 9 9 9 9 9 9 9 9 9 9 9 t._ _ _ _ _ _ _ _ ! 9 R.4.#.#.#.#.#.4.#.#.#.#.#.#.#.#.#.#.#.4.4.4.R.R.R.R.'.9 9 t.t.9 9 t.9 9 9 9 9 9 9 9 9 9 9 9 ",
"`.`.`.;X/.` ` ` ` ` ` ` ` ` p.s.U.f.f.f.t f.f.t t f.f.f.f.f.[.[.;X/.;Xf.t f.f.f.f.f.f.f.f.f.f.f.f.f.f.f.f.f.[.' /.m /.f.f.f.f.f.f.f.f.f.' m m m m m m m m m m m m m m ` m m m m m m m m m m m m m m m m m m m m p.NXnXn P ( y y ( y y y y y ( y ( y ( y ( R ( ( R ( R ( ( R ( R ( R ( ( ( R ( ( R ( R ( R ( R ( y y y y y ( y ( R ( R ( R ( R ( R ( R ( y ( y ( y ( y ( y y ( R x g g g x g g g g g g g g g g g g g g g g g g g g g g g g g g g g g g g g g g g g g g g g g g g g g g g g g g g g g g g g g g g g g g g g g g g g g g g g g g g g g g g g g g g g g x x x x x x x x x 8.8._.A A ( ( R A ( y ( ( y R ( y y R ( R ( R ( R ( ( R ( R ( R ( R ( R ( ( R ( ( R ( ( R ( ( R ( R ( R ( R ( ( R ( ( ( R ( R ( R ( y y R ( y ( y ( y ( R ( ( R ( y y y y y y y y ( y ( y ( y ( R ( ( R ( R ( R ( R ( y y ( y ( R ( R ( R ( y y y y y ( ( y ( ( ( R IXZX'.4.#.#.#.4.R.9 t.9 9 9 9 t.9 9 9 9 9 9 9 9 9 9 9 9 9 9 9 9 9 9 9 9 9 9 9 t.t.t.! _ _ _ _ _ ! _ _ ! R.4.#.#.#.#.#.#.#.#.#.#.#.#.#.#.#.#.#.4.4.R.'.'.'.9 t.9 9 t.t.t.t.t.t.t.9 9 t.9 9 9 9 9 9 9 9 ",
"`.`.' /.` ` ` ` ` ` ` ` ` ` ` s.U.[.t f.f.f.t t t t f.f.f.f.' /.m m ' f.f.f.f.f.f.f.f.t t f.f.f.f.f.f.f.t [./.m m /.' f.f.t f.f.t f.t f./.m m m m m m m m m m m m m m m m m ` m m m m m m ` m m m ` m m m ` m m a.NXnXn ( ( ( y y ( R y ( R ( R R y R y R y R y ( R y R y R y ( R y R R y y ( R y y R y y R y R y R y ( R R y R y ( y y R y y R y ( R ( R R y R y R ( R y y ( R 8.g x g g g g g g g g g g g g g g g g g g g g g g g g g g g g g g g g g g g g g g g g g g g g g g g g g g g g g g g g g g g g g g g g g g g g g g x g g g g g g g g g g g x x x 8.8.8.n n n 8.n n n n R A ( ( ( y ( ( R y R y R y y R ( R y y ( R ( R y R y y R y y R y y ( R y R y R y ( R R y R y R y y R y y ( R y R y R R ( y y R y R y R ( R ( R R y R y y R ( R ( R y R y R ( ( R R ( R R y R y y R y ( R y y R y y ( R y R y R y ( R y y R y R y R y ( R y R ( R DXFXh.R.#.4.#.#.R.'.9 9 t.t.9 9 9 9 9 9 9 9 9 9 9 9 9 9 9 9 9 9 9 9 9 9 9 9 9 t.t.t.t.! _ _ _ _ _ _ _ ! 9 R.#.#.#.#.#.#.#.#.#.#.#.#.#.#.#.#.#.4.R.R.'.9 9 t.t.t.9 9 t.9 9 t.t.9 9 t.t.t.9 9 9 9 9 9 9 9 ",
"`.;X/.` ` ` ` ` ` ` ` ` ` ` ` s.U.[.f.t f.t t f.t t f.f.f.f.[./.m ;Xf.f.f.f.f.t f.f.f.t t [.[.f.f.t f.t f.' m m /.' f.t t f.f.f.f.t t [.m m m m m m m m m m m m m m m m m m m m m m m m m m m m m m m m y.m m y.a.SXlXU ( ( y y y y R ( ( y y y y ( y y ( y y y ( y y y R y y ( y y ( y ( R y ( y y y y U y y y y R ( ( y ( ( ( y y ( R y y y y y ( y y y y ( y ( y R ( ( ( ( U 8.g x x x x g g g g g g g g g g g g g g g g g g g g g g g g g g g g g g g g g g g g g g g g g g g g g g g g g g g g g g g g g g g g g g g g g g g g g x x x x x 8.8.8.8.8._.R R _.R ( R A R A ( A A A y y y y y y y R R y y y y R y R y y R ( ( y ( y y y y y y U y y R y ( y y y ( ( y ( y y y y y y U y y R y ( y ( y y y y y ( y y y R y ( ( y y y ( ( y ( y y y y ( y y y R y y ( y y y y ( y ( y y y y ( y R y y y R ( ( y ( ( ( y ( y U y y R y R R R y R y ( U xXcXC.'.4.#.#.#.4.R.9 9 9 9 9 9 9 9 9 9 9 9 9 9 9 9 9 9 9 9 9 9 9 9 9 9 9 9 9 t.t.t.! ! _ _ _ _ _ _ _ ! ! '.4.#.#.#.#.#.#.#.4.#.#.#.#.#.#.#.#.4.R.'.9 9 t.t.9 9 9 9 9 t.9 9 t.m m s.m /.t.9 9 9 9 9 9 9 9 ",
"' /.` ` ` ` ` ` ` ` ` ` ` ` y.s.U.[.t t t f.t t t t f.f.f.f.f.f.[.f.f.f.f.f.f.t f.f.f.f.U.s.C.[.f.f.f.f.f.[.;X;X[.f.f.t t f.t f.f.t [.;Xm m m m m m /.;X;Xm m m m m m m m m m m m m m m m m m m m m m m m m m y.s.FXxXR y ( R R R R R R R R R R R R R R R R R R R y R R y R R R y R R R y R R R R R R R y R R R R y U R R R R R R R R y R R R R R R y R R R R R R y R R R R R _.8.x g g g g g g g g g x g g g g g g g g g g g g g g g g g g g g g g g g g g g g g g g g g g g g g g g g g g g g g g g g g g g g g g g g g g g g g x x n U U R R R R R R ( R R R y R y y y R y R R y y R R R R R R R ( R R R R R R y R R R y R R R y R R R R R R y R y R R R y R R R R R R R y R R R R y R y R R R R R R y R R R R R R R R R R y R R R R R R R R R R R y R R R R R R R R y R R R R R R R R R R y R R R y R R R y R R R R R y R y R R y R y y y R ( R U nXZX/.R.4.#.#.#.R.'.9 9 9 9 9 9 9 9 9 9 9 9 9 9 9 9 9 9 9 9 9 t.9 9 9 9 9 9 9 t.! ! _ _ _ ! _ _ _ _ _ _ t.R.4.#.#.#.#.#.#.#.#.#.#.#.#.#.#.4.R.R.'.9 9 9 9 9 9 t.t.t.t.9 9 9 t.h.oXoXoXs.m 9 9 9 9 9 9 9 9 ",
"p.p.p._ p.` ` ` ` ` ` ` ` ` a.7Xh.[.f.[.f.f.f.f.f.f.t t t t f.t t f.f.t f.f.t f.t f.[.s.LXLXNX[.f.f.f.t t f.f.f.f.f.f.f.f.f.f.f.f.[./.m m m m m /.;X[.f.' /.m m m m m m p.m m m m m m m m ` m m m m m m m m m a.ZXnXv y R ( R R R R R R R R R R R y R y R R R R R R R R R R R R R R U R U R y R R R R R R R R R R R R y R U y U R R R R R R R R R R R R R R y R R R R R R R ( R U 8.x g g g g g g g g 7.g g g g g g g g g g g g g g g g g g g g g 7.g 7.g g g g g g 7.g g g g g g g g g g g g g g g g g g g g g g g g g g x g g x 8._.R R R R R R R R R U y R R y R R U y R R U y U R R R R R R R R R R R R R R R R R y R R U R R R R R R R R R R R R R R R R R R U R y R R R R R R R R R R R R y R y R R R R R R R R R R R R R R R R y U R y R R R R R R R R R R R R R R R ( U y R R R R R R R R R R R R y R R R U R R R R R R R R R R R R R R y v lXdXs.'.4.#.#.#.4.R.9 t.9 9 9 9 9 9 9 9 9 9 9 9 9 9 9 9 9 9 9 9 9 9 9 9 9 9 9 t.t._ _ _ ! _ _ _ _ _ ! _ ! t.R.#.#.#.#.4.4.4.4.#.#.#.#.#.#.4.R.'.9 t.9 9 9 9 9 9 9 9 9 9 t.9 9 t.s.E.S.oXs.m 9 9 9 9 9 9 9 9 ",
"ZXU.h.s.a.a.y.p.p.p._ _ ` y.7X7Xh.[.' /.' f.t t t t t t f.f.f.f.f.f.f.f.f.f.f.f.f.[.7XLXLXLXZXf.t f.f.f.f.t t t f.f.f.f.f.f.f.f.[./.m m m m m m /.[.f.' /.m m m m m m m m m m m /.;X[./.m m m m m m m m m m a.s.JXxXU R R R R R A U R R R R R R R R R R R R A U R R R R _.R R y R R y R y R R R R R R R R R R _.R R R R R y R R y R y R _.R R R R R R R _.y R R y R R _.( R R R R U u.x g g g g g g g g g g g g g g g g g g g g g g g g g g g g g g g g g g g g g g g g g g g g g g g g g g g g g g g g g g g g 7.g g g g g g x u.U R R R R R U R R R R R R U y R R y R R R y R U y U y R R R R R R R R R R R R R R R R R U y R y R y R A R R R R R R R R R y R y R R R y R R R _.R R R R R _.y R R R R R R A U R R R R R R R R R R R R y R R R R R R R R R R R R R R R R _.R R R R y R _.R R R R R R _.y R R R y R y R R R R A R A R R R y R ( 2 xXcXC./.4.#.#.#.#.4.R.9 t.t.9 t.9 9 9 9 9 9 9 9 9 9 9 9 9 9 9 9 9 fX'.9 9 9 9 t.t.t._ _ _ _ _ ! _ _ _ _ _ _ 9 R.#.#.4.4.R.R.R.R.#.#.#.#.#.4.R.'.9 t.9 9 9 9 9 9 9 9 9 9 9 t.'.'./.oXE.Z.Z.s.t.9 9 9 9 9 9 9 9 ",
"XX2XvXvXdXkXkXZXZXU.h.h.a.7XoX7Xh.;Xm p./.[.f.f.t t t t t t t t t f.f.f.f.f.f.f.f.ZXLXLXLX7XV.f.f.f.f.t t t f.f.f.f.t f.f.f.[.;X/.m m m m m m m /.;X;Xm m m m m m p.m m m m m /.[.f.f.;Xm m m m m m m m m p.a.FXlX2 y R R R R R R A R R R R A R R y R y R R R R R _.R R ( R R R R ( R R R R y R R A R R _.R R R A R R y R R R R R R R ( R R R R R _.R R y R y R R ( R R R _.R R U R R n 8.8.8.8.x x x x x g g g g g g g g g g g g g g g g g g g g g g g g MXg MXg g g g g g g g g 7.g g g g g g g g g g g g 7.g 7.g g g g g x u.R R y R R R R R R R R R R R R R R R R R R R R R R R R R R R R R R R R R R R R R R R R y R y R R R R R R R R R R R _.R A R y R R R R y R R R R R ( R R _.R R R R R R y R ( R R ( R _.R R R _.R R R A R y R R y R R A R _.R R _.R R _.R R R R y R y R R ( R R R R R A R R R R y R R R R R y R R R R R R R R R R R n nXZX/.4.#.#.#.#.#.R.'.9 9 9 9 9 9 9 9 9 9 9 9 9 9 9 9 9 9 9 9 t.'.fXe.'.9 t.t.t.! ! _ _ _ _ _ _ ! _ _ _ ! ! 9 4.4.4.R.R.'.'.R.R.4.#.#.4.R.'.'.9 t.t.t.9 9 9 9 9 9 9 9 9 9 t.'.fXU.oXE.Z.oXs.t.t.9 9 9 9 9 9 9 ",
"}.}.O 0 3.N.=X+X2X2XvXdXdX>XJ.Y.ZXZXh.h.s.U.[.[.[.[.[.f.f.f.f.f.t t t t t t f.f.[.NXLXLXLXNXf.f.f.f.f.f.t t t f.f.t t f.f.[./.m m m m m m m m m m m m m m m m m m m m m m y./.[.t f.;Xm m m y.y.y.a.a.a.y.h.FXlXu.y R R R R R R R R R A R R _.R R R R R R R A R R R R R R R R R R R R R R R R R R R R R R R A R R R R R R y R R y R R R R A R R R R R A R R R R R R A R R R R R U R R _.R _.R _._.8.u.8.8.x x g g g g g g g g g g g g g g g MXg g g MXg g g g g g g g g g g g 7.g g g x x x x x g g g g g 7.g g g g g g g g u.U R R R R R R R R R R R R R R R R R R R R R R R R R R R R R R R R R R R R R R R R A R R R R R R R R y R R A R R _.R R R R R R R R R R R R y R A R R R R R R A R R R R R R R R _.R R R R A R R R A R R R R R R R R R R R R R R R R R R R A R A R R R R R R R A R _.R R R R R R R R R y R R R R R R A R R R R R ( u.IXdXh.R.#.#.#.#.#.4.R.9 9 9 9 9 9 9 9 9 9 9 9 9 9 9 9 9 9 9 9 9 9 9 fXe.fX9 t.t.! ! _ _ _ _ ! _ _ _ _ _ ! ! ! 9 4.4.R.R.'.'.R.R.4.#.#.4.R.'.9 9 t.9 t.9 9 9 9 9 9 9 9 9 9 9 9 9 ' U.E.E.Z.oXs.t.t.9 9 9 9 9 9 '.",
"H H H O O l.}.}.}.}.}.3.3.N.=XXX2X<XvXsXdXkXkXkXkXV.V.V.[.[.f.[.[.[.f.f.f.f.f.f.ZXE.LXLXZ.ZX[.f.f.f.f.f.f.f.f.f.f.t f.f.' /.m m ` m m m m m m m m m m m m m m m m m m p.m m ;Xf.[.;Xm m m m m h.NXh.NXZXSXJXlXv R R R R R R R R R R R U R R R R R R R R R R R R R R R R R R R R R R R R R U R U R R R R R R U R R R R R R R R U R U R R R R R R R R R U R R R R R R R R R R R R R R R R R R R R R ( _.R R _.8.8.x g g g g g g g g g g g g g g & g g g g g x 8.x C x x g g g g g g g x 8.u.8.u.8.8.8.x x x g g g g g g x x 8.U R R R R R R R R R R R R R R R R R R R R R R R R R R R R R R R R R R R R R R R R R R R R R R R R R R R R R R R R R R R R R R R R R R R R R R R R R R R R R R R R R R R R R R R R R R R R U R R R U R R R R R R R U R R R R R R R R R R R R R R R R R R U R R R R R R R R R R R R R R R R R R R R R R R R R R ( n DXFXh.'.#.#.#.#.#.#.R.'.9 9 9 9 9 9 9 9 9 9 9 9 9 9 9 9 9 9 9 9 9 t.t.'.e.e.'.t.! ! _ _ _ _ _ _ ! _ _ _ _ _ ! t.'.4.#.4.4.R.4.4.#.#.4.R.R.'.9 t.9 9 9 9 9 9 9 9 9 9 9 9 9 9 9 9 9 9 C.E.Z.Z.oXh.t.t.9 t.9 9 9 9 9 ",
"3.0 3.3.3.H H 3.H 3.O O l.l.l.}.}.}.}.}.3.N.N.=XXXjXvX^.dXQ.kXkXJ.V.V.V.[.[.[.ZXT.aXaX6X6XT.kX[.f.f.f.t f.f.t f.f.f.f.f./.m m m m m m y.m m m m m m m m m m m m m m m m m m /.' /.m m m m y.h.FXAXAXAXGXlXn v R R U R U R U U U U R U R U U U U U U U U U U U U R U U R U U U U R U U U U R U R U U R U U R U U U R U U U U U U U U U U U U U R U U R U R U U U U U U U U U U U U R U U R U R R R U R U R U R _.R 8.g g g MXg g g MXg g & g g g MXg MXg C n U R U _.n 8.x g g g g x 8.R R R R R R R U U n 8.8.8.8.8.u.n U R R U R U U U U U U U U U U U U U U U U U U U U U U U U U U U U U U U U U U U U U U U U U U U U U U U U U U U U U U U U U U U U U U U U U U U U U U U U R U U R U U U U U U U U U U U U U R U U U U R U U U U U U R U R U U U R U R U R U U U U U U U U U U R U U U U U U U U U U U U U U U R U U R R R R R R R U xXcXU.9 4.#.#.#.#.4.R.'.9 9 9 t.t.9 t.9 9 9 9 9 9 9 9 9 9 9 9 t.t.9 t.9 9 fXfX9 ! _ ! _ _ _ _ _ _ _ ! _ _ _ _ ! '.4.#.#.#.#.#.#.#.#.#.R.'.9 t.9 t.9 9 9 9 9 9 9 9 9 9 9 9 t.9 t.9 9 t.s.E.Z.Z.oXm t.t.9 t.t.9 9 9 9 ",
"3.@ @ 0 0 0 @ 9.9.H @ @ @ H H @ 3.3.H 0 0 0 l.}.l.}.}.+X4X4X-X-X).-XvXvXsXsXkXT.iXaX].*XaXaX).[.f.f.f.f.f.f.t t f.f.f.[./.m m m m m m m m m m m m m m m m m m m m m m m m m m m m m m m m y.h.cXMXC L v 2 U R U U U R U R U U U U U U U U U U U U U U U U U U U U U U U U U U U U U U U U U U U U U U U U U U U U U U U U U U U U U U U U U U U U U U U U U U U U U U U U U U U U U U R R R R R U U R U U R U R R U u.x g g g MXg g g g g MXg MXg g C u.U R R _.R U U U 8.x %.x C u._.R R R R R R R R R R U U U U U _.U _.U _.U U U U U U U U U U U U U U U U U U U U U U U U U U U U U U U U U U U U U U U U U U U U U U U U U U U U U U U U U U U U U U U U U U U U U U U U U U U U U U U U U U U U U U U U U U U U U U U U U U U U U U U U U U U U U U U U U U U U U U U U U U U U U U U U U U U U U U U U U U U U R U U R R U R R R U xXcXZX9 4.#.#.#.#.4.R.'.9 9 9 9 9 9 9 9 9 9 9 9 9 9 9 9 t.9 9 t.t.t.9 t.9 t.t.9 t.! _ _ _ _ _ _ _ _ _ _ _ _ ! t.'.R.#.#.#.#.#.#.#.#.#.4.R.'.9 9 9 9 9 9 9 9 9 9 9 9 9 9 9 9 9 9 9 9 9 m s.E.Z.Z.7Xm t.t.t.t.t.9 9 t.9 ",
"O 0 0 3.N.N.N.3.3.@ H @ H @ @ H H H H H H 3.H H 3.3.+X-XqXqXqXF.1X).+X}.3.3.N.-XaXiXeXeXOX~.&XkXkXV.V.[.[.[.f.f.f.f.f.;Xm m m m m m m m m m m m m m m m m m m m m m p.m m m m m m m m m m m y.SXDXn R R R R U R U R U U U U U U R U U R U R U U U U U R U R U R U R U R U R U R U U U U U R U R U R U R U R U R U R U U U U U U U U U U U U U R U R U U R U U U U U U U U R U R U R U R U U U U U R U U R R U U U R _.n u.C x g MXg MXg %.x x C 8.n _.U R U U U U U U U U _.n n n _.U U R U U U U U U U U U y U y U R R U ( U U R R U R U U U U U U U U U U U U U U U U U U U U U U U U U U U U U U U U U U U U U U U U U U U U U U U U U U U U U U U U U U U U U U U U U U U U R U R U R U U U U U U U U U U U U U R U R U R U R U U U U R U U R U R U R U U R U R U U U U U U U U U U U U U U U U U U U U U U U U U U U R U U R U R y u.nXZX/.R.4.#.#.4.R.'.9 9 9 9 t.9 9 9 9 9 9 9 9 9 9 9 9 9 9 9 9 t.t.t.t.t.t.9 t.t.t.! _ _ _ _ _ _ _ _ _ _ _ _ t.'.4.#.#.#.#.#.#.#.#.#.#.4.R.9 9 9 9 9 9 9 9 9 9 9 9 9 9 9 9 9 9 9 t.9 t.m oXE.Z.oXs.t.t.t.9 t.t.9 9 9 9 ",
"H 3.N.4X).).*X4X+X3.0 0 0 O @ @ H 3.H @ @ @ @ 3.N.4X].qXrX9X0XrXaX).N.O 3.0 3.kXNXZ.Z.S.-XN.N.N.=X=XjXjXvXsXkXkXV.V.ZXh.a.a.a.y.y.y.y.m m m m m m m m m m m m p.m m m m m m m m m m m m m m a.ZXIXv R R U R R U R U U R U U U U U U U U U U U U U U U U U U U U U U U U U U U U U U U U U U U U U U U U U U U U U U U U U U U U U U U U U U U U U U U U U U U U U U U U U U U U U U U U U U U U U U R R U R R R U U U R U U n n n 8.n n n n U _.U R R U R U R R R U U R U R R R U R U U R U U R U _.R R R R R R R R R R U R R R U U U U U U U U U U U U U U U U U U U U U U U U U U U U U U U U U U U U U U U U U U U U U U U U U U U U U U U U U U U U U U U U U U U U U U U U U U U U U U U U U U U U U U U U U U U U U U U U U U U U U U U U U U U U U U U U U U U U U U U U U U U U U U U U U U U U U U U U U U U R U U U U U R U xXnXZXh./.'.R.4.R.'.9 9 t.9 9 t.9 9 9 9 9 9 9 9 9 9 9 9 9 9 9 9 9 9 t.t.t.9 t.t.! t.! _ _ _ _ _ _ _ _ _ _ _ ! t.'.4.#.#.#.4.4.#.#.#.#.#.#.4.R.9 t.9 9 9 9 9 9 9 9 9 9 9 9 9 9 9 9 9 9 9 9 m oXZ.Z.oXs.t.t.t.t.t.t.9 9 t.9 ",
"H 3.-XOX#X$X6XOX:XN.1.1.2.6.6.3.0 0 0 H H @ @ 3.N.4XqXaXiXiXLXS.:XN.}.O H :.jXV.T.T.T.S.&X2X,X:.:.1.1.1.1.N.N.N.=XXXjXvXsXdXkXV.ZXU.h.h.a.a.a.a.y.m m m m m m m m y.m m m m m m m m m m m m y.ZXIXv R U U U _.R U R U U U U U U U U U U U U U U U U U U U U U U U U U U U U U U U U U U U U U U U U U U U U U U U U U U U U U U U U U U U U U U U U U U U U U U U U U U U U U U U U U U U U U U U U U U U _.U U U R U U R U U _.U R R _.U R U U U U U R U U _.U U U R U U U U U U R U R U U U U U U U R _.U U U U U U U U U U U U U U U U U U U U U U U U U U U U U U U U U U U U U U U U U U U U U U U U U U U U U U U U U U U U U U U U U U U U U U U U U U U U U U U U U U U U U U U U U U U U U U U U U U U U U U U U U U U U U U U U U U U U U U U U U U U U U U U U U U U U U U U U U R U U U R U U R U U U R R U U U R U ( U u.nXSXh./.'.'.R.R.'.t.9 t.9 9 9 9 9 9 9 9 9 9 9 9 9 9 9 9 9 9 9 9 9 t.t.9 9 t.t.! ! ! _ _ _ _ _ _ _ _ _ _ _ _ t.'.4.#.#.#.#.#.#.#.#.#.4.#.#.4.'.9 t.t.9 9 9 9 9 9 9 9 9 t.9 9 9 9 9 t.t.9 t.m oXZ.Z.oXs.t.t.t.9 9 9 9 9 9 9 ",
"}.}.-XOXOXOXOX).4XN.:.&.,X&.&.:.:.2.H l.9.O @ 3.3.+X4X).OX>XNXkXvXvXvXN.O =XsX>X~.*X$X$X*X:X2X=X,Xz.z.z.z.:.:.1.1.2.2.3.3.3.N.=X=XXX2XvXsXdXV.ZXh.h.s.a.a.y.y.y.m m ` m m m m m m m m m m m a.SXDX2 R _.U R U U R U U R U U U U U U U U U U U U U U U U U U U R U U R U U R U U U U U U U U U U R U U R U U R U U U U U U U U U U U U U U U U U U U U U U U U U U U U U U U U R U R U R U R U R U R U R U U U R U R U R U U U U U U U U U U U U R U U U U R U U U U U U U _.U R U U R U U U R U R R U U U U R U R U U R U R U R U R U U U U U U U U U U U U U U U U U U U U U U U U U U U U U U U U U U U U U U U U U U U U U U U U U U U U U U U U U U U U U U U U U U U U U U U U U U U U U U U U U U U U U U U U U U U U U U U U U U U U U U U R U U R U U R U U U U U U U U R U U R R R U R R R R R R U U R U U R U ( R R U v xXAXSXU./././.fXfX'.9 t.9 9 9 9 9 9 9 9 9 9 9 9 9 9 9 9 9 9 9 9 9 9 9 t.t.9 9 t.! _ _ _ _ _ _ _ ! _ _ _ _ _ _ ! '.R.#.#.#.#.#.#.#.#.#.#.#.#.4.R.'.t.9 9 9 9 9 9 9 9 t.9 9 9 9 9 9 9 t.9 9 9 t.m oXZ.Z.oXm t.9 9 9 9 9 9 9 9 9 ",
"5XjXV.oX7XoX>XXX3.3.2.:.&.&.j j j ,XN.N.N.N.3.H O @ =XsXZXU.h.;XU.[.vXN.l.&.5XXX:X~.OXeX#X$X:XXX8Xa j $ $ X i a . z.:.:.1.2.6.0 O 0 3.3.3.N.=XXX2XvXdXkXV.ZXh.h.a.a.y.y.y.m m m m m m m m y.NXcX8.U U U R U U U U U U U U U U U U U U U U U U U U U U U U U U U U U U U U U U U U U U U U U U U U U U U U U U U U U U U U U U U U U U U U U U U U U U U U U U U U U U U U U U U U U U U U U U U U U U U U U U U U U U U U U U U U U U U U U U U U U U U U U U U U U U U U U U U U U U U U U U U U U U U U U U U U U U U U U U U U U U U U U U U U U U U U U U U U U U U U U U U U U U U U U U U U U U U U U U U U U U U U U U U U U U U U U U U U U U U U U U U U U U U U U U U U U U U U U U U U U U U U U U U U U U U U U U U U U U U U U U U U U U U U U U U U U U U U U U U U U R U _.U R _.U R U _.R U U U U U 2 v v L v xXlXJXSX' `.' fXfXe.fX9 9 9 t.9 9 9 9 9 9 9 9 9 9 9 9 9 9 9 9 9 9 9 t.9 9 t.t.9 t.t.! _ ! _ _ _ _ _ _ _ _ _ _ _ ! 9 R.#.#.4.#.#.#.#.#.#.#.#.#.#.R.'.9 9 9 9 9 9 9 9 9 9 9 9 9 9 9 9 t.t.t.9 9 9 t.m oXZ.Z.oXm t.t.9 9 9 9 9 9 t.9 ",
"sXsXV.U.U.ZXvXN.0 3.3.3.2.1.:.:.=X2X4X4X].4XN.@ 9.1.uXW.[.[.[.[.V.vX=X@ l.6.8XCXvXJ.C.E.T.~.:XXX,X. a a a i i i . $ j j j &.&.:.1.6.H O l.l.l.}.0 3.N.N.=X2XvXsXkXV.ZXh.s.y.y.y.y.y.m m p.h.FXDXn U U U U U U U U U U U 2 2 2 U U 2 2 2 2 2 2 2 2 2 2 2 2 2 U 2 U U U U 2 2 2 2 2 2 2 2 2 2 2 U 2 U U U U 2 2 2 2 2 2 2 2 2 2 2 2 2 2 2 2 2 2 2 2 2 2 2 2 2 2 2 2 2 2 2 2 2 U 2 U U U U U U U U U U U U U U U U U U U U U U U U U U U 2 U U U U U U U U U U U U U U U U U U U U U U 2 2 2 2 2 U 2 U U U U U U U U U U U U U U U U U 2 2 2 2 2 2 2 2 2 2 2 2 2 2 2 2 2 2 2 2 2 2 2 2 2 2 2 2 2 2 2 2 2 2 2 2 2 2 2 2 2 2 2 2 2 2 2 2 2 2 2 2 2 2 2 2 2 2 2 2 2 2 2 2 2 2 2 2 2 2 2 2 2 2 2 2 2 2 2 2 2 2 2 2 2 2 2 2 2 2 2 2 2 2 2 2 2 2 2 2 2 2 2 U U U U U 2 2 2 2 2 2 2 2 U 2 U U U U R U R U U 2 2 v v v u.u.xXxXDXlXlXIXnXJXdX[.' e.e.fXe.e.fX'.9 9 9 t.t.9 9 9 9 9 9 9 9 9 9 9 9 t.t.9 t.9 9 9 9 t.t.t.t.t.! ! _ _ _ _ _ _ _ _ _ _ _ ! _ t.R.4.#.#.#.#.#.#.#.#.#.#.#.#.R.'.9 9 9 9 9 9 9 9 9 9 9 9 9 t.t.m m m m t.9 9 9 t.m oXZ.Z.oXm t.9 9 9 9 9 9 9 9 9 ",
"jXjXjXjXvX-X-X:X:X4XN.3.0 H 3.+X4X*X*X6X*X:XN.6.H 1.5XjXjXjXjX5X=X3.3.N.N.N.vX[.[.U.U.U.kX^.XX,X. X a . . ,X=X=X=X=X,Xj . X X j &.:.2.6.6.6.6.H H 9.O l.l.}.0 3.N.=X2XvXdXV.ZXh.h.a.y.y.a.dXlXL U U U U U U U U n U U n 2 2 2 2 U 2 2 2 2 2 2 2 2 2 2 2 2 2 2 2 2 2 2 2 2 2 2 2 2 2 2 2 2 2 2 2 2 2 2 2 2 2 2 2 2 2 2 2 2 2 2 2 2 2 2 2 2 2 2 2 2 2 2 2 2 2 2 2 2 2 2 2 2 2 2 2 2 2 2 2 n 2 n 2 n 2 n 2 2 2 2 2 n 2 n 2 n 2 2 2 2 2 2 2 2 2 2 2 n 2 2 2 2 2 2 2 2 2 2 2 2 2 2 2 2 2 2 2 2 2 2 2 2 2 2 2 2 2 2 2 n 2 2 n U n 2 n 2 2 2 2 2 2 2 2 2 2 2 2 2 2 2 2 2 2 2 2 2 2 2 2 2 2 2 2 2 2 2 2 2 2 2 2 2 2 2 2 2 2 2 2 2 2 2 2 2 2 2 2 2 2 2 2 2 2 2 2 2 2 2 2 2 2 2 2 2 2 2 2 2 2 2 2 2 2 2 2 2 2 2 2 2 2 2 2 2 2 2 2 2 2 2 2 2 2 2 2 2 2 2 2 2 2 2 2 2 2 2 2 2 2 2 2 2 2 2 2 U U U R U v v u.8.xXDXDXlXIXnXAXcXcXFXFXdXSXSXZX' fXe.e.e.e.e.fX'.9 9 9 t.9 9 9 9 9 9 9 9 9 9 9 9 9 9 t.t.t.t.t.9 9 9 t.t.t.t.t.! _ _ _ _ _ _ _ _ _ ! _ _ _ _ 9 R.4.#.#.#.#.#.#.#.#.4.4.R.R.'.9 9 9 9 9 9 9 9 9 9 9 t.9 9 t.h.C.oXoXs.m t.9 9 t.m oXZ.Z.7Xm 9 9 9 9 9 9 9 9 9 9 ",
"l.l.N.+X:X).qX6XaX6X:X+X3.O 3.+X:X*X~.S.T.2X=X:.:.:.1.1.N.=XN.N.+X4X4XVX4X4X^.kXV.i.V.B w.] j a X X X a =X2X:X).-X-X2XXX,X$ J $ j &.:.:.:.:.:.:.1.1.1.1.1.2.6.6.9.9.l.0 3.=XXXvXdXkXZXs.ZXcXDXxXn u.v n 2 2 2 U U 2 2 2 U U 2 2 2 U U U n U n n n n n n n n n n n n n n n n n n n n n n n n n n n n n n n n n n n n n n n n n n n n n n n n n n n n n n n n n n n n n n n n n n n n n n n n n n n n n n n n n n n n n n n n n n n n n n n n n n n n n n n n n n n n n n n n n n n n n n n n n n n n n n U n n U n U n U n n n n n n n n n n n n n n n n n n n n n n n n n n n n n n n n n n n n n n n n n n n n n n n n n n n n n n n n n n n n n n n n n n n n n n n n n n n n n n n n n n n n n n n n n n n n n n n n n n n n n n n n n n n n n n n n n n n n n n U U U 2 U U U U 2 v _.DXlXIXnXcXcXFXdX>XZXZXC.C.C.C.C.h.;X' e.e.e.e.e.e.e.'.9 9 9 9 9 9 9 9 9 9 9 9 9 9 9 9 9 9 t.t.m s.s.m t.t.9 9 t.t.t.! _ _ _ _ _ _ _ ! _ ! ! ! _ ! ! R.4.#.#.#.#.#.#.#.#.4.R.R.'.'.9 t.9 9 9 9 9 9 9 9 9 9 9 9 t.t.h.E.S.S.oXm t.9 9 t.m oXZ.Z.oXm 9 9 9 t.t.9 9 9 9 9 ",
"H 3.4X*XaXaX*X:X6XiXaX).N.l.3.N.+X&XJ.C.ZXdXCX8X&.,Xj ,X2X:X).~.~.*X*X3X3X].4X+XN.1.:.j z.@Xj j i $ X 5X-X6XaX6X).6X6X:X2X,Xj $ $ $ X $ j j $ $ j &.&.&.&.&.:.:.&.:.:.1.1.2.9.3.N.N.XX^.Q.vXcXnXIXlXDXxX_.u.n n 2 2 U n U U U n n n n n n n n n n n n n n n n n n n n n n n n n n n n n n n n n n n n n n n n n n n n n n n n n n n n n n n n n n n n n n n n n n n n n n n n n n n n n n n n n n n n n n n n n n n n n n n n n n n n n n n n n n n n n n n n n n n n n n n n n n n n n n n n n n n n n n n n n n n n n n n n n n n n n n n n n n n n n n n n n n n n n n n n n n n n n n n n n n n n n n n n n n n n n n n n n n n n n n n n n n n n n n n n n n n n n n n n n n n n n n n n n n n n n n n n n n n n n n n n n n n n n n n n n n n n n n n n n n n n n n n n U U n xXlXnXcXdXSXZXC.C.C.h.h.U.U.U.[.' [.e.e.e.e.e.e.e.e.e.e.fX'.t.9 9 9 9 9 9 9 9 9 9 9 9 9 9 9 9 9 t.m s.E.oXs.m t.9 9 9 t.! _ _ _ _ _ _ _ _ _ _ _ ! ` _ _ 9 R.#.#.#.#.#.#.#.#.4.R.'.9 9 t.9 t.9 9 9 9 9 9 9 9 9 t.9 t.t.9 m oXE.S.E.s.t.9 9 t.m oXZ.Z.7Xm 9 9 9 9 9 9 9 9 t.t.",
"O N.-XqXiXiX*X4X*XiXP.OX+XO H 3.jXkX[.[.U.i.jX1.6.1.:.+X:X3X XB.eX*X:X:X~.*XwX:X+XO 2.&.} $ a a . >.z.<XOXP.aX4X4XeXiXqX-X8X$ $ X X a a $ $ $ $ j j j j j j $ j j j j j j j j j &.:.9.l.N.XX2XvXvXdXcXcXnXIXDXxX_.u.n n U U U U n U U n n 2 n n n n n n n n n n n n n n n n n n n n n n n n n n n n n n n n n n n n n n n n n n n n n n n n n n n n n n n n n n n n n n n n n n n n n n n n n n n n n n n n n n n n n n n n n n n n n n n n n n n n n n n n n n n n n n n n n n n n n n n n n n n n n n n n n n n n n n n n n n n n n n n n n n n n n n n n n n n n n n n n n n n n n n n n n n n n n n n n n n n n n n n n n n n n n n n n n n n n n n n n n n n n n n n n n n n n n n n n n n n n n n n n n n n n n n n n n n n n n n n n n n n n n n n n n n n n U n U n _.U u.DXcXdXC.oXs.h.U.U.[.[.e.e.e.e.e.e.e.e.e.e.e.e.e.e.e.e.e.e.fX9 t.9 9 9 9 9 9 9 9 9 9 9 9 9 9 9 t.9 9 m C.E.Z.oXm t.9 9 t.t.! _ _ _ ! _ _ _ _ _ _ ! ! ` _ _ '.4.#.#.#.#.#.#.4.R.'.9 9 9 9 9 9 9 9 9 9 9 9 9 9 9 9 9 9 t.9 9 t.a.oXS.E.oXm 9 9 t.m oXZ.Z.7Xt.9 9 9 t.t.t.t.t._ m ",
"1.2.N.4X).OXiXL.iX6X).2X3.9.H H 1.=X5X5X=X0 }.0 3.0 N.+X].3X#XB.~.bXmXmX:XeX$X].2X,X&.j $ $ X X } j z.XX~.aXaXeXeXeXOX&X^.+./ >.i . X . J J J J a X X $ $ J J J J J X X X X X $ $ j j &.&.:.1.1.:.=XXXvX^.dXdXFXcXIXxXxXC v u.n n U n U U n n n n n n n n n n n n n n n n n n n n n n n n n n n n n n n n n n n n n n n n n n n n n n n n n n n n n n n n n n n n n n n n n n n n n n n n n n n n n n n n n n n n n n n n n n n n n n n n n n n n n n n n n n n n n n n n n n n n n n n n n n n n n n n n n n n n n n n n n n n n n n n n n n n n n n n n n n n n n n n n n n n n n n n n n n n n n n n n n n n n n n n n n n n n n n n n n n n n n n n n n n n n n n n n n n n n n n n n n n n n n n n n n n n n n n n n n n n n n n n n n n n n n n n n n n n n n n n U U U x nXdXoXs.U.[.e.e.e.e.e.e.e.e.e.e.e.e.e.e.e.e.e.e.e.e.e.e.e.e.fX9 9 9 9 9 9 9 9 9 9 9 9 9 9 9 9 9 9 9 9 t.s.oXZ.7Xy.t.9 9 t.! _ _ _ _ _ _ _ _ _ _ _ _ ! ! _ ! '.4.#.#.#.#.#.4.R.'.9 9 9 9 t.t.t.9 9 9 9 9 9 9 9 9 9 9 9 9 9 9 t.m s.E.S.E.s.m t.t.s.oXZ.oX7Xm t.m y.y.y.a.s.h.h.C.",
",X&.:.:.XX-XT.Z.Z.ZXh.sX2.l.H 0 0 O O O O @ @ O @ 0 3.+X:X*X$X XA.eX~.~.eXeX$X].2X8XX $ a . X $ i z.@XsXZXT.S.I.OX-XXXuX] ] / >.i X $ $ $ $ $ a X X J $ X a j X j j . a a a a $ $ $ } $ $ $ } } $ a &.:.:.=X=X2XvXvXcXcXnXlXDXxXu.C C n n U U U U n n n n n n n n n n n n n n n n n n n n n n n n n n n n n n n n n n n n n n n n n n n n n n n n n n n n n n n n n n n n n n n n n n n n n n n n n n n n n n n n n n n n n n n n n n n n n n n n n n n n n n n n n n n n n n n n n n n n n n n n n n n n n n n n n n n n n n n n n n n n n n n n n n n n n n n n n n n n n n n n n n n n n n n n n n n n n n n n n n n n n n n n n n n n n n n n n n n n n n n n n n n n n n n n n n n n n n n n n n n n n n n n n n n n n n n n n n n n n n n n n n n n n n n n n n n U n xXcXZXC.U.[.e.e.e.e.e.e.e.e.e.e.e.e.e.e.e.e.e.e.e.e.e.e.e.e.e.fX'.9 9 9 9 9 9 9 9 9 9 9 9 9 9 9 9 9 9 9 t.t.s.oXZ.oXs.t.9 t.t.! _ _ _ _ _ _ _ _ _ _ _ _ _ _ _ ! R.4.#.#.#.#.#.4.R.9 t.t.9 9 t.t.t.9 t.9 9 9 9 9 9 9 9 9 t.9 t.t.9 t.a.oXZ.E.E.h.t.t.s.oXZ.Z.oXs.s.C.C.Y.J.v.>X^.<XXX",
"$ } uXCXV.h.y.a.p.p.m CX1.2.2.6.H O O O 6.6.2.2.1.1.1.N.N.4X].3X#XeXeX$X$X~.:X2XXX,X. i X X X X $. .uXB y.x.a.a.h.V.] . i $ $ X X X X . X X $ X X X J $ X X X $ } } X X X X a i X X X $ $ X $ $ $ $ $ X a a &.:.1.:.=X+X2X2XcXcXAXnXlXxXx %.C v n 2 U U U n n n n n n 2 n n n n n n v v v v v v v v v v v v v v v v v v v v v v v v v v v v v v v v v v v v v v v v v v v v v v v v v v v v v v v v v v v v v v v v v v v v v v v v v v v v v v v v v v v v v v v v v v v v v v v v v v v v v v v v v v v v v v v v v v v v v v v v v v v v v v v v v v v v v v v v v v v v v v v v v v v v v v v v v v v v v v v v v v v v v v v v v v v v v v v v v v v v v v v v v v v v v v v v v v v v v v v v v v v v v v v v v v v v v v v v v v v v v v v v v v v v n n n n n U n xXcXNXU.[.e.e.e.e.e.e.e.e.e.e.e.e.e.e.e.e.e.e.e.e.e.e.e.e.e.e.fX'.9 t.9 9 9 9 9 9 9 9 9 9 9 9 9 9 9 9 t.9 9 m s.oXZ.Z.s.t.9 t.! _ _ _ _ _ _ _ _ _ _ _ _ _ _ _ _ ! R.4.#.#.#.#.#.4.'.9 t.t.9 9 9 t.t.9 9 9 9 9 9 9 9 t.t.9 9 9 9 9 9 t.m 7XZ.Z.Z.7Xs.s.oXoXE.E.H.>XQ.<XuX5X8X8X,X,Xa a ",
"$ a | n.V.U.h.h.h.U.n.8Xz.j &.&.:.1.2.1.:.:.&.&.j z.&.jXkXkX-X&XT.&X:X).:X-X+X,X,Xa a X X X X j $.w.W.B [.U.;X[.B CX$.a j $ $ X X X . i . . $ X . . X X X X X X $ $ $ $ $ J X X X X X X . . [ [ [ [ [ . a a a &.&.:.&.&.:.N.N.=XXX2XcXcXAXnXlXDXxXC L L v v 2 U U 2 n n n n n n v n v v v v v v v v v v v v v v v v v v v v v v v v v v v v v v v v v v v v v v v v v v v v v v v v v v v v v v v v v v v v v v v v v v v v v v v v v v v v v v v v v v v v v v v v v v v v v v v v v v v v v v v v v v v v v v v v v v v v v v v v v v v v v v v v v v v v v v v v v v v v v v v v v v v v v v v v v v v v v v v v v v v v v v v v v v v v v v v v v v v v v v v v v v v v v v v v v v v v v v v v v v v v v v v v v v v v v v v v v v v v v v v v v n v n n n n n U u.xXcXZXU.[.e.e.e.e.e.e.e.e.e.e.e.e.e.e.e.e.e.e.e.e.e.e.e.e.e.e.fX9 t.9 9 9 9 9 9 9 9 9 9 9 9 9 9 9 9 9 9 9 9 9 m s.E.Z.Z.s.t.t.t._ _ _ _ _ _ _ _ ! _ _ _ _ _ _ _ _ ! R.4.#.#.#.#.#.R.'.9 9 t.t.t.9 9 9 9 9 9 9 9 9 9 9 9 9 t.t.t.m m y.a.a.7XZ.Z.E.H.J.>XQ.^.<XXX5X8X,X&.j j a . [ . . X ",
"j a $.uXCX|.|.|.|.CX/ j $ } } $ j z.&.j j j $ $ J } / CXU.m h.s.h.ZXZXZXkXCXj a X $ j $ X X X a j ] +.uXuXuXuXuX/ j j $ $ $ $ X X a a a X X X X X X X . [ [ [ [ [ [ [ . X $ $ X X X X } >.$./ / ] / $.>.} j a j $ $ X . z.@X1.2.3.N.N.=X+XcXcXcXcXnXnXlXDX_.u.%.%.L v n U n n n n n v n n v v n n n n n n n n v v n v v n n n n n n n n n n n n n n n n n n n n n n n n n n n n n n n n n n n n n n n n n n n n n n n n n n n n n n n n n n n n n n n n n n n n n n n n n n n n n n n n n n n n n n n n n n n n n n n n n n n n n n n n n n n n n n n n n n n n n n n n n n n n n n n n n n n n n n n n n n n n n n n n n n n n n n n n n n n n n n n n n n n n n n n n n n n n n n n n n n n n n n n n n n n n n n n n n n n n n n n n n n n n n n n n n v n n n n n xXnXZXU.e.e.e.e.e.e.e.e.e.e.e.e.e.e.e.e.e.e.e.e.e.e.e.e.e.e.e.fX9 t.9 9 9 9 9 9 9 9 9 9 9 9 9 9 9 9 9 9 9 9 9 9 t.s.oXZ.Z.s.t.t.! _ _ _ _ _ _ _ _ _ _ _ _ _ _ _ _ _ ! R.4.#.#.#.#.4.'.9 t.9 9 9 9 9 9 9 9 9 9 t.t.t.t.m m y.a.a.s.s.C.C.H.J.J.>XQ.^.<XXX8X,X,Xa z.z.z.[ . a $ $ $ $ $ $ X ",
"j j z.z.j ,X,X&.&.&.z.&.z.&.&.:.&.j j j a X J J [ / @.W.i.U.h./.;XU.[.n.CX] . j j $ J X X X X a a z.z.[ [ @X@X@X@X[ $ $ $ $ $ X X a . a X X X X X X X $ } >.$.$.$.$.>.>.} $ X X $ $ X >.] +. .{ { {  .+.] $.>.} $ X J } } $ &.:.1.2.6.H H 3.N.+X+XcXcXcXcXcXnXnXIXDXxXu.L L v v n U n n n v v n n n n n n n n n n v v n n n n n n n n n n n n n n n n n n n n n n n n n n n n n n n n n n n n n n n n n n n n n n n n n n n n n n n n n n n n n n n n n n n n n n n n n n n n n n n n n n n n n n n n n n n n n n n n n n n n n n n n n n n n n n n n n n n n n n n n n n n n n n n n n n n n n n n n n n n n n n n n n n n n n n n n n n n n n n n n n n n n n n n n n n n n n n n n n n n n n n n n n n n n n n n n n n n n n n n n n n n n n n n n v n n n n n n u.IXSXU.e.e.e.e.e.e.fXe.e.e.e.e.e.e.e.e.e.e.e.e.e.e.e.e.e.e.e.e.fX9 9 9 9 9 9 9 9 9 9 9 9 9 9 9 9 9 9 9 9 9 9 t.t.t.s.oXZ.Z.7Xm t.! _ _ _ _ _ _ ! _ _ _ _ _ _ _ _ _ _ ! R.4.#.#.#.4.R.'.9 t.9 9 9 9 9 t.t.t.m m m a.a.s.s.s.C.C.Y.J.>XQ.^.<XXX5X8X,Xz.[ [ [ [ [ . X X $ $ $ $ J X X J $ X X ",
":.:.&.:.1.2.9.6.2.2.2.2.6.6.6.6.2.:.j a . X J J . $.{ w.{.{.|.E |.|.{ $ @XX $ j j X J i X X X X } $ X $ J $ $ J $ X $ $ $ $ $ X X a . . . X X X X . >.]  .{ { { { { +.] $.} i X $ $ $ >./ ] ] ] ] ] ] ] ] / $.} } j a j a a . j / uXuX5X8X,X:.2.3.3.N.=XXX2X2XcXcXcXAXnXlXDXxXu.L C v n n n n n n n v v v n n n n n n n v v v v v v v v v v v v v v v v v v v v v v v v v v v v v v v v v v v v v v v v v v v v v v v v v v v v v v v v v v v v v v v v v v v v v v v v v v v v v v v v v v v v v v v v v v v v v v v v v v v v v v v v v v v v v v v v v v v v v v v v v v v v v v v v v v v v v v v v v v v v v v v v v v v v v v v v v v v v v v v v v v v v v v v v v v v v v v v v v v v v v v v v v v v v v v v v v v v v v v v v v v v v v v n v n n n n U L DXKXh.[.e.e.e.fXfX'.;X' fXfXfXe.e.e.e.e.e.e.e.e.e.e.e.e.e.e.e.e.'.9 9 9 t.9 9 9 9 9 9 9 9 9 9 9 9 9 9 9 9 9 9 9 9 t.s.oXZ.Z.oXm t.! _ _ ! _ _ ! /.` _ ! _ _ _ _ _ _ _ ! '.4.#.#.#.4.'.9 t.t.t.t.m m m m a.s.s.s.C.C.Y.J.>X>XQ.^.<X5X8X,Xz.@X[ @X[ [ . $ $ $ $ X X X X $ $ a j X i X X X X X ",
"6.6.2.1.1.1.2.2.2.6.H 9.9.H H 6.2.1.&.j X X X X X [ z.} } $ $ X a . [ . a a $ X X X J $ $ X J X $ $ . X i a a X X . a X a a a a a . . . . X X X . . $. .| { {  . .+.] / $.} J $ X $ } X [ [ z.[ [ [ [ i i J $ X X X a a j a $ >./ +. .{ CXCX{ uX5X,X1.9.}.O 3.=XXX2X2XvXcXcXAXnXlXDXxXu.u.v v n u.U n U n n n n n n n n v v v v v v v v v v v v v v v v v v v v v v v v v v v v v v v v v v v v v v v v v v v v v v v v v v v v v v v v v v v v v v v v v v v v v v v v v v v v v v v v v v v v v v v v v v v v v v v v v v v v v v v v v v v v v v v v v v v v v v v v v v v v v v v v v v v v v v v v v v v v v v v v v v v v v v v v v v v v v v v v v v v v v v v v v v v v v v v v v v v v v v v v v v v v v v v v v v v v v v v v v v v v v n n n n n u.n v 8.nXZX' e.e.e.e.e.;X'././.9 ;X'.fXe.e.e.e.e.e.e.e.e.e.e.e.e.e.e.fX9 9 9 9 9 9 9 9 9 9 9 9 9 9 9 9 9 9 9 9 9 9 9 t.9 t.m oXZ.Z.oXa.! ! _ _ _ _ _ ! ' ' ! _ _ _ _ _ _ _ _ _ '.4.#.#.4.'.t.m m m y.s.s.s.C.C.H.H.J.>XQ.^.<XXX8X,Xz.@X@X@X[ [ . X X $ $ $ j j $ a a . . . . . X . a X i i i a i . ",
"@ H 2.:.:.:.:.:.:.:.:.1.:.:.:.:.:.z.. $ i X . . X X X [ [ . . . . . X X X X X $ X . X $ X X X J X X X X X X X . i X i . i . . i i i . . . . X X X X $ >.>.$ i i i i . . a $ $ X a a $ $ a a a a $ $ a a a . X a . i i i X . $./ >.@X@X@X&.>.uX .| CXCXuX,X6.l.}.}.}.0 N.=X2XvXvXvXcXnXlXDXxXu.u.v v n n u.v n n n n n n n n n n n n n n n n n n n n n n n n n n n n n n n n n n n n n n n n n n n n n n n n n n n n n n n n n n n n n n n n n n n n n n n n n n n n n n n n n n n n n n n n n n n n n n n n n n n n n n n n n n n n n n n n n n n n n n n n n n n n n n n n n n n n n n n n n n n n n n n n n n n n n n n n n n n n n n n n n n n n n n n n n n n n n n n n n n n n n n n n n n n n n n n n n n n n n n n n n n n n n n n n n n n n n n n n n n L lXKX;Xe.e.e.e.e.e.e.fX' ;X'.'.;XfXe.e.e.e.e.e.e.e.e.e.e.e.e.e.fX'.t.9 9 9 9 9 9 9 9 9 9 9 t.9 9 '.9 9 9 9 9 9 9 9 9 t.m oXZ.Z.oXs.! _ _ _ _ _ _ _ 9 `./._ _ _ _ _ _ _ _ p.! '.R.'.'./.s.s.C.oXE.H.J.>XQ.^.<XXX8X,X&.z.@Xz.. . . i $ } $ X X X a a . . i i . i i i a a a a . X i . . . a i a . ",
"H 9.6.2.:.&.j j j j j j j j j j j $ X J X X X X . . X X X X X X X X X X X X X $ X X X X i i J $ X X $ $ X X X X X . X X X a a . . a . . . X X X $ X . . . . X X i X $ j j $ j a a j j j j j j j $ j j a a X i . X X a . X . >.$.$.>.j &.&.@X1.@Xz.,XuX{ CX=XH 9.9.9.9.l.}.}.3.N.=XXXvXvXvXcXnXlXxXxXu.C v n n u.u.n n n n v n n v n n v n n v n n v n n v n n v n n v n n v n n v n n v n n v n n v n n v n n v n n v n n v n n v n n v n n v n n v n n v n n v n n v n n v n n v n n v n n v n n v n n v n n v n n v n n v n n v n n v n n v n n v n n v n n v n n v n n v n n v n n v n n v n n v n n v n n v n n v n n v n n v n n v n n v n n v n n v n n v n n v n n v n n v n n v n n v n n v n n v n n v n n v n n v n n v n n v n n v n v n v n n v v u.L AX[.' e.e.e.e.e.e.e.e.e.e.`.e.fXe.e.e.e.e.e.e.e.e.e.e.e.fXfXfX9 9 9 9 9 9 9 9 9 9 9 9 9 9 9 '.fXe.fX9 t.9 9 9 9 t.9 9 m s.Z.Z.oXs._ _ _ _ _ _ _ ! ! ' ' ! _ p.p.p.p.p.a.a.s.h.h.C.C.H.J.>XQ.^.<XXX8X,Xz.@X[ [ [ i J } } $ $ $ a a $ X X . a . . . X X a a a a X . . . . . X . a X i i i a i . ",
"2.1.:.&.&.j $ j j $ J J J J a a $ $ X . $ . . . . . . . . . . . . . . X $ X X $ } >.>.>.} $ J J . [ [ . . . . . . X . . . . . . . . . . . $ . X X X X $ $ X $ X . . z.z.@X@X@Xz.z.z.z.@X@Xz.&.j j j j j j X X X i i i X X X a a j j j } } } j j j &.:.&.,X:.6.1.8X8X=X:.2.6.H l.9.8X{ d.j.sXsXsXvXcXnXDXxXx C C u.n v n v n v v v v v v v v v v v v v v v v v v v v v v v v v v v v v v v v v v v v v v v v v v v v v v v v v v v v v v v v v v v v v v v v v v v v v v v v v v v v v v v v v v v v v v v v v v v v v v v v v v v v v v v v v v v v v v v v v v v v v v v v v v v v v v v v v v v v v v v v v v v v v v v v v v v v v v v v v v v v v v v v v v v v v v v v v v v v v v v v v v v v v v v v v v v v v v v v v v v v v v v v v v v v v n u.v n %.DXKX' e.e.e.e.e.e.e.e.e.e.e.e.e.e.e.e.e.e.e.'.9 '.9 9 9 9 9 9 9 t.9 9 9 9 9 9 9 9 9 9 9 9 9 '.e.e.e.'.9 t.9 9 9 9 9 t.9 m s.Z.Z.Z.7X_ ! _ _ _ _ _ _ _ /.;Xm a.a.a.7X7XoXoXE.H.J.b.^.<XXX8X,X&.z.[ z.j j j } $ J $ } $ $ $ $ $ a . . i X . . . . . . . . . . . . . . . . . . . . . . . . . . . . ",
"j } >.} J a a a a a i i } >.} J i i X X X X . . . . . . . . . . . . . . X X X $. .@.@.@.| {  . .+.] ] / / $.} $ X . X X X X X . . X . . . X X X . X X X . X X X $ X . . } / ] +.] ] ] / j &.1.1.1.1.:.:.&.z.. a a $ . [ a . $ $ j j a a . . . . a . . a z.z.&./ CXd.{.{.| { +./ ] {.% + o E d.w.|.sXsXvXjXAXnXDXxX%.L u.n n v v n v v n v v v v v u.v v u.u.u.u.u.u.u.u.u.u.u.u.u.u.u.u.u.u.u.u.u.u.u.u.u.u.u.u.u.u.u.u.u.u.u.u.u.u.u.u.u.u.u.u.u.u.u.u.u.u.u.u.u.u.u.u.u.u.u.u.u.u.u.u.u.u.u.u.u.u.u.u.u.u.u.u.u.u.u.u.u.u.u.u.u.u.u.u.u.u.u.u.u.u.u.u.u.u.u.u.u.u.u.u.u.u.u.u.u.u.u.u.u.u.u.u.u.u.u.u.u.u.u.u.u.u.u.u.u.u.u.u.u.u.u.u.u.u.u.u.u.u.u.u.u.u.u.u.u.u.u.u.u.u.u.u.u.u.u.u.u.u.u.u.u.u.u.u.u.u.u.u.u.u.u.u.u.u.u.u.u.u.u.u.u.u.u.u.u.u.n v n u.n %.nXSX' e.e.e.e.e.e.e.e.e.e.e.e.e.e.e.e.e.e.fX9 9 9 9 9 9 9 9 9 9 9 9 9 9 9 9 9 9 9 9 9 9 9 t.'.fXfX'.9 9 9 t.9 9 9 9 9 9 t.s.oXZ.Z.7Xp._ _ _ p.p.y.a.7Xs.s.7XoXoXE.H.J.b.^.<XXX8X,X,Xj . . a $ X . J J J $ $ $ j j } $ X X J J X . X i X X . X . . . . . . . . . . . . . . . . . . . . . . . . . ",
" .{ { {  . . . . . . . .{ | |  .] } . a X X . . . . . . . . . . . . . . X X i >.] +. .| @.@.^ ^ ^ S ^ @.| { +.] >.X X X X . . . . . . . . . . . X . . . X . . X X J i / { ^ ^ E S S S {.@.|  .uX5X&.2.1.:.z.z.a j $ X [ . X a $ / +. . .+.+.] ] / / / $.$.} J } $.+. .{ | { | ^ E w.w.Y % +     o E d.j.j.sXsXvXcXnXlXxXL L u.u.n n v v u.v v n n u.u.u.u.u.u.u.u.u.u.u.u.u.u.u.u.u.u.u.u.u.u.u.u.u.u.u.u.u.u.u.u.u.u.u.u.u.u.u.u.u.u.u.u.u.u.u.u.u.u.u.u.u.u.u.u.u.u.u.u.u.u.u.u.u.u.u.u.u.u.u.u.u.u.u.u.u.u.u.u.u.u.u.u.u.u.u.u.u.u.u.u.u.u.u.u.u.u.u.u.u.u.u.u.u.u.u.u.u.u.u.u.u.u.u.u.u.u.u.u.u.u.u.u.u.u.u.u.u.u.u.u.u.u.u.u.u.u.u.u.u.u.u.u.u.u.u.u.u.u.u.u.u.u.u.u.u.u.u.u.u.u.u.u.u.u.u.u.u.u.u.u.u.u.u.u.u.u.u.u.u.u.u.u.u.u.u.u.u.u.u.u.u.u.u.v u.n %.AX[.fXe.e.e.e.e.e.e.e.e.e.e.e.e.e.e.e.e.fX'.t.9 9 t.9 9 9 9 9 9 9 9 9 9 9 9 9 9 9 9 9 9 9 t.9 '.9 9 9 9 9 9 9 9 t.t.9 9 t.s.oXZ.Z.oXa.a.a.7X7X7XoXoXoXE.H.J.Q.^.<XXX8X,X,Xj . a a a a X a $ X a $ $ $ j j j j j a j a X X a . . X . a . . . . . . . . . . . . . . . . . . . . . . . . . . . . . ",
"| @.S Y Y E % % o % % Y Y % + | ] >.X X X X . . . . . . . X . X X . . X X X X J $ } >.$./ / ] ] ] ] ] ] ] / / >.} $ $ X $ X X X X X X X X X X X . X X X . X X X X X [ / | w.w.Y w.w.w.w.|.w.w.{. .$.&.&.j &.a j $ $ X X . X X } / +.| @.^ ^ S S ^ ^ @.| { +.} $ $ } >.$.$.$./ ] +. .| S w.w.w.E o   S E E w.|.|.sXsXvXcXnXlXxX%.L u.n u.u.u.n u.u.u.u.u.u.u.u.u.u.u.u.u.u.u.u.u.u.u.u.u.u.u.u.u.u.u.u.u.u.u.u.u.u.u.u.u.u.u.u.u.u.u.u.u.u.u.u.u.u.u.u.u.u.u.u.u.u.u.u.u.u.u.u.u.u.u.u.u.u.u.u.u.u.u.u.u.u.u.u.u.u.u.u.u.u.u.u.u.u.u.u.u.u.u.u.u.u.u.u.u.u.u.u.u.u.u.u.u.u.u.u.u.u.u.u.u.u.u.u.u.u.u.u.u.u.u.u.u.u.u.u.u.u.u.u.u.u.u.u.u.u.u.u.u.u.u.u.u.u.u.u.u.u.u.u.u.u.u.u.u.u.u.u.u.u.u.u.u.u.u.u.u.u.u.u.u.u.u.u.u.u.u.u.u.u.u.u.u.u.u.u.u.u.u.n u.u.n u.xXJX[.fXe.e.e.e.e.e.e.e.e.e.e.e.e.e.e.e.fX'.9 t.9 9 9 9 9 9 9 9 9 9 9 9 9 9 9 9 9 9 9 9 9 9 t.t.t.t.9 9 9 9 9 t.t.! t.t.t.m s.oXZ.Z.Z.oXoXoXoXE.H.J.Q.^.<XXX5X8X,X$ a [ i a J J $ $ $ $ j j j j j j &.&.:.:.1.:.@Xz.. J X X i X X . X i X . . . . . X X X X a i a . . a a a a X a a a a a . . . a ",
"/ / ] +. .{ { { { { { {  .+.] / >.$ $ X X X . . . . . X . . X . . X X X X X $ $ X X X X J J J J i X $ $ J X X X X X X $ X X X X X X X X X X . . . . . . . . . X X $ X } /  . . . .{ | | | | | +./ >.$ $ } j j $ $ a a $ . . $ $ } >.$.] +.+.+.+. .| |  ./ >.:.:.:.:.@X@Xz.z.&.j / ] ] 5X/ +.{ {.E w.+ p p       o w.|.|.vXjXAXlXDXL L L L u.n u.u.u.u.u.C C u.u.u.C u.u.C u.u.C C C C C C C C C C C C C C C C C C C C C C C C C C C C C C C C C C C C C C C C C C C C C C C C C C C C C C C C C C C C C C C C C C C C C C C C C C C C C C C C C C C C C C C C C C C C C C C C C C C C C C C C C C C C C C C C C C C C C C C C C C C C C C C C C C C C C C C C C C C C C C C C C C C C C C C C C C C C C C C C C C C C C C C C C C C C C C C C C C u.u.u.u.v L xXKX[.e.e.e.e.e.e.e.e.e.e.e.e.e.e.fXfXfX'.9 t.9 9 9 9 9 9 9 9 9 9 9 9 9 9 9 9 9 9 9 9 9 9 9 9 t.t.t.9 9 9 t.t.m y.a.a.s.s.7XoXZ.Z.E.E.H.>XQ.Q.^.<XXX8X,X,Xi [ i i J $ $ $ $ $ $ j &.&.&.&.&.:.:.1.1.2.2.2.1.1.:.z.&.a $ X i X . . . . . . . . . X X . . i i i a . . . . . i . i i i i i i i a a i ",
"[ [ X $ } >.$.$.$.$.>.>.>.} $ J i X $ $ X X . . . . X . . . . X . . . X X X X $ $ X $ $ X X X X . X X X X . X X . . X $ $ $ $ X . . [ [ . . . . . . X . . . . X X X X . X } >.>.$.$.$./ / / $.} a j $ a $ j j $ $ J X X X . X X X . [ i J $ $ J >. .@.{ ] &.1.1.:.:.:.:.:.:.z.&.$.] ] / $.>.$.]  .@.+ o Y E +   p p o E w.|.|.CX=XnXlXDXv L L C u.u.u.u.C C C C C u.u.u.u.C C C C C C C C C C C C C C C C C C C C C C C C C C C C C C C C C C C C C C C C C C C C C C C C C C C C C C C C C C C C C C C C C C C C C C C C C C C C C C C C C C C C C C C C C C C C C C C C C C C C C C C C C C C C C C C C C C C C C C C C C C C C C C C C C C C C C C C C C C C C C C C C C C C C C C C C C C C C C C C C C C C C C C C C C C C C C C C C C C C C C u.u.u.u.C xXKX' e.e.e.e.e.e.e.e.e.e.e.e.fXfX'.9 9 t.9 9 9 9 9 9 9 9 9 9 9 9 9 9 9 9 9 9 9 9 9 9 9 9 9 9 9 t.t.t.m m y.a.7X7XoXoXoXE.H.J.>X>XQ.<X<X5X8X,Xj z.z.. . a $ $ $ j j j j &.&.:.:.:.1.1.1.2.2.6.6.6.6.1.1.:.&.&.j j j j $ X X a . . . . . . . . . . i X X i i i . . X . . i . . i i . . . . i . . i ",
"X X X . [ [ [ [ [ [ [ [ . . i J J X X X . X . . . . X . X X . X X X X X X X . i X X J X X X X J X $ $ $ X X X X $ / +.+.+.+.+.] ] ] / >.$ . X X X X X . . . . X i i X X X . . . . . [ [ [ . . a $ $ a a a a a a X X X X X X X X $ $ J J i i i [ } +.| @.{ / j j j j z.z.z.z.j j $. .| | { +.] $.>./ +.{ ^ E E Y E E + S p p Y w.w.{.jX=XnXlXDXxXC C C C u.u.u.C C C C C C u.u.C u.u.C C C C C C C C C C C C C C C C C C C C C C C C C C C C C C C C C C C C C C C C C C C C C C C C C C C C C C C C C C C C C C C C C C C C C C C C C C C C C C C C C C C C C C C C C C C C C C C C C C C C C C C C C C C C C C C C C C C C C C C C C C C C C C C C C C C C C C C C C C C C C C C C C C C C C C C C C C C C C C C C C C C C C C C C C C C C C C C C u.C u.u.C xXKX' e.e.e.e.fXfXe.e.e.e.e.fX'.9 9 9 9 9 9 9 9 9 t.9 9 9 9 9 9 9 9 9 9 9 t.9 9 9 9 9 t.t.t.m m m y.s.s.oXoXE.H.H.J.>XQ.^.<XXX5X8Xj @X@X[ [ . $ $ $ j j &.&.&.&.:.:.:.1.2.2.2.6.H H H H H H H 6.1.:.&.j j j j $ $ j a a X a . . . . . . . . . X X X a j j j j X X X X a a a a a a a X a $ $ X X j ",
". . X X X X X X X X X X X X X X . . . . X . . . . . X X X X X X X X X X X X X X X $ X X X X X i X X X X X X X . >.+.@.@.^ ^ ^ ^ ^ | { ] >.$ X X X X X . . . . i X i i X X X X $ X $ $ X X X X X X . . i . i a X . . X i X X . . X X X X X X $ X $ >.$./ ] / J J J J $ $ $ $ X } +.@.@.S S ^ @. .] >.>./ ]  .@.S % + o o % o o o   Y w.w.% jX=XnXlXDXxXC L C C C u.u.C L C u.u.C C C L L L L L L C C C C C L L L L L L L L L L L L L L L L L L L L L L L L L L L L L L L L L L L L L L L L L L L L L L L L L L L L L L L L L L L L L L L L L L L L L L L L L L L L L L L L L L L L L L L L L L L L L L L L L L L L L L L L L L L L L L L L L L L L L L L L L L L L L L L L L L L L L L L L L L L L L L L L L L L L L L L L L L L L L L L L L L L L C C C u.u.x xXKX' e.e.e.e.'.fXe.e.e.e.fX'.t.9 9 9 9 t.9 9 9 9 9 9 9 9 t.t.9 9 9 9 9 9 9 t.t.t.m m m m s.s.C.C.C.H.J.>XQ.Q.<XXX5X8X,X@X@Xz.z.. . X X j j j &.&.:.:.1.1.1.2.2.6.6.H O O 0 O O O O O @ @ 6.1.:.&.j j j $ X . a J X . . i . . . . . . . . . . . J X a z.j j j X X i X $ j j j j j j j a j j j j a ",
"X X X . . . i i i i X X . . X X X X X X X X X . . X X X . $ X i i X i X X X X X X $ X X X X X a . . $ X $ X X X } $.] +.+. .+. .+.+.] / >.$ X X . X X X a i i X i X X X X . X X X X $ X . X X . . X X a a a a X a a i X X X X X X X X X . . . X X . [ [ . X X X X X X X X X X $ / { | S % + S % S |  .] >.} / +.| ^ + % % + % % + + + o % w.|.w.CX=XnXlXxXu.L L C u.u.u.u.u.u.C L u.C C C C C C C C C C C C C C C C C C C C C C C C C C C C C C C C C C C C C C C C C C C C C C C C C C C C C C C C C C C C C C C C C C C C C C C C C C C C C C C C C C C C C C C C C C C C C C C C C C C C C C C C C C C C C C C C C C C C C C C C C C C C C C C C C C C C C C C C C C C C C C C C C C C C C C C C C C C C C C C C C C C C C C C C C C C C C C C C C u.C u.L xXKX' e.e.e.fX'.fXe.e.e.e.fX9 9 9 9 9 9 9 9 9 9 9 9 9 9 9 9 9 t.t.t.t.t.t.m m m s.s.C.C.H.J.J.v.Q.^.<X5X8X,X@X@X[ [ [ X $ $ $ j j &.&.:.:.:.1.2.6.6.H 9.H @ O O O @ @ @ H @ H @ @ @ H @ H 1.j j $ J J $ $ J J X X i a a X a X X i . . . . . . . X X . z.z.z.z.X X X X a z.z.@X@X:.:.:.:.:.:.:.:.1.",
". . . X . . X X . . . . X X i i i X X X . i i i i X X X X J i J $ } } } $ J J . . X X . X X i X X X X X X X X X X . i . [ i . [ . . . . . X $ X X X X X X a . a a X X X X X X . X X X X X X X X . X i . X a . . X X X X X X X X . . . X . . . X . . X $ X X X X $ $ X $ X X $ X J / +.| + % o + % % % @.+.$ [ i >.]  .@.+ + + + % % + E E Y E Y o S E CX=XnXlXDXxX8.C C u.u.C C C L C C C C C C C C C C C C C C C C C C C C C C C C C C C C C C C C C C C C C C C C C C C C C C C C C C C C C C C C C C C C C C C C C C C C C C C C C C C C C C C C C C C C C C C C C C C C C C C C C C C C C C C C C C C C C C C C C C C C C C C C C C C C C C C C C C C C C C C C C C C C C C C C C C C C C C C C C C C C C C C C C C C C C C C C C C C C C C C C C u.C u.C 8.JX[.fXe.e.fXfXe.e.e.e.e.'.9 9 t.9 9 t.9 9 9 9 9 9 9 9 t.t.t.t.t.m y.s.s.C.C.Y.J.v.Q.^.<XXX8X,X&.z.[ [ . a j j ,X,Xj &.&.:.:.1.1.2.6.6.6.H @ @ 0 0 @ @ @ 3.0 0 3.3.3.3.H O @ O O O @ @ H 1.j j a a j j j j j X i $ . . . a a X i . . . . . . X X X X X X . X X X X X a z.@X@X1.2.6.6.6.6.6.9.9.9.",
". . X . X X . . X X X X . . X X X . . . X X X . . X X X X } ]  .{ { { { {  . . .+.$.X a $ X X . . . . X . X X X X $ X $ $ $ X X J $ $ $ J X X . X X . . . i . . . . . . . . X } } } } $ X i . . X . a X . X X . . . X X X $ $ } $./ / / / / / / / >.>.>.$ [ [ . . . [ X $ $ X } ] S + S o o o o + + + @.{  .] / >.J J >.]  .@.E Y % % S { +.{ @.] >./ | w.w.CXjX=XnXlXxXL L L C u.u.u.C L C C C C C C C C L C C C C C C C C C L C C C C C C C C C C C C C C C C C C C C C C C C C C C C C C C C C C C C C C C C C C C C C C C C C C C C C C C C C C C C C C C C C C C C C C C C C C C C C C C C C C C C C C C C C C C C C C C C C C C C C C C C C C C C C C C C C C C C C C C C C C C C C C C C C C C C C C C C C C C C C C C C C C C C C C C C C C C C v u.C MXcX[.fXe.e.fXe.e.e.e.e.e.fX9 9 9 9 9 9 9 9 9 9 9 9 t.t.m a.a.s.C.Y.V.v.Q.^.<XXX8X,X. [ [ [ . X $ $ $ j j &.&.:.1.1.1.2.6.H H H H @ @ @ @ @ 3.3.3.3.@ H @ @ @ 0 @ 3.3.@ @ @ @ O O O @ @ @ 6.1.:.:.:.:.:.:.:.&.a X a a X X i . . . . X . . . . X X X X X X J X . X i X $ $ j j j &.&.&.&.:.:.1.2.2.",
". . X X X X X X X . $ X X X X X X X $ $ $ $ X a X J X X . $.{ E E E Y % % % + S { / $ . a a a j j $ $ X X X X X X J $ $ $ X $ $ $ $ $ J J $ $ $ $ j $ $ $ J i i J J i J $.+.{ { { { {  .+.] >.i i X i X X . . . . X $ . X . $. .^ + S S + + + + + {.{.@.{ ] / $.$.>.$ a . a a } ] {.+ w.w.w.Y o + + S + Y + S ^ @.{  .] $.>.$.] { ^ S +.} J } / $.$ X >.] | Y |.|.w.vXjXnXlXxXL %.%.C C u.u.u.u.C u.u.C C L C C C C v u.u.C C u.C u.C C u.u.C L C C L C C C C C C C C C C C C C C C C C C C C C C C C C C C C C C C C C C C C C C C C C C C C C C C C C C C C C C C C C C C C C C C C C C C C C C C C C C C C C C C C C C C C C C C C C C C C C C C C C C C C C C C C C C C C C C C C C C C C C C C C C C C C C C C C C C C C C C C C C C C C C C C C C C C v %.nXSXfXe.e.e.e.e.e.e.e.e.fX9 9 9 t.9 t.t.t.m h.h.s.s.C.Y.V.v.^.<XXX8X8Xj [ [ [ i j } } } j &.&.:.:.1.1.2.2.6.H @ O H O 0 0 0 @ @ @ @ @ 0 0 0 0 O O O 0 0 @ @ 0 0 0 O O 0 O O O O O O @ 0 O H H H 6.6.6.6.H 6.2.1.:.:.&.a . . X X . . . . . . . X X . . . X . X . X X a . a X a X X $ $ $ j &.&.&.",
". . . X X . X $ X X X . X . . . [ [ [ [ [ [ [ X } $ . X X J $.] ] ] ] +.] ] ] / >.} $ $ $ $ $ $ . . [ [ [ i i i i i . [ z.z.&.&.j &.&.&.&.&.:.:.:.:.:.&.&.j j j $ X . $. .E Y Y Y Y Y Y Y S | ] } . J X X X X X . . $ J J . >.+.| ^ + + % E E + {.| | {.w.w.{.{.{.{.^ | ] >.J $ } / ] +. .| ^ E Y w.Y + S S + % % + % S @.| {  . .| ^ +.[ [ [ . $ X X . J $.+.| + w.w.w.|.vXjXcXnXIXxXx %.%.%.L u.u.u.u.C u.u.u.C C u.u.u.v C C L L C v u.C L u.C C C C C C C C C C C C C C C C C C C C C C C C C C C C C C C C C C C C C C C C C C C C C C C C C C C C C C C C C C C C C C C C C C C C C C C C C C C C C C C C C C C C C C C C C C C C C C C C C C C C C C C C C C C C C C C C C C C C C C C C C C C C C C C C C C C C C C C C C C C C C u.C C C u.C u.C L v %.IXSX;Xe.e.e.e.e.e.e.e.e.e.'.t.m m y.a.a.s.C.Y.J.>XQ.<XXX8X,X,Xa a a X j } j j j &.&.:.:.1.2.2.6.6.H @ @ @ H @ @ @ @ @ O O O O O @ O O O O O O @ @ @ O O O O O O O @ @ O O @ O O O O 0 O 0 O 0 O @ 0 O O O H H H 6.6.1.z.. X X i X X . . . . X X . X X X . X . X . . i X i . i . . a a a j j a a ",
". . X X X X $ $ . [ J J } } >.$.$.$.$./ / / $.$ . X $ $ $ X [ i J J $ $ $ $ j j &.j j j j j z.@X>./ ] ] ] +.+.+.+.] ] / $.} &.:.1.2.6.9.H H H H H H 6.3.2.1.:.&.&.&.j >./ +. .| | ^ S + + + ^  .>.. X X X $ X . $ / { { { {  .{ +./ / ] ] ] ] ] / $.$.] +.] ] ] ] ] +. .| { ] . . j $ } >.$./ ] +. .| % Y + S S + % % Y Y w.E ^ ^ S S | ] / $.$ . . X X X i } >.] { ^ Y w.|.|.sXsXsXvXcXnXlXDX7.MX%.%.L C u.u.u.C L C L %.MXg g 8.x L L u.u.C C C L C C C C C C C C C C C C C C C C C C C C C C C C C C C C C C C C C C C C C C C C C C C C C C C C C C C C C C C C C C C C C C C C C C C C C C C C C C C C C C C C C C C C C C C C C C C C C C C C C C C C C C C C C C C C C C C C C C C C C C C C C C C C C C C C C C C C C C C C C C C C C C u.C C x u.u.u.%.lXdX;Xe.e.e.e.e.e.e.[.[.U.h.a.s.7XC.H.J.Q.^.<XXX8X,X,Xa j a . X j j &.:.:.:.:.1.2.6.6.H 9.H H H @ 0 0 0 0 3.@ O @ @ O 0 0 @ @ @ O @ @ 0 0 0 0 0 O O 0 0 0 0 0 0 0 0 O 0 O O O O O O @ @ O @ @ @ @ 0 O @ @ @ @ 6.2.1.:.z.. a X X . X a . . . . X X . . i X X i i . . a a a a a a X . i X X a a a ",
". . X X X X X X >.+. . . . . .{ | | | | @.^ |  ./ $ X X X X X X i . . z.z.z.:.1.1.:.1.1.1.1.1.>.{ @.@.^ ^ ^ ^ S S ^ ^ @.| {  .uXuX5X,X:.2.H l.l.O 0 0 0 @ 6.6.2.2.1.:.&.j } >.$.$./ ] ] ] ] ] / $ X X X X X X X } / { @.+ E + @.] } [ i X i i X $ a a j j &.&.z.@Xz.:.:.,X8X/ } a @X@X@Xz.a $ } } >./ { ^ % Y % S + o % % Y % % Y % o S @.@.|  ./ X . $ $ J X . $ >./ +. .^ w.|.|.W.k.sXvX2XcXcXnXlXxXg MX%.%.%.C L L xXIXUXPXPXUXUXIXxX%.L C C C L C C L L L L L L L L L L L L L L L L L L L L L L L L L L L L L L L L L L L L L L L L L L L L L L L L L L L L L L L L L L L L L L L L L L L L L L L L L L L L L L L L L L L L L L L L L L L L L L L L L L L L L L L L L L L L L L L L L L L L L L L L L L L L L L L L L L L L L L L L L L C C C u.u.u.u.C L %.r.cXU.[.e.[.[.U.U.C.C.oXoXC.H.J.Q.^.<X5X8X,X&.z.. . a j j &.&.:.:.1.2.6.6.6.6.H H O O 0 @ @ @ @ 3.@ @ @ @ @ @ O @ O O O O O O O O O O O O O O O O O O O O O O O O O O O O O O O O O O O O O @ @ @ 0 O O H 6.2.:.&.&.j a a . X X X X i . . . . . . . . . . . a a X a . i i i i i . . . . . a j X ",
". . X X X X . X ] S w.Y E E E + % % % % Y Y Y %  .>.[ . X X X $ X X . . z.z.:.1.1.1.1.1.1.1.:.uXw.w.w.% % % o o % % Y Y Y w.w.E E {.@.{ uX5X,X:.2.@ @ H @ @ @ @ @ 6.2.1.:.&.&.j a . i X X X X . . X $ X X X X X X } $.] +.+.+.] $.$ X . . . X . $ $ j a . z.z.z.z.z.@X1.1.$.+. .+./ >.j @X@X@X@Xz.z.X $.]  .| S % % o + + + + + + o % Y w.w.w.@.] $ [ X $ $ $ $ X . i $ >.+.@.^ @.^ p d.d.j.|.vXvX2XcXnXlXDXDXxX%.MXDXUXqXaXaXaX6XqXPXUXDXxXL C C L C L L L L L L L L L L L L L L L L L L L L L L L L L L L L L L L L L L L L L L L L L L L L L L L L L L L L L L L L L L L L L L L L L L L L L L L L L L L L L L L L L L L L L L L L L L L L L L L L L L L L L L L L L L L L L L L L L L L L L L L L L L C L L L L L L L L L L L C C u.u.C C L L %.%.%.MXMXxXDXlXcXE.C.U.C.C.C.C.H.H.>XQ.^.XXXX,X:.1.1.1.:.:.:.&.&.:.:.1.2.6.6.H H H @ 0 O 0 @ O @ @ 0 @ @ @ @ 0 @ H @ @ @ @ O @ O O O O O O O O O O O O O O O O O O O O O O O O O O O O O O O O O 0 O O @ @ 0 O O H 6.2.:.&.j j $ } a a X . a X X i . . . . . . . . a . . X X i i X a a a j X X X X i i a X J ",
". . X X X X X $ /  .@.S % Y Y % % % % % o % % Y { >.[ . X $ . X X . . a a a a &.&.&.&.j a a $ ] ^ o % % + % % + % % + + % % + + % Y w.w.Y E ^ { 5X:.9.9.O O O O O H 9.9.6.2.:.&.j j J J $ X X X X X X X X X X X . [ [ . J J X . . X X X X X X X X X X $ >./ / >.$ a $ . ] @.Y Y E @.{ +./ >.&.:.1.:.:.@Xz.$ $.+.{ @.^ | {  . . . . .{ | | | | ] >.X X $ X . X $ $ $ $ a z.} / ] +.| {.j.k.j.j.sXsXj.d.sXjXjX=XnXlXIXPXrXaXaX*X).6XaXaX1XPXIX%.C C C C L L C C C C L L L L L L C C L L L L L L L L L C C L L L L L L C C L L L L L L L L L C C C L L L L L C C L L L L C C C L L L L L C C C L L L L L L L L L C C C L L L L C C L L L L L L L L L L L L L L L L L L L L L L L L L C C L L L L L C L L L C L L L L L L C u.C C C L C L L %.%.MXMXxXDXDXlXIXnXcXcX-XT.E.Z.E.E.>XQ.^.2XXX=X3.H l.9.9.9.6.6.6.6.H 6.6.H O H O O O 0 0 0 @ @ @ @ @ @ @ @ @ O O @ 0 0 0 @ @ @ @ @ O O O O O O O O O O O O O O O O O O O O O O O O O O O O O O O O O O O O @ @ @ @ @ H 6.2.1.:.&.j j $ X X X $ j j a a X X a . . . . . . . . X X X J i X a &.:.:.&.&.&.a a $ $ $ X X J ",
". . X X X X $ X . $ / +.{ @.^ ^ S S S ^ ^ @.|  ./ $ . X $ X X X X X X X X J $ j j j j $ J $ i J ]  .| @.@.^ ^ ^ ^ S S + % Y % + + + + + % Y w.Y { 8X:.:.:.:.:.:.:.1.1.2.2.6.6.1.:.a X X X X $ $ $ X . . X X X X i X X X . . . X X i . . X X . $ X X . } ] @.^ { ] / >.>. .Y % + % % w.w.E @. .] 8X,X&.&.&.. i i >.] +.] $.} } $ } } >.$./ / / J [ . X $ X . X X X X j $ $ . [ ,XXX2X2XQ.>X>X-X:X-Xk.@.+ |.w.|.d.jXdXiXP.P.*XbX4X*XL.0XpXPXUX%.u.C C C L L C C C x C L C L L C C C C C C C C C C C C C x L L L L L L C C C C C C C C C C C C C x L L L L L C C C C C C C x C C C L L L C x C C C C C C C C C C C x C L L L L C C C C C C C C C C C C C C C C C C C C C C C C C C x C C L L C L L C L L C L L C C L L L L C %.%.%.%.C xXxXDXDXlXIXnXcXcX-XdXT.OX6XaXOXOXOX6X).-XN.}.}.}.l.O H @ @ @ 0 O O O O O O O O O O @ @ @ O O O O O O O O O O O O @ O O O O O O O O O O O O O O O O O O O O O O O O O O O O O O O O O O O O O O O O O O O O O O @ @ @ H H 2.1.&.j j } $ J J $ J $ $ $ $ $ $ i a a . . . . . . . . i a J J $ j &.1.6.6.2.2.1.:.:.&.&.j j j $ ",
". . X X X X X X X . [ i >./ ] +.+.+.+.+.] / $.$ J X X X $ . $ X X X X X a i a a a a a X $ X X X i } $./ ] ] ] ] +.+. .{ { @.@.^ ^ ^ ^ ^ ^ @. .] >.j $.] uXuXuXuX] / 8X,X,X:.:.:.&.a . i i i i i i X X X X X X X X i X X X X X X X X X X a X X X X $ X $ / | E w.E @.{ +. .^ E + + + + % % w.w.w.E {.@.CX .+.uX] / >.} >.$ &.j [ [ X X . [ i [ X J . . X X X X $ $ $ X . j j 8X<X-X].1X1XqXqXF.F.6XT.j.^       w.w.b.OXaXiXiXB.eXiXL.aX1XUXxX%.C L L L L L L %.L C L %.L %.L %.L %.L %.L %.C %.L %.L L L L %.L %.L %.L %.L %.L %.C %.L %.L %.L L L %.L %.L %.L %.L %.C %.C L %.L %.L L %.C L L L L L L L L L L L C L %.L L %.L %.L %.L %.C %.C %.L %.L %.L %.L %.L %.C %.L %.L L L %.C %.L L %.L %.L %.L %.C C L %.%.L C x xXxXDXDXIXnXcXcXcX-XdXQ.Q.^.-X&X6XrX0X0XrXrXqX1X1X).-X+XN.3.3.H H H 0 H @ @ @ @ @ @ @ @ @ @ @ O O O 0 0 @ @ @ 0 @ @ @ @ @ @ O 0 @ @ @ @ @ @ @ @ @ @ @ @ @ O O O O O O O O O O O O O O O O O @ O @ @ O O O O O O O O O O @ @ @ H H 2.:.&.$ $ $ J $ $ $ $ $ j j j j $ $ X $ $ a X i a X a a a a X X $ j &.1.6.0 0 @ 0 H 6.2.2.1.:.&.&.&.",
". . X X X X X . X $ $ $ X [ [ i i . X . . . . . X X X X X . $ X . . . . i X X . X X . a X $ X X X X X X . . . . . . i $ >.$./ ] ] ] ] ] / $.>.. [ } / ] $.>.>.$ j j j j j j } j } $./ / / $.>.$ J X X X . X X X X X X X X X X X X X X X X X X . X $ $ X [ >.] | + Y Y % S S + S S % % o p     + o o w.j.k.Q.&XQ.Q.^.vXCX] ] / >.$ . X X X X X . } / / >.} $ X X X a a j ,X8X<X&XqXF.pXrXpX<.<.rXaXT.d.o + + E E d.n.J.T.6XiXP.L.eXOX&XcXnXDXxXx g %.%.L %.%.%.%.%.%.L %.L %.%.%.%.L %.%.L %.%.%.%.L L %.L %.%.L %.%.L %.L %.%.L %.L %.%.L %.L %.%.%.%.L %.L %.L %.L L %.L %.L %.L %.%.%.L %.%.%.%.%.C %.%.%.C %.%.L L %.L %.%.L %.L %.C %.L %.%.C %.%.C %.%.C %.C %.%.L %.L %.x %.C L %.%.L %.L x %.L %.L %.g g xXxXDXlXnXnXcXcXvXvXvX2X2XXX=XN.H 0 N.4X*XqXiXP.P.iXiXaXaXaXqXqX).-X+X3.H H O 0 @ @ O O O O O O O O O O O O O O O O O O O O O O O O O O O O O @ O O O O O @ O O O O @ 0 @ @ @ @ 0 0 0 0 0 0 0 0 0 0 @ O @ O O @ @ O O O O O O O O 0 @ @ 3.3.6.:.j $ $ j j j j j &.&.&.z.a j $ J X X a i i a . . . i i a i $ &.:.2.H H 0 0 3.3.@ H H H H 6.2.2.1.",
". . X X X X $ X . X . X $ J X $ $ $ $ X a $ } } $ X $ } $ X X . X X X X . . . X i X X . X X X X X $ $ X X X $ $ X X $ X i . . J J i i i [ . $ $ } $ . z.z.. $ $ $ } J . . X X >.+.@.^ S ^ @.|  .+.] / $.>.} J i i i i i . . . i . i i i . X $ X X . X X $ J $ >./ +.{ | | {  .] ]  .| S o % % + + p d.Q.&X6XaXaX6X6X).Q.sXd.^ | { ] >.i . X X . >. .@.| {  .] / / $.$.5XXX2X].1XpXrX0XM.9XaX0XiXS.Q.@.^ {.o E E d.V.a.7X7X7XoXE.ZXsXjXXX2X2XcXnXlXDXxXMXMX%.%.C C L L L %.%.L L %.%.%.L %.C %.L %.%.%.%.%.%.%.%.%.%.%.%.%.%.L %.%.%.%.%.%.%.%.%.L %.%.%.%.%.%.%.%.%.%.%.%.%.%.%.%.L %.%.%.%.%.%.C %.%.%.C %.%.%.x %.%.%.%.%.L %.%.%.%.%.%.%.C %.%.%.C %.%.%.%.C %.%.%.%.%.%.L L L %.%.L %.%.%.%.MXg g xXDXlXnXnXcX-X-X-X-X2X=X=XN.3.3.l.}.l.O 9.0 +X~.iX9X9XiX*X4XbXbX4XeXL.P.rX<.1X-X+X}.@ @ 0 @ 0 O O O O O O O O O O O O O O O O O O O O O O O O O O O O @ O @ @ @ @ 0 O 0 @ @ @ O O O O O O 9.9.9.H H H H H H O O @ O @ @ O O O O O O O O O O 0 0 @ 0 0 H 2.:.&.&.:.:.1.1.2.2.2.1.@Xz.j $ a i $ a X X i X X X X X j a &.1.6.H H 3.@ @ @ @ @ @ @ @ @ H H H 9.",
"X X $ a X $ $ j j j a a j j j j j j } $ . . . i i . . . . . X X X X J $ X X X X . $ X . . X X X X $ X $ X X $ $ } $ $ X $ X X X X X X X X X X X $ $ >./ +. . . .{ { { +./ $ i $.| E w.w.Y % % % + ^ ^ @.| {  .+.] ] / $.>.>.>.$./ ] ] $.} $ X . [ . X $ $ $ $ X X $ } } } $ $ X X $ $.]  .| ^ S p o b.S.aXaX*X4X*XaXaXqX&Xk.o o o   { ] } J $ X [ >./ ] | + + S {.^ | k.-X].1X0X9X9XM.L.LXLXI.OX^.5X] ] ] @.+ w.d.i.C.H.T.E.7XC.NXY.b.{ ] / uXjXvXvXcXcXnXlXxXg MXMX%.%.L L %.L %.L L %.%.%.%.%.%.%.L %.%.L %.%.L %.%.L %.%.%.%.%.%.%.%.%.L %.%.%.%.%.L %.%.%.L %.%.%.%.%.%.%.%.%.%.L %.L MXC C L %.%.g %.%.x %.%.L %.%.L %.%.%.%.%.%.%.C %.%.%.%.L %.%.C C %.L %.C L L C L %.%.%.%.MXMXMXxXDXDXIXUXPXPXPXPX&X&X).qXqXqX).+X3.0 0 @ 0 O @ @ @ 9.0 2X!.M...M.iX:XmXmXmXbX*XL.P.0X<.1X-X+X}.H H 0 O @ O O O O O O O O O O O O O O O O O O O O O O O O O O O O @ @ @ @ @ @ @ @ @ @ H H H 6.6.2.2.1.1.:.:.:.:.:.:.:.:.2.H @ 0 @ @ @ O O O O O O O O O O O O O O 0 O H H H H H H @ H 6.2.:.z.a a X X X X a a $ $ $ $ j j &.&.1.2.H @ @ 0 O O O O O O O O O O O O 0 0 ",
"X X $ X J } } $ $ $ j j &.1.1.1.1.1.:.&.} $.$.$.$.>.>.>.>.>.} X $ $ $ X X X $ $ X $ X X X X X . X } X $ $ X X $ } $ $ . $ X X X X X X X X X $ . } ] | S + E Y Y Y + @. ./ } J } / ] +.| @.S % Y % + S + + + + S S ^ @.| | { { | ^ S ^ @.{  .] / >.} J i i i . X X X X X . X X . X X X $ >.$./ ] ] +.<XOXiXiX6X*X~.iXiXqX&Xk.+ S + Y +  .$.i J >./ ] +. .| + % % o S + j.Q.-XqXaXP.P.iXE.s.s.>X<XCX{  . .{ ^ w.n.n.V.H.).wX].6X).*X*X&Xv.j.@.| {.d.j.j.sXsXvXvXcXnXIXDXMXMXMX%.%.L C L L %.%.L %.L %.%.%.%.%.%.%.%.%.%.%.L %.L %.%.%.%.L %.%.%.L %.%.%.%.%.L %.%.%.%.%.%.%.%.%.L %.L %.x %.C %.%.%.%.%.%.L %.L L %.L %.%.%.%.%.L %.%.L %.MX%.C %.x %.C L L L C %.x %.%.MXMXMXg xXxXDXlXnXnXnX+X-X).1X1X1X1X~ 1X6X1XF.F.F.6X&XN.l.@ @ 0 @ @ H @ @ l.N.).iX9XM.P.B.~.~.~.eXiXP.P.rX1X).2X3.O H @ 3.O 0 O O O O O O O O O O O O O O O O O O O O O O O O @ O @ 0 @ @ @ @ @ @ @ O 9.6.6.2.:.:.:.&.&.&.j j j j j j j j j :.6.@ @ @ O @ @ O @ O O @ @ @ @ @ O O @ @ O @ 0 0 @ @ @ @ @ H 2.:.&.$ X a i J $ $ a a $ $ j j &.:.1.6.6.H @ @ @ O 0 0 0 0 0 0 @ @ @ @ @ @ O O ",
"X . $ X X $ $ $ $ j j &.1.2.2.2.2.1.1.@X} ]  .{ | | | @.| | +.>.i J X X X . . X X X $ X X X X X . X . . . X X $ $ $ X X X X . . . . . . . X X . $ /  .{ { { {  . .] / $.} $ $ X X $ } $./ ]  .{ @.+ w.Y % % % % % % + + + + + S + % % % E + ^ @.| { +.] / $.>.$ J [ [ . . X X X X X . i J X i i i a XX&XOXaXiXiXeX~.&X-X<X@.^ + S @.{ ] $.>.$.]  .@.{.E {.S + + p S o o j.sX^.Q.T.T.>XsXV.h.sXsXV.[.i.w.@.+ w.W.n.B T.~.3XG.$X#X$XG.*X&X>Xk.d.p S {.d.w.j.k.k.k.sXsXvXcXnXlXxXg MXMXMX%.x %.L L C %.L %.%.%.%.L %.%.L %.%.%.%.%.%.%.%.%.%.%.%.%.%.%.%.%.%.%.%.%.%.%.%.%.%.%.L %.%.%.%.%.MXMXx xXxXxXg MXMX%.%.%.%.%.%.L %.%.%.%.%.%.MXL x %.%.C %.%.%.%.%.%.MXMXg xXxXDXDXlXlXnXnX3.3.3.N.2X-X>X6X1X<.<.<.<.F.1XF.<.<.pXaXT.+Xl.3.0 0 O @ @ @ 0 0 3.+X6XrX0X9XP.P.M.P.L.L.aXOX).-X2XN.0 3.H @ @ @ @ O O O O O O O O O O O O O O O O O O O O O O O O O @ O O @ @ @ @ @ H 6.2.1.:.:.&.&.j a j $ $ a a $ $ a a $ } j :.6.@ @ @ O @ @ 0 O O @ 0 O O O 0 @ @ @ @ @ @ O @ @ @ @ @ @ 3.2.1.:.j j j $ $ $ j j j j &.:.1.2.6.H H O @ @ @ @ O O O O O O O O O O O O O O O ",
". . . . . z.z.z.:.@X@Xz.@X:.:.:.&.&.z.a a >./ ] +. .{ | | ^ | +.$.>.} } >.>.>.>.>.$ X a . [ . X X X X X X X X . . X X $ X X X X X X X X X X X X $ } >.>.>.>.>.>.>.$ J i i X } X X X X [ . J >.$.] +.{ | @.S + + % + + + % % % % % % Y Y o o + % + + S ^ @.{  .+.] / $.>.$ . . . [ . X X X $ } >.} $.d.U.NXNXZ.Z.S.Q.XX8X>.$./ +.+.] +. .{ { { { +. .| @.{.d.w.w.E E + S o % d.W.V.U.U.' h.y.U.h.m h.V.W.{.% + w.w.{ ^.~.eXOXeXB. X#X$X*X*X:XQ.w.p S +   p o E w.|.W.k.sXvXvXcXcXnXIXDXxXMXMXMXMX%.%.L %.L %.%.%.%.%.%.%.%.%.L %.L %.%.L %.%.%.%.%.%.%.%.%.%.%.%.%.%.%.%.%.%.%.%.C L %.xXIXIXUXUXPXUXUXIXDXMXMX%.%.L %.%.L %.L %.L %.C %.%.%.%.%.MXMXL L xXDXDXlXlXnXnX0 3.3.3.3.3.3.3.3.=X-X&X).1XF.F.pX0X0XrX<.<.<.pX0XiX&X3.l.0 @ @ @ O @ H l.3.jXdX>X&X*XOXiXP.M.P.aX).+X+XN.N.3.O @ @ 3.@ @ @ 0 O O O O O O O O O O O O O O O O O O O O O O O O @ O @ 0 O 0 @ 6.2.1.:.&.&.a j j j a a X J X . a X $ X a j j &.1.H @ 0 @ @ @ @ @ O O O O O O O O O O O O O O @ O O @ @ @ @ @ H 6.2.1.:.:.:.:.:.:.1.1.1.2.6.H H H @ @ @ 0 O @ 0 O O O O O O O O O O O O O O O ",
"] ] ] ] ] ] ] ] / $./ / $.$.>.$ j } $ $ . [ [ [ i } >.$./ ] ] ] / >.$.$./ / / / $.} . $ >.$./ +.+.+.+.+.+.+.] / >.i . X X X X . . . . X X . . X $ . [ [ [ . [ . . X X i X X $ X X X X $ } $ i [ i } >.$./ ] +. . . .{  . . .{ { | { @.S % + S + + o % Y Y Y + S {.@.{ {  .+.] / $.$ J J [ }  .w.|.|.i.m p.p.p.h.U.i.| / / >.i / ] +.{ ^ % % + | uXXXXX<X^.^.^.^.j.+ + S S Y W.n.[.U.h.m m m m h.U.i.W.w.d.o + + ^ +.5X2XQ.E.oXE.eXeX X#X*X:XQ.|.    o o o o p     ^ p w.|.k.k.k.sXvX2XcXnXIXlXxXg MXMXMX%.L C %.L g L %.x %.g L %.%.%.%.L %.%.%.%.%.%.%.%.%.%.%.%.%.%.%.%.%.%.%.%.MXxXUXPXrXaXaXaXqX1X1XPXIXxXMX%.%.C L L %.%.%.%.MXMXMX%.x xXxXDXDXlXlXlXnX3.3.3.3.3.3.3.3.3.0 O 3.N.+X4X-X).1X<.<.pX0X....9X0XrXrX0XM.iX4Xl.@ 0 @ @ @ @ @ H l.N.sXy.h.U.J.oXoXZ.Z.OX&X2XN.}.9.9.9.H @ @ @ 0 @ @ 0 O O O O O O O O O O O O O O O O O O O O O O O O @ @ @ 0 O H 2.:.z.&.j j J J J J a a $ $ } j j j j j &.&.:.:.1.6.@ @ @ @ @ @ @ @ @ O H 6.1.1.1.1.2.2.6.6.6.H 0 @ @ @ @ @ @ @ @ @ H 6.6.6.6.6.6.6.6.9.O 0 @ @ @ @ @ @ @ @ @ @ O O O O O O O O O O O O O O O O ",
"S S ^ ^ S {.^ ^ ^ @.@.@.| | { ] $ . $ J X $ X . . [ [ [ [ . X X } } >.$.$.$.$.$.>.$ } ]  .{ @.S % % % % % + ^ |  ./ X [ X X . . . . . . i i . X J J $ $ $ } } } } } X . . . . [ X >./ +.+.+.] / / / / / $.$.$.>.>.>.>.>.} >.$.$./ $./ { Y + + E E o o o o + + Y % Y % % o S ^ |  .} J J [ a  .W.B B i.[.;X/.;X[.[.B |.S ^ { +. .@.^ {.S p p w.j.^.-X4X:X:X].].&Xk.S % + S w.n.B B i.V.V.[.V.V.B W.{.@.p %   ^ {.|.n.n.CXjXV.h.kX>X~.~.&X&X^.j.E o o o o % E E E o o p p S   E w.|.k.b.b.dXsXvXcXnXIXlXxXg %.MXMX%.%.L L C L %.%.C L %.L %.%.L %.%.%.%.%.%.%.%.%.%.%.%.%.%.%.L %.g DXUXqXaXP.iXaXeXaXaXaXqXPXUXIXx %.MX%.%.%.g L xXxXxXDXlXlXlXnXnX3.3.N.3.2.3.3.3.O O @ O O 0 @ O =X-X].F.1XpXrXrXrX0X....M.P.iXiXP.M.iX).N.O H @ @ @ H H @ H l.0 vXy.x.a.s.s.a.a.s.C.U.U.kX=XO H H H @ @ @ O @ @ O O O O O O O O O O O O O O O O O O O O O O O O O @ @ @ H 2.1.&.j $ X $ X a j j $ j j j j j &.&.:.:.1.1.2.6.6.6.H @ @ O @ @ @ O 0 H 6.2.:.j j j j &.:.:.:.:.6.@ 0 @ @ 0 0 @ @ @ @ 0 O O O O O O O O O O 0 @ @ @ @ 0 0 @ @ @ @ O O O O O O O O O O O O O O O O ",
"w.Y Y Y Y Y Y Y w.w.w.w.w.w.Y  .} @XX $ i X X X X X X J X X X X X . z.[ [ [ [ . J [ $.| w.Y % % + + + + + + % Y Y @.] >.$./ / / / / / / / / / / ] ] ] ] ] ] ] ] ] ] ] ] / / $.>./  .^ E E S ^ @.@.@.@.@.@.| { +./ $.$ [ [ i a . . [ }  .w.E Y E + o o o o o o o p + % + @.| | | +.$ J J X . j / { |.W.W.n.n.b.k.sX^.Q.Q.Q.sXk.j.Y % w.w.E d.j.Q.&X].3X$X3XG.*X~.b.% % E + Y |.W.n.n.n.W.W.W.|.% p p Y Y % % ^ {.n.U.h.U.[.U.U.kXi.V.b.j.CX{.^ p o E E o E E E E E E E Y Y % + +   ^ ^ E |.W.b.v.b.dXvXcXnXIXDXxXxXMX%.%.%.L L L C C %.g %.L %.%.%.%.%.%.%.%.%.%.%.%.%.L %.%.L MXlXPXaX9XiXeX:X4X4X:XB.P.0XpX1XPXDXg x xXxXDXDXlXlXnXnX3.3.N.3.2.3.3.0 H H O O @ O @ @ @ @ @ @ @ l.+X-X1XF.<.rX9X......M.P.I.LXLXLXI.aX).+X0 H H H @ @ H H O H H H jXh.7XT.T.T.T.oX7X7Xs.7XoX-XN.0 H 3.@ @ 0 O O O 0 O O O O O O O O O O O O O O O O O O O O O O O O @ @ O 6.:.j j j j a j j &.&.&.&.&.:.:.:.1.1.2.2.6.H O O @ H H @ O H @ O O O H @ H 2.:.j $ } $ $ j j j j &.:.6.@ @ @ O O O O O O O 0 0 @ @ @ @ @ 0 0 @ O O O O O O O O O O O O O O O O O O O O O O O O O O O ",
"^ ^ ^ ^ ^ ^ ^ @.@.@.| {  .] ] / a @X. J X J i i X X X X $ X . X . . $ } } $ $ $ J [ / @.% S S + + + + S + S S S % % @.| @.^ S S S S S ^ S S S S S + + + + + E + + + E + S ^ @.| @.E Y % % % Y Y w.Y Y Y Y Y Y % S @. ./ } $ } } j j / | E + E Y % % % % % % o d.j.sX^.Q.^.2X+XXX. i j X $ $ . J ] @.+ S {.j.Q.&X).6X6X6XqXqX&Xk.E p S + w.k.-X:X*X3X#XeXeXOX~.>Xj.p + + + S @.@.^ + E % p p p p d.j.^.^.^.^.j.k.B [.U.h.m y.y.m /.;Xi.E  .| ^ +   % o o p % j.sX^.^.Q.sXsXj.j.E o o % o p {.{.d.w.W.b.v.kXdXvXcXnXIXDXxXg g %.L %.L %.L L %.%.%.%.%.%.%.%.%.%.%.%.%.%.%.L %.L MXUXaXM...P.~.bXmXmXbX~.P.P.rX1X).nXlXlXnXnX3.3.N.3.3.3.@ 0 O O O 0 0 @ @ @ @ H H @ O @ @ @ @ @ @ O 3.4X].1X1X0XM.M...M.L.LXa.y.p.C.-X+X3.O @ O O H @ O @ O 2.5XjXCXsXY.S.wX~ g.].~.~.*X].].*X&X-X=X3.0 @ @ 0 @ 0 @ 0 O O O O O O O O O O O O O O O O O O O O O O O O @ 0 O 6.:.&.&.&.:.:.:.:.1.1.2.2.2.6.6.6.H H 0 0 0 0 @ @ @ 3.3.@ 0 @ O @ @ @ @ @ H 2.&.$ $ $ $ $ $ j j a j &.2.O @ @ O O @ @ @ @ @ O O O O O O O O O O 0 0 @ @ @ 0 0 0 0 O 0 O O O O O O O O O O O O O O O O ",
"] ] ] ] ] ] ] / / $.>.$ X [ [ . X a X i X i X X X i . X X . $ X [ >.] +. .+. .+.+.+.+.{ S + + + + + + + + S S % % S % % Y % % Y % % % % % % Y % % o % % % + + + + + + % % % % % + ^ S + S S S +   o o +   + + + % % Y {. .>.z.:.:.1.:.>.] +. .| ^ S   o Y % E k.>X:X].*X*XwX:X-X,XJ j a j . $. .+ Y d.k.b.&X6XqXqX6XaXP.P.0XqX&Xk.o p % Y k.-X].$X#XeXZ.7XC.>Xj.E p + E ^  .] / / 5XuXuX{ CXd.j.Q.&X:X].].].:XQ.b.n.n.B i.V.V.i.n.|.{.E w.w.E E o o o % p w.Q.).qX6X6X6X).&XQ.k.d.E % + E E E + p ^ {.d.j.k.b.v.v.kXdXcXnXlXxX7.g MXx %.L L %.%.%.%.%.%.%.%.%.%.%.%.%.%.%.%.C %.DXPXiX9XM.P.iXeXeXiXL.P.aXqX).-X+XN.N.3.3.3.@ H @ O O @ @ @ 0 0 0 0 0 @ @ @ @ @ 0 0 O @ @ O @ 3.@ O N.+X4X4X].OXiXiXiXOX>XdXkXa.V.3.}.l.0 3.0 O O @ @ @ l.=XW.V.i.i.J.S.$XG.G.G.G.G.G.G.G.~ *XT.^.XX3.0 @ @ O O 0 O O O O O O O O O O O O O O O O O O O O O O O O O @ @ @ @ H 6.6.6.6.6.6.H 9.9.H 9.H @ @ @ @ @ 3.H H 3.@ @ @ 0 3.@ O 0 O O O O @ @ @ 2.&.$ J X j j $ $ J i j ,X2.O @ @ @ O O O O O O O O O O O O O O O O O O O O O O O O O O O O O O O O O O O O O O O O O O O ",
"J X . [ [ [ [ z.[ [ i [ i i i i $ X $ $ $ X . . i J J J J $ } . $.{ % w.Y Y w.Y Y % +     + Y w.w.Y + + + S S S ^ @. .+.| o + S S S S + + % % Y Y % % % + % Y Y Y % p o     + ^ +./ / / / / / / / +.| % %   + % + S + % % { j 9.9.9.6.1.z.. $ } $.$./ +. .{ vX>X:XwX3X$XG.G.~.Q.,XJ a $ . [ ] ^ w.d.k.&XqXqX0XiXeX).:X*XaXP.0XaXT.b.E ^ | CXj.^.>X>X>XJ.U.[.n.V.[.n.+ Y @.] } J >.XX+X4X:X~.~.~.).].VX~ ~ g.VX].&XQ.k.w.w.w.d.d.E p p p p p o o E E E d.j.Q.).rXP.P.iXaX6XqX).&XQ.k.p p o   + + o E + p p ^ ^ {.d.j.b.v.kXdXdXcXnXDXxXg MXMX%.%.C L L %.C %.%.%.%.C C L %.C %.MXg IXPXqXrX9XP.M.M.P.aX6X-X2X+X3.0 3.0 O 0 0 0 0 0 0 @ 0 0 0 0 0 @ H @ 3.0 0 0 0 0 @ @ 0 0 @ 0 0 @ H H O 0 3.N.N.+X2X+X+XN.N.2Xs.h.=X=XvXdXkXkXsX=Xl.H H l.:.vXB i.B V.S.eX$XG.G.3X#X X#X3XG.G.].&X^.+X3.3.@ H 0 O 0 O O O O O O O O O O O O O O O O O O O O O O O O 0 O 0 0 O O O O O O @ @ @ @ @ @ @ @ @ @ @ @ O O @ @ 0 0 0 0 0 @ O @ O O O O H @ H 2.&.j $ a X X X J j j &.:.6.O @ H @ O O O O O O O O O O O O O O O O O O O O O O O O O O O O O O O O O O O O O O O O O O O ",
"| {  . .+.] ] / / / $.$.$.$.$.>.X X $ . X X X >./ +. . .+.] $.X +.S w.S S + + +   o o o % S {  .{ ^ Y Y Y % % S ^ ^ @.{ @.o S @.| {  . .+.+.+.+.+.+.+.+.+.+. .{ | S % o     S S @. .] / $.$.$.$.$./  .^ % o o o   o %   + +  ./ ,X,X,Xj . . . [ [ . $ i 8X2X4X].$X#XeX!.eXOX~.<X. i $ $ J [ >. .+ E b.&XF.rXP.iX4XtXtXmX:XL.M.M.!.>Xd.^ |  .] { n.U.h.h.m y.m h.U.n.S S + ^ @.| CXQ.:X*XeX XA.A.eXeXeXeX#X6XG.VXVX&Xv.j.  + E + E E + + o   S   p E o j.T.aX0XiXeXwX4X4XeXP.0X1X).Q.j.E + o   p p p   o o   + + + p S d.j.k.k.b.kXdXdXcXnXIXxXr.MXMX%.C C C C %.MXMXMXMXMXg xXlXJXZXZXT.T.S.aXiXiX).+X}.3.3.0 0 0 0 @ @ O O O O O O O O @ @ @ 0 0 3.3.3.H @ @ H H H H H 0 3.@ O @ @ @ H H 3.3.jXkXV.ZXZXU.ZXU.h.a.kXZXm p.p.x.s.sX}.H H @ O 3.=XjXjXjX-XeX X#X#X#X X;.;.#X3X3X3X*X].].4X+X3.O @ @ @ O O O O O O O O O O O O O O O O O O O O O O O O O 0 O O @ 0 0 0 0 0 O O O O O O O O O O O O 0 @ O O O O O O O O O O O O O O @ @ @ H 2.:.,Xj j $ X a j :.2.6.@ @ @ @ O O O O O O O O O O O O O O O O O O O O O O O O O O O O O O O O O O O O O O O O O O O O ",
"^ % % % % + + + S ^ @.@.@.@.@. .} [ X . . X $ >./ ] ] / / >.} . / { S Y w.Y Y Y Y Y S   Y ^ +.} J $.]  .| @.+ Y w.w.w.Y Y % o + S ^ @.|  .+.] / $.>.} J i i i $ >./ { % w.% S S + + ^ @.@.@.@.@.@.^ ^ S S o o   o o p o S + E {.{.@.| {  .+./ $.>.i [ [ ,XXX4X].~.~.OXE.oXQ.+X,Xj $ $ i [ [ / { S o k.>XqXaXP.L.eX~.~.~.B.P.M.P.S.b.o p E E {.w.n.V.[.U.U.U.V.sXCXCX^ S + E + E k.>X*X3X XA.B.eX:X:X:X:X:XOXeX*X~ ].&Xb.E E d.+ E w.|.|.w.w.w.w.Y |.Y k.S.P.M.P.).bXmXbX~.P.9XpX].>Xj.S o + + o o o o p p p o o E o o o E S E d.j.k.b.b.dXdXFXcXnXDX7.MXMXMXMXg DXlXIXnXcXcX2X2XkXy.p.h.h.a.7X7XNXZXkXjX3.O @ 0 @ @ @ @ @ 0 0 0 0 @ @ O @ @ @ O @ @ O O l.O H l.O 0 O l.@ H O @ @ @ @ 0 O }.l.vXU.a.p.p.p.x.p.p.p.m p.p.y.U.kXvX=X0 O @ @ H @ O @ 6.H N.:XOX!.Z.Z.Z.!.A. X X#X#X$X3XwX].-X=Xl.@ @ O O @ @ O O @ 0 0 @ @ 0 O O @ @ O @ @ @ @ @ 0 O O 0 O @ 0 O O O O O O @ @ @ @ @ @ O O @ @ @ @ @ @ @ @ 0 0 0 0 0 @ O 0 O O O @ @ @ @ @ H 6.1.:.&.&.&.:.1.6.6.H O @ @ @ O O O O O O O O O O O O O 0 0 O 0 0 0 0 0 0 O 0 O 0 0 0 0 0 0 0 0 0 0 0 0 0 0 0 0 O @ @ ",
"] +. . .{ | @.^ S + % Y Y w.Y { >.. $ X X $ X $ $ $ J X i [ X . X >./ +.{ @.^ ^ ^ S % % %   @. .] $.} } >.$.] +.+. . .@.@.S + + + + + + S ^ @.@.{  . .+.] / >.} i i >.+.| + % + + % Y Y Y % % % % % + S S o o o o       S S Y Y Y w.Y + + S @.| {  .] / >.,XXX2X&X&X>XV.U.kXsXV.n. . . .+. .| + % p d.b.>XT.OXiXP.M.M.P.P.0X6X).^.| ^ % Y E E w.w.|.W.W.W.W.|.{.| ^ + + S S E k.Q.:XwX$X#XA.B.~.bXmXmXmXmX4XeXB.$XwX:XQ.j.o E w.@.] 5XuX{ | | | CXCX+.8X-XaX9X9XiXeXeXeXiXL.aX).&Xb.p + o o p p o o p p p + + p o o E % o p + E o o o d.j.k.k.b.dXdX-XcXnXnXcXcXcXcXdXkXkXkXkXsXV.h.p._ _ _ _ x.p.x.a.kXN.O 3.@ @ @ @ @ O O O O O O O @ @ @ @ O O l.N.N.N.N.XX2X2X+X+X+X3.H H 0 @ @ @ 3.1.=X=XvXkXV.U.h.h.m y.y.y.a.m h.V.jX3.0 0 @ H H H 3.H @ 0 }.}.}.N.+X-XY.a.a.7XI.B.;.;.;.#X3X].].4X3.9.@ @ @ O O O O @ O O O O O O 0 @ O O @ O O O O O O 0 0 O O O O O O O O O O O O O O O O O O O O O O O O O O O O O O O O O O O O O @ @ @ @ @ @ H H 6.2.2.2.6.6.@ @ @ 0 @ @ @ @ O O O O O O O O O O O O O O O O O O O O O O O @ O O O O O O O O O O O O O O O O O O O ",
"i $ } >.>.$./ / ] ] +.+.+. .+./ $ X X X X X X . . . X X X X X $ } >.$.$./ ] ] ] / ]  .^ % Y Y Y ^ @.{ +.] / $.$.>.$.$.] +.@.% + + + + + E Y Y Y Y % + S ^ @.|  .+.+.] ] ]  .| ^ S + % % + + + % + S + + S   o % Y Y Y Y Y + + o E E E E % Y % % % S ^ @.{ | |.k.kXY.U.h.h.h.U.[.W.5X] | ^ + % Y o p p d.j.j.<X&XeXP.P.iXiX).T.J.k.+.] { S + + + S S +   {.{.{.E Y + + + + S E k.&XwX~ $X XA.B.eX:X4XbXbXbX4XeXB.#X~ ].Q.k.S p w.@./ ,Xj &.&.&.:.:.:.2.:.2X&X6XaXiXP.P.iX6X).4X2X<X{.+ Y E   + + p p + + o o % o % % Y Y o   S ^ ^ ^ S d.j.b.b.v.v.J.J.>X-X2X2X2X+X=XCXi.V.i.i.i.V.U.h.m p.p.m /.U.V.dXjX3.l.l.O @ H H @ @ @ 0 @ 0 @ 0 O @ @ @ O 3.+X-X4X4X4X:X).:XwX].-X+X0 @ @ @ @ O 2.jXn.n.n.n.B i.V.V.U.U.U.U.U.V.kXjX2.}.0 @ @ @ O @ H H 0 0 3.3.3.O }.3.kXh.V.sXQ.~.~.~.~.).:X4X+XN.0 @ 0 @ @ @ @ @ O 0 @ 0 O 0 0 0 O O @ @ 0 @ @ O O @ @ O O O O O O O O O O O O O O O O O O O O O O O O O O O O O O O O O O O O O O O @ @ @ @ @ H @ @ @ O @ H H @ 0 @ 0 @ @ @ @ @ O O O O O O O O O O O O @ O O O @ @ @ 0 0 0 0 O 0 @ @ @ @ @ @ @ @ 0 @ @ @ @ @ @ @ @ @ ",
". X [ [ [ [ [ [ . a $ } } } } J . X . . . . X X X X X $ $ X X >./ ] ] / >.$ X [ [ J >.]  .{ { { { | | {  .+.] / $.$./ / +.| S % % % % E + E + o + % Y % Y % Y %   S ^ |  . .{ @.^   o o o + % % % + + + ^ {  .{ { @.@.S E % Y Y + + + + o     o + o % % Y W.n.B i.[.U.U.U.U.V.d.uX$.>.] @.Y % + + + + p ^ w.W.kXH.oXoX7XC.ZXh.y.V.CX] { ^ Y o o % + + + o p + + +   + p + p o j.Q.:X].*X$X#X XA.B.eXeX~.~.eXB. X$XwX:XQ.k.S + E + @.{ uX] 8X,X:.2.2.}.XXV.U.ZXT.Z.I.iXT.-XN.3.0 1.8X{ E Y o + + % % % o o p     ^ ^ ^ E d.j.j.k.b.b.b.v.v.b.b.^.^.<X2XXX=XN.3.0 l.l.:.5XCXW.n.B B i.V.[.U.V.kXjX=XN.0 }.0 3.3.3.@ O O H H @ @ @ @ @ @ 0 @ O 0 N.2X&X).wXwXwX].].wXVXG.~.-X0 O @ @ @ O 6.5XW.n.B i.i.i.i.i.i.i.b.n.sXCX=X2.@ H H H H @ @ H H O O XXdXkXkXdXjXXXZXh.dXXXjXvX-X-X2X+XN.N.3.O @ @ 0 0 @ @ @ @ @ 0 @ 0 @ @ 3.H H H H @ @ 3.3.@ @ @ @ @ @ @ O O O O O O O O O O O O O O O O O O O O O O O O O O O O O O O O O O O O O O O 0 @ 0 0 @ @ @ @ O 0 0 0 0 O @ 0 O O O O O O O O O O O O O O O @ @ @ @ @ 0 0 0 @ @ @ @ @ @ @ @ @ @ @ @ @ @ @ @ @ @ @ @ @ @ @ ",
"X $ X X X X X X i a a a a a a X X a . . . . . . . . . X X . $ } >.$.$.$.>.} $ X X X [ . } $.>.>.$.$.$.$.$.$.$.$.$.$./ / ] ] +.{ | @.S E Y w.w.w.E E E   o   o o % % % % % + S S   o o o o % % o + % + + ^ {  .+.+.+.+.+. .{ ^ S + + + % % o + +         o Y w.w.|.W.|.W.W.W.d.{ { {  .+.| + + + + + w.|.|.B h.y.y.y.p._ _ ` p.y.i.d.^ p o %   o % o o + + + + o o o o % Y o p % j.k.^.&X].G.#X XA.A.A.eXA.A.#X~.).&XQ.k.j.+ + + E Y w.w.w.E @.CXCXuX5XsXh.x.m m p.a.h.U.U.vX3.l.9.6.,X+.| o o + E E   ^   E d.j.j.k.k.b.b.v.v.v.v.>XQ.^.<X2X+XN.3.3.}.}.l.l.l.O @ @ 3.l.1.=X5XjXjXjXjXjXjX5X3.3.N.+X+X+X2X2X2X2X+XN.3.O H @ @ @ @ O @ 0 0 3.N.+X-X).wX~ 3X$X$XG.~ G.$XOX2XO O @ @ @ @ @ 3.=X=XuXCXsXsXsXsXCXCX5X8X,X2.l.l.@ 9.9.9.9.O O O H 9.N.sXh.p.p.p.U.ZXh.m U.U.U.U.ZXV.vX3.l.O O H @ O O 0 @ @ @ @ 0 @ @ @ H H @ O O O O O O 0 3.3.3.@ @ @ @ @ O O O O O O O O O O O O O O O O O O O O O O O O O O O O O O O O O O O O O O O O O O O O O @ O O O O O O O O O @ @ O O O O O O O O O O O O 0 0 0 @ @ @ 0 0 @ @ @ @ H H H H H H 6.H H H 6.H H H H H H H H H ",
". $ X X X X X $ X $ $ $ $ $ $ X X $ X X X X X X X X X X X X X . . [ [ . . X X X X X $ J J i i [ [ [ [ [ [ [ [ . [ . i i . [ $ >.$.] +.{ { | {.{.E w.Y o   o + + o   S S + + % % % % o o o o % % % % % + + + S ^ @.{  .] ] ] +.{ @.^ + % Y % + + + + % % + + o + o E + + S S E w.w.w.w.E S + + + + S |.n.B V.U.h.y.` _ ! ! ! m [.W.d.% % %     o o o   o o   + o o   S S ^ S + Y w.|.W.>X:XwX$X#X#X$X*X3X3X3X*X&XQ.k.k.j.o o + + + S S o E % w.|.n.n.n.B U.m p._ ! ! m y.y.kX5X,X8X,X,X>.+.^ + E d.j.j.j.k.k.b.b.v.J.J.v.b.Q.^.^.2X+X+X+X+XN.N.N.3.H H 3.3.H H @ @ @ H @ O l.l.O O O l.l.}.l.+X-X&X).).).6XqXqXqXqX:X2XN.O H @ @ @ 0 @ O 3.+X+X4X*X].G.3X#XA. X#X$X#XeX~.N.0 @ @ @ @ @ @ 9.l.l.O 2.:.N.:.1.3.@ l.l.l.H H @ 3.3.N.N.N.N.N.N.3.2.jXkX[.U.h.m p.y.y.p.x.x.p.y.h.U.dXN.0 @ @ @ @ @ 0 O @ @ @ @ @ @ @ 0 H 3.3.N.N.N.3.3.3.3.@ 0 3.0 @ @ @ @ O O O O 0 0 O 0 0 0 0 0 0 0 0 0 O O O O O O O O O O O O O O O O O O O O O O O @ @ @ @ @ @ O O @ @ @ @ @ 0 @ @ O O O O O O O O O O O O O O @ @ @ O @ @ @ H H H H 6.6.2.1.1.1.1.1.1.1.1.1.1.1.1.1.1.1.2.2.6.",
"X X X X X X X $ J $ $ j a j j X X X X X . . . . . i X X . X X X $ $ X X $ $ $ . X X X X X $ $ X $ $ X $ $ X $ $ $ $ $ $ X . i i i i X $ j >./ ]  .@.{.E + % o +   o % + + % +   o   o o o o o o % % + + + + % Y w.w.% + S |  .+.+. .| ^ S S + + + + E @.{ | {.E % Y % Y % E E + + + E Y + S + + + E |.n.B B i.V.[.U.U.U.U.U.[.W.d.E + p p S       o o o o +   +   o ^  .]  .@.W.V.U.[.V.>X&XT.T.&XQ.&X-X:X:X&Xb.j.^   p p o E + + S + o o     Y W.B B B i.[.U.U.U.U.[.n.W.|.E S {.d.d.d.j.j.j.k.b.v.v.J.J.J.v.v.Q.^.2X+XN.N.+X4X4X4X4X&X:X:X].:XXXl.O 3.H H @ @ @ @ @ H H H @ @ 0 3.3.3.3.+X&X).qX1X1XqXrXrX0X0XrXqX).2X3.l.@ @ @ @ H 9.N.2X].VX3X#X#X XA.B.Z.Z.S.OX~.+XO 3.0 @ @ @ @ @ @ H 3.H 0 O O l.l.O 0 3.3.3.H 9.3.+X4X-X-X:X:X:X-X+X=XsXB B i.V.[.U.h.h.h.h.U.[.sX=XN.3.0 @ @ @ @ @ O O O @ @ @ 3.@ @ 3.3.+X+X4X-X4X-X-X2X2X+XN.3.0 @ @ @ @ @ @ 0 @ @ O O @ O O O O O O O O O O O O O O O O O O O O O O O O O O O O O O O O O O O O O O O O O O O O O O O O O O O O O O O O O O O O O O O O @ 0 O H 6.6.2.1.:.:.:.&.&.j j j j &.j j j j j j j j j &.&.:.",
"X . X X X . X X . . &.&.&.&.&.a } >.>.>.>.>.>.>.>.>.>.>.>.>.} $ } } } } >.>.} } } } } $ } } J X $ X X X X X X X X $ $ X X X X X X $ $ a j &.z.:.1.&.] @.Y +   o o   + + S + + o o o o % % + @.{  .{ @.^ + o o o o + S S + + + S @.{  .+.+.+. . .{ { { / @X:.,X5XuX{ @.S + E Y %   o o E + S % %   @.| { { E W.n.n.n.B i.n.n.W.w.w.Y o o o p S     o o       o o o o @.] J J / CXi.h.y.m h.h.a.s.U.[.U.U.C.Y.V.|.+ o o E + E E + + + + + + + E S E |.|.|.|.|.|.W.W.|.d.^ ^ o d.d.j.k.b.v.J.J.J.J.J.v.Q.^.2X+XN.3.3.l.}.}.N.^.&X].wXwXwX*X].VXwX*X-X3.0 3.H @ @ @ @ @ @ H @ 0 @ H 3.N.+X-X-X).qXqXrXrXrXaXP.M...M.P.rXqX).+X}.@ @ @ 0 H 9.3.+X4XwX*XA.A.A.!.oX7Xa.J.2XN.O O O O @ @ @ @ @ O 0 0 @ 3.@ 3.3.3.3.3.3.N.N.N.N.2X-X].wXwXwXwXwXwX].-X2XjXvXW.n.n.b.kXkXn.n.sXjX1.}.l.0 H H @ @ @ @ O 0 O @ @ @ @ H O 3.2X).qXqXrXpXqX6XqXqX).-X2X3.O H H @ @ O O O O 0 O O O 0 @ @ @ @ @ @ @ O @ @ O O O O O O O O O O O O O O O O O O O O O O O O O O O O O O O O O O O O O O O O O O O O O O O 0 0 O @ @ H H 2.1.1.:.&.&.a j $ $ a $ a a a a a a a a . a a a a j j j ",
"$.} $ $ X X a . z.@X2.2.2.6.2.1.&.8X5XuX .{ { { { { { { {  .$.>.]  .{ { {  . . .{ { { { { +.} . $ . X $ $ X X X X X X X X X $ $ $ $ X X a j } j :.9.&.{ w.Y % % p o o + o o o   % o o % % S { / >.>.>./ +.{ ^ % + + o o o     + o %   @. .] >.J $ } $ a z.&.:.1.:.&.>./ ]  .@.% + + + + o + + + S ^ @. ./ >.$.] ] ] +. . .+. . . . . . .{ @.S % + % % S S o o   o   S ^  .]  .CX|.i.U.m m y.y.y.y.y.h.h.U.U.i.W.E o E E E E E E % o   + + % E E o + + {.+   {.{.{.d.j.k.b.v.J.J.J.Y.J.J.Q.^.<XXXN.N.3.O l.l.O @ 3.0 0 =X-X&X*XVXG.$X$XG.g.~ 3XeX-XO H 0 O @ @ @ O @ @ @ @ @ H O N.-X).1X1XrX0XP.L.iXeX~.~.#XA.P.P.0XrX6X~.2X3.O 3.3.H H 0 3.N.+X4X:X:X:X-X2XdXh.kX}.N.jXjX=X3.@ H H H @ @ O @ 0 O 3.+X+X+X4X4X:X).).).:X).].VXg.VXg.g.~ ~ VX].:X-X2X=X=X=X=X=X&.N.:.3.H O 0 @ O @ O O @ @ O O 0 O 0 0 0 @ 9.l.+X).1XaX9XM.9X0XaXpX<.1X1X).-X+XN.3.O @ 0 @ @ @ @ @ 0 @ @ 3.0 0 0 0 0 0 @ @ 0 O O O O O O O O O O O O O O O O O O O O O O O O O O O O O O O O O O O O O O O O O O O O O O O @ @ O @ 0 6.:.&.a a a $ a i i . . a a a a a X $ $ $ $ $ $ $ a j j j &.",
"] >.X a $ } >.$.$.a &.:.:.1.2.6.6.6.6.1.@Xz.j >.>.$./ / / $.} X >.]  .| ^ % Y Y % + + + % | / . X . X $ X X X X X . X $ . [ . . . X X X } $ . $ &.:.:.,X]  .@.^ S o o o o       % + o % % + ^ @.{ ] $.$ J } /  .@.% o o %   o o o o o + S ^ { +.] ] / $.>.j j a j j X X X } / +.{ @.+ E % + + + S ^ | +.$./ / >.J . . X J X i i i i J $./ ] ] +.{ ^ % + + o o + % + S E ^ w.W.B B i.i.[.[.[.[.[.U.[.i.n.k.|.w.w.Y % E E % E E Y % o o % % o + + ^ ^ {.d.j.k.b.v.J.J.Y.Y.J.>XQ.^.2XXX+XN.3.3.3.3.3.3.@ @ @ @ H @ 0 N.+X4X:X].wXG.$X X X#X3X$X X~.+Xl.H 0 0 @ @ O @ O O @ @ @ H l.XX).1XF.pX0XM.P.eX4XmXmXmXmXbX*XP.M.9X9XiXOX-Xl.0 3.H 3.3.3.3.3.3.XXsXdXdXdXkXh.U.dXZXm m U.jX@ @ H H @ @ @ O @ 0 2X-X].].*X#XA. XA.A.#X$X$X*X3X*XG.wXwXVXg.~ wX].).2X3.@ @ @ O O @ @ @ @ O O @ O @ @ @ O @ O 0 O @ 0 0 0 N.-X).qXrXP.P.iXaXeXeXiXiXiX0XqX*X).-X2X:.2.6.H 6.H H O @ 3.3.3.3.3.@ 0 3.@ O @ @ O O O O O O O O O O O O O O O O O O O O O O O O O O O O O O O O O O O O O O O O O O O O O O O @ @ @ O 0 H :.j $ $ $ $ $ j $ $ j j j j j j j } } j } j j j j j &.:.1.",
"} >./ ]  .{ | @.| ] a z.&.&.&.:.:.&.,X$.>.$./ 8Xj z.z.j j X X X $ $ >.$.] +. .| @.^ + % Y + | ] $.} X X X X X X $ X $ J } $.$.} J J i i $ J >.] { | {  . . .{ { @.+ o o +     o o o o + + + + % % ^ @. .] $.$./ +.^ o o + o o   o o o + S S S + S ^ @.| { +./ } i i J $ X X $ >.>./ ] +.+.+.+.+.] / >.} i ] | |  .] $.} i [ } >./ ]  .{ | { / J $.{ % % + o   o o + + % o % |.W.n.n.n.W.n.n.n.n.n.W.|.E {.E E E E E E E E E + + S ^ ^ {.{.d.j.k.b.v.J.Y.Y.J.J.J.>XQ.<X2X+XN.N.3.3.3.0 0 O O O H @ @ H 3.H @ H O 3.2X].VXG.$X#X#X XB.!.Z.!.eX~.-X3.H H 3.@ @ @ @ @ @ @ @ @ @ 3.}.2X&X1X<.pXP.P.P.eXbXzXzXzXzXmX~.L.M.....M.iX-X}.@ 3.@ @ H O N.jXk.V.U.h.m m y.y.a.y.y.h.kXvX=X@ H H 3.@ @ @ @ H l.+X-X].G.#X;.;.;.A.B.B.A.eXeXeX!.eXeXeX3XwXg.g.~ *X&X+XO O O @ @ @ @ @ @ 0 0 O @ O @ 0 0 0 0 @ @ @ 0 O +X&XaX9X9X9XP.*X4XbXbXbX4X~.L.P.aXpXF.qX-XXX@X&.:.1.1.2.6.H O O O O @ @ @ H H @ @ @ @ @ 0 @ @ @ @ @ @ @ O O O O O O O O O O O O O O O O O O O O O O O O O O O O O O O O O O O O O @ @ O @ 3.H 2.:.&.&.&.&.&.&.&.&.&.&.:.:.&.:.:.:.:.:.:.:.:.:.1.1.2.6.H ",
"+.{ @.^ S + % % % | ] / ] ] +. .{ | @.^ @.^ ^ |  ./ $ a . [ X $ X X X X a $ >.$./ / ] ] ] ] ] / >.$ $ $ X X X X X [ i } +.| | {  .+.+.] +.+.{ ^ E w.E E E ^ S ^   % Y Y Y Y % o o % o + + + + + % % % S ^ | | { | ^ o o +       o o o o     o % % % % E + S @. ./ $ i a . . . . . . $ } } $ J J . [ [ X J +.S % S ^ | { +. .{ | @.^ + + + ^ ] J ] @.% + + o o + o p % o + + + E w.w.w.Y Y Y w.w.w.Y o o % % Y Y E + p S ^ ^ {.d.j.k.b.b.v.J.J.J.J.J.>XQ.^.2XXX+XN.N.3.0 0 O l.O @ 0 0 H H H H @ @ @ H H H @ H 0 0 +X4XwX*X#XA.A.eXZ.7Xa.C.-X+X3.}.}.l.0 @ @ @ @ O O O @ O @ @ l.N.&X6X1XpX9XM.M.iX~.:X:X:X:X~.iXP.M.M.M.iX&XN.0 0 3.@ @ H O 2.jXsXi.V.U.U.h.h.m h.h.kXjXN.3.@ H H H H @ O @ @ O l.+X&X*XG.#X X;.B.B.B.eX~.:X:X:X:X*X~.eXB.eX3XwXg.wX*X-XXX2.2.2.H @ @ H @ O O O O O O O O O O 0 O 0 0 l.2XS.P...M.M.iX:XmXzXzXzXmX*XL.P.P.pXF.qX&XuX@X$ a &.&.&.:.:.1.1.2.2.6.6.6.6.H O O O 0 0 @ @ O O O O O O O O O O O O O O O O O O O O O O O O O O O O O O O O O O O O O O O O O O O @ @ @ @ 3.@ H 2.1.2.2.1.2.2.2.2.2.2.2.2.2.6.6.6.6.6.6.6.6.6.6.H H @ @ ",
"+ % % % % % % % % o ^ ^ @.| @.@.{.{.+ Y w.w.Y Y + |  .+.] >.i i i i [ } / +. .+.+.] ] ] $.>.} J . [ . X X X X X >./ / ] @.Y Y E + S ^ ^ ^ S % % E E o % % % % % o o @. . .@.S + + o + + + +   S S + + + + + % % + + o o % o o   o o o o o o     + o   + % % % + |  .+.] ] / $.>.>.J [ i a . X >./ ] +.+. .| + + + % % % S S % % % % % + + + | +.@.+ + + + + o % o o % o + + % E E + o   + S + E E E o o   ^ ^ ^ {.d.j.k.k.b.v.v.v.v.J.v.Q.Q.^.<X2XXX=XN.3.0 l.}.}.l.O O @ @ @ H H @ @ @ @ @ @ @ 0 0 @ H H 3.@ 3.0 3.N.+X4X:X*X*X:XQ.dXh.V.=X3.=X5XXXN.O H @ @ @ @ @ @ @ O H @ O 0 +X-X).qXaXP.P.P.L.P.P.P.L.L.P.9X0X0XaX).+X}.3.@ 0 @ @ @ @ O 2.=XjXjXsXsXsXsXsXsXjX=X}.}.O @ @ @ @ @ @ O @ 0 N.+X-X).].~ 3X#X XB.B.B.:XbXmXmXmXmXbXbX:XeXB.eX~.G.g.wX).<X,X&.:.2.H @ @ @ O O O O @ 0 @ @ 0 0 @ @ @ 3.O =XT.P.9XM.M.P.eX:X:X:X:X).A.M.M.0X1X1X).^.,X. $ J j $ j j j &.&.&.&.:.:.:.:.:.2.6.6.H @ 0 @ @ @ @ @ @ O O O O O O O O O O O O O O O O O O O O O O O O O O O O O O O O O O O O O O O @ @ 0 @ @ H H H H H H @ O O O H H H H O O O O O O O @ @ @ @ 0 0 @ 0 ",
"% o + + + o o o o o S |  .] / / / ] ] +.| S % E % o o S @. .] / $.>.} $. .S S S   S ^ @.| {  .+.] $.} X X X X } ] { | | S % + o % % % % % o o +                 o S { ] $.]  .@.% + % + o o     +               o % o   o % %   o o o   + +   + +           p % % + S ^ @.@.|  . .] $.J i $.+.{ @.^ S S S o o o     + o o o o +                 o o   o o o o o     E + o o % Y Y % % E + p p ^ ^ {.d.d.d.j.|.k.k.b.v.v.v.v.b.Q.^.<X2XXX=XN.3.0 l.}.}.l.l.O @ H @ H @ @ @ O O O O O O O 0 0 0 O O @ @ @ @ @ @ @ 0 O 2.=X=X2X^.Q.dXvXvXU.ZXsXdXU.U.U.jX0 O H @ @ H @ @ @ @ @ @ H 0 3.N.+X2X-X).OXiXP.......M.P.0XrXqXqX-X+Xl.O H H @ @ 0 @ @ O l.l.@ 3.:.=X:.:.1.6.O l.O H @ @ O 0 @ @ @ @ 0 l.2X-X].wX~ G.$X#X XB.B.B.:XmXzXD.D.D.zXzXmX:XB.!.B.$X~ g.).^.,X:.:.2.H @ @ @ O O O 0 @ @ 0 0 0 @ 3.H H @ 0 }.+X~.aX0X9XP.L.L.L.P.P.L.P.P.iX6X*X&X^.8Xz.$ a a a X X . X X a $ $ a a a a a &.&.:.1.2.@ @ @ @ @ @ @ @ O O O O O O O O O O O O O O O O O O O O O O O O O O O O O O O O O O O O O O O O O O O @ @ O O O O 0 0 0 0 0 O 0 0 0 0 0 0 0 0 0 0 0 0 0 O O O O ",
"o   o o o o o o o ^ +.$.J [ [ i J } >.$./  .@.S + o % Y w.% S @.|  . . .{ @.^ o % Y Y Y % + S ^ @.{ +./ } . $ ] { S Y Y + + + o o +           o   p p p p   o o o S @. .+.] +.@.Y % % + o o o o o     o           o o o o % % + o o +       o     + + +   p p p o o % Y Y Y Y w.% ^ { / } ] ^ w.% % % % + o o o o o o             o o o o   o o     o o o + + + + % % % % E + p o p S ^ {.E Y w.|.k.k.b.b.v.v.b.b.Q.Q.^.<XXX=XN.3.}.}.}.}.l.O O H H H @ @ @ @ 0 0 O O O O O O O O 0 0 O O O O O O @ @ O H H 6.H 6.5XCXsXk.b.ZXh.h././.m y.m y.y.h.V.jX3.O H H O O @ @ @ @ @ @ 0 @ 0 l.l.O l.}.+X).iXP.M.9X9XiXOX].).>XdXsXjX3.l.@ @ 0 @ @ @ @ @ H O O l.l.l.l.O O O @ @ O O O O 0 @ @ @ H @ O 2X).wXVXg.3X X;.;.A.B.B.eX:XbXmXmXmXmXmXmX~.B.B.A.#XG.~ *X-XN.6.H H @ @ @ @ O O O @ @ @ @ 0 0 @ @ H H 0 @ 3.=X-X).qXrX0XP.M.....M.P.eX).&X-X^.XX8Xz.X X J a X a a . . i i i i i J J J $ } $ j &.:.2.2.H @ H @ @ @ O O O O O O O O O O O O O O O O O O O O O O O O O O O O O O O O O O O O O O @ O @ O O O O O O O O O 0 O 0 O O O O O O O O O O O O O O O O O O O ",
"% o % o o o o o o ^ ] / / ] +.+. . . . .] / +.@.o o o   % + % w.w.w.Y % S ^ S o     + S @.{  . . . . .] >.[ }  .Y + + % + + % o o % + + o + o   o o o o o +   o o   o Y % S + % + % % + o o +     + +   +   o o o % % % % o o + p o + + o o     +       + +   o     + + + + S + + % Y @. . .^ + S + + % + o o p p p + o + o + + + + + + o o     o o o o o % % % % % + + E + S S E w.w.j.k.k.b.b.b.v.b.b.Q.^.<XXX+XN.3.}.}.}.l.l.O H 3.3.H 3.3.0 @ O @ 0 O O @ @ O @ @ @ @ @ @ @ O O O @ 0 0 0 0 0 0 @ O H 1.:.2.:.sXi.i.V.V.U.U.h.m m y.m y.h.kX5X:.2.1.1.2.2.6.6.H H H @ @ 0 0 @ H H 3.0 0 N.N.+X-XOXI.S.S.oXH.Q.ZXh.m y.kX3.l.H O O @ @ @ @ @ O O H H H H H H H H @ @ @ @ @ @ 0 @ @ @ H H 0 =X-X*XwXVXG.#X X X XB.B.B.eX~.:X4X:X:X:X~.eXB.A.#X3X~ g.].-XN.0 3.3.@ @ @ @ @ @ @ @ @ @ @ @ @ O O @ H 0 3.vXkXV.J.&X).OXiXiXP.P.iX~.4X3.l.1.@X@X. X i X $ $ J $ $ J X X J J i J $ j j a j &.&.&.:.:.2.H @ @ @ @ @ O O O O O O O O O O O O O @ O @ @ O O @ 0 0 0 0 0 0 @ @ 0 0 0 O 0 O O O O O O @ O 0 @ O @ @ @ @ @ @ O @ O @ @ @ @ @ @ @ @ @ @ @ @ @ @ @ 0 0 0 0 ",
"o + o o o o o % o o + ^ ^ + % Y w.Y Y Y + @.{ @.  o o o % o         o % % o % o o o o + ^ { +./ >.J i X X . $ ] S + S + + + + o o o           o           o   o o o o o % Y Y E + % Y % o o o     o   +   + o o o % % Y % o o o         +                     o o + S S + + o o o + o % Y Y % + + + + % + o o p   o p p p     p         p p p +     + o o S @.{  . .| | {.d.j.k.b.b.b.v.v.v.Q.^.<XXX+XN.3.}.}.}.l.l.0 3.H H H H H @ 3.@ 0 3.0 0 @ @ @ O O O O O O O O O O O O O O O O O O O O O O O @ @ H 2.2.H 6.=XjXCXsXn.n.n.n.B i.V.V.i.k.5X1.z.a j j &.&.&.:.1.2.6.H O 0 0 0 0 0 0 3.=XkXU.[.kXZXs.a.p.p.h.h.a._ p.h.vX}.@ H @ @ @ @ @ @ @ @ O O @ H @ @ @ @ @ @ @ O O O O @ @ @ 3.@ H 3.O +X-X:X:X].].3X3X3X$XA.;.A.B.!.B.B.B.!.!.A.;.A.$XwXwXwX].-XN.0 3.@ @ @ @ @ O O O O 0 @ 6.6.6.6.H @ 0 O 3.dXy.x.m ZXdXs.7XoXZ.E.&X2X=X=XH 6.2.:.&.j j j a $ $ $ } $ i X X X X a &.:.:.:.1.2.2.6.6.H @ H H @ @ @ @ O O O O O O O O O O O O O @ O @ O @ @ O O O O O O @ O O O O O O O O O O O O O O O O O O O O O O O O O O O O O O O O O O O O O O O O O O O O O O ",
"%   o o     o o o % % % + + + + S + % + % w.Y o + o o o o o o o o o     + o o S + +   S % w.Y % @.] } X $ >.$.+.^ + + + o + o o o +       o o   o o o o o     % o o % % % S ^ | | @.+ Y % o + o o   o   o + ^ {  .{ @.+ % Y Y + S + + +                       + o o + + + + +     % o + + S + + % + S + + o + p p p o + + o + + + + o o E + E E o o o o ^ +.} z.&.8XXX<Xj.b.v.v.b.^.^.<X=XN.3.O }.}.}.O 0 @ @ 3.3.3.H H @ O 0 0 0 @ H @ @ @ O @ @ @ @ O O O O O O O O O O O O O O O O O O O O O O O @ @ @ O O O O l.l.O 1.=X=X5XuXuXuXuX] / } . $ $ . X a $ $ } j ,X:.1.6.H @ 0 O @ 1.1.N.kXa.x.p.p.p._ _ ! ! _ p._ ` p.ZXXX}.H @ H @ @ @ @ @ @ @ @ @ O @ @ O @ @ @ O @ O O O O @ @ @ 0 0 @ 3.H l.N.+X=X2X).].VXG.#X;.;.;.A.A.A.A.A.B.B.A.#X$X*X:X).:X4X+X0 @ @ @ O O 0 O @ 0 0 H H 6.1.&.&.&.:.1.6.O }.vXh.p.! p.y.p._ p.p.s.h.h.s.ZX=XO @ H 6.1.:.:.:.&.&.&.&.&.&.&.:.:.:.1.2.6.9.9.H O O 0 O 0 @ @ @ @ @ @ @ O O O O O O O O O O O O O O O O @ @ O @ 0 0 @ 0 0 O @ @ @ @ @ O @ O O O O O O O O O O O O O O O O O O O O O O O O O O O O O O O O O O O O O O O ",
"+ o o   o o   o %   S   o   S S + + S S o +                             o o + % % Y Y Y % % % Y E ] [ >.+.| @.^ + + % o o % % o   o         o o o o o o o   o o o o o o | ] } J i >./  .^ o o o o o o o % % { / [ i $.] +.{ ^ + Y Y %   o o                                   + o         o         o       + o o o o E % o E E w.% o % % p p ^ {.{.d.j.k.j.<Xk.b.b.Q.Q.^.<XXX=X3.3.}.}.l.O @ H @ @ @ @ @ 0 O O O O O O O @ O O O O O O O O 0 0 O O O O O O O O O O O O O O O O O O O O O O O O O O O O O @ @ @ @ @ H @ O l.l.9.1.z.[ [ i i J J J X X X j j &.&.&.:.2.6.H @ 0 0 =XCXW.sXk.V.h.y.p._ _ _ ! ! ! ! ! _ p.y.dX3.l.@ 0 O O O O O O O O O O @ O O @ O O O @ O O O O O @ @ @ @ 3.0 0 O O l.l.}.=X&X*Xg.G.#X X X X#X$X3X3X$X$X$X$X*X).Q.<XXXN.3.0 @ @ O O O O @ O H 3.0 O 6.1.&.j j $.uXCX{.CXCXkXh.p.! ! _ ! ! ! ! p.p.x.x.h.jX0 0 @ O @ H H H H 6.6.6.6.6.H H H O O @ 0 0 0 0 @ @ @ @ O O O O O O O O O O O O O O O O O O O O O @ @ @ H @ @ @ 0 3.3.3.@ @ H 3.3.3.@ O 0 O O O O O O O O O O O O O O O O O O O O O O O O O O O O O O O O O O O O O O O ",
"+ o o o + + o o o o % Y + + + S ^ S S + o + + + o o o o o o o o o + + + + o + ^  .+.+.{ | @.@.^ @.+.} +.+ Y + % + S +   o o o o o o     + o o o o o % % o o % % o + % o | +.] ] ] ] ]  .@.o o     %   o   S ^ | +.$.$ [ [ $ $.]  .| ^ + o o         o     o + o o + + + + + +     o o o +     + + +   + + p p o % o p p % Y o Y o p S {.{.{.d.|.b.v.v.v.v.v.Q.^.<XXXN.N.3.3.0 O O 0 @ 3.0 0 @ H @ @ @ 0 0 @ @ @ @ @ @ @ @ O 0 0 0 @ @ 0 0 @ @ @ @ @ @ O O O O O O O O O O O O O O O O O O O O O O O @ @ @ @ @ @ O @ H H @ @ H 6.2.&.&.a a a a a &.&.&.&.:.1.2.2.6.6.O H H @ O O jXB V.i.i.i.V.U.h.h.y.p.p.p.p.p.` m h.dX=X0 H @ @ @ @ @ @ @ @ @ @ @ @ 0 @ @ O @ @ @ O @ O O O O @ @ @ @ @ 3.3.3.3.3.3.l.+X&X*XwX].].3X$X*X).).).].g.~ ~ VX).Q.XX1.1.H O @ @ @ 0 @ O @ @ 0 O @ 0 9.2.&.j a a +.n.B i.i.i.i.U.m m _ p.p._ _ p.p.m U.kXjX3.0 3.@ @ @ @ @ 3.@ O @ @ 0 0 @ @ @ @ @ @ @ O O O @ @ @ O @ @ @ @ @ @ @ @ O @ @ @ O O @ O O O O O O @ O @ 3.H @ @ @ @ @ @ H @ @ @ 0 0 @ @ @ O O O O O O O O O O O O O O O O O O O O O O O O O O O O O O O O O O O O O 0 O ",
"p o           p o S { @.+ % Y w.Y w.% o o +       o o o           o o   o o   @.+./ $.$.$.$.$./ +. .{ @.+ % % + % w.w.Y %     o o o       %   o % S @.^ ^ ^ S   o     + + + ^ S ^ ^ ^ S         o o + o + + % Y E @. .+./ $.$.$./ ]  .^ %             o o     +               + p + p         p p p o + + o o o % o o p   ^ {.{.d.w.W.b.v.v.v.v.b.^.<XXXXXN.N.3.3.0 0 0 0 0 3.0 3.3.3.3.@ 0 O @ @ @ O O O O O O O O O O O O O O O O O O O O O O O O O O O O O O O O O O O O O O O O O O O O O O O O O O O O O O O O O @ @ @ H H H 2.2.2.2.2.2.2.2.2.6.6.6.H H H @ @ H H H H H O =XCXn.i.i.B i.i.i.V.V.U.U.U.U.U.U.U.i.=Xl.H @ @ @ @ O O O O O O O @ O @ @ O @ O O O O O O O O O @ @ @ @ 3.0 0 jXZXU.[.kXkXdX-X-X-XT.E.T.-X+X+X4X:X].].].).&XXX1.2.6.H 0 @ O @ 0 O O O 0 @ @ 0 0 H 1.j j j j $.{.n.B i.i.i.i.V.U.h.h.h.h.h.U.V.vX=X:.2.@ @ H H 0 0 3.3.3.3.0 3.0 @ @ @ @ 0 0 @ @ 0 O O O O O O O O O O O O O O O O O O O @ O O @ @ @ 0 0 0 @ 0 0 @ @ O O H 6.6.6.2.2.6.H @ @ @ O @ O O O O O O O O O O O O O O O O O O O O O O O O O O O O O O O O O O O O O O O ",
"Y Y % o o o o o %   { ] +. .{ { { | ^ S % Y % p         o o o o o     o o o + S @.@.{ {  .+.+. .| ^ + S S + @.+.]  .{ ^ % w.Y o o o o   + o o o o @.{ | ^ + Y Y % % o + + % % % % Y % %   S S     o o % + + S |  . .| S @.| | | { { @.S o o           o   o +     o Y Y Y % o         o o o + + o o o o p p p S ^ ^ S E w.W.k.b.v.v.b.b.sX<XXXXX=XN.3.3.O l.O O O O @ @ @ @ 0 @ 3.@ @ H H @ @ O @ @ O O O O O O O O O O O O O O O O O O O O O O O O O O O O O O O O O O O O O O O O O O O O O O O O O O O O @ @ O O @ @ @ @ @ @ @ @ @ @ H H H H @ @ @ 0 @ H H @ @ @ H H H H @ @ H 1.=XjXW.B i.i.i.i.V.i.i.V.V.V.i.sXjX1.O H @ O @ O 0 @ 0 0 0 @ O O 0 O O @ O O O O O O O O O O @ @ @ H 3.0 O =XkXa.x.` m /.U.kXkXs.a.V.vXjXvXvXdXQ.-X-X2X+X3.H H H H H @ @ @ O O O O @ @ @ 3.@ 6.:.j $ a $ $ >.] { CX{.{.{.{.d.|.|.|.j.CXCXuX,X@X&.:.2.H H @ @ @ @ @ @ @ @ @ @ @ @ @ @ 0 O @ @ @ 0 0 0 0 O O O O O O O O O O O O @ @ @ O O O O O O O O O O @ O H 6.6.2.1.:.:.&.&.&.:.2.H H @ @ @ O O O O O O O O O O O O O O O O O O O O O O O O O O O O O O O O O O O O O 0 @ ",
"| @.^ + Y Y Y Y % + | ] >.} >.$.$.$./ +.{ @.S % Y % + S p     o o   + + + + + % Y % % % E + S + % o % + + % @. ./ $.$./ ] { @.o % o   + + + + +   ^ ^ ^ ^ @.| { | ^ o o   S + + + +   + % % % Y Y % % %   o + { +. .^ % Y % Y Y % % o +   +         o o + + o o w.+ {.@.^ + Y Y w.Y E o o o + + p   S ^ ^ S E |.W.b.b.b.b.b.k.^.<X<XXX=XN.3.0 O l.l.l.O O @ @ @ 3.@ @ H @ O O O @ O H @ @ @ 0 0 0 O O O O O O O O O O O O O O O O O O O O O O O O O O O O O O O O O O O O O O O O O O O O O O O O O O O O O @ @ O @ @ @ O @ 0 0 @ @ @ @ @ @ @ 0 @ @ @ 0 @ @ @ @ @ @ @ @ @ @ @ @ @ O l.2.=XjXCXsXW.W.n.n.W.sXsXCXjX=X2.H @ @ @ 0 @ 0 @ @ @ 0 @ @ @ @ @ H @ @ @ O O O O O O O O O @ @ @ @ l.l.H 0 =XkXh.p.p._ _ /./.p.p.h.U.h.h.h.h.h.h.h.V.vXN.O @ @ H H O @ 0 O O O O @ @ @ 0 @ H 2.&.j $ a a . . j } >.>.} >.>.} j ,X>.} j z.a j j &.6.@ H @ H 6.6.6.6.6.6.2.6.6.H O @ 0 0 @ H @ 0 @ @ @ 0 O O O O O O O O O @ O H H @ @ @ @ @ @ H 6.6.2.2.1.:.:.:.&.&.&.a j $ $ j j :.2.H @ @ O O O O O O O O O O O O O O O O O O O O O O O O O O O O O O O O O O O O O O 0 O ",
"$.] ] +. . . . . .+.] / X . [ [ [ . . J $.] +. .| ^ S % % o o +   + + + + % + o +       o o o o     + o o + + ^ { +.] / $.$.]  .^ o   + + + + S + % % o ^ { +./ ] {   o     o o o o o S ^ ^ ^ ^ ^ ^   o o o % ^ @.S o   o     o o o o +               o % % % {.{ ] 8X8X8X5XuX .| {.{.E + ^ ^ ^ S d.j.k.b.b.b.b.b.b.^.^.<X2X=XN.3.3.}.}.l.l.0 @ @ @ @ @ 0 0 O O O O O O O O O O O O O O O O O O O O O O O O O O O O O O O O O O O O O O O O O O O O O O O O O O O O O O O O O O O O O O O O O O O O O O O O O @ O O @ O O @ O O O O O O O O O O O O O O O O O O O O O O @ O O O @ @ @ l.l.O 3.=X=X=X=X=X=X=X=X2.@ l.O 0 0 0 @ @ @ @ @ @ 3.3.3.@ @ 3.3.3.@ @ @ 0 O O O O O O O O @ @ O H =XjXjXjXjXCXV.h.m ` p.p.p.p._ p.p.p.y.m h.U.U.ZXkXvXN.O @ @ 0 0 O @ O O O O O @ @ @ @ @ O O 1.&.j a a X . z.z.[ [ [ [ . i . z.z.z.&.&.&.:.:.1.6.6.6.2.2.1.:.:.:.:.:.:.:.:.1.6.H @ 0 @ H @ 3.@ @ @ @ O O O O O O O O @ @ O H H H @ @ H 6.1.:.:.:.&.&.j j j j j j j $ $ $ i i J j :.2.@ @ O O O O O O O O O O O O O O O O O O O O O O O O O O O O O O O O O O O O O O 0 O ",
"[ i J $ } $ } } $ $ [ . X $ $ $ $ $ X . i i J >./ ]  .| ^ S + + + Y % + + + + o + o +             o o o o + + Y Y % S @.{ +.] +.| o o + % S + +   o o o S @. .] +.|   o   o       o o ^ @.| { { | @.^   % o o Y Y % o o o             + +             o % % E  .&.2.H O O H 6.:.&.8X5XuXCXj.k.k.b.b.b.v.b.Q.^.^.<XXXN.3.3.}.}.l.O O @ 3.3.@ 3.@ 0 O @ 0 0 @ O O O O 0 O 0 0 0 0 0 0 O O 0 0 O O O O O O O O O O O O O O O O O O O O O O O O O O O O O O O O O O O O O O O O O O O O O O O O O O O O O O O O O O O O O O O 0 @ @ O O O O O O O @ O O O @ @ O O O 0 0 O O O @ O O @ @ @ H @ O O l.}.l.l.l.l.l.l.l.O @ @ @ H H 6.6.6.6.6.H H H H H H H @ 0 @ @ @ 0 O O O O O O O O @ @ l.1.CXi.i.i.i.B B V.U.U.U.;X;X/.h.h./.U.U.V.sX=X=X=X3.3.0 @ @ @ O O @ O O O O O @ H H @ H H H O 6.2.:.&.j a . a $ X X X X X $ j :.1.1.1.1.1.1.1.1.:.:.:.:.&.j j j j j j j $ j &.:.1.6.H @ H H @ @ @ @ 0 O O O O O O O O @ @ @ H H H @ @ 6.1.&.j j j j j } $ a a a a a $ $ X X J $ j &.2.@ @ @ O O O O O O O O O O O O O O O O O O O O O O O O O O O O O O O O O O O O O 0 @ ",
"J $ X X X X X X . X . X $ X X X X X $ X J $ $ . [ . } $.] +. .| @.S % % + + % o + + o +         + + + o o + + + + + % Y w.Y S ^ S o   + + + + + p o o % % % Y %   + o +     + + + + o S ^ @.@.@.^ ^ S   o o   o % o p %   o   p + + + o o + + + + + o o o Y {.8Xl.O @ 3.3.3.3.3.N.N.=XXX^.b.v.v.>XQ.^.<XXXN.3.0 }.l.O O @ H H H H H H H @ @ @ 0 @ @ @ O O O @ 0 0 0 O @ O O O O O O @ @ @ @ O O O @ O O O O O O O O O O O O O O O O O O O O O O O O O O O 0 0 O 0 0 O 0 O 0 0 0 0 @ O 0 0 0 @ @ 0 0 @ @ O @ @ O O @ @ @ O O 0 0 @ @ @ @ @ @ O O @ @ @ 0 @ @ @ @ @ @ @ @ @ O @ @ @ @ H H H @ H @ @ 3.3.3.@ 3.H @ @ @ H 6.2.1.:.:.:.:.:.1.1.1.1.1.1.2.2.6.H @ @ O O @ O O O O O O @ @ 0 2.5XsXn.B i.i.i.B B i.i.V.i.i.V.V.i.i.B sX=X}.}.}.O 0 0 0 @ H O O O O O O @ @ @ H @ @ H H H H @ H 2.1.:.&.a a a . . . . . . @X:.1.:.:.@Xz.z.j j j j j j j $ $ $ $ J i J i J j j &.:.2.H H H O @ @ 0 0 @ @ O @ @ O @ @ @ @ @ @ @ H @ H 1.&.j $ $ X $ X a X . . X X . a a a a j &.:.1.H @ @ @ O O O O O O @ @ @ @ O 0 0 O O O O O O O O @ 0 @ @ @ 0 O 0 O O O O 0 0 O @ O 0 ",
"X X X X $ $ X X X $ X X X X $ J X X X X X X $ $ $ $ X . . i J $.] +.{ @.^ S + o + + +         o o   o o o + + + % + + + + % + o p o o + + + + + o o o o o o     o   o +         + % o   + % % % % % o o o o o % % % o o o p o o o o o + + o     +   p o   E d.5X3.3.3.N.N.=XXX<X^.^.Q.Q.Q.Q.<XXXN.N.3.}.l.l.O @ 3.3.H H H H @ 0 0 0 0 @ @ 0 @ O O O O O O O O O O O O O O O O O O O O O O O O O O O O O O O O O O O O O O O O O O O O O O O O O O O @ 0 @ O O @ O O 0 O @ O O O O O @ O O O 0 0 O O O O @ O O @ O O O O O O O O O O O O O O O O O O O O O O O O O O O O O O O O O @ @ H H @ @ @ @ O O @ @ 0 O O 0 H 6.1.&.,Xj j j j j &.j &.&.j &.&.&.:.2.H @ @ O O @ O O O O O @ @ @ O O 2.=XjXsX|.|.sXsXsX|.sX|.sX|.sXCXvXCX5XH @ 3.3.3.@ @ 0 @ @ 0 @ 0 @ @ @ @ O O O @ @ H H H H H 6.6.6.1.:.z.. a a X X X a . . j j j j j j a a $ j a $ a a a j a j j a a a j a j j j &.2.6.H @ @ @ 0 @ O O @ O O @ O O @ O @ H @ @ @ 2.&.a X $ J J J i . i X X X X i $ j j z.:.2.6.H 0 @ H 0 O O O O O O O O O O @ O O @ @ @ 0 @ @ @ @ @ @ O O O O O O O O O @ @ @ 0 O O 0 ",
"X . . X X X X X X X J J i J $ $ $ $ } $ J X X X X X $ } } $ . . [ . >.$.] +.{ @.^ + % % + + + S S + + S + o o + +     + % o + % % E E o + S p + o     o o % E o E o p + +       E + p o E E + E + p o o % E E E + E E E E E E E E % + + p + S {.d.d.d.d.|.|.k.j.<XXX2X<X<X<X2XXXXX=X=XN.3.0 l.l.l.O @ @ @ @ @ @ 0 0 0 @ O O 0 0 @ @ 0 0 O @ O 0 0 O 0 O O O O O O O O O O O O O O O O O O O O O O O O O O O O O O O O O O O O O O O O O O O O O O O O @ O 0 0 @ 0 0 H @ O H @ @ @ @ @ @ 3.3.3.3.0 0 @ @ H @ @ @ O O O O O O O O O O O O O O O O O O O O O O O O O O O O O O O O O O @ O @ @ @ O @ @ @ @ H H 0 H H 1.z.j j j $ X $ X a a a a a a J $ j . :.1.2.H @ @ @ @ O O O O O 0 0 @ @ O l.l.H 1.N.1.:.:.2.1.N.1.1.2.H H O O 0 0 3.3.3.@ H H H H H H H H H H H 6.6.2.2.2.1.1.1.1.:.:.&.&.&.&.. X X X X X X X X X X a X a a . . a a a i X X X a a X a a a X a X . X X a a &.:.2.6.H 3.@ @ @ 0 H H H @ O O O @ @ @ @ O 6.:.j X J J X J $ j j J J J a a a j &.1.6.H @ O O @ 0 O @ O O O @ @ @ @ @ @ H O 0 0 @ @ O H H H H H H @ O 0 @ @ O @ O O O @ 0 @ H H 0 0 ",
"J $ } >.$.$.$.$.$.$.$./ / ] +. . . . . .] ] / $.>.$ J i X . [ X J $ X X X $ } $.] +.{ | ^ % % + + + S S S o o     o o   o o % % % o o % E E E E E + + + E E E % E E o + +       + o o + E E E E + p o o o o o o p p o   p   ^ ^ {.{.d.d.d.j.b.b.v.v.v.b.b.k.vXjX5X=XN.N.3.3.3.l.l.O 0 0 @ @ 3.0 @ @ 0 O O 0 O O O O O O 0 @ O O O O O O 0 O @ O O O O O O O O O O O O O O O O O O O O O O O O O O O O O O O O O O O O O O O O O O O O O O O O O O O @ O @ 0 0 0 0 3.H @ @ @ @ @ 3.H H O O O @ @ @ @ @ @ @ @ @ @ O O O O O O O O O O O O O O O O O O O O O O O O O O O O O O O O O @ O @ O O O @ O @ @ @ @ @ @ O 6.:.a a a X X J X i i i i X X a i a j j ,X:.2.H O @ @ O O O O O 0 O O 0 O @ @ @ O O O 0 0 0 0 0 @ @ 0 0 0 0 @ 3.0 0 @ @ @ H H H 6.6.6.2.2.1.1.1.:.:.&.&.&.&.j j j j j j j j j $ J X i i . . . . . . . i i i a X X i i . a . . i i i i i i i i i i a i i X J X j &.1.6.@ @ 3.3.0 @ @ @ @ @ H H @ @ 0 @ O 6.&.j X J a a J J $ $ $ a a j j j &.1.H @ @ @ @ @ O O 0 O O O O @ @ @ H H H H @ 0 0 H 6.2.1.1.1.1.1.2.6.@ 0 @ @ O @ O O O O @ @ @ @ @ H ",
"J ] { | | | | | | @.@.@.^ ^ S + + % + E + S ^ @.{ {  .+.] / $.>.} $ i i J i [ a [ X } >./ ]  .@.% Y % S S + o + +   + p % o o Y % % + S S {.{.S E + S p o E E o E + o E + p o o E + + E E E E E E + E + S p S S {.{.^ {.d.w.k.b.b.v.J.Y.H.H.J.>XQ.<XXXXXN.N.3.3.0 0 0 0 3.0 0 O H H @ @ 0 @ @ 0 0 O @ 0 0 O @ 0 0 0 @ @ O O 0 0 @ 0 0 @ @ @ O @ 0 0 @ 0 0 0 0 0 0 0 O @ @ @ @ @ @ @ O O O O O O O O O O O O O O O O O O O O O O @ @ @ @ O O O O @ @ @ @ @ @ @ @ @ @ @ H H H H H H H 6.6.2.2.6.6.H H H H @ O @ @ O O O O 0 O 0 0 0 0 0 @ 0 0 0 0 @ O @ O @ @ @ @ @ @ 0 0 @ 0 @ O O @ @ O O @ @ @ @ O @ @ O @ @ H 1.&.. . X X X $ a X a a a a X a j j &.:.1.6.H @ @ @ @ @ @ @ @ @ @ 0 0 O O O O @ @ @ @ @ @ @ @ @ @ O O @ @ @ @ H H H 6.2.2.1.1.:.:.:.&.&.&.&.j j j j j j $ $ a j j a a a a . . . X . X X X X X a . a a a X a . . . a a a i X X a a a a a a a a a a . i J X $ i a j &.:.6.H H H O H O H H H H H @ @ @ @ @ H :.j j j j j j j j j j &.&.&.&.:.1.6.@ 0 @ @ @ 0 @ 0 O 0 O O O @ @ @ @ @ @ @ @ H 6.1.:.&.j j j j j &.1.6.0 @ @ O @ O O O @ @ @ 0 0 @ O ",
"/ | % % E o o o % % % % % % % % + + + Y % + o E E + + S ^ @.@.{  . .+.+.+.] ] $.>.} i i i i J $. .@.S % % o o +   o p o o o o o E E + % |.k.k.k.j.d.w.E {.S % E E E + + o + p + % % o % E E     S {.S E w.|.k.k.b.b.v.v.v.J.Y.Y.J.v.>XQ.^.^.2X+XN.3.3.3.0 0 0 0 3.0 @ @ @ H H H H H @ @ @ @ @ O O O O O O O O O O O O O O O O O O O O O O O @ O O O O O O O O O O O 0 0 O O O O O O O O O O O O O O O O O O O O O O O O O O O O O O O O O 0 0 0 O O O 0 O O @ @ @ H 2.2.2.2.1.:.:.:.:.&.&.&.&.:.1.2.2.H O @ @ O O O O O O O O O O @ O O O O O O O @ O @ O O O O O O O O O O @ @ O O O @ @ O O O O 0 @ H @ @ @ 9.:.j X i i i i X i . . i X X J $ &.:.1.6.H H H @ @ @ O @ O O O O O 0 @ @ 0 0 @ 0 0 0 0 0 O 0 @ @ @ 6.2.2.2.1.1.:.:.:.:.&.&.&.&.j j j j j $ } $ $ $ J J J J J i . . a X X a a X X X X . . . . . . . . . . . . . . . . . . . . . . . . . . . . . . . . i i X X a . . $ j :.1.1.1.1.2.2.2.2.6.@ 0 @ @ @ 0 @ @ 2.:.&.j j &.&.:.:.:.1.2.2.2.6.6.H H H 0 0 @ @ @ O O O O O O O O @ @ @ H @ O @ 2.:.&.j $ j $ $ j j j &.1.@ 0 @ H 0 O O O 0 @ 0 0 0 H 3.",
"$.] | ^ + + S S S ^ ^ ^ ^ ^ ^ ^ % Y + + + + + + % % % % % o % o % + S S S ^ @.| | { +.+.+.] / $./ ] +.{ | ^     o   o p + E p p S j.k.Q.Q.&X-X>XJ.>X>XJ.v.j.E o % + + % % o p   ^ ^ ^ ^ S w.|.W.k.k.b.b.b.b.k.k.k.^.^.^.^.^.^.2XXX=X=XN.3.3.0 l.l.O 0 0 @ O H @ @ 3.@ 0 @ @ @ @ @ @ @ @ @ @ @ 0 O O 0 O O O O O O O O O O O O O O O O @ @ @ O @ 0 @ @ @ 0 0 0 0 0 0 O O @ @ @ @ @ @ O O O O O O O O O O O O O O O O O O O O O O @ @ @ 0 O O O O 6.6.6.6.6.2.1.1.1.:.:.&.&.&.&.j a j j j j j j &.:.2.6.H O @ @ O O O O O @ @ @ 0 O O 0 @ @ @ @ 0 @ O @ O @ @ @ @ @ @ 0 @ @ 0 0 O O @ @ O O @ @ @ @ @ @ @ @ 0 @ H 2.:.&.a j a $ $ J J $ $ j a a &.1.2.H O @ @ @ @ @ @ @ @ @ @ @ 0 0 0 @ O O O O O H 6.6.6.2.1.1.1.1.:.&.&.&.&.&.j j j j j j j $ a a J J $ J X X X X X X X a X . . X . X X a X a a . a . . . . . . . . . . . . . . . . . . . . . . . . . . . . . . . . . . X i a a X X X j &.&.&.&.&.z.z.z.:.:.2.6.H H 0 3.@ H 6.1.1.1.2.6.6.6.6.H @ O @ @ H H @ @ @ @ @ @ 0 O O O O O O O O @ @ @ @ H @ 2.&.a a a X X X $ $ $ j &.2.@ 0 @ O @ O O O 0 @ 0 0 @ O N.",
"$ J $.] +.+.] ] ] ] ] ] ] ] ] ]  .@.E Y % + S + o o + o o o o o % % % % % Y w.Y Y + S S + ^ @.| {  . . .{ @.S o o o E o E E + ^ j.>X&XqXqXrX1XqX6X).qX).T.>Xb.^ ^ ^ ^ ^ ^ ^ d.j.j.k.k.b.b.b.b.k.k.^.<X<XXXXXXX=XN.N.3.3.3.3.3.0 }.}.}.}.l.l.O H @ @ @ @ 0 O O O O @ @ O 0 0 O O O O 0 O O O O O O O O O O O O O O O O O O O O O @ O O @ @ @ @ @ @ 0 0 0 0 0 0 0 0 0 @ @ @ @ @ @ @ @ O O O O O O O O O O O O O O O O O O O O O O @ @ @ @ 6.2.1.1.:.:.:.:.&.&.j &.j j a j j $ $ X X J J J j } j :.2.@ @ O 0 O O @ O O O 0 @ @ 0 0 0 @ @ 0 0 @ 3.3.@ @ @ @ @ @ @ @ @ @ 0 0 0 0 @ @ @ @ @ @ @ @ H @ @ @ @ O 0 @ @ O @ 6.1.1.:.&.&.j z.z.&.&.:.1.1.2.H @ @ @ 0 0 @ @ 3.@ @ @ @ O O O H O H 6.6.2.2.1.:.:.:.:.&.z.z.a a a a a X X X X X a a i i i i i . i i i . . . i i . . a a . a a . a . . X . . . a . . . . . . . . . . . . . . . . . . . . . . . . . . . . . . . . . . i i a i . . a i a X X X X a a $ X a j &.1.6.H @ 3.@ @ H H H O O O O O O O O O 0 @ O @ O O O O O O O O O O O O O O @ @ @ 0 @ @ H :.j $ J $ $ j j j j &.&.1.6.@ @ @ O @ O O O @ @ @ 0 0 0 N.",
". . . $ } $ X . [ [ [ [ [ [ . $ $.]  .^ % % S + o o o o o o o   p + + S + + + p o Y % Y w.Y % Y Y % S ^ ^ S   o o + E % E o ^ E v.T.qXrX9X9X0XrXrXpXF.F.1X).J.k.j.j.j.k.b.b.v.v.v.v.b.k.^.<X<XXX=X=XN.3.0 }.}.}.l.l.l.l.l.l.l.O @ @ @ @ @ @ 0 0 O O O O O 0 0 O O O O O O O O O O O O O O O O O O O O O O O O O O O O O O O O O @ @ @ @ 3.3.3.@ @ @ 0 0 0 0 0 0 0 @ @ @ 0 0 @ @ @ 0 O O O O O O O O O O O O O O O O O O O O O O O @ @ H 1.&.j j j $ j $ } $ $ $ $ $ $ $ $ $ J J $ $ $ j j j :.2.O 0 O O 0 O O @ O O O 0 @ @ @ 3.0 0 @ @ 0 0 @ 0 O H H O H H H H H H H @ 0 @ @ @ H H @ @ 0 0 0 @ H 6.6.6.2.2.2.2.2.2.2.1.1.:.:.:.:.:.:.1.2.2.6.H 0 0 @ @ 0 0 0 0 @ H 6.6.6.6.2.2.1.1.1.:.&.&.&.&.j j j } } J J $ J i i i i i . . . . . i . . . a X a . a a X a a i a a i a i a X i a a X . . . . X . . . . . . . . . . . . . . . . . . . . . . . . . . . . . . . . . . i i a i . . a . . i i i i i i X X J J j &.:.6.H @ @ O @ @ 0 0 0 0 0 0 0 0 @ @ O O 0 0 O O O O 0 0 O O O O O O O O O @ @ 0 @ 3.H 1.&.j j &.&.:.:.:.1.1.2.H O @ @ @ O @ O O O 0 @ @ 0 @ @ 3.",
"X X X . . a X X X X X X X X X X [ [ >.] | + + + + o o o o o % % Y Y w.w.E S S + + S S + E E + S S + % % % o     p + E % o E j.b.T.qXrXP.M.M.M.P.iXaXrXrXrXqX6X&X>X>XJ.J.J.v.>XQ.^.<XXX=X3.3.0 }.}.}.}.l.0 O @ 3.3.3.@ @ @ @ @ @ 0 0 0 O O O O O 0 0 @ @ O O O 0 0 0 0 0 0 @ 0 0 0 @ @ @ @ @ O O O O O O O O O O O O O O O O O O @ @ @ @ 3.0 0 @ @ H H @ O O O @ H @ 0 0 0 0 0 @ O 0 O O O O O O O O O O O O O O O O O O O O O O H @ @ 6.:.j } $ $ $ J $ $ J J J i $ $ $ $ j j j j j &.&.:.1.2.H @ @ O @ O @ @ O O O O @ @ @ H @ O O H H 6.6.2.2.2.2.2.2.2.1.1.1.1.1.1.1.2.6.@ @ @ H H H H 6.6.2.1.1.:.:.:.&.&.&.&.&.&.z.z.z.z.&.z.z.&.&.z.:.:.1.6.O H H H H H 6.2.2.1.1.:.:.&.&.&.j j j $ $ $ $ j j $ $ a a X a . a a a a a a a a a a a a a a a a a a X X . X X X . . X . X . . X . . i . . . . . . . . . . . . . . . . . . . . . . . . . . . . . . . . . . . . . . . . . i a a X i . a a a a a a J a X J i a j j 1.H @ @ @ H @ @ O O O @ O @ @ @ @ @ @ @ @ @ @ @ @ @ @ @ @ @ O @ O O O O 0 @ @ @ 3.@ 6.:.:.:.1.2.6.H H H H O O 0 0 @ @ O @ O O O 0 @ @ @ 3.H l.",
"$ . X $ X . a X X X X X X X X X X i [ J +.^ + + + o o o o o p     ^ ^ ^ @.d.d.d.|.d.d.d.d.d.Y + S + % % + + o % % Y Y o d.k.>XS.aXrX0XL.iXeXeX~.OXS.iXL.P.0XpXqXqXOXT.^.XXXX+X3.}.}.}.}.l.9.@ @ 3.3.3.3.3.@ H H @ O @ O 0 O O @ O O O O O O O O O O O O O O O O O O O O O O O O O O O O O O O O O O O O O O O O O O O O O O O O @ O O @ H @ @ H 6.6.2.6.6.6.6.2.2.6.H H H H @ 0 @ 0 O O O O O O O O O O O O O O O O O O O O O O @ @ @ 6.:.&.&.j j j j j j j j j a j j j &.&.&.:.:.1.1.2.6.9.@ @ @ @ 0 O O O O O O O O O @ @ H 6.2.2.2.1.:.:.&.&.&.&.&.&.&.j j j j j &.&.&.1.6.@ H 6.2.1.1.:.:.&.j j j j j $ $ $ } $ $ $ $ $ $ } $ $ } } } $ $ &.1.6.2.2.1.:.:.:.&.&.j j j j j $ $ $ $ X a J i J j j X i i i X i . . . . . . . . . . . . . . . . . . . . . . . . . . . . . . . . . . . . . . . . . . . . . . . . . . . . . . . . . . . . . . . . . . . . . . . . . . . . . . . . . . . . . . . . . X X X i X X X j :.2.@ @ @ @ @ @ O O O O O O O O O O O O O O O O O O O O O O O O O O O @ @ @ H @ 3.@ H 6.H H H @ @ @ H H H @ @ 0 0 @ @ O @ O O O @ @ @ H 3.@ H ",
"J X i >.$./ / / / / / / / / / / / / / +.@.S + S p o E p % o |  .uX] ] 5XuXb.k.Q.>X>X>XQ.k.j.p % + + Y Y % + % E {.^ | { ^.T.iXP.9XM.M.iX:XbXmXmXmXbX:XiXP.P.0X<.F.1X-XN.}.l.l.O @ H H 3.3.3.0 0 0 @ 0 @ 0 0 0 H H @ O O @ O O @ O O O O O O O O O O O O O O O O O O O O O O O O O O O O O O O O O O O O O O O O O O O O O O O O O @ @ 6.2.1.1.:.:.&.&.&.&.:.&.&.&.:.:.:.1.2.H @ @ @ O O O O O O O O O O O O O O O O O O O O O O O @ O H 6.2.2.1.:.:.:.:.:.:.:.:.:.:.:.:.1.1.2.6.6.H O O O @ 0 @ O O @ O O O O O O O O O @ @ 6.:.&.&.&.&.j j $ $ $ J $ J J J J J J $ $ j j z.1.1.:.:.&.j j j } $ j $ a a J J J J J X . . a a a X X X X X $ j $ j &.:.&.&.&.a j $ $ $ $ $ a a . a a J J . . X i X j a . X X X X X . . . . . . . . . . . . . . . . . . . . . . . . . . . . . . . . . . . . . . . . . . . . . . . . . . . . . . . . . . . . . . . . . . . . . . . . . . . . . . . . . . . . . . . . . X X X X X . i a &.1.H @ @ 0 @ @ 0 0 0 0 0 @ @ @ @ @ @ @ @ @ @ @ @ @ @ @ @ @ @ @ O O O @ @ O @ @ @ @ H @ 0 @ @ 0 @ H H H @ @ H O @ @ @ O @ O O O @ @ @ 3.3.@ 9.",
"i $.]  .@.^ ^ ^ ^ ^ ^ ^ ^ ^ ^ ^ ^ ^ ^ + % + + S o % E p d.j.^.-X2X-X-X2XQ.H.T.).*XqXqXqXT.v.d.+ |.w.w.E @.{ uX5X8X,X=XN.2XS.P.....M.P.!.bXtXtXtXtXzX4XeXP.P.0XpXF.qX&X=Xl.3.H H @ @ O 0 0 O O O O O O @ @ O @ @ @ @ @ O @ @ O O O O O O O O O O O O O O O O O O O O O O O O O O O O O O O O O O O O O O O O O O O O O O O O O O @ @ H 2.z.j j $ } $ $ $ $ $ $ $ X $ } j ,X:.6.O @ H O O O O O O O O O O O O O O O O O O O O O O O O O O O O O O O H H H H H H H H @ O O O O O O O O @ @ @ @ O O 0 0 O O O O O O O O O O @ O H :.&.j $ X i X X X i i i i X X X . . . . i J X X X J J X X X X i . . . . . . . a X i X X X X X . . . . . . . . . . X X X X X i i . . . . . . . X X . . . a X X a . X i a X X i . i . . . . . . . . . . . . . . . . . . . . . . . . . . . . . . . . . . . . . . . . . . . . . . . . . . . . . . . . . . . . . . . . . . . . . . . . . . . . . . . . . . . . . . . . . X . a X . a X X j :.6.H O O @ @ @ @ @ @ 0 0 0 0 @ @ 0 0 0 0 0 3.3.@ @ @ 3.@ O @ O O O O 0 0 O O O O 0 @ @ @ O O O O O O O O O 0 0 @ @ O @ O O O @ @ @ 0 0 @ 0 ",
">.{ % % % + + % % + + + + + + + + % + + + + + + p o E d.k.H.).1X1X1X1X1X*XT.OX1XF.F.<.F.qXT.b.{  .uX8X,XN.+XXX2X^.Q.Q.>XQ.T.iXM...M.P.L.eX:X4X4X4X:XeXP.M.P.rXF.1XOX-X3.O 3.@ @ 0 @ O O @ @ @ @ @ 0 0 O O @ O O O O O O O O O @ O O O O O O O O O O O O O O O O O O O O O O O O O O O O O O O O 0 O @ 0 0 0 0 0 0 0 O O O O 0 @ @ @ @ 2.:.&.&.&.j j j j j j a j j &.:.:.1.6.H 0 @ O O O O O O O O O O O O O O O O O O O 0 O @ 0 @ 0 @ @ @ @ @ @ @ @ @ @ O O O O O O @ @ @ @ @ @ @ @ O O O O 0 0 O O @ O @ @ @ 0 @ 0 0 0 O 0 H 6.@Xj X a . i X X X . . . X X i . X X a X a X $ X X . . . X . . a X X X X X a . . a i i i i i a X X X X X X X a a . . . . . . a a X X X X X a . . a a a . . i i a . X . . . . X . . . . . . . . . . . . . . . . . . . . . . . . . . . . . . . . . . . . . . . . . . . . . . . . . . . . . . . . . . . . . . . . . . . . . . . . . . . . . . . . . . . X . . . X X . . X . i X X $ J j :.2.2.6.6.6.6.6.6.9.9.9.9.O 0 @ @ @ @ 0 @ 3.3.3.@ 0 0 0 0 @ 0 @ O O @ @ O @ @ @ @ O O 0 0 0 0 @ @ @ @ @ O @ O O O O O O O O O 0 @ @ @ 3.@ O ",
">.+.^ w.w.+ + + + + + + + + + + S + + + + + + E   {.j.i.J.OX1XF.<.<.F.F.F.1XqXF.<.<.<.<.rXS.&X<X<X^.Q.>XJ.J.J.>XQ.^.2XXXN.+X~.aX0X9XM.M.L.L.L.L.L.L.P.M.M.P.6XqX~.-XN.0 @ 0 @ @ @ @ @ 0 0 0 0 0 0 O 0 O 0 0 @ @ @ @ O O @ O O O O O O O O O O O O O O O O O O O O O O O O O O O O O O O O O O @ 0 O @ 0 0 0 @ O O O @ @ @ @ @ O O @ @ H 6.6.2.1.:.:.:.:.:.:.:.1.1.2.6.6.H H H @ O 0 O O O O O O O O O O O O O O O O O O O @ O O O @ O @ @ @ @ @ @ @ @ O O H @ @ H @ O @ @ @ @ O O O O O @ @ 0 0 O O O @ O O O @ @ 0 0 0 @ 0 H 2.&.j X a a a J X a j j a a X X a i a a . . . . X . . X X X X X a . a a . i i X X i a a . . a a . a . a a a a a a a . a a a a a a a a a a . i i X i i i . . X i X X X . . X . . . . . . . . . . . . . . . . . . . . . . . . . . . . . . . . . . . . . . . . . . . . . . . . . . . . . . . . . . . . . . . . . . . . . . . . . . . . . . . . . . . X . X X X X X X X X . . . X X X X $ j &.&.&.&.&.&.&.:.:.1.1.1.2.6.6.6.9.H H H O O O O @ @ @ @ @ @ @ @ @ @ @ @ O O O O O @ @ @ O O 0 @ @ @ @ @ @ @ @ @ @ @ @ @ @ @ @ H @ @ H @ O ",
"$ >./  .@.S + + S + + + + + + S S + S + E E % + w.k.b.v.E.6XF.<.<.<.<.<.<.<.<.<.<.<.<.pX0XL.H.>X>X>XQ.^.^.2XXX=XN.N.3.3.}.}.+X).6XrXrX9XP.P.M...M.P.P.iXOX~.-X-X+XN.3.3.0 0 @ O H O O O O O O O O O O O O O O O O O O O O O O O O O O O O O O O O O O O O O O O O O O O O O O O O O O O O O @ @ O @ O O O O O @ @ @ O O O O O @ @ O @ @ 0 O H 6.6.6.6.6.6.6.H H H H @ 0 @ H @ 0 @ @ O O O O O O O O O O O O O O O O O O 0 O @ @ @ O @ O O O O O O 0 @ @ @ @ @ @ @ @ @ @ O O O O O O O O O O O O O O @ @ @ @ @ O O O O @ @ @ H 1.j j $ X X $ J X j j &.j j X X a . . . X X X X X X X X X . X . . . . . . . . . . . . . . . . . . . . . . . . . . . . . . . . . . . . . . . . . . . . . . . . . . . . . . . . . . . . . . . . . . . . . . . . . . . . . . . . . . . . . . . . . . . . . . . . . . . . . . . . . . . . . . . . . . . . . . . . . . . . . . . . . . . . . . . . . . . X . . . . . . . i X X X X X X X J X j X X j $ $ $ j j j j j &.&.&.:.:.:.1.1.2.2.6.H H H H @ 0 @ O O O O 0 0 @ @ @ 0 @ @ O O @ @ O O @ O O O O O O O O O O O O 0 @ @ 0 @ @ 0 2.",
"[ [ i >./ +.| S + + E + E E % p p p S ^ ^ ^   {.k.v.J.T.).1X<.<.F.pX0X0X0XpXF.F.F.F.pX0XP.!.-XXXXX=XN.N.3.3.0 l.l.l.O O =XjXvXQ.&X*XqXaXiX9X....M.iX~.4X+X+XN.N.@ O 0 0 0 O O @ @ @ O O O O O O O O O O O O O O O O O O O O O O O O O O O O O O O O O O O O O O O O O O O O O O O O O O O O 0 O 0 O @ @ 0 0 0 0 0 0 @ @ @ @ 0 0 0 0 @ @ 0 0 @ @ @ @ @ O O 0 @ 0 @ @ @ @ @ @ 0 0 @ O O O O O O O O O O O O O O O O O O O @ @ @ 0 0 0 0 0 0 0 0 0 @ O 0 0 O O O O O O O O O O O O O O O O O O O O O @ @ O @ H @ 0 @ 0 0 @ @ 3.H 2.:.j j j z.z.@X@X@X@Xz.j j X a a . . . X . X X X X . X X X . . . . . . . . . . . . . . . . . . . . . . . . . . . . . . . . . . . . . . . . . . . . . . . . . . . . . . . . . . . . . . . . . . . . . . . . . . . . . . . . . . . . . . . . . . . . . . . . . . . . . . . . . . . . . . . . . . . . . . . . . . . . . . . . . . . . . . . . . . . X . X X X X X X a X X X X X J X X i X X i i a X J X a a j $ $ j j j a a j &.&.&.&.:.:.:.:.:.1.2.2.2.6.6.H H O @ @ O O 0 @ @ @ 0 0 0 @ H H 6.6.6.6.6.6.H H H H 9.9.6.6.6.2.2.:.jX",
"] ] ] +.+. .| S p S   ^ ^ ^ {.{.{.d.j.j.W.k.b.b.v.H.H.~.1XF.<.F.pX0X......0XpXpX<.pX0XM.P.T.N.}.l.}.l.l.l.l.O @ H H @ O jXU.h.U.ZXQ.&XZ.S.aXiXiXOX).+X}.}.l.l.l.O @ @ @ @ O 0 O O O O O O O O O O O O O O O O O O O O O O O O O O O O O O O O O O O O O O O O O O O O O O O O O O O O O O O O @ @ @ @ 0 0 0 0 0 0 0 @ @ @ @ @ 3.0 0 3.3.@ 3.3.3.@ @ @ O O @ @ O O O O O O O O O O O O O O O O O O O O O O O O O O O O O @ @ 0 0 0 3.3.0 0 3.0 0 0 @ 0 O O @ @ @ @ O O O O O O O O O O O O O O O O O O O @ @ @ @ @ @ 0 0 0 0 @ 6.1.:.z.@X@X:.:.@X@Xz.a j j X a a . . . . . . . . . . X . . X . . . . . . . . . . . . . . . . . . . . . . . . . . . . . . . . . . . . . . . . . . . . . . . . . . . . . . . . . . . . . . . . . . . . . . . . . . . . . . . . . . . . . . . . . . . . . . . . . . . . . . . . . . . . . . . . . . . . . . . . . . . . . . . . . . . . . . . . . . X X X X $ J X X $ $ $ a X X X X X a X . a a X . . . . . i i . . . . i i X X X J X j j j j j &.&.&.&.:.:.1.1.1.2.6.6.6.H H H @ 0 0 H 6.2.1.:.:.:.:.:.:.1.1.1.1.1.1.:.:.:.&.&.j {.",
"@.^ ^ ^ ^ ^ ^ {.{.E w.|.|.W.b.b.v.v.v.v.v.J.T.&X).6X6X1X<.<.<.<.0X9X........9X0X0X9X..M.aX2X}.H H H H @ @ @ @ @ @ @ 3.0 2Xh.x.p.y.ZXZXx.a.7X7XE.>XdXsXvX=X3.3.3.3.0 @ @ @ @ @ O O O O O O O O O O O O O O O O O O O O O O O O O O O O O O O O O O O O O O O O O O O O O O O O O O O O O O O @ @ @ @ H @ @ @ @ O O @ 0 @ @ @ @ @ 0 0 @ @ @ @ @ H @ O @ H @ @ @ O O O O O O O @ 0 0 0 O O O O O O 0 O O O O O O O O O O 0 @ @ 0 0 @ 0 0 @ @ @ @ 0 @ @ @ O @ @ @ @ @ @ O @ O O O O O O O O O O O O O O @ @ O O H H @ O O H H 6.2.1.:.@X@Xz.z.&.&.j j $ $ j a X a a . . . . . . . . . . X . . X . . . . . . . . . . . . . . . . . . . . . . . . . . . . . . . . . . . . . . . . . . . . . . . . . . . . . . . . . . . . . . . . . . . . . . . . . . . . . . . . . . . . . . . . . . . . . . . . . . . . . . . . . . . . . . . . . . . . . . . . . . . . . . . . . . . . . . . . . . X X X J J i i . X X X X X X $ $ J a X . a a X X a a . . i i X X . . . . . i X i X X j j j j j j j j j j j j &.&.:.:.:.:.1.2.6.9.H 2.:.&.j j j j j j j j j j j j a a j j j j } ] ",
"E w.w.w.|.|.k.k.b.b.b.b.b.b.v.J.v.>XQ.^.<XT.6X1XF.F.<.pXrX0X0X0X9X....M.M.P.P.P.P.M.M.iX).3.O H H 0 @ 0 0 0 @ @ @ @ 0 0 +XU.p.p.a.7Xs.a.y.p.a.s.s.a.a.h.dXN.0 @ 0 3.@ @ 0 @ @ O @ 0 O O O O O O O O O O O O O O O O O O O O O O O O O O O O O O O O O O O O O O O O O O O O O O O O O O O 0 @ @ @ @ H H 6.2.2.2.2.2.6.6.6.6.6.6.6.2.2.2.2.2.2.2.2.H @ H @ @ @ 0 0 @ 0 @ @ 0 0 @ @ @ @ @ @ O O @ @ @ O O O O O O O @ 0 0 0 0 @ O H O O H H H H H @ @ @ @ @ @ @ O O @ O @ O O O O O O O O O 0 @ 0 0 @ @ @ @ @ H H @ 6.2.2.1.:.&.&.j a a $ j j j j $ $ $ $ $ X a a . . . X . X X X . . . X . . . . . . . . . . . . . . . . . . . . . . . . . . . . . . . . . . . . . . . . . . . . . . . . . . . . . . . . . . . . . . . . . . . . . . . . . . . . . . . . . . . . . . . . . . . . . . . . . . . . . . . . . . . . . . . . . . . . . . . . . . . . . . . . . . X X X . X X X X i X X . X J i i J J $ J J X X X $ $ $ X X X i i . . i . a a a a a a a a a a a a a X a a j j j j $ $ $ $ $ $ $ $ } $ j j j j &.:.1.2.2.:.a j $ $ J $ J J $ $ j $ j J J J $ $ $ $ $ . ",
"k.b.b.b.b.v.v.v.v.b.Q.^.2XXX2XXXXXN.3.0 }.-X].F.<.<.pX0XM...........P.L.LXLX7XLXI.iXaX).N.l.H @ O 0 O O O @ @ @ @ @ H @ =XZXa.s.H.T.T.T.T.oX7Xs.s.s.s.7XH.+X3.0 @ @ @ @ O O 0 0 O O O O O O O O O O O O O O O O O O O O O O O O O O O O O O O O O O O O O O O O O O O O O O O O O O O O O @ @ @ 0 @ O H :.&.&.&.&.&.:.:.:.:.:.:.:.&.&.&.&.&.&.&.:.6.@ @ 0 0 O 0 O O O O O O O 0 O O O O O O @ @ O @ 0 0 0 @ O O O O O O H H 6.6.6.2.2.2.2.1.1.2.H @ @ @ O O O O O O @ O O O O O O O O O O O O O O @ @ 0 @ @ @ H 6.1.:.&.&.j j $ $ a X $ j a a a j $ $ j $ X a a . . . . . . . . . . . . . . . . . . . . . . . . . . . . . . . . . . . . . . . . . . . . . . . . . . . . . . . . . . . . . . . . . . . . . . . . . . . . . . . . . . . . . . . . . . . . . . . . . . . . . . . . . . . . . . . . . . . . . . . . . . . . . . . . . . . . . . . . . . . . . . . . . X X . . X i . J $ >.$./ / ] ] ] ] / / / $.$ . X $ . X . . . . . . . . . . . . . . . . . . j . a $ $ $ $ a a X X . a $ a a J J i a j $ j j &.&.&.a J . $ $ i X i . a a j a j a i X X X $ $ $ . ",
"J.J.>X>XQ.^.2XXX=XN.3.O }.}.}.}.}.O @ H O +X-X1XF.<.rXM...........L.LX7Xa.p.p.s.J.-X+X3.0 3.@ 3.0 0 @ @ @ @ H H 6.:.=X5X5XkXoXS.].~ G.~ ].S.E.T.).).).).~.-X+X3.3.@ @ H H @ @ O @ 0 O O O O O O O O O O O O O O O O O O O O O O O O O O O O O O O O O O O O O O O O O O O O O O O O O O O @ @ 0 @ @ H 6.&.j j j j $ j $ $ j $ $ a a j $ $ $ $ j :.6.@ @ 0 O @ O O O O @ @ @ @ @ @ @ @ @ @ O O @ H H H H H 6.6.6.6.2.1.1.:.:.:.&.&.&.&.&.j j j &.:.1.6.H H H H @ @ H O @ O O O O O O O O O 0 @ 0 0 0 @ @ H 6.2.1.:.&.j j j a a $ a . X a a a a a X X a a a X a . . . . . . . . . . . . . . . . . . . . . . . . . . . . . . . . . . . . . . . . . . . . . . . . . . . . . . . . . . . . . . . . . . . . . . . . . . . . . . . . . . . . . . . . . . . . . . . . . . . . . . . . . . . . . . . . . . . . . . . . . . . . . . . . . . . . . . . . . . . . . . . X X X X a X X X i } $.]  .| ^ S % % + S ^ ^ @.{ ] $ i J X X . . . . . . . . . . . . . . . . . . a i a a a a a X . . X X X a a a a a i X X X . a $ $ a a i a X . . X . . X X $ X $ X X X . . X . X X ",
"XX=XN.3.3.}.}.l.O O O H H H @ @ @ @ @ O O 3.2X-X].1XrX0XM.M.M.M.P.I.7Xm h.y.y.V.=X3.0 H H @ 0 @ 3.3.0 @ @ @ O 6.5XW.B B B i.E.OX3XG.G.G.G.qX*XwX~ ~ G.~ G.).&X^.=X3.0 @ 0 0 3.@ @ @ O O O O O O O O O O O O O O O O O O O O O O O O O O O O O O O O O O O O O O O O O O O O O O O O O O O @ @ @ @ @ H 6.1.&.j j j a J J J J i J J J J $ j j j j 1.H @ @ 0 @ @ O O O O @ @ @ @ H @ @ 3.@ H H H H 6.6.2.1.1.:.:.&.:.&.j j j j j j j j j X i X J J j j :.1.2.6.H @ O H @ @ O O O O O O O O O @ H @ @ @ H 6.2.:.&.j a . X X i . . . . X . . . . . . i i i i i . i i . . . . . . . . . . . . . . . . . . . . . . . . . . . . . . . . . . . . . . . . . . . . . . . . . . . . . . . . . . . . . . . . . . . . . . . . . . . . . . . . . . . . . . . . . . . . . . . . . . . . . . . . . . . . . . . . . . . . . . . . . . . . . . . . . . . . . . . . . . . . . . X X X $ $ X $ } /  .@.+ % % % % o   o   o % % % @. .$.i X J . . . . . . . . . . . . . . . . . . . i . . . . i . X X i i i i i i i X X . . . X . . . i i a . . a X i X X i i . i . i i i X X i X i i ",
"l.O @ @ H H H H @ H @ @ @ @ 0 @ @ @ @ 0 3.H 3.N.+X+X4X:XOX!.iXiXOX&X^.jX2XZXp.U.N.3.0 l.0 3.3.3.3.0 3.@ @ H O 2.CXi.i.B B i.H.eX#X3XG.G.G.G.G.3X3X3XG.G.G.*XT.-X<X2XN.0 @ @ O @ @ @ O O O O O O O O O O O O O O O O O O 0 O @ 0 O O @ @ 0 @ O O O O O O O O O O O O O O O O O O O O 0 0 O O @ @ @ H 6.2.6.2.1.:.&.j j $ j j j j j j j &.&.:.1.1.6.@ H @ 0 @ @ O O 0 0 @ @ 0 0 0 0 3.@ H 9.6.2.1.:.:.&.&.j j j $ $ $ $ $ j j j j j j a X X j X J J $ j j &.2.H H @ O @ O 0 @ @ @ @ O O O @ H @ H H 6.2.1.&.j j a a a X X a a a X a . X a a a a a a X a a a i . a . . . . . . . . . . . . . . . . . . . X . . . . i X X X X X X . . . . X a a a a a i a . . . . . . . . . . . . . . . . . . . . . . . . . . . . . . . . . . . . . . . . . . . . . . . . . . . . . . . . . . . . . . . . . . . X . . X . X X X i i i i i i X i i i X X X X . X . . . . . X . X X X X X . X /  .^ + % % + o o + o   + + + % Y % + | ] $ X X a a X X . . . X X X X X . . X . . . a . a a a a a a . . X X X a a a a a i X X X . a X a a a X a X X . X . . a a X a X X X X X X X . X X ",
"0 3.3.3.3.3.3.0 0 0 @ O @ 0 0 O O 0 O 0 3.H H O 0 3.3.N.N.+X4X2X+XN.3.}.3.Q.a.h.jX0 N.vXkXV.ZXV.vX3.3.3.H @ O H 5Xn.i.i.i.i.Y.S. X$X3XG.G.G.$X#X X#X3XG.G.G.*X&X&X^.N.}.O 9.H 0 @ @ O O O O O O O O O O O O O O O O O O O O O O @ @ O O O O @ @ 0 0 0 0 0 0 0 0 0 0 @ @ @ @ @ @ @ @ O O 0 @ @ @ H 6.3.2.H H H 6.2.1.:.:.:.:.:.:.:.:.1.2.6.6.6.6.H @ H H O 0 @ 0 @ O O 0 @ @ @ 0 0 @ H 2.1.:.&.j j $ $ J $ a X J J J $ j $ $ $ a j j a . X X . a $ J a $ j :.H @ 3.@ O @ O O O O O @ @ @ O @ @ O 9.1.:.&.j j X X i J X X X . . . . . . . . . . . . . . . . . . . . . . . . . . . . . . . . . . . . i i . i i X a . . . . . . . X X X a . i i i i . . . . . . . . . . . . . . . . . . . . . . . . . . . . . . . . . . . . . . . . . . . . . . . . . . . . . . . . . . . . . . . . . . . . . X . X X . X . . i X X X X X X X X X X . . . . . . . . . . . . . . X X X i $ ] | + + o + +       o % % Y Y ^ | { +.] $.>.X X X i i . . . . X . . . . . . . . . . X . . . . . . . . . . . . . . . . . . . . . . . . . . . . . . . . . . . . . . . X . X . . . . . . X . ",
"3.@ @ H 3.@ 0 0 @ @ @ 0 0 O O H 6.6.6.H 0 0 @ 0 @ H H O 3.XXvXvXsXdXkXkXkXZXs.a.dXvXV.h.m y.p.p.a.sX3.0 H @ @ O 2.=XCXsX|.|.sXT.B. X#X$X$X$X#X;.;. X#X3XG.G.G.*X).:X4X+XN.3.@ @ 0 @ O O O O O O O O O O O O O O O O O O @ 0 @ 0 O O @ @ 0 0 O O O O O O O O O O O O O O O O O O O O 0 @ O @ @ O H H H H H @ @ @ @ H 6.6.6.6.6.6.6.6.6.H H H @ 3.3.3.3.3.@ H H @ 0 0 0 O @ @ O O H 2.1.&.&.j $ $ X X i J i a . a X a j j j $ $ a $ $ $ X X a J $ $ $ j j &.2.@ @ @ 3.@ @ @ @ @ @ @ O O O @ @ @ 6.1.&.j j $ a X X X . X X . . . . . . . . . . . . . . . . . . . . . . . . . . . . . . . . . . . . . . i i . . . . a X X X X X X . i . X X X a a a a i a . . . . . . . . . . . . . . . . . . . . . . . . . . . . . . . . . . . . . . . . . . . . . . . . . . . . . . . . . . . . . . . . . . i X . . X . X X X i . . . . i i i X X X $ X X X X X X X X X X X X $ X X >.+.@.% + + o o % % Y Y % S @.{ +.] $.>.} J . X X a X a a a X X X . X X X X X X X X X . . . . . . . . . . . . . . . . . . . . . . . . . . . . . . . . . . . . . . . . . . X . X X X X X X X X ",
"@ @ @ 3.3.3.0 @ H H 9.0 @ @ 6.:.:.:.:.1.3.@ @ 0 @ 3.3.N.dXh.h.h.m m y.y.y.y.y.a.U.h.y.p._ p.p.y.U.vX3.0 H @ @ @ O O 2.:.:.:.2.2X~.A.A. XA.A.A. X;.;. X#X$X$X3X3X].].].].-X2XO H @ 0 O O O O O O O O O O O O O O O O O O 0 @ @ 0 @ H @ O O H 6.6.1.1.1.1.1.1.1.2.2.2.2.6.6.6.6.6.2.6.H @ @ @ @ O O O O O O 0 @ @ @ @ O O O @ O O O O O H @ 0 3.@ O l.l.}.}.}.l.O O @ @ O @ 0 H 2.:.&.j j $ a a X X a a a a . a X a X X X X a X X X $ $ J J $ $ $ j &.:.:.2.H @ @ 0 0 @ @ @ @ @ @ @ @ @ @ @ 9.6.:.&.a a a . X i . X X . . . . . . . . . . . . . . . . . . . . . . . . . . . . . . . . . . . . . . . . X X a X . a i a X $ $ $ $ X X . a $ j j j j a i j . . . . . . . . . . . . . . . . . . . . . . . . . . . . . . . . . . . . . . . . . . . . . . . . . . . . . . . . . . . . . . . . . . X X X a . X [ [ [ i J $ $ J i i [ [ [ i i [ [ [ [ [ [ [ [ [ [ [ [ . X $ +.^ % + + + % w.Y S @.{  .] / >.} i [ . . X X $ $ j $ j j X X X X X X X $ $ X X X X . . X . . . . . . . . . . . . . . . . . . . . . . . . . . . . . . . . . . . . . . . X X X X $ X X $ $ $ X ",
"3.3.O l.l.O O O l.9.9.3.O O 2.1.1.:.1.2.H H @ @ O l.}.3.sXh.y.p.p.p._ _ _ _ _ _ p.p.p.p.m U.kXvXXXN.3.3.H @ @ @ 0 O l.l.}.}.}.3.4X~.eX!.Z.Z.Z.S.eXA.;.;. X X X#X3XG.G.].).2Xl.@ @ O O O O O O O O O @ O O @ @ @ @ O O O 0 @ @ @ H H 6.6.1.1.:.&.&.j j j j &.&.&.&.&.&.&.:.:.:.&.&.&.2.H @ @ @ @ 0 0 @ 0 0 O O O O O O @ @ O O O @ @ @ @ @ @ O l.0 3.N.=X=X=XN.3.l.l.H @ @ 0 6.:.j $ $ X X a X a a a a X a a a a a a a i i i i i i $ $ $ $ j &.:.1.2.6.6.H 0 0 @ @ 3.@ @ 3.@ 0 0 @ @ @ O H 2.:.j $ J a . X X X X i i X a . . . . . . . . . . . . . . . . . . . . . . . . . . . . . . . . . a a a a i X X i i J J J j j j j j j $ j a j j j j j j a X X . . X . . . . . . . . . . . . . . . . . . . . . . . . . . . . . . . . . . . . . . . . . . . . . . . . . . . X . . . X X . . . X . . X X X $ . . $ $.] ] +.+. .+.+.+.] / / / $.$.>.>.>.>.>.>.>.>.>.>.>.$ . J +.^ w.Y Y S @.|  .+./ $.} J i . . . i X X X $ $ $ $ $ $ $ $ J X X X $ $ $ $ X . . . . X X i . . . i i X X X X X . . X X X X . . X X X X . . . . . . . . . . . . . . . . X X $ $ X $ J J i . X ",
"@ 0 3.3.3.3.N.XXN.+X+X+X+X3.H H H H H H @ @ @ @ H 2.:.=XjXsXV.U.h.h.m m y.p.p.p.y.y.m h.U.sXN.}.}.l.3.@ @ @ @ @ @ @ H H H 3.6.6.3.+X-X&XC.y.p.a.7XZ.B.;.;.;.;. X$X3XG.*X-X+Xl.@ @ O O O O O O O O O @ O O @ @ @ @ @ O @ @ @ 0 @ H 6.1.:.&.j j } $ $ $ $ $ $ $ $ $ $ $ $ j j j j ,X:.2.H @ @ O @ @ @ @ @ @ @ @ O O O O @ @ O O O @ @ @ 0 @ H 3.+X2X-X-X&X-X&X-X-X2XN.l.@ @ @ 1.&.j J X X X X X a i . i i X a X X X X a a X X J J a $ j j &.:.1.6.H O O O H H H O O @ @ @ @ @ @ @ @ H H H 2.:.j j X X a X X X X X . . . . . . . . . . . . . . . . . . . . . . . . . . . . . . . . . . . X . a X a a . X X i J $ $ $ &.&.:.:.:.&.&.z.z.j a a a j j X X X a X X i X X . . . . . . . . . . . . . . . . . . . . . . . . . . . . . . . . . . . . . . . . . . . . . . X X X X . . X X . . X X X X X X X $ J $.+.{ @.^ S + E + S S ^ @.@.| { { { { { { { { { { { { { +.$.J } +.| | { +.] / >.J i [ [ i X $ J X X J J X X $ $ j $ $ $ $ $ X . . X X . . . X X . X X X X i . i i X X X X X X . X X X X X X . X X X X . . . . . . . . . . . . . . . . X X X X $ X i J } $.] ",
"O N.+X4X2X+X2XQ.-X:X:X:X-X2X3.l.@ O @ @ O @ @ H =XCX|.|.W.W.n.i.V.V.U.U.h.h.h.h.C.C.U.V.n.5X}.6.2.2.6.@ 3.@ @ @ @ @ @ O l.}.l.l.l.}.}.N.dXy.y.h.h.oXS.A.A.A.A.#X*X].].-X+X0 H @ 0 @ O O O O O O O O O O O O O O O O @ @ @ @ @ H 6.1.:.&.j j j $ J J J J J i i X i a j j &.&.:.1.2.2.H @ @ @ @ O O O O O O @ O 0 @ 0 0 0 0 0 0 @ @ @ @ @ @ 3.2X&X~.).).*X).*X).).&X-XN.0 @ H 1.j $ J X $ i X . . i . . . . i X X i . . X X X $ j j &.&.:.2.6.9.9.H 6.2.1.1.1.1.2.2.6.6.6.2.2.6.6.2.2.1.:.:.j } J X X X . . . . . . . . . . . . . . . . . . . . . . . . . . . . . . . . . . . . . X X . . X . . . . X X J $ j j &.z.1.2.6.6.2.1.1.:.@Xz.a a j $ $ X i a X X . X X i X X . . . . . . . . . . . . . . . . . . . . . . . . . . . . . . . . . . . . . . . . . . . . X . . . X X . . X X . . . X X X i J / { S Y Y % + % % + E % Y Y w.w.w.w.w.w.w.Y Y Y Y w.w.w.w.S { ] $./ +.] >.i . . . a X $ $ X X X X X X i J X . . j &.j j j . . X X X . . X i . . . . . . . . . i X X X . . . . . X . . X . . . X . . . . . . . . . . . . . . . . . . . . X X . X X . } / +.| ^ ",
"+X-X:X].].].].*X).VXg.VX*X&X+X}.@ 0 O O @ H O H CXi.V.i.i.i.B B B B i.i.i.i.V.V.V.i.n.|.uX&.:.:.:.1.2.3.@ @ @ @ @ @ @ @ 3.N.N.N.N.3.}.l.dXa.U.2X2X^.&X~.OX~.&X-X2X+X+XN.0 O H @ @ @ O O O O O O O O @ @ @ @ @ @ @ @ O O @ @ H 2.1.:.:.1.:.:.&.&.&.&.&.&.&.&.&.&.z.:.:.:.1.2.6.@ O 0 0 @ O @ @ O 0 @ @ @ @ 0 0 O O O @ H H H H H H H 6.6.9.+X&X).wXVXVXg.VXVXg.g.].~.2X3.O H 1.&.j J . X X i i X a a X X X X a . a a a j j a j &.:.1.2.6.O O H 6.1.:.&.j j j &.&.&.&.:.:.:.:.:.&.&.&.&.j j $ $ X X X . . . . . . . . . . . . . . . . . . . . . . . . . . . . . . . . . . . . . . . . . X X a X a a $ a a &.&.:.1.2.6.6.2.2.1.1.:.:.z.z.a j j $ $ X X $ . X X . . X X X X . . . . . . . . . . . . . . . . . . . . . . . . . . . . . . . . . . . . . . . . . . X . X X X . . X X . . X X X . X J i / | % Y + + + S S + S + S S + + + + + +   +           o S S + Y + @.@.{  .] $.J J $ X X X X X X $ X $ J J i . @X@X@X@X@X@Xz.X >.$./ / ] / / / $.>.>.} } } $ X i i i i i i X X X X . . X X X X X . X X X X . X X . . . . . . . . . . . . . X X X $ X >.+.@.E Y % ",
">X).wXg.~ g.~ wXwX~ ~ g.$X~.2Xl.@ 3.H @ H @ O @ 5X|.n.n.B i.i.i.B B B B i.B B n.W.CX5X&.2.2.2.6.6.H H 3.3.0 0 @ H H 3.XXkXZXU.[.kXvXN.=XU.a.>X+XN.+X+X+X+X+X3.3.0 O l.l.O @ O O @ O O O O O O O O O @ O @ H H @ @ 0 H H @ H 2.:.&.&.&.:.2.2.6.6.2.2.2.2.2.2.2.2.2.6.@ @ @ O O O @ @ @ @ @ @ @ @ @ @ @ H H @ H 6.6.2.1.1.:.:.:.1.1.1.1.6.3.2X~.VXg.~ ~ ~ ~ g.~ ~ g.].&X2X3.O 2.&.j X J i $ J X X $ j j a a $ $ j j j j &.&.:.2.H H @ O O O 9.6.:.a $ X X X X X $ $ $ X X X X X X X X X X a X . . X X . . . . . . . . . . . . . . . . . . . . . . . . . . . . . . . . . . . . . . . . . X . a $ X a &.&.:.:.1.1.1.1.@X&.j j j j $ j a $ $ $ X X X $ X X X $ X . $ $ . i X . . . . . . . . . . . . . . . . . . . . . . . . . . . . . . . . . . . . . . . . . . X X X X $ X X X X X X X $ X X $ X >.{ + + + % o o +     +       + + + o o o   o o o o o o o o +   o % Y Y Y w.Y @.] $ X X X X X X X $ $ $ $ $ $ X . z.z.z.z.z.} ] { @.^ S + S ^ ^ @.| { {  .+.] ] $.$.>.$ $ $ J . . X X X $ $ X X X X X X $ X . X X . . . . . . . . . . . . . X X $ . }  .+ % o +   ",
").].~ ~ G.$X$XG.VXg.VXG. XOX2Xl.@ H @ O H @ @ O H 2.:.=XCXn.n.n.B n.n.n.sXCXjX5X:.H O 0 3.0 0 3.3.3.3.3.3.H H @ 3.3.3.dXa.x.x.x.p.m ZXdXs.a.U.U.;XU.U.V.kXdXjX3.H H @ @ @ 0 0 @ O 0 O O O O O O O O @ @ @ 3.3.H 6.6.6.2.2.1.1.1.:.:.:.:.2.6.H O @ @ 0 O O O O 0 0 0 @ @ @ @ @ @ @ @ @ @ @ @ H H 6.9.6.6.2.:.&.&.z.z.z.z.z.z.8XXX<X<XXX+X2X&X).g.~ ~ ~ ~ ~ ~ ~ ~ ~ g.].&X2X3.9.1.&.j $ X X $ X X $ j j j j j j j &.:.1.2.2.6.H 0 @ 0 @ @ @ 6.:.j X i X . . . . . . . i . . . i i . . . . . . a X . . X . . . . . . . . . . . . . . . . . . . . . . . . . . . . . . . . . . . . . X X . X X X i . &.@X@X@Xz.&.j j j j $ j j a X $ $ $ X $ J J i i i i i $ >.>.>.$ X X X X . . . . . . . . . . . . . . . . . . . . . . . . . . . . . . . . . . . . . . . . . . X X X X X X $ $ X i i . i i X . . ] ^ + + % o o o % o o o o o o o           +           +       o % + S S + + + S ^ +.} X $ X X X $ $ $ X $ $ $ $ $ X a $ . >. .S Y Y % + + + % % Y Y Y Y % Y Y + ^ @.| {  .+.] $.$.} J i . i J J $ $ } } $ $ X $ X . . . . . . . . . . . . . $ X $ . / @.Y   o o o ",
"].VX~ G.$X X X#X3XG.3X#XB.&XN.l.3.@ @ @ @ @ @ @ @ 0 O l.H &.=X=X=X=X=X1.2.6.O O 0 0 0 @ @ @ 0 O l.9.O l.l.l.l.O @ 0 =XsXU.h.h.y.p.p.y.a.y.` y.p._ _ p.x.x.a.ZX=X0 0 @ @ @ O O O @ @ O 0 0 O O @ O O O @ @ @ H 9.6.:.:.:.&.&.:.2.2.2.6.H @ @ @ @ 3.3.0 0 @ 0 0 0 3.0 O 0 @ O O O O O @ @ H H 6.2.1.:.:.&.&.j z.,X5XXXXX<X^.Q.T.S.S.S.S.T.T.~.].~ ~ ~ ~ ~ ~ ~ ~ ~ ~ ~ g.].).-X+X0 1.&.,Xj . j a a a a z.z.@X1.1.2.6.6.H H O O @ 3.0 @ @ @ 6.:.j X . X X a a a a a a a a a a a a a a a a a a X X . X X . . . . . . . . . . . . . . . . . . . . . . . . . . . . . . . . . . . . . . X X X $ $ . . . j j j $ $ $ $ $ $ $ a j $ $ X . . X . i $ >.$./ ] +. . .{ | { / X X $ i . . . . . . . . . . . . . . . . . . . . . . . . . . . . X . X X X X X X X X X X X X X X X X i i [ [ J $ >.$./ +.+./ $.| S S + + + o o o o + + + + + + + +   + o   + o       + + + +   o   + + S + % % Y E ] X . X . . [ i i [ [ [ i i i i X . J +.S E ^ S + + % + S + + S S + + + + + S + % % % + S ^ @.{  .+./ >.} i [ [ i $ $ $ X $ X X X X X X a a X a a a a X X $ . }  .+ % + % +   ",
"G.3X3X$X X;.;. X#X#X XA.~.4X0 O @ @ O O O @ @ @ @ 3.3.@ 0 @ H O O @ @ O O O 0 3.3.3.3.H H O 3.N.+X+XN.N.N.N.N.N.l.=XW.i.i.i.V.U.h.y.y.p.p.p.p.p.y.y.h.ZXkXsXjX3.3.0 @ @ @ O O O O O O O O O O O 0 0 @ H O l.l.N.=XXX=X=X3.H 2.3.}.l.@ @ @ @ O @ @ 3.H H H @ @ @ @ @ @ @ 0 O O O H @ 0 H 6.2.:.&.j a j j j ,X<X>X&X&X&X&X~.eXeXA.A.A. X$X].wXg.g.~ ~ ~ ~ ~ ~ ~ ~ ~ ~ g.g.wX).&X2X3.2.:.&.&.z.j &.z.z.z.@X@X:.1.2.6.H O @ 0 O 0 0 O 0 O 6.:.j $ X X J X . . . . . . . . . . . . . . . . . . . . . . . . . . . . . . . . . . . . . . . . . . . . . . . . . . . . . . . . . . . . . X X X X X X J X j j j $ $ J X X J $ j a a . a } >./ ] +. .{ @.^ ^ S + S + % + +.} . $ X . . . . . . . . . . . . . . . . . . . . . . . . . . . . . . . . . . . . . . X X X . . [ [ J >.$./ ]  .{ | @.^ S ^ | { ^ + + S S + o o                     o     o o +                 o o % Y Y % + ^ {  ./ . [ X $ } >.$./ ] ] +.+.+.+. .+.$.i ] S w.Y Y % + + % + S + o % +   o o o o o + + + % % % % + o S ^ | {  .] / >.J [ . . X X X X X . . X . i i i i . . . J . } { Y % + o o p ",
"#X X X X XeXS.Z.Z.I.eXOX4X3.O @ 0 0 0 @ O @ @ @ @ 0 @ @ 0 0 0 @ @ @ @ @ @ H H @ O H @ H 0 N.-X-X:X:X:X:X:X:X-X-X+X=X|.i.i.i.i.i.V.U.U.U.h.h.h.h.U.U.dX=XN.3.0 @ @ @ @ @ @ O O O 0 0 @ @ 0 0 @ @ O @ H O 3.+X2X-X-X-X:X&X>X-X-XQ.^.+X3.O @ 0 0 @ @ H @ @ @ @ H @ @ @ O @ O O O O @ @ 0 1.:.&.j j $ a $ $ a <X&X).].wX].$X#X X;. X;.;. X#X3XwX*X*X~ ~ VXg.~ ~ ~ ~ ~ ~ g.~ ~ wX).&X2X2.z.j . . . . . a a a a a j &.&.:.2.2.2.2.1.1.1.1.1.:.&.j a X X i X . . . . . . . . . . . . . . . . . . . . . . . . . . . . . . . . . . . . . . . . . . . . . . . . . . . . . . . . . . . . . X X X $ X X $ X a a $ $ $ X X X . [ . } $./ +. .{ | @.S S S % % % o o o + Y @.] J J X i . . . . . . . . . . . . . . . . . . . . . . . . . . . . X X X X X X X X J J X [ [ i >./ ] +.{ | @.S S S + % + + + + + % + + + + o o o o o o + + + + + + + S +           S   + % % % % % S ^ @.{  .+.] ] ] ] +.+. . .{ { | @.@.^ ^ S S S S ^ | ] $.]  .{ @.^ + + +   + + o o + o o o o o + + +   S + o o o % o + + + S S @.|  .+./ >.i [ [ i J J X a a a a a a X X a $ X [ ] @.Y Y w.Y % ",
";.;.;.;.!.Z.a.a.a.H.-X2XN.O O @ @ 3.0 @ @ @ @ O O @ @ @ @ @ @ @ @ H H O l.l.l.l.O O O l.N.-X).].].wXwXwXwX].].].-X2XXXjX|.n.B B i.i.i.V.i.i.i.i.n.CX=XO l.l.O 0 0 O O O O O O O 0 0 @ @ 0 0 O H H H 3.N.-X].1XqXqXpX1XqXOXqXqX6X).&X-XN.}.@ 3.@ @ @ 0 0 0 @ @ 0 O O O O O O O O @ @ O 1.j j j j j j &.&.1.^.&X].g.~ 3X#X;.;.;.;.;.A.B.A.#X#XS.OX].~.OX*XwXwX~ g.~ ~ ~ ~ ~ ~ wX).Q.&.j j X X X X X X a a X X $ $ X a &.&.&.&.&.&.&.&.&.a X X . i . X . . . . . . . . . . . . . . . . . . . . . . . . . . . . . . . . . . . . . . . . . . . . . . . . . . . . . . . . . . . . . . X X X X X $ $ X X X $ $ X [ . } >./ +. .{ @.S o o o o o % o o o o S S o % @.] } i J X X . . . . . . . . . . . . . . . . . . . . . . . . . . . . X X $ $ X X . . [ i } $./ +. .| @.S o o % % o +     + % % % % ^ S + % % o o o o o % + + % + + + + % % % Y Y Y % % % + ^ @.| { {  . . . . .{ { { | @.^ S S + + + o o o % o o o % % % + @.+.$.} >./ ] +.@.w.% o o o o o o o o o           o +               o % % % o   S @.{ +.] $.>.J i . X $ $ $ j j $ $ j j $ i } /  .{  . . .",
"eXeXA.eXS.Y.ZXh.y.vX3.}.}.0 0 }.l.O @ 0 @ @ @ O O @ @ @ @ @ O 0 3.3.N.N.N.+X+X2X-X2X2X+X-X).].g.~ g.~ ~ g.g.g.~ ].:X2X+XXX5XjXCXCX{.CXjXuXjXuX5X=X2.O @ 3.H H @ @ 0 @ @ O O O O 0 0 @ @ 0 0 @ H 3.9.3.-X).qXrX0X9X9X0XrX6X1XF.<.1XqX~.-X3.6.O O @ 0 0 0 0 @ @ @ @ @ O O 0 O O O H H @ 2.:.&.:.:.:.1.1.2.6.XX&X].g.G.$X;.;.;.;.;.A.!.I.B.;.A.!.eX#X!.!.eX$X~.~.3Xg.~ ~ ~ ~ ~ wX).>X,XX j X X X a X i i i . a a a J X j j j j j j $ j j X X a X X X X X . . . . . . . . . . . . . . . . . . . . . . . . . . . . . . . . . . . . . . . . . . . . . . . . . . . . . . . . . . . . . . X X X $ } $ i X X i J >.$.] +.{ @.^ + % % % % o p     + + o o + S + + @.] } J J X X X X X X X X X X i i i X X X X X X X . . . . . . . . . X X X X $ $ i [ a >./ ]  .{ @.^ + + % % o o o o S + % % % Y % ^ { +.| + +   o + % % % % % % % % + + + + + S S @.| { {  . . .{ {  .{ { | | @.^ + + % % + % % + + +                 + o S + % S +.$ [ i X } ] @.% % % o   o % o o o + + + o o o o o + + + +       +     o % Y % % S ^ |  .] $.$ X j j j j j $ j j j $ J i X } >.>.>.>.",
"4X:X&X&X-X2X2XkXa.sX3.=XjXvXvXvX=X0 @ O @ @ @ O @ @ @ @ @ O 3.+X2X4X4X4X:X).~.eXeXeX~.).).*XwX~ ~ g.g.~ g.~ ~ ~ ~ wX].:X-X+X2.:.j ,X&.1.2.6.H H O l.O @ @ @ @ @ O O @ @ O O O O O @ @ @ @ @ 0 0 0 3.+X).1XrXiXM.....M.iXiXaXrXpXpX1XqX).2X2X+XN.3.0 @ @ @ @ @ @ @ @ O O @ @ O O H @ @ H 6.2.6.6.H H H @ @ 3.-X).wXG.#X;.;.;.;.;.A.!.I.!.;.A.B.A.A.!.B.A.A.!.!.#X3X~ ~ ~ ~ ~ ~ ~.>X8X[ $ X X . . a a a X X a a a X a j j a a a j a j j X X j a X X X X . . . . . . . . . . . . . . . . . . . . . . . . . . . . . . . . . . . . . . . . . . . . . . . . . . . . . . . . . . . . . . X X X $ $ . . J >.$.] +.{ @.+ % Y % + S S     +       + o % % % + ^  .] $ i X X X X X X X X X X X X X i X X X X X X X X X . . . . . . X . X X J X X J >.$.]  .{ @.+ Y Y % + + S   o o o % % % + ^ @.{  .+./ } +.S o o @.{  .{ { { { { { { {  . .+.+.+.] ] ] +.+. . .{ | @.^ ^ + % Y Y Y + + + + S S + + S S S             + + o + S S Y ^ ] $ X $ X $ ] { @.+ % o o o o + % o + + + + + + o o + + +   o o o o % o o % % o % % Y Y ^ +.>.$ a z.z.z.z.j j j j j X X X . . [ [ . ",
"=X2XvXsXsXvXsXZXa.ZXvXkXh.m y.h.dX3.O H @ @ @ O O @ @ @ @ l.+XQ.).].].*X$X XA.A.A.A.A.#X$X*X6X3XG.*XG.wXwX~ ~ ~ g.~ ~ ].).&XXX:.z.. j &.:.:.1.2.2.6.H H H @ @ @ O O O O O O O O O O 0 @ @ 0 0 3.+X-X).qXpXaXL.P.P.iXiXB.!.iXiXiXiXaXrX1XqX).).-XN.0 @ @ O @ 0 O O O O O O O 0 O @ @ @ H H H O @ 0 @ 0 0 3.}.2X).].~ #X;.;.;.;.A.A.A.B.B.B.eX!.eXeX!.eXA.B.B.A.A.eX*X~ ~ ~ ~ g.*XT.^.8Xj X $ a . . . . . . . a a a X $ $ $ $ $ j $ $ j X X a . . . . . . . . . . . . . . . . . . . . . . . . . . . . . . . . . . . . . . . . . . . . . . . . . . . . . . . . . . . . . . . . . . X X X X J X } >.] +.{ ^ % Y % %     o   o o o % % o o o o % o S @.{ ] >.i . X X X X X . . . i i i X . . . . i i . . X . . . X . . . . . X . . X J X X /  .| {.% % + + % +   o o o o % o     ^ {  .+.] $.>.J J J $.| o S +.$.} >.>.>.>.>.>.>.>.>.} >.$./ / +. .{ @.^ % Y Y % % + +   o % o   S + % % + + + + S   p             o o + S S + Y  .>.. } $ J [ >.] { ^   o % o o o                 + o o o o +           o o % % o o S |  .] >.$ a j z.z.z.z.z.&.&.j a a a $ $ J $ $ ",
"dXU.h.m y.p.y.y.y.h.h.p.p.m h.U.sXN.0 @ @ O O O H 6.6.2.1.2.XXQ.*XVXG.$X X;.;.;.A.B.B.A. XB.!.#XeX!.#X$X6X$XG.~ ~ ~ ~ g.wXT.^.,X. $ a j $ j j &.:.1.6.H @ @ 0 @ O O O O O O O O 0 O @ @ @ 0 3.+X~.iXaX0X9XM.L.eX:X4X4XbX4X:XeXL.P.M.9XrX<.F.1X).2X0 O @ @ @ @ @ O O O @ @ @ O @ H 2.1.1.2.2.6.H H H H 6.H }.2X&X].~ $X X;.;.B.!.B.A.A.B.S.&X:X:X:X:X:X:X~.eXA.B.I.!.3X~ ~ ~ ~ ~ *X&X^.,XX X . X a . . . . . a a i X $ $ $ $ $ a X $ a i . a . . . . . . . . . . . . . . . . . . . . . . . . . . . . . . . . . . . . . . . . . . . . . . . . . . . . . . . . . . . . . . . . . . X X X $ $ $.]  .@.E Y Y %     + o + E E % E + + S ^ ^ @.@.| {  .] >.i i J X X X . X i X X X X X X . . X J J J J X X X X X X . . . . . X X X X . X . >.{ + Y Y E +   + + + o % o o + ^ @.{  .] $.} i [ [ i X $ J } ]  .+.$.[ [ J i i i [ i $ >.$.] +.{ @.^ % Y Y Y % + S S S S S S     o o o + + + + +     +                 + o o + + +   w.{ >.[ J i $ $ i i >.]  .| ^ S + + + + o % % % o o + S S ^ @.{  . . . . .{ | | @.@.| +.$.$ i X X a a j j a z.z.z.@X@Xz.. a X X J $ $ ",
"[.U.h.h.y.y.p._ p.y.p.y.h.kXjXN.O 0 3.6.2.2.2.1.1.:.&.&.j $ @X^.&X].G.#X;.;.;.A.A.B.!.B.eXeXB.eX!.eXeXB.!.B.#X$XG.g.~ ~ VX~.&XXX,X$ j $ i X j &.:.2.H @ 3.@ O @ O O O O O O O O @ @ 0 @ H l.N.&XiXM.......M.iX4XzXzXzXzXzXzXbXOXP.M.P.0X<.<.F.6X2X3.l.@ @ @ 0 @ O O O O @ @ @ H 1.&.j j j &.&.:.:.:.:.:.1.XX>X).wXg.G.$X X XB.I.!.B.B.~.bXtXtXD.D.D.zXmXbX:XS.!.!.B.eX$XG.~ ~ ~ g.].>X5Xa $ X X a . . . . . . . . . . . . . . . . . . . i . . . . . . . . . . . . . . . . . . . . . . . . . . . . . . . . . . . . . . . . . . . . . . . . . . . . . . . . . . . . . . . . . . . X $ X $ >.{ E % o o o o o S S S S ^ ^ @.| {  .+.+.] ] / $.>.} X . . X X X . X X X i $ $ X X X X $ } $.] +.+.] } X $ $ X X X X . . . . X X X X X X X ] S + p o o o o o o + % + S @.{ +./ } i [ . X X X X X X . $ X X $ X X X $ X $ $ } >./ +.{ @.S % Y Y % o             o   o o                       o o                   + E o E E + E w. .>.[ J J i J $ $ a . $ $.]  .{ | @.@.^ ^ ^ ^ ^ @.|  . .] $.} . . J $ $ >.>.>.$./ >.a [ X X X . i J X X J $ $ a @X@Xz.. X X J X J X ",
"B B i.V.V.U.U.h.h.h.h.V.jX3.}.9.2.1.:.&.&.&.&.&.j j $ $ a [ z.^.&X].~ $X X;.A.B.B.A.B.eX:X4X4X4X4X4X:X~.eXeX!.B.#X3X~ ~ ~ ].*X-X<Xj X $ a j j :.6.H @ @ @ @ O @ @ @ O O 0 O 0 O 0 @ @ @ H l.N.&XL.......M.P.iX:XmXtXtXtXtXtXbXOXL.P.L.aX<.<.1XT.2X0 O 3.@ @ @ O O O O @ O @ @ H 2.&.,Xj $ $ $ $ $ $ j ,X^.H.T.].g.~ ~ G.$X#XA.!.B.B.eX4XzXD.tXtXD.D.D.D.zXmX4X~.A.A.!.!.6X~ ~ ~ ~ ].&X5Xa a X X a a . . . . a a i i a a a X a a a a a . . a . . . . . . . . . . . . . . . . . . . . . . . . . . . . . . . . . . . . . . . . . . . . . . . . . . . . . . . . . . . . . . . . . . X X X X }  .E + S S ^ @.| {  .+.] / $.$.>.} J [ [ [ [ i X . . . X $ . X . X $ X X X $ i [ X >./ +.{ ^ E Y % @.] $ . $ $ . X $ X . . . X X X X $ X X ] S Y % o + S S S % + ^ { ] $.} J J i J J $ X X i i X X X X $ $ . X X . X X X >.+.| ^ % Y Y % + S + o     + + + + + + +       o o o o o   + + + +     +         o     + o o +   o E w.+ ] } $ } $ j $ j $ j j &.z.z.a } >.$.$.$.$.$.$.$.>.>.$ J i . . X $ J i i i i i X [ [ X $ X X X X a $ X X $ $ j j j j X . . X X X a j ",
"5XCX|.W.n.n.n.n.W.|.CX5X:.1.&.&.&.j j j $ j $ J $ $ J a ,XXXQ.&X*XVXg.G.$X#XA.!.!.!.eX4XmXtXtXtXtXtXtXmXbX:XeXB.B.B.$X~ ~ ~ VX).Q.>.[ } $ j :.6.H @ H H @ @ @ O O O O O O O O @ @ 0 H 0 3.0 l.+XOXP.....P.P.P.B.&X4X4X:X4X:XOXP.M.M.9XrXF.F.6X&XN.O H 3.@ @ @ @ @ @ 0 @ @ @ H H 6.1.1.:.&.&.j j $ J ,X^.T.~.].g.~ ~ ~ G.$X#XB.I.!.B.!.4XzXtXD.tXtXD.tXD.tXD.mX4X!.B.!.!.eX3X~ ~ ~ *X>X8Xa X . X a . i . . . . . . . . . . . . . . . . . . . . . . . . . . . . . . . . . . . . . . . . . . . . . . . . . . . . . . . . . . . . . . . . . . . . . . . . . . . . . . . . . . . . . X X X X . >.+.+.] ] / $.>.} $ J i . . X X X X X X X X $ $ X X X X X X X X X $ X . . $ $.]  .| ^ + E + + + S % @./ X X $ . X $ . . . . X X X $ $ X X $ +.S Y % + S S ^ { +./ >.$ J J X $ $ X X X X . . . . X X X } $ . X X X X X $.{ + % + S S + + S + o o +                         o o                           o     o   o o o p o w.w. .,X&.&.&.&.&.:.:.:.:.:.:.:.&.j j j j j j X X X X i . . X $ X X X X X X $ $ } $ $ $ $ $ $ X X X X a j X X j a j j j X . X X $ $ a j &.",
"@ 3.:.=X=X8X8X8X,X&.:.1.:.:.&.j $ j $ j a $ J J $ $ . ,X<X&X).].~ ~ ~ G.$X XA.!.!.B.S.4XzXD.tXtXtXtXD.tXtXmX:XB.B.!.eX3X~ g.G.~.^.z.X j j z.2.H @ @ @ H @ @ @ @ @ @ O O O O @ O O 0 @ H H 3.O 3.-XOXrX9XM.M.M.P.L.L.P.P.L.L.L.M...M.aXqXqX6X&XN.0 O @ 0 O O 0 O O O O 0 @ @ 0 @ @ H H H H 6.2.1.1.@X5X>X*XwXg.~ ~ ~ 3X#X X;.A.!.B.B.!.&XmXD.D.D.D.D.tXtXtXtXtXbXS.A.B.!.B.$XG.g.~ *X>X,X$ $ X X a a . . . . . . . . . . . . . . . . . . . . . . . . . . . . . . . . . . . . . . . . . . . . . . . . . . . . . . . . . . . . . . . . . . . . . . . . . . . . . . . . . . . . . . X X X a j $ } $ J X X X . X X X . X $ X X $ X X $ $ X X X X X X X X $ . . [ . } / ]  .@.S E E + p   + % + S + %  .} . $ X X X X . . . X X X $ $ X $ J } +.^ Y w.Y @.] >.} X $ $ X J $ X X $ X X X . . . . X X X $ X . X X X X $.{ % % + S + % % % + + + o o + + o o o o o   o o o o     o                           o +   + o o + o w.|. .&.2.2.2.2.2.6.6.6.6.6.6.6.6.2.1.:.:.:.&.&.z.j j j j $ j $ } $ J X X X X X $ X $ $ $ $ J X X X i i i a X X X $ a a $ $ i X X $ $ j &.:.",
"0 O O @ H 6.2.3.6.6.6.6.6.6.2.:.:.:.:.:.:.&.j X J $ z.,XQ.).wXg.~ ~ 3X#X X;.;.A.B.A.!.&XbXzXD.D.D.D.D.D.zXtX:XB.B.!.B.#XG.g.wX).^.z.X $ j 1.9.0 @ @ H H O @ @ @ @ @ 0 0 @ @ 0 @ @ @ @ H H 3.0 }.N.&X6XrXrX0XM.P.L.P...M...M.P.P.iXeXOX&X-X2XN.6.2.2.2.2.2.6.6.6.H H H H H H 6.6.6.6.6.6.6.6.6.2.2.2.5X&XwX~ ~ ~ ~ G.#X;.;.;.;.A. X XB.S.bXzXD.tXD.D.D.tXtXD.tXbXS.B.!.I.!.#XG.g.~ *X&X,XX $ $ X X a i . . . . . . . . . . . . . . . . . . . . . . . . . . . . . . . . . . . . . . . . . . . . . . . . . . . . . . . . . . . . . . . . . . . . . . . . . . . . . . . . . . . . . . X X . X X X . . . . X X X . X X X J X X X X $ X $ X X $ $ $ $ X [ [ a >./ +.{ @.^ + % % o +     o o + S + + % | >.i $ X X X $ . . . . X X . X $ X $ i J /  .@.| ] $ [ X X X X . . X X X X . X . . . . . . X . X $ X X $ a } +.+ Y S + + + + + + + + + o o % o o o o o         o o o o o                         o o   + p S + Y w.d.uX:.H O @ @ O O O @ O O O O O O O H 6.6.6.6.2.2.2.2.1.:.:.:.:.&.&.&.&.&.j j j j j $ $ } $ $ J J $ J J a J a a a a a a J J J $ $ j &.:.1.6.",
"H H H H @ @ @ @ O @ @ 0 O 0 @ 6.6.6.6.6.6.2.1.&.a $ . ,X^.~.VXg.~ ~ 3X X;.;.;.;.B.B.B.eX&XbXmXmXtXtXtXtXmXbX~.B.A.B.A.#XG.~ g.*XQ.8X[ $ j :.6.O 0 O 0 0 0 @ @ @ @ @ @ @ @ @ @ 3.3.3.3.H @ 0 3.N.XX2X&X).qXqX0XP.M.......M.P.iX~.-X2XXXXX=X:.:.&.&.&.&.&.&.&.&.&.:.:.:.:.:.:.:.:.:.:.:.&.&.&.&.&.&.&.XX&XwX~ ~ ~ ~ 3X X;.;.;.;.;.B.A.B.!.:XmXzXD.D.D.tXtXtXD.tX4X!.A.B.!.B.#X3Xg.~ ].&X5Xa a $ X X X i . . . . . . . . . . . . . . . . . . . . . . . . . . . . . . . . . . . . . . . . . . . . . . . . . . . . . . . . . . . . . . . . . . . . . . . . . . . . . . . . . . . . . . X . X . . . X X . . . . i X i i . X X X X X X X $ $ J X i [ [ $ >.] +.{ @.^ + % % o o   p o     o o S + + S % { >.. $ X X X X . . . . . . X X X X X X . X >.$.$.} X X X X i i i X X . . . X . X . . . . X . X X $ X X $ a $.| % + + + + + S S S S S +     o o + + + +   S S S + o o o o                         o   o o o S E w.{.5X1.O 0 @ @ 0 @ @ 0 0 @ 0 0 @ 0 0 @ 0 0 0 @ 0 O O @ @ H 6.6.6.6.2.2.2.2.2.1.:.:.:.:.:.&.&.&.j j j j j j j j j j j j j j j j j $ j :.2.H H @ ",
"@ H @ @ @ @ H @ @ @ @ @ @ @ @ @ @ @ 0 @ 0 O 6.:.j $ a j XX&X*XwXg.g.G.$X X;.;.A.B.B.B.B.B.eX~.:X4X4X4X:X:X~.eXB.B.A.#X$XG.~ g.].&XjX@X$ j &.:.2.6.H @ 0 0 @ @ @ 3.@ @ @ @ @ @ @ @ O @ @ O 0 XXkXU.ZXJ.>X-X).OXiXaX9XM.P.iXOX-XN.1.@X@X@X@Xz.} >.} } } $ $ $ $ $ J $ j j j j j a j j j j $ $ $ $ } j 8X>X*Xg.~ ~ g.3X#X;.;.;.;.A.I.!.A.A.eX:XbXtXzXzXzXzXzXzXbX&X!. XA.A.A.#XG.g.~ wX&X<X,Xa $ J X $ J a a a X a a a X a . . . . . . . . . . . . . . . . . . . . . . . . . . . . . X . . X X X . . . . . . . . . . . . . . . . . . . . . . . . . . . . . . . . . . . . . . . . . . X X X X X X . X X X X X X X X X X . X X X X X X . [ i i } $.] +.{ @.+ % % % % + + o + o o o     o o + + S + + +.} i $ X X X . . . . . X . X X X X . . X X . [ [ X $ X X X X X X X X X X X X X X . . . . X X X X X X X . $ ] S o + + + + + S ^ S + + % Y w.w.Y Y Y Y Y % % % Y Y % o o o +           + + + + + + o o + o % w.E { 8X2.9.3.3.@ @ @ O O O O O O O O O O O O O @ @ 0 O @ @ @ 0 H H @ O O O O O @ H 6.6.6.6.6.2.2.2.1.1.:.:.:.:.:.:.:.:.:.:.:.:.&.:.:.:.:.2.H O O @ ",
"@ @ @ @ @ H H @ @ @ @ @ 0 @ @ 0 0 0 0 0 @ H 2.:.j } $ a ,XXXQ.).*X].].3X$X$X$X$X$X XB.A.A.B.!.B.eX!.eXeX!.!.A.A.B.A.$X~ g.~ g.*X&XXX@X} a j &.&.:.:.1.2.6.H @ H H @ 0 0 @ @ O @ H H 6.2.1.:.vXs.x.p.y.ZX^.J.7X7XS.S.I.!.T.^.XX8X,X$ J } } $ z.&.&.j j j $ J i J J J $ $ $ $ X X $ X X J J J J J $ &.:.Q.~.wXg.~ ~ G.#X;.;.;.;.A.!.B.A.B.B.eX~.4XbXbXbXbXbXbX:X!.B.B.B.;.#X3X~ ~ ~ wX).^.,X. X X X X X a a X X a a a X X . . . . . . . . . . . . . . . . . . . . . . . . . . . . . X X . X X X . X X . . . . . . . . . . . . . . . . . . . . . . . . . . . . . . . . . . . . . . . . . . X X X . . X X X X X . X X X i X X X X . [ . } $.] +.{ @.+ % % % + S S + + + o o o o     o o o + + + Y | $.J $ X . X X . . . . . . . . X X X . . X X X X X $ X X X X X X . . . X X X . X . . . . . . X . . X X X [ >. .w.+ + + + + + % % % % + ^ ^ ^ @.| | | | | | | | | ^ o o o o + o       + + + + + + + o o o Y w.{.uX&.H O @ 3.@ @ @ @ O O O O O O O O O O O O O O @ O O @ @ @ @ @ 3.@ @ 0 @ @ 0 0 @ 0 0 O 0 O O O 9.9.O H H H H 6.6.6.6.6.6.6.6.6.6.6.6.6.@ 0 @ @ @ ",
"@ @ @ O O @ H @ @ H @ O O @ O H H H H 6.2.:.&.&.j j j j z.@XuXQ.&X&X&X).wX~ ~ G.$X X;.;.A.B.!.A.A.L.A.A.!.!.A.;. X#XG.wX].].].).-XN.2.j J $ $ X $ $ j &.:.1.2.2.2.6.6.6.6.6.6.2.1.:.:.:.z.@XjXU.p.! p.p.U.h.p.p.p.a.7XC.J.V.V.V.sX8X. i j j :.1.1.1.:.:.:.&.z.&.j j a a a a a a a a . a a j X j j :.6.+X&X).wXg.~ ~ 3X#X X X X X XA.!.B.A.A.B.!.eX~.~.~.T.S.B.A.A.I.!.A.$XG.g.~ ~ ~ ).Q.,X. X X J J i a a X X X i . . . . . . . . . . . . . . . . . . . . . . . . . . . . . . . . . . X . . . X . . . . . . . . . . . . . . . . . . . . . . . . . . . . . . . . . . . . . . . . . . . . . . . . . . . . . . . . . . X X X X X $ $.] +.{ ^ + Y % % o     + + S S + o   +     + o % o p + % % | ] $ J $ X X X X X . . . . . . . . X X X X X X X X X $ X X $ . X X . . . . . . . . . . . . . . . . X . . X [ $.| Y S S + % + S ^ ^ | {  .+.] / / $.$.$.$.$.$.$.$.$.] {   o o     o   + +     o o o % Y Y + {.{ 8X2.9.@ 3.O 0 @ @ 0 0 0 0 0 0 0 0 0 0 0 0 0 0 0 @ @ @ @ @ @ @ @ 0 0 0 0 @ H H H H @ @ @ 0 @ 0 0 0 @ @ 0 0 0 0 0 O O O O O O O O O O O O 0 0 0 0 @ @ ",
"0 3.@ O O @ @ @ @ H H 6.6.6.6.2.2.1.:.:.&.j j &.:.1.2.1.:.:.:.,X8X8XXX&X).~ ~ 3X X;.;.;.;.;.;.A.A.B.A.A.B.B.A. X#X*X].).).&X-X+XN.O 2.&.$ J J X . X $ $ $ j &.&.&.&.:.&.&.&.&.&.j j j j $ @XuXY.p.! ! _ p._ _ ! _ _ y.y.p.x.p.x.C.sXz.[ J $ &.1.6.O @ H 6.2.2.1.:.z.. a a a a $ X J X J J $ $ j &.2.@ }.+XT.*XwXwXwXwX3X3X$X$X3X$XA.B.B.;.A.B.B.A.B.B.B.B.B.B. X;.B.B. X3X~ g.~ ~ g.).^.,XX $ $ $ $ a j j $ $ $ a X X X a . . . . . . . . . . . . . . . . . . . . . . . . . . . . X X X X X X X X X . . . . . . . . . . . . . . . . . . . . . . . . . . . . . . . . . . . . . . . . . . . . . . . . . . . . . X X X . . X X J / | S % Y Y %       o o o + + + +     o   o o   o o % % % + | / J X J X X X X . X . . . . . . . . . X . X X X X X X X X X X X X . . . . . . . . . . . . . . . X . X X $ X . / | Y S + ^ @.{  .] / $.} J i i [ [ [ [ [ [ [ [ . [ [ [ ] @.% + + o o + + E % % E E E E {.@. .8X1.H O H H 0 @ @ O O O O O O O O O O O O O O O O O @ O @ @ @ 0 O @ @ 0 @ 0 @ O O O O O 0 0 @ @ 0 O @ @ @ 0 0 0 0 @ @ @ @ @ @ @ @ @ @ @ @ @ 0 0 0 @ 0 O ",
"0 0 @ @ O H H 6.6.6.2.1.:.:.&.&.&.j j j j &.:.2.H O O H H H H H H 9.3.-X~.VX~ 3X#X;.A.;.;. X X#X$X3X$X#X#X#X$X$X*X).-X2X+XN.3.0 l.6.:.j J a i X X a a X a X $ X $ $ $ $ $ J } >.$.+.{ {.{.CXk.U.y.! _ ! ! ! ! ! ! ! ! ! ! ! ` p.s.b.j i J J j &.6.@ @ H O @ O 9.2.z.j $ $ $ $ $ $ $ $ $ J $ $ j 1.H 3.0 }.^.T.T.~.~.*XVX~ ~ g.g.3X#X;.;.;.B.I.!.A.A.B.A. XB.!.B.;.;.;.#XG.g.~ ~ g.wX&X^.,Xj j j ,X&.&.&.:.:.:.:.&.j X J $ . . . . . . . . . . . . . . . . . . . . . . . . . . . . . X X X $ $ $ J X X . . X X . . . . . . . . . . . . . . . . . . . . . . . . . . . . . . . . . . . . . . . . . . . . . . . . $ X X X X X . $.{ Y Y +   o   o o                 o o     o o o   S % Y S  .$.J J X X . . . . X . . . . . . . . . X . X . . . . . . . . . . . . . . . . . . . . . . . . . . . X . X i X $ a / | Y % %  .$.>.J . . . . . X X $ X X X X $ X $ } $ } . $.{ Y + % % Y w.E {.{.{.| { uXuX8X&.2.9.O @ H H @ O @ O @ 0 @ @ 0 0 0 0 0 0 0 0 0 0 0 0 0 0 0 0 0 0 @ @ 0 0 O 0 O O 0 0 0 0 0 O O O O O @ @ O O O O O O O O O O O O O O O O O O O O O O O O @ ",
"H H 6.6.6.2.1.:.:.&.&.j j j j a a $ J j &.1.6.@ 0 0 @ @ 0 }.}.}.}.}.=X>X~.VX~ g.3X$X#X$X$X$X3X].wXVX~ G.G.G.~ wX).-X3.0 O 9.9.H 6.1.&.$ i $ X $ $ j j j j j a a a a a j $ a >.| n.n.B i.i.i.i.Y.h.p.p.! ! ! ! ! ! _ p.p.p.p.m U.n.uXj $ $ $ j &.1.H H 9.9.6.2.:.&.j j j j j j j j j j j j j j &.2.O 0 0 O N.2X^.2XQ.T.*Xg.~ g.G.#X X;.;.;.A.!.B.A.B.!.B.A.!.I.B.;.;. X$X~ VXwX].).&XQ.=X:.1.1.1.2.2.2.2.6.6.2.2.:.&.X X $ X X X X X . . X X X X X X X X X X X X . X i X X i i i X X X $ X X X J J X X X X X X X . X X X . . . . . . . . . . . . . . . . . . . . . . . . . . . . . . . . . . . . . . . . . . . X . X $ $ . } +.% Y + + % o + + + o o o o o +     + + + + o o S + % S | ] } J J X $ X X . . X . X . . . . . . . . X X X . X X X X X X X X X X X X X X i X X X i i X X X X X X $ X X $ $ $ i $.{ w.Y ^ $.[ i . . X X X X X X i . . . i X . J X X } [ / @.S | {  .+.] / 8X,X:.1.2.2.6.9.O @ H H H @ @ H @ @ @ @ 3.@ @ 0 0 0 0 0 0 0 0 0 0 0 0 0 0 0 0 0 0 @ @ 3.@ @ @ O O @ @ @ @ @ @ @ @ @ 0 @ 0 0 @ 0 0 0 0 0 O 0 O O O O O 0 O 0 0 @ 0 0 @ @ @ 0 ",
":.&.&.&.&.j j j j j $ $ X X J J J X $ &.1.6.@ @ 0 3.3.0 3.XX<X<X<XXXN.2X).].].].].*X*X~.~.&X&X&X).wXVXg.g.g.VX*XT.2X}.3.H H 2.1.:.&.j J X a J X j j j &.:.1.1.1.2.1.1.:.:.:.:.uXB i.B B B B i.i.Y.h.m m _ _ _ _ _ p.y.a.U.kXsXuX,Xa $ $ $ J $ j 1.2.2.1.1.:.&.j &.:.:.:.:.:.:.1.1.1.1.1.2.2.1.2.6.0 @ 6.2.2.3.6.9.N.Q.T.wX~ ~ $X X;.;.;.;.;.;.;.;.B.B.A.A.B.B.A.;. X$XwXwX).T.S.T.-XN.H H 9.9.6.6.2.1.:.:.&.&.&.j a X X a . . . . . X . . X . . . i i X i X X X X X X X X X X X X X [ . X X a . . [ [ [ [ [ . . X . . . X . . . . . . . . . . . . . . . . . . . . . . . . . . . . . . . . . . . . . . . . . . X X X $ . $ ] ^ Y + + + o o o o       +     o o           o % Y S { ] >.i X } } X X X . . . . . . . . . . . . . . . . . X . . . . . . . X X X X X X X X X X X X X X X a a . . . [ [ . . [ [ J ] @.Y  .$ X X X X $ X . X i $ X i i i i J i $ $ } . }  .+ { / >.$ z.1.2.9.9.@ @ @ @ @ @ 0 3.0 @ 0 O 0 0 O 0 O O O O O O O O O O O O O O O O O O O O O O O O O O O O 0 0 0 O O O O O O O O @ O O O O O O O O O O O O O O O O O O O O O O O O O O O O ",
"j a X a a X X X X J X X J J X i X j &.1.H H @ 0 @ 3.0 N.sXh.h.m h.;XV.dX-X4X4X:XT.E.oXT.2X+XN.N.-X).].].].].).&X^.N.2.1.:.&.&.j j j a J X $ i X j &.:.1.6.H @ H @ H H H H H 6.1.jXW.B i.i.i.i.i.i.V.[.U.h.h.h.h.U.U.U.kXjXN.1.&.j a j j J J a j &.&.&.&.&.a j &.1.6.6.H H H H H H H H H @ @ @ @ @ O H 1.&.&.&.z.@X:.<XT.].g.~ $X X;.;.;.;.;.;.;. X#X#X#X XA.A. X X$X].).~.&X^.2XN.3.H 2.2.1.:.:.&.&.j j j X X J X X X X X X X X X X . i X . X X X $ X X X X X . [ [ [ [ . [ [ [ X >.$.] +. . .] / $.$.$.>.>.>.X . X X X . . . . . . . . . . . . . . . . . . . . . . . . . . . . . . . . . . . . . . . . . . . $ . X $ X / | % + + + + + + + + + o o     o         + o Y % ^ { ] >.J i i $ X X X . X . . . . . . . . . . . . . . . X . . X X X X X X X X . i [ i . [ [ [ [ [ [ [ . . i i $ >.>.$./ / / ] +.+. .@.E +.i i $ X X X i . X X X X X X X X $ X $ i [ $ +.^ Y ^ ] J $ j &.&.:.6.H H H H 6.H 6.6.6.6.2.6.6.2.2.2.2.2.2.2.2.1.2.2.2.2.2.2.2.2.2.2.2.2.2.2.2.2.2.2.2.2.2.6.6.9.H @ @ @ @ @ 0 @ @ @ O @ O O O O O O O O O O O O O O O O O O O @ O O @ @ @ 0 ",
"a . i i i i i . . i . . X X X J $ j :.6.@ H @ 0 0 3.3.3.jXZXp.p._ p.` h.U.dXvXQ.C.a.s.Q.+X2XjX2X2XQ.-X-X-X-X2X+X:.:.&.&.j j j a a X X X . $ J j &.1.6.H O 0 @ @ @ O O @ @ 0 @ H 6.=XjXCXCXd.|.|.|.sX|.sXsXk.sXsXvXCXjX=XH l.9.:.j j a X X $ . . . . X $ X J a :.2.9.O @ @ @ @ @ @ @ @ 0 0 0 0 0 O 6.2.&.j $ $ } a ,X^.S.].g.~ 3X#X;.;.;.;.;. X#X$X3XG.3X$X#X#X$X3XG.~.&X2XN.2.2.2.1.:.z.z.&.j j $ X $ X a i X X X J $ $ $ X X X . X X $ $ X X X . . . . [ [ J } >.$./ ] +./ / ] +.{ | @.^ S ^ ^ @.| | | | { ] X . X X X . . . . . . . . . . . . . . . . . . . . . . . . . . . . . . . . . . . . . . . . . . . X X X X $ +.+ Y + S + + S S S S S       o % % % Y Y % ^ |  .] >.$ X i X X . . . . X . . . . . . . . . . . . . . . X X X X X X . . [ . . $ } >.>.>.>.>.$.$./ / ] ] +.+.+. . .{ | | @.@.@.@.^       o | ] >.i [ i X $ X X $ $ $ X X X X . [ i } /  .@.+ % + { >.i } $ $ j &.:.1.1.1.:.:.:.:.&.&.&.&.&.&.&.&.&.&.&.&.&.&.&.&.&.&.&.&.&.&.&.&.j &.&.&.j j &.&.&.&.&.&.:.2.6.H @ H @ 0 0 0 @ H @ @ @ O O O O O O O O O O O O O O O O O O @ @ @ @ @ @ @ ",
"a a a a a a a a X X X X X X $ X $ &.2.H H H H @ O 0 0 O 0 XXZXy._ _ _ _ _ h.U.h.y.p.m ZXZXU.U.U.U.U.U.ZXZXkXkXCX5Xj j j a j a X a X X X X X } &.1.H O 0 0 0 @ 0 @ @ @ @ @ @ @ @ O O 3.2.:.:.=X=X=X:.=X,X=XN.N.3.3.3.H O O @ H 1.&.j $ X . $ a a a a X X X J a &.:.2.6.6.6.H H H H H O H 6.6.2.2.1.:.&.j $ $ j j :.,XQ.S.wX~ ~ G.3X#X X X#X$X3X~ g.~ g.~ G.3X3XG.g.].T.2X3.6.1.:.&.j j j j j j j X a a a a X X X X X $ } $ X X $ $ $ X . . . . i $ >.>./ / ] +. .{ | @.^ S @.@.S + Y w.Y % Y Y Y Y Y Y Y Y | $.J X X X X X . . . . a X . . a . . . . . . . . . . . . . . . . . . . . . . . . . . . . . . . . . . X X X J / | Y Y % % % % % % % % % % % % + ^ @.| {  .] $.>.$ . X X X X i X X X X . X . . . . . X i X X . . . i i X X $ $ . X } $./ ] +.+. . .{ { { { | | @.@.@.@.^ ^ S S + + + % % % % % % % o o o + @. .] >.J i i i [ . i i i . i $ >./ ]  .@.S % % + + @.] } X } $ $ $ a z.z.&.a a j j j j j j j j $ j j j $ $ j j a a a j $ j j $ $ $ $ } j j j j j j j j $ j j &.:.2.6.6.6.H @ 0 @ @ O @ @ O 0 0 0 0 0 0 0 0 0 0 0 0 @ 0 @ 0 0 @ @ @ 0 0 @ H ",
"a a a a a a a a X X X X X X $ X j &.2.O @ H @ O O 6.2.2.2.N.jXV.h.p._ ! _ p.p._ ! ! ` p.p.p.p.x.p.p.x.p.p.y.h.V.CX,Xa a X a . X X X X a a j j :.6.0 @ 0 0 @ O 0 0 O @ @ @ @ @ @ H H O l.0 O l.l.l.l.l.l.l.l.l.O O O O @ @ @ H 6.:.a $ X X a a a a . X X X X a j j &.:.:.:.1.1.1.1.1.1.:.:.:.:.&.j j j z.z.z.:.2.9.N.Q.T.VXg.~ g.~ 3X3X3X3X].].*X].wX~ ~ ~ g.g.~ VX].T.XX:.&.j j j $ $ $ $ a j j X X a X X X X X X X X X . [ [ a J $ } >.$./ / ] +. .{ | @.^ S + % % Y w.+ ^ ^ S S S S ^ @.@.@.@.| { {  . .] J $ $ X X X . X X i i i a i . a . . . . . . . . . . . . . . . . . . . . . . . . . . . . . . . . . . X $ X J $ /  .{ { { | | | | | | | {  . .+.] ] / $.} J i X X $ X X . i i X X X X . . . . . . . . X X . X . i X X X X X i >.] +.{ @.@.^ + + + E % % % % % Y Y Y Y % % % % + + + S S + + + +     + o + % + @. .+.] / $.$.$.$.$.$./ ] +. .| ^ S Y % + % % + S @.+.>.$ $ J J J J a j J J J J a j j j j j $ $ j j a a a a j j a a $ $ J J a [ . a a . a a . . a a i i . a &.:.:.:.:.1.2.H @ @ @ @ @ O 0 O O O O O O O O O O O O O O O O @ @ @ @ @ H 2.",
". . . . . . . . . . . . X X X J $ j :.H @ @ O 3.=XjXCXCXCXCXCXsXU.h.m m _ _ p._ ! ! _ _ _ ` ` m h.h.U.U.U.Y.kXsXuX,Xa X $ X i i i X X i a j &.2.H @ @ @ @ @ @ @ @ O O O @ @ @ H @ H H @ 3.3.0 3.0 3.3.0 3.@ @ @ @ @ @ @ H 6.2.1.z.j a a X a . . . . a X X $ X $ $ X j j j j j &.&.j &.j j j j a J J j ,XuXjXjXXXN.3.2X&X*XwXwX~ g.VXwX].).~.&XT.T.*X~ ~ ~ ~ ~ g.VX).T.XXa J J X $ X a $ $ $ j $ X X a i . . . . . . X X $ } $./ ] ] +. .{ | @.^ + E Y Y Y % % % + + % ^ +./ ] ] ] ] ] ] ] ] ] ] / $.$.>.>.$ J X $ X X X . . X X i i i . . . . . . . . . . . . . . . . . . . . . . . . . . . . . . . . . . . . X X X X J J $ >.$.$.$./ / / / / / / $.>.} $ X . [ [ . X $ $ X X X X . . . . . . . . . . . . . . . X . i X i X X . . . X $. .@.S % Y % % % % % + + +       + o + o o o o + + + % S S + + % + o o + o + + % Y % ^ @.| { { { { { { @.^ S + % % o +   o + + + + % ^ +.$ J J i i i a a . . . X a $ $ $ $ $ $ $ $ a j a j j j j j j j $ J J } >.>.$./ ] ] ] ] ] ] ] ] / / $.>.} j j j &.:.2.@ 3.@ @ @ @ O O O O O O O O O O O O O O O O O @ @ @ 0 H 2.:.",
". . . . . . . . . . . . X X . J J j &.1.6.6.9.:.d.i.i.i.i.i.i.i.i.V.U.U.h.h.m m m m m m m h.U.[.V.n.CXjXuX8X,X@X@XJ X X a X . . i a X X a j :.6.O @ @ @ @ @ @ @ @ @ @ @ @ @ @ @ @ @ @ @ 3.3.0 0 0 0 0 @ @ @ H @ @ O 6.6.2.:.&.j j $ . . X . . . . . . . . a X J i i a a a $ $ J J $ $ X X X X i i i 8XsXV.U.C.Y.kX2X+X-X&X).*X*X).).~.S.T.Q.^.^.&XT.].g.~ ~ ~ wX*XS.Q.8X[ J i X a a . a $ $ $ $ J J J i i J $ >.>.$./ ] +. .{ | ^ S E Y Y Y Y Y % +     p + + + % + @.+.} [ [ [ [ [ [ [ [ [ [ [ i i [ [ [ i $ i X X X X X X . . . a a . a a a . . . . . . . . . . . . . . . . . . . . . . . . . . . . . . . . X . X X J J J [ [ i [ [ . [ [ [ . [ [ [ . . a X $ $ X X X X $ X X X . . . . . . . . . . . . . . X i X X X . . i $ >.$.] | + Y %       o o + + S   S   o o o   o o o o o + + + + + + + + + + + + + o + + + + + % Y % % Y Y Y % Y Y % % o     o o   o +   + + + E @./ i i J X X a j a a a j $ $ $ $ $ $ $ $ $ $ X $ $ $ X a a j j $ } / +. .{ { @.^ ^ ^ ^ ^ ^ {.^ ^ | {  .+.] $.} j &.1.H 3.@ @ 0 @ 0 0 0 0 0 0 0 0 0 0 @ @ @ @ @ 0 0 @ @ @ H 2.:.j ",
". . . . . . . . . . . . X X a . a X X j &.1.2.:.CXn.i.B B B B B B B B i.i.V.V.Y.U.U.U.U.V.i.B B B uX@X@X@X[ . J $ X $ X X . X X X X X a j &.:.6.O 0 @ 0 @ @ O O O @ O @ @ @ 0 @ @ 0 @ @ 3.3.0 0 @ H @ @ 0 H H H H 6.1.:.&.j } J X X . X . a . . . . . . . . . a X a . . . . . i X X X X X X $ $ a j uXC.a.p.p.p.p.h.kX2X2X-X^.&XE.oX7XoX^.}.}.}.3.Q.&X].wX].].).T.>X8X&.X a . i X $ X . X X X J J $ >.$./ ] +. .{ @.^ + % Y % % % % o + S S + + + + o   o + + % + | / . . X X X X X X X X X X X X X X X X X X X X X . . X X a z.z.j j X a j a . . . . . . . . . . . . . . . . . . . . . . . . . . . . . . . . . X . X . . X X X X X X X X X X X X X X X X . . X X X . . . X X . X . . . . . . . . . . . . . . X J . j a . $ $.] +.{ ^ % o         o o o     o o o o     + +         + + o       o o         +     o     o o                             o     o o     o o   + %  .>.$ } $ J J a X X X X X X X X X X X X X X X X X $ $ X X X X >.] | % Y Y % Y % % % % % % % % % % % Y % ^ { +.] >.1.H H 3.3.0 0 0 0 0 0 0 0 0 0 0 0 @ @ @ @ 3.0 @ H @ H 2.z.j j ",
"X . X . . . . . . . . . i a X X a $ i j j &.j @X&.uX|.n.B B i.i.B i.i.B B B B i.i.i.B B B B i.B W./ j $ } $ $ $ a X $ $ $ X X J J J X . a j &.:.2.2.2.1.:.:.1.2.6.9.9.O @ @ @ O @ @ O @ @ @ @ 3.3.3.0 0 0 9.6.1.:.&.&.j $ a a X X a a a X a X . X X X X X X a . a a X X X X X a X X X X $ $ $ $ a j uXV.a.` ! ! _ p.p.h.sX=XN.2XC.x.a.kXN.0 3.3.O =X^.&X&X&X>X>X<X,Xz.j a J J X $ X X X X X X i i $. .@.^ % % % % % % + S S       o o + + + + + S S S % % % + @.+.$.[ . X X X X X i X X X X . . . . . X X . . . . . X X i X a a . a a i i a a . . . . . . . . . . . . . . . . . . X . X X . . X X . . . X X . X X X i X . . . . . . X X i X X X . . X X X X X X i . X X X . . X . . . . . . . . . X . X X . X X X X X . >.+.| S % % Y o o o o + +       o o +       o o   o o o o o + +   o o o     o o o o   o o   + o     + +               + + +   +   o o     o o + o o + % ^ { +.] / / $.$.>.} $ $ $ $ $ $ $ } >.>.>.} $ J J J J J $ $ } +.^ Y + S +   +                     o + % % Y % ^  .&.9.@ 0 0 3.0 0 0 0 0 0 0 3.3.3.3.3.H H H H 3.H H 6.2.&.j j j ",
". X . . . . . . . . . . X . X X a a X J i J $ } $ j } ] | |.W.n.n.n.n.n.n.n.n.W.W.|.|.|.w.E {.{ / . X $ X X X J $ X X X X . i i i [ [ i J } $./ ] uX .CXCX{ { uXuX5X,X1.9.9.H H H H @ O O O O O H 6.2.2.1.:.&.j j j j $ J J J X X a a . X . . X . . . . . X X X X X X X X X X X X $ . $ } } X . } ]  .j.U.m _ ! ! ! _ p.a.Y.v.U.m p.a.dXN.2X^.Q.dXsXvX^.^.^.XX,X@Xi $ $ j a J X X X . i [ [ i J / { % % % + + S S S S + + S + % o % % + S + % % % % Y % S { ] >.J i $ $ X $ $ X X X . i X i X X X X X i i X X . X X . . X i . . . . . i . . . . . . . . . . . . . . . . . . . . . . X . X X . . . X X X . . X X X . . . . . . i X X X X X X X X X X X X . i X X X X X . . X X . X . . . . . . . . X . . X . X X X $ J / { + % + + S + % o o       o o o       + +     + +       +   + + +   o   + o o o o o o o   + +   + + + + + o   + + +         o o + + o o o   + o   o % S o Y % + S ^ @.| { {  . . . . . . .{ { { { {  . .+.] $.>.J [ ] ^ % + + S   o o + o o +       + o + o + S + % % % E | 8X2.9.H H H H 9.9.9.O O O O H H O O O O O 9.9.6.1.z.&.a . . ",
"X . X . . . . . . . . . . . . . . X J a a $ a $ $ a a a j >.>.$.$.$.$.$.$.$.>.>.,X} ,X} j j j a . . . . z.[ [ . [ [ [ [ . . $ $./ / ] +. .{ @.{.E Y Y % % E E w.w.d.{.{ uX,X2.O O @ O H 6.6.2.2.1.:.&.&.j j j j j a . . X X X X X X . . . . X . X X X X X . . . . . . . . . . . X X . $ X . >.] |   % d.v.s.p.! ! ! ! ! p.y.s.y.` _ y.h.ZXs.a.a.a.y.m h.h.h.U.kXjX,Xz.$ $ X $ . [ X >./ ] +.+. .@.+ + + S         + % % Y Y Y Y Y Y Y % + + + S @.|  .+./ >.J J $ $ $ J . X $ X X X . . . . . . . . . . . . . . . . . . . X a a i a X . . a a . . . . . . . . . . . . . . . . . . X . X . . X X . . . . X X . . . X X X X X X X X . . . . . [ [ [ [ . X X . . i X X . . . . . . . . . . . . . . . . . . . . . X X [ / | E E + o o % % o   o                                                     o                                 + +   o   o o         o o           o + o   o o o o o +     + % % % % % % % % % % % % % % % % + S ^ |  .] { E %   o % o o o       o o o o o   o o   + + + + + + w.d.uX:.2.1.2.2.1.1.1.1.1.1.1.2.2.2.1.:.,X8X8X5XuX+.+.+.+.+.+.",
"X X X . . . . . . . . . . . . . . X i X a a a X a a . a a a . . . . . . . . . . a . a a a X X . } >.>.} >.$./ / / / ] +.+. .{ @.@.^ ^ S + + o % o o o o o o o o % % Y w.w.{. .8X:.1.:.:.&.&.&.&.j a j $ X . . . . . . X X . . X X . . . . X X X X X X X X X X X X X X X X X . . X X X . } ] | + Y Y o E k.Y.s.p.! ! ! ! ! _ _ _ _ ! _ p.p.p._ _ _ _ _ _ _ _ p.m h.V.uXj X J i >.] { @.+ E E S S % Y % Y w.Y Y Y % % E ^ @.| {  . .+.+.] ] ] ] / $.>.} J i i X $ J a j j j a a X X a . . . . . . . . . . . . . . . . . . . i . . . . . i . . . . . . . . . . . . . . . . . . . . X X X X X X . X X X X X X X X $ $ X . . . . [ [ [ . i i } >.$.$.$.$.} i i J J X i . X X . . . . . . . . . . . . . X . . X X X X . >.{ % % + + o   o o   o                                       o     o o o o o   o     o o o o                 +   + + S + +     o o o o S o o o     o o o     o o o o o       + o o o o o o o o o o o o o o + + % E Y % S + + + + + S S + +   S S S + + S   o   o +       + + + % + E +.j z.&.j j &.&.j &.z.z.>./ +.{ | ^ {.{.E E + + % Y E {.",
"$ X X . . . . . . . . . . . . . . . X i i i i . . . X . X a X X X X X X X X X X X X X $ $ X . >.+.{ { { | | | @.@.@.^ ^ S + % Y Y Y Y Y w.Y w.w.% % Y Y % Y Y % % Y % % % % E @.] >.j j j j j j a a a X . X X X . X X i i X X . X . . . . . . X . X X $ $ $ $ $ X X X X X X X X X X . >.+.^ E E E E E E d.b.Y.y.p._ ! ! ! ! ! ! ! ! ! _ _ ! ! ! ! ! ! ! _ p.x.x.a.U.CXj . >.] | ^ ^ @.|  .+.] ] +.@.% S @.| {  .+.] ] / / $.>.} } } $ $ X X X X . [ . X X . a X i $ j a $ $ $ X X X . . . . . . . . . . . . . . . . . . . . . . . . . . . . . . . . . . . . . . . . . . . . . . . X X X X X X X $ $ } $ X [ [ [ . i J } >./ / ] ] +.+. .{ { | @.@.|  .] >.i J $ X X X . . . . . . . . . . . . . . X X X X X $ X J +.S % % % o o o o   o   o                                                 o   o o   o o o o o                   o   S + % + +     + o Y w.% o o o o o     o                   o + o o o     +     + o + o o o     o % % % % + + + % % % % + S + + S S + + o o +     o o o o o o   S w.@./ X X $ $ $ } X i $.+.| ^ + % Y Y Y % % % % % % Y + j.",
"X X X X X . . X . . . . . . . . . X i X a a a X X a . a X X a a a a i i i i i a X X X X $ i } +.+ % % Y Y Y w.w.w.w.w.w.w.Y Y % + S S ^ @.@.@.| | { { {  . .+.+.+.+.+.+.] ] ] +.] >.$ j j a a a . X . a a . . . . . . X X X X X X X X X X X i X X $ $ $ J $ $ J J J J J $ $ J . . . [ ] + w.w.|.W.W.W.W.W.n.i.U.a.p._ ! ! ! ! ! ! _ _ ! ! ! _ _ p.p.p.p.y.s.h.Y.kXCX8Xj . >.] +.] ] / >.>.$ i [ } / +.] / $.>.>.} J i i [ [ [ [ . X X . . . . X X X X X X X i i X J J J $ $ $ X X j . . . . . . . . . . X X . X X . . X X X X X X i i i i X . . X X X . . . . . . . . . . . . . . . X $ X . X X i i . . i $ >./ ] +.+. .{ | @.^ ^ ^ + % % % Y Y Y % % ^ +.>.i $ $ X X . . . . . . . . . . . . . . X X X X X $ X >.| + % + + o o o o o     + +       + + + + + + + + + + + + + + +     o o o o         o o   o   + o o o o o o o o o   S S + + + + + % Y % @. .@.o o o o o o o o o o + + +     + + + + + o o   + o o       + +       o o     o % + + S ^ ^ S S S S + + + + + o o o o o + + o o   S + Y @. .$.X X X X $ J $ ] { ^ % Y Y + + + S     o p   % + d.v.",
"X X X . X . . . . . . . . . . . . . . a a a a a a . . a X X a . . i i i i i . a X X X $ J >.+.S w.% % + S S ^ ^ @.@.{ { {  . . .+.+.+.] / / / / $.$.$.>.>.} $ } $ J J J X i . a $ j a a X X X . . a . a a . . . . . . X X . . i i . . . X X X X . a . [ [ i i i i i i [ i i [ [ [ [ @X/ +.{ |.B B B B B B B i.V.U.h.m p.p.p.p._ _ _ ! ! _ p.y.m h.U.V.kXkXb.sXjX8X@Xz.$ X $ } } . [ . [ [ . X X i i J J . [ [ . i . . X J X X X $ $ $ $ $ X X X $ $ X X X i i X X J J $ j j j a X a . . . . . . . . X X X . . . X X X i i . . X X X X X X X . . X X . . . . . . . . . . . . . . X X . X X . [ . i $ >./ ]  .{ | @.^ S + % Y w.w.Y % % % % % + + % % Y Y ^ ] J X $ X X X X . . . . . X . . . . . . . . . X $ X X ] S + + % % o o + o o o o o o       +   +                       o   o % % % Y Y Y % o o     o                   p p + + % % % % + ^ @.{  ./ / @.o +   o o     o o o o o o   o o           + o + o + + +   +         o o o o % Y Y % @. . .@.+ Y % Y Y Y Y w.Y % % Y o + + o o + % Y ^ ] >.$ X X X X J } +.@.E Y + + + + + + S + o o + o % + k.H.",
"i X X . . . . . . . . . . . . . . . . . . . . . . . . . . . . . . . . . . . . . $ X $ $ J $. .@.{ {  . .+.+.] ] / / $.$.>.} } $ $ J J i . [ [ [ [ [ . [ [ . . . . . . . . X a a j j j X X X X a a . a . . . . . . . . . . . X . . . X X i . . $ } >.>.$./ / / / / / / / / / / / / / / ] $. .n.i.B i.B i.B B B i.i.V.U.h.s.a.y.y.y._ _ p.y.m h.U.V.b.uX8X8X,Xz.@X[ i J J $ . . . . . X X X X $ $ $ . X X X i X $ $ X X X $ $ X X X X X X $ $ $ X J X X X X a X X X X j a z.z.. J X i . . . . . . . . . X . . . . . X i X X X X i i . . . . X X . . . . . . . . . . . . . . . . . X X X X i $ } $.] +.{ @.{.% Y Y Y % % o o o + + S + S + o o o o o o % % w.+.$ [ X X X $ X . . . . . X . . X . . . . X X X $ X $  .E + + + % o o +                     +   + o o o % % % % % % % % % % Y % % +   ^ ^   % % % % % % % % % % % % Y % % Y E + ^ @.| { +.] $.} i ] + w.% % % o             +     +               o o + + +   o       o % % Y Y Y o S S ^ { +.+.{ @.@.@.| | | @.@.S S E Y Y % % Y % + ^ | ] $ . . X X i i >.+.S Y % + + + + + + + S + o o o % p d.v.E.",
"$ J X X X X X X . . . . . . . . . . . . . . . . . . . . . . . . . . . . . . . . $ X $ $ $ >./ / >.} } $ J . [ [ [ z.[ [ [ . i i i i i J $ $ $ $ $ $ $ $ X X $ . X X X X X X X X X a X X X X a a a i a . . . . . . . . . X X X a a X X i i } $./ +. .{ @.@.^ ^ ^ ^ ^ ^ ^ ^ ^ ^ ^ ^ ^ ^ ^ @.E n.B B B B B B B i.B B i.V.V.V.Y.U.h.h.h.h.h.U.U.i.i.B W./ @X[ [ . $ $ X J X $ X X X X $ X . . . X X . . X X X i X X X X . . X X X i . X $ $ j j j $ $ a j a a a a a $ $ a . z.@Xz.X X i . . . . . . . X X . X X X X X X X X $ X X i J i J J J X X X X X X . . . . . . . . . . . . . . X X X >.]  .| ^ Y w.w.Y + + S S + o o o o o + o % + o o o % o + + + + ^ ] $ [ X X X X . X . . . . . . . . . . . X $ X X $ X } { Y % + % % % o % % % + + % % % + + + % + + + S + + + + S S ^ @.@.| | { { {  .+.] ]  .| ^ ^ S S S S S S + + S ^ ^ @.| {  .] ] $.} i [ [ i J ] | @.@.S S + + % % o o + + + + S + + + + + + o       o o + o o % % % % + S ^ |  .+.+.+.] ] ] ] / / / / / / / / ] +.{ | @.@.@.^ @.{ +.$.X X $ $ X X . $ ] S Y + + + +       + p + p o E % % ^ j.J.S.",
"] $.$ X J X X X . . . . . . . . . . . . . . . . . . . . . . . . . . . . . . . . X X X X X X [ [ . [ . . . X X X X X X X X $ X X $ X X $ X X X X X X X $ X X X X i i . . . . . i i i i . . . . . . i . . . . . . . . . . X X . a X X J J $.+.| ^ o Y Y % % Y % % % Y Y Y % % Y Y Y Y Y w.Y w.W.n.B B B B B B B B B B i.B B B v.V.V.J.V.J.i.i.B B i.W./ X } X X a X $ X $ X $ $ X X X . X X X . . . X . . . X . . i . a a . a X X X $ j j j j j &.&.&.:.:.@X@Xa j $ $ X . . . a X X a . . . . . . . i X i X $ $ X X . i X X $ } >./ ] ] ] ] >.X X X X X . . . . . . . . . . . . . X $ X J ] + w.w.% S S S + + + + + + o o % % o     o o % % o o + + + ^ { ] >.X X X X X X X . X X X X X X X X . . . X X X X X . }  .^ ^ ^ ^ ^ ^ ^ ^ ^ S S S ^ ^ ^ @.@.@.| | { {  . . . .+.+.] ] / / $.>.>.} } $ i [ [ $ $.] +.+.+.+.+.+.+.+.+.] ] / $.>.$ J i i J } } >.>.>.} >./ / ]  .| ^ ^ S + o o + + + + + + + + + + + + + + + + o E   S S ^ | {  .+./ $.} J [ [ [ . [ z.[ [ . . . . [ [ [ X } >.$./ / / / >.[ [ X X . X $ X J / @.Y S % o o o o o o   o o + % % E E d.v.E.6X",
"+ | ] } i $ X X . . . . . . . . . . . . . . . . . . . . . . . . . . . . . . . . . . . . . X X X X X X X X X X X i X i X X X X } $.$.$.$.>.>.>.>.} X X X $ X X X . X X X X X X a a a X X X X X . . . . X . X X X X . . . X $ X $ J J $.+.| S % %   o o o o                           o   + E E W.n.B B B B B B B B B i.i.B B B i.B B i.i.i.B B B B |. .+.] / $.>.} J i J J $ J X X X X a X a a X . . X X X a X a X a a a a a a j j j &.:.:.1.1.2.2.6.H 9.2.z.j j $ j $ a a a . X X . X X . X X X i i i X X $ J X . J $ >./ ]  .| @.+ Y Y S  .>.[ X X X . . . . . . . . X . X X X X X X X / { | | @.@.^ ^ S + + + + % % % + % % % + + % % + + % + ^ { ] >.i X $ X X $ $ $ $ . X X X X X X X X X X X X X X X X X X $.] ] ] ] ] ] ] ] ] ] ] ] / / / $.$.$.$.$.>.} } $ J i i i [ [ [ i i [ i i i J J $ $ i [ . . . [ [ . . a a J } >.$./ / ] +. . .{ { | | | | | | {  ./ /  .@.{ { { { { | @.^ ^ ^ ^ ^ ^ ^ ^ ^ ^ ^ @.@.|  . .+.] ] / $.} J [ i i J X X X X X X X X X X X X X X X X X . . [ i i i i X X . . $ X J J X $.{ Y + + +   + + + +   + o o o p S d.k.J.E.OX1X",
"+ Y | / i J $ X . . . . . . . . . . . . . . . . . . . . . . . . . . . . . . . . X . X X X X X $ X . X . . X X . . . . . $ . $ $./ / / / $.$.$.$.} } $ $ X X X X . . . . . . . . . . . . . . . . . . X . X . . . . X X X i X X J $ ] | Y % S S S   o o o % % o % o o o o o o o o o o % + + E + E |.W.B B B B B B B B B B B B i.i.i.i.i.i.B B B B n.w.+ % E S @.| { +.] $.J i J X X X . i i i i i i . . . . . . i i i . a j X j &.:.1.6.6.H H H H H H O 6.:.j j a j j . a . . . X $ X . . . . . X X X X X i i J >.$.]  .| ^ S E % % + S S + @.] i $ X J . . . . . . . . . . . . . . X X . X } >.$.$./ / / ] ] +.+. .{ | @.@.^ ^ ^ ^ ^ ^ ^ @.{  .+./ $ . . . X X . . . X . . . . . . . [ . X X X . i i J X i X X X i X a X . . . . X . i i . . [ [ [ [ [ [ . . . X $ $ X X X . X X X $ X X $ $ X X X $ $ X J J } >.$.] ] +. .{ | @.^ S + S + % % + % % % % % % % Y Y ^ { ] +.{ {  . . . . .+.+.] / / / / / / / / $.$.>.} J J J i i J J J X $ $ $ $ X X X $ $ $ $ $ $ $ $ $ $ $ X . . J $ $ X X $ $ $ $ X X J X . } +.S + S Y % p o +     o p o o p {.k.J.E.Z.OX1X<.",
"S + ^ ] J i X X . . . . . . . . . . . . . . . . . . . . . . . . . . . . . . . . . . . . . . . . . . . . . . . . . . . . X X $ $ $ $ $ $ . X X . . X X X X X X X . . . . . . . . . . . . . . . . . . . X . X X X X . i . J $ i } +.@.% + + S S + o o   o o o   o                 o + o o E E E E E Y |.W.n.B B n.B n.B B B B B B n.B n.n.n.n.W.W.w.E o o + + + + o + ^ |  ./ >.i i J X X X a a X X X X X X a a a i . a a a z.:.1.6.6.H @ @ 0 0 @ H H H 1.&.j . j $ $ a a . a . X X . X X X $ $ X . . i } $.] +.{ @.S + % o o + + % + S S Y ^ ] i X $ X . . . . . . . . X X X X X X X X X j X X X $ $ J i J J J J J } >.$.] ] +. . . . . .+.] / $.>.>.>.>.>.>.>.>.>.>.>.>.>.$.$.$.$.>.>.>.J . i J X X X X X X . $ X . . [ [ [ [ [ . X } >.>.$.$./ / / / / / ] ] / } X X X X . X X . X X X X X X X X i . . $ ]  .| | ^   + o % % + + + + + S S S S o o o o + S S + + E +  .>.$ >.$.$.$.$.>.} $ J J i i i i J X X X X X J $ } $ $ $ $ j a X X . [ [ . J J a . [ [ . [ [ [ . J X $ $ a a i X X X J X $ X X . $ $ [ >. .Y S + + o o % o o + + + + o d.v.H.S.eXaXrXrX0X",
"+ % + +.>.i $ J . . . . . . . . . . . . . . . . . . . . . . . . . . . . . . . . X . X X X X X X X . X . . . . . . . . . . . . . . X X X X X X X X . . . . . X . . . . . . . . . . . . . . . . . . . X X X X X X X X X X $ X } +.^ % o   o o o   o o o       o   o o o o o o o o p o   p p p   + o + + % Y w.w.w.|.|.|.|.|.|.|.w.|.w.w.Y Y Y E + S o o         + o o o o   ^ { ] >.[ . j j j j j a i a $ $ j $ j j j &.:.1.1.6.H H @ @ @ @ @ O O H H H :.j X X X X i i X X i . . . X X $ X J i J >./ +.{ @.^ S p o o + + S + % o   % % % @.+.$.J J X J . . . . . . . . X . $ $ X X $ X a $ $ $ $ J . . . J >.$.] +. . . .{ @.@.^ ^ ^ ^ ^ ^ ^ ^ @.@.@.| | | | | | | | @.@.@.@.@.@.@.@.| { +./ >.J X X . . . . [ . X } } $.$.] ] +. . .{ | | @.@.^ ^ ^ ^ ^ @.{ +.$.$ X X X . . X X X . . . . . . X . . X X . / | Y + % o o o o +           o               o o o   o + % | $.[ X i X X X i . i X X a X X J a a i . i J i $ $ $ $ $ $ a a j z.8X<X<X8XJ [ z.,X5X5X5X5X5X8X,Xz.. } $ $ $ j $ $ J J X j j $ X $ } J $ +.+ Y o p   S + + + S + E + {.b.H.OXaX9X9X9X....",
"^ |  ./ } X X X . . . . . . . . . . . . . . . . . . . . . . . . . . . . . . . . . . . . . . . . . . . . . . . . . . . . X . . X X X X X . X X X . X X X X X . X . . . . . . . . . . . . . . . . X X $ . X $ X $ $ X X $ X X ] @.% o   o o     o     + + o o   o     + +   + +   + p o + + o o p   + o p   + + S S + + + + + + + + S S S S S + S   p     +     + + +   o % % o ^  .$.. $ $ $ $ $ j j j j j j &.&.:.:.2.6.6.H H 3.3.@ @ @ @ @ @ 0 @ @ 6.:.j J X j a a X . . . . . X . X X . $.] +.{ @.^ S % % o o p   + + S S + % % S @. ./ >.$ $ X X X . X X . . . . X X X X X X X $ $ X X . [ i } $./ +. .| @.@.^ S S + + + o o o o o o % o % % o % % % Y % % % % % % Y % % % o o % % o ^ @. ./ X [ i $ } >./ ] +. . .{ @.@.^ S S S + % o o o % % % S { +./ } $ X X X X . X . . X X X X X X X . X X i J . } +.% % o o o + +     + o +       +     o o o     o o o o Y | $.[ X X X X X X X X X i i X X X X i X J J a . [ . . [ [ [ i X j 8XQ.E.H.<X@X8X^.>XH.H.H.H.H.J.>X^.5X&.j j j j j j j $ $ $ $ $ $ $ } $ a $. .^ % % % + + + + E E E Y d.Y.S.aX9X..........",
"] / >.} X X X X . . . . . . . . . . . . . . . . . . . . . . . . . . . . . . . . . . . . . . . . . . . . . . . . . . . . . . . . . . . . . . . . . . . . . . . . . . . . . . . . . . . . . . . X . X J X J J [ [ i i J $ J / | o o   o o o o +                   o +   + o     +                 o o   o   S + + S + + + + + E % + + S S + % % + o             o   o   o o o o % S +.X $ j j &.z.&.&.&.:.:.1.1.2.2.6.H H H H @ 0 @ 0 0 0 0 @ 0 0 0 0 H :.j $ X a a X . X . . . . . X i . / { @.^ + % + + + o o       S + % Y Y S |  ./ >.$ X $ $ X X X X . . X X . X X X X X X $ $ $ X . X >./ ]  .{ | ^ S + % % Y % % + + + + o o o o o o o o o o % % % % % % + + + o o o         o % % o + S | ] / ] +. .{ @.@.^ S + + % % % % % % % o o o o o % ^ +.$.$ . [ i X X X X X . . . . X X X X i . . . . i J . $ +.+ o   o                                         o o o +  .} . $ J X X . . a a i a a X X X X i J $ z.@Xj ,X8X8X>.,X,X$ [ @XXXH.Z.H.<XXX>XT.OX6X6X6XOXOXOX~.T.>X<X1.:.:.:.&.&.&.&.j j j j j j j $ $ $ >.]  .| ^ S + S + S {.^ | { J.I.P.............",
"i . [ . a X X X . . . . . . . . . . . . . . . . . . . . . . . . . . . . . . . . . . . . . . . . . . . . . . . . . . . . . . . . . . . . . . . . . . . . . . . . . . . . . . . . . . . . . . X X . X J . X >.$./ / ] ] +.+.{ + o   + o o o o +               +   + o o o o                       o   o o o   + o o o o o o o % % + + + + + + S % % o o +     o         o o o   + S +.X j &.:.1.1.2.2.2.2.6.H H H @ O O O O O O O O O O O O O O H 2.H H 2.z.X J a i i . X . . . . X X X } { + % + o   S S + o o o % % + + S @.{ +./ >.i . X $ $ $ X X X X . . . . X X X X X X $ X . X >./ ]  .| ^ + + + % o   o o o + + + S + + o o o     o o o o % o     + + + S S     o o o       + o o     % + @.| @.^ + % Y + % Y o + +     S + o o o o o   + % { } [ J X X X $ $ X X X . . . i . X i i i . i . X X . [ $.{ %     + +                                       o o % @.] . X X X X . . . . . . a a . X a i X a ,X5X<XQ.Q.Q.Q.>XQ.Q.Q.<X5X5XQ.E.^.<X>XOXqX1XF.F.1X<.1X<.1XqXS.J.+X9.2.6.2.2.2.1.1.:.:.:.&.&.j j j j X $ >./ ] +.+.+.+.+.] ] / >.Q.Z.P.............",
"J X X . . X X . . . . . . . . . . . . . . . . . . . . . . . . . . . . . . . . . . . . . . . . . . . . . . . . . . . . . . . . . . . . . . . . . . . . . . . . . . . . . . . . . . . . . . X X X X X X } /  .{ | | @.^ ^ S + + o o o o o o %   + o + + + + o o +     + S S + o     o     o o o o     o + + o o + + + o o o o o + + + + ^ {  .+. .@.S % + +   +   +   + o o   o Y | $.:.1.2.6.H H H H @ O @ 0 O O O H 2.1.1.:.&.,X,X,X,X,X8X8X8X5X5X5X8X&.&.. J X X . X . . . . . X $ X $.^ % + % % % % % % Y + S S @.|  .+./ >.$ . . X $ X . X X X . X . X X X X X X X X X i X $ >.]  .| ^ E % % % o o o o +   o o + + + + + + + +     + + +     + +     + + + S + o o o % o o o   o o o o o + + Y w.% + +       o o o o o o       o o o o o   + S  .J J $ X . X $ $ X X X . X X . . . . X X X X J i J } /  .S %   o + o                                     o o % S +.>.. X X X X . . . . a X . . X a X X a 8X<X>XT.OXOXOXOXOXOXOX~.T.Q.2X<XJ.<XQ.T.qXF.<.<.<.<.<.<.<.F.F.qXZ.Q.0 O @ O H H H H 6.6.6.6.1.:.:.:.&.j . [ [ i i i X i [ [ i i @XXXH.L.M...........",
"X i X . . . X i . . . . . . . . . . . . . . . . . . . . . . . . . . . . . . . . . . . . . . . . . . . . . . . . . . . . . . . . . . . . . . . . . . . . . . . . . . . . . . . . . . . . . . X . X X >.+.@.% Y Y Y Y % % % +   o o o o o   o o o + + + + % +         S S + % % o % % % % % % % % % + + + + + + S S +     o   o o o % S  .$.$ . $ /  .^ % + + S + + + % o o   E d.uX2.H H @ H @ @ 3.3.@ O H 6.2.:.&.8X5XuX .{ { | | | @.{.S + E E % Y ^ @.+.>.i J . X X X . . . . X X X $.| E E + S ^ ^ @.@.| {  .+.] $.} . . [ . X X X X . . . . X X X X X X $ X X X X i J } $.+.{ ^ % w.% o       o o o + + + + S S o o     o + + + % + + + + + % + + + + o   o o o o o o o o o o o +   o o     o o           o o   o o o + + o o o o         % ^ ] [ J X X $ $ X X X X X . X X X X X X X $ X . J >./ +.@.  o +   o   o                                     o   Y | / i X X X X . . . . i X X i i $ $ J a 5XQ.H.OXqX1XF.F.<.<.F.F.<.1XqX).&XH.Q.H.~.F.<.<.<.<.<.<.<.<.<.F.1XOXE.N.O @ @ @ O O O O @ O O H H H 6.2.:.a j j j X a a . . . a $ X &.Q.Z.P...........",
". X . X X X . X . . . . . . . . . . . . . . . . . . . . . . . . . . . . . . . . . . . . . . . . . . . . . . . . . . . . . . . . . . . . . . . . . . . . . . . . . . . . . . . . . . . . . . X X X } +.S % o                 o           o + o + + + + + + + S   % % + % % % + ^ ^ ^ ^ ^ ^ ^ S % Y % % % % S + + + S o o + + o % o w.^ ] [ J X X i } +.S % + + + S % + + E + E CX,X9.O @ 3.H @ 0 0 H 6.2.&.8XuX .{.d.w.w.w.|.w.w.w.w.w.Y % % % + o + + w.^ ] [ i $ $ . $ . . . . i J X J / { {  .+.] ] / / >.} J i . [ . . X $ X X . . . X X X X . . X X X X $ $ $ X X $ $.+.@.+ Y Y + +   +     o +       + S + + % % + + + % % % + % + % + + % % + + + +   + o o o o o               o     o       o     o +     o                   o o + + % ^ +.i J X X $ $ $ X X X X X $ $ X X X J J J $ >./  .@.Y Y % o o o   +                                       +   % @.] i J $ X X X . . . X X X $ $ . i . 8XQ.E.OXF.F.F.<.<.<.<.<.<.F.F.F.1XqXS.S.S.6XF.<.<.<.<.<.<.<.<.<.F.pXaXZ.2X3.@ @ @ @ @ @ 0 H H @ H 3.@ 9.2.:.j $ j $ X $ X X X X X j $ z.5XH.L.M.........",
"X . X . . . X . . . . . . . . . . X . X X X X X X X X . . . X . X . . . . X X X X X X X X X X X X X X . i i i i X X X X X . . X X . . . . . . . . . . . . . . . . . . . . . . . . . . . . X X $ X >.| Y S   o + + + o o +     o + + o o   o   % % + + + + % + % % + S ^ |  .+.] ] / ] ] ] ] ] +.{ @.+ E + + + + + + o   %   % o o Y S  .>.i $ } $ [ / @.Y S + + + + o % + Y {.5X6.O @ 0 @ H O 9.2.:.5X .{.E w.w.w.E o o o   o S + E E + S + + + o   S S S +.} X $ X X $ . . . . . i X X . J $ J i i [ [ [ . i i J J $ X X X X X X X X X X . . X X X X X X X $ $ i i $.+.@.E % + S S S + o + + + + + o o   + + % + % Y Y % S ^ ^ @.| | { | { {  . .{ @.+ E o p       o o o o o     + +   o o     o o           o o   o o o o o o   o       o o + + @. ./ >.$ i [ i X X X . X X X . [ i J >./ +.{ ^ Y % S S % o     o   o                                     o o o % { $.i i J X X X X X X X X $ a ,X8X,X<XE.OX1XF.<.<.<.<.<.<.<.<.<.<.<.<.F.qXOXOXqXF.<.<.<.<.<.<.<.<.<.<.rXP.I.Q.3.0 @ @ @ O O O @ @ O @ @ @ 6.1.&.$ j $ $ X X X X X a a X X X z.Q.Z.iX0X9X....",
". . . . . . . . . . . . . . . . . . . . . . . . . . . . X . . X . X X X X . . i i i . . i i . i . . i X X X X X X X X X X X . . . . . . . . . . . . . . . . . . . . . . . . . . . . . . . X $ X X $ / @.+ + o o o o                       + o o   + Y % ^ @.| {  .+.] / >.} J [ i X . i X a . i $ $.] { S % + S S S   p + o o o   o % ^  .>.. . i } +.S % + + % + + % S Y w.uX1.O @ 0 @ O l.2.8XuX@.w.w.w.% % % o % E + p o o E E E E o o o o % % o   + w.@.] J X $ $ X . . . . . X X $ X X . X J $ X X X X $ $ X . X X $ $ X X X X . X X X X . . . . $ X X X $ $.+.@.Y % + S S S S + %   o         o o o % Y + ^ @.{  .+.] $.$.$.>.>.>.>.>.} $ J >./ +.| % %     o o                                                           o o o   o % % % % Y w.S | +.] $.>.} $ } $ X X } $./ ]  .| ^ % Y + + + + + o o o                                             + o o % +  .$.[ J X J i i i a X X a 5XQ.J.^.b.S.6XF.<.<.<.<.<.<.<.<.<.<.<.<.<.F.F.F.qX1XF.<.<.<.<.<.<.<.<.<.<.rXM.L.>XN.0 @ @ @ O O O 0 @ 0 0 3.O 6.:.j j a $ } X J X i . . . . X X @XuXH.OXpXrX9X..",
". . . . . . . . . . . . . . . . . X . X $ X X X X X X . . . X . X . . . . X X X X X X $ $ $ X X X $ X . . [ [ [ [ i i [ [ . X X X X . . . . . . . . . . . . . . . . . . . . . . . . . . . X X X X $ i ] @.+   + +   + o +                 + o   % Y | ] / $.$.} i i i i i i i X X X X X X X $ $ J i J >./ { ^ % + + o o o o   o   o o % + | ] $./  .^ % % + + % % o o w.w.uX:.9.H O @ 9.1.8X{ {.w.Y E + + +   o o % E + + + + % + % E + o % + % o   Y + { ] >.i X X X X . . . . . X X X X X X X X X X X X . . X X X . . . . X X X . X . . . X $ X $ X X . J i >. .% % E   + + + + + + + + S   + E Y Y E ^ {  .] $.>.} J i i i J a a $ a i a J $ $ $ $ X / { % Y E + o o                                               o o o o o %   + Y w.S |  . .+.+.+.+.+.+.] / / ] ] +.{ | | @.^ + o % o o + + S + + + o   +                                             %   o o % S  .>.i $ $ a X X a $ $ $ ^.Z.Z.H.Q.T.6XF.<.<.<.<.<.<.<.<.<.<.<.<.<.<.<.F.<.F.<.<.<.<.<.<.<.<.<.<.pX0XM.L.T.N.0 @ @ @ O O O @ @ O @ @ 0 6.&.,Xj j X a a X a j $ $ $ $ a . . ,XQ.S.qXF.pXrX",
". . . . . . . . . . . . . . . . . X X X X X X X X X X X X X X X $ X X X $ } $ X $ X X X . . . . [ [ . X $ } $./ ] +. . . .$.X X X . . . . . . . . . . . . . . . . . . . . . . . . . . . . . X $ X J J $ { Y Y % % + o o o                 + + o Y  .$.i X J i a . . i i X X X i i . . i . . . . X X X X X >.] @.% % o   o   o   o o o + + + ^ ^ ^ S + S S S S % Y w.Y ^ ] &.2.2.2.2.2.:.uX{.E % % + E + S   o                     % o + % % + % S w.@.+.>.X X X . . . . . . . . . . . . . . X . . . X . . X X . . . X X X X . . . X X X X X X X $ X $ } J J i ] ^ Y o o o o + + S + + + + + Y w.E @.{ +./ } } $ i X i a X i a a . i } J J J $ } $ $ j i J / | Y %   o o                                               o o o % o + % Y @. .] $.>.} } $ $ } } } } } } } } $.] { + % % % o o o       o o       +                                               o   o %   o o { $.[ $ } a $ $ i @X@X<XH.H.H.J.S.6XF.<.<.<.<.<.<.<.<.<.<.<.<.<.<.<.<.<.<.<.<.<.<.<.<.<.<.<.<.rX9XM.L.T.N.O @ @ O O O O @ @ @ H @ 0 3.&.j $ $ X a j $ $ $ $ $ $ $ $ $ i @XXXH.S.qXF.<.",
"i i i i i i i i i i i i i i i i i X i X X X X X X X $ X X $ J X J X i . i i . [ [ [ [ J } >.>.$.] ] +.+. .{ | @.^ ^ E +  .>.. X X . . . . . . . . . . . . . . . X . . . X X X . X . . X X X X X $ $ $ }  .^ ^ ^ ^ S o o o               o + o % | $.i X X X X X i . . i X X . . . X X . i X X X X X X $ . [ J +.S Y     o o o o   o o   + + % Y % % Y Y w.w.w.% S @. ./ j &.&.&.&.&.&./ {.w.% o o + + + + o   o o o + + o o + + + o o S S + + + Y @.] } i . X X X X X X . . . . . X X X X X . X X X X X X . . X X X . . . . X X X X . X X $ J X i [ [ . [ [ J +.+ o   +   o % + S S + % w.Y @. .] / >.$ i . i X X X X X X X $ $ } X [ [ @X@X@X@X@X[ $ . [ [ ] ^ Y o o p p + + o + + +   p +                           o + o % % % S  ./ >.$ J J X X X X X . i X X X X X X $ $.+.^ % o o o o o + +   + + + +   +                                               o o o     o + { $.i $ $ $ z.8XuXuX8X5X8X^.E.S.qXF.<.<.<.<.<.<.<.<.F.F.F.F.<.<.<.<.<.<.<.<.<.<.<.<.<.<.<.<.0X..M.I.T.N.0 @ @ 0 O O O O @ 0 @ @ @ H :.&.$ j $ $ j j j j j j a $ $ } $ i ,X^.H.S.qXF.",
"X X X X X X X X X X X X X X X X X X X . . . . . . . . [ [ [ [ [ i i i J } } >.$./ ] ] +. . .{ | @.^ S S + % % % % Y E { $.$ X X X . . . . . . . . . . . . X X X . X X X . . . X . X X i i X X X $ X i J / ] +.{ @.S o o o     o o o o o + o o % +.J [ } $ $ X X X X i i i i i X X X i X X X X X . . X X $ $ [ ] S Y   o o       + o o + + S S % + | { { {  . .+./ $.$ z.z.j $ a $ a j +.Y + o E + + + + S             + + +     +   + + S + Y Y ^ ] J i X X X X . . . . . . . . . . . . . . . . . . . . . . . . . . . . . . . X X X . X X $ X . J $ >.$./ / +.| % o o o o o % % % Y Y + |  .] >.$ X . . X } $ J $ X i X X $ $ . z.&.8XuX<X^.^.^.<X8X@X,X8X,X8X{     % o + p p                                 +   o   o o o % Y @.+.>.i . X $ J X J $ $ $ $ X X X X X $ $ X i } +.^ % o o o                                                                   o o o o     o S { / $ a z.5XQ.H.J.XX,X<X>XE.6X1X<.<.<.<.<.<.<.<.<.pXrXrXpX<.<.<.<.<.<.<.<.<.<.<.<.<.<.<.rX9X..P.I.>XN.0 @ @ 0 O O O @ O @ @ @ H H 2.1.:.&.&.j j j $ } $ $ a $ $ [ @Xz.@X@X<XH.S.6X",
". [ . [ . . [ . . . [ [ [ [ [ [ [ [ . . . X X X $ } } >.>.$.$./ ] ] ] +.+. .{ | @.^ ^ S + % Y % % Y Y % % o o + o + { $.. X $ X X X . . . . . . . . . . . X X X . X X . . . . X . . X i i X X X X X $.] +.+.{ @.^ S o o o o o o o o o         % { ] >.J i . i X X X i X X . X X X i i X X i i . . . X X $ X >. .+ % o o o         o o + + + + E E  .$.>.$.$./ / / / / ] ] ] ] +.+.+.+.| Y E E o + + + S                         % % % Y % S @.{ ] } X . X X X X . . . . . . . . . . . . . . . . . . . . . . . . . . . . . . . . . X . X . . a >.+. .{ { @.@.^ p % o o o o o + S ^ @.{ +./ >.J i i X $ $ $ } $ $ $ $ X $ $ [ [ ,XXX<X^.&X&X~.~.~.&XQ.^.Q.Q.Q.b.b.k.d.^ + + p p p                               + + o   o o o % @.] J J X X $ X X X X X X X X X X X $ X X $ $ $ [ $.| % o o +                                                                 o o o % % o   p + % { $.$ ,X^.E.Z.E.v.k.H.S.6X1X<.<.<.<.<.<.<.<.<.rX0X9X9X9X0XpX<.<.<.<.<.<.<.<.<.<.<.<.pX0X....P.Z.Q.3.O H @ O O O O @ @ @ @ @ O @ H 6.6.2.2.1.:.&.&.j j j $ $ a 8X<X<XCXuX8X<X>XH.",
"i i J J J $ $ } } } >.>.>.>.>.>.$.$./ / ] ] ] +.+.+. . . .{ | | @.^ ^ S E Y Y Y Y Y % % o o o p           o o   o S +.J $ X J X X X . . . . . . . . . . . . X . X X . X X X X i X X X X $ $ $ X J / | ^ S % % % o o % +   +       S S   o o o % + ^  .] >.$ J X i . . X X $ X X X . X X . . . X X X X X i J +.^ % + o o o           + + + + % + Y { $.[ } / ] +.{ | @.| @.@.@.@.@.@.@.^ E Y Y Y % + + + o o o o o o o o o % Y % Y + ^ @.{ +.] >.J J X X X X . . . . . . . . . . . . . . . . . . . . . . . . . . . . . . . . . . . . X X . $ /  .S Y % Y Y Y % o o o S + + + ^ {  .+.$.$ . i J J . X X X X . . . X a a a . ,XXX^.&X).).qX1X1X1X1X6XZ.E.S.OXOXS.E.H.v.j.d.  E + o o E E + p +                     o   S + + % @.] i i $ X X X X X X X X X X X $ X X $ $ X . X X J i +.S % + +                                                                 o   o o o o o % + % ^  .+.{ b.H.H.J.J.H.S.qXF.<.<.<.<.<.<.<.<.<.pX0X..........9XrX<.<.<.<.<.<.<.<.<.<.pX0X9X..M.L.Z.2X0 O @ @ O O O O @ @ @ @ 0 O O O @ @ O O H 6.2.2.1.:.:.&.&.5Xb.Y.C.C.Y.kX<XXX^.",
"] ] ] ] ] +.+.+.+.+. . . .{ { { { | | @.^ S + % % % % % + % Y % % o o o o o                   o o + + +         o   +.$ J X X X X X . . . . . . . . i X . X $ X X X X X X X X $ $ $ $ $ $ $ X $ / | Y % % % o     + + + + S + + + + + + % % % % + Y Y ^ { +.] $.} $ X X X X X X X X X X X X X X X $ $ X $ ] @.+ + + o o o               o o o o Y @./ X } $./ / ] ] +.+.+.+.+.+.+.+.+.+.{ @.^ S o o % % % + + + + + + + + + S @.|  .+./ >.X [ [ X X X X . X X . . . . . . . . . . . . . . . . . . . . . . . . . . . . . . . . . X X $ X } ] | + o o         + o o + + + % % ^ {  .+./ } $ $ X X $ $ X X $ J $ } } } } $ 8X^.T.~.qX1X<.<.<.<.<.F.qX!.S.1XF.1XqXOXS.E.H.b.j.E E E E E E + p E                   + p + S + Y S +.} [ $ X . X X X X X X . X X X X X X . X $ X X $ J i ] ^ %   o                                                                   o     o o o o o E o E % w.j.k.k.j.b.E.OXF.<.<.<.<.<.<.<.<.<.<.rX..............9XpX<.<.<.<.<.<.<.<.pX9X......M.I.H.N.0 @ @ @ O O O O O O O O @ 0 0 O @ 0 @ 0 O O @ 0 0 H 6.6.N.Q.s.a.p.p.p.y.h.v.XX",
"+ + + + + + + % % % Y Y Y % Y w.Y % % % % % % + + + + S S   o                   o o o o + + +       o   o o o o o o @./ J X X X X J X X X X . X X X X X X $ $ X X X X J J i X } $ $ . J J i >.] | % + S S + +     + + + + S + + + S S ^ | { | ^ + + + % Y E ^ | +.] / $.>.J J J J $ i X X X X J J $ $ $.+.@.% + + + o %           o + + o %   + Y | $.. . [ [ [ [ [ [ [ i i i i i i i J >./ ] +. .{ | @.@.@.| | | @.| {  . .] / >.$ J [ . X X i X X i . X X X X X X . X . . . . . . . . . . . . . . . . . . . X X . . X X X . X $ X X . $.{ w.+   o     + + + o o o + + + % % % E S { / X X J >./ / / ] ] +.+. . .+.+.uXQ.E.6XF.F.pXrXrXrXrXpX<.1XqX1XF.<.<.F.F.1XqXOXE.b.S + E E E E o p +   p + p           + o + S + % { $.. $ $ $ X . X X X X X X X . . X X X X X X X J J J / { S o o                         +                 +       o       + + +   o   o o o o o o E E % % o o S d.d.k.v.E.qXF.<.<.<.<.<.<.<.<.<.pX0X................0X<.<.<.<.<.<.<.rX9X........P.I.Q.3.0 @ @ @ @ O O O @ O @ @ 0 @ @ O O @ @ @ @ @ @ @ H H H O 3.>Xs.p.! ! ! _ p.7XH.",
"+ S + + + + + o   + + S + + + S S S S S +   + + + % + + S + o                                                   o   + { $.J J X X X . . . . X X X X X X X X X . X i i J J J i X X X . i } ]  .^ % + S + + o o     + + + S + + S @.{ +.] $.$ $.+.@.% % + + + % E + + ^ |  .+.] ] / $.$.$.>.>.>.>.$.] +.{ + Y % % + S o o o               o % +   % { $.. X X $ $ $ $ X X X X X X . X . J i . . X $ } >.>.$.$.$.$.$.$.>.} } X . . . X X X X $ X . X X . X . . . X . . X . . . . . . . . . . . . . . . . . . . . . . . . . . . X i $ . X . $.{ Y S %   +       o o o + + Y + S |  .] / >.} X $ } $.] +.{ | S Y Y Y Y % ^ b.H.OXF.<.rX9X......9X0XrXpX1X1XF.<.<.<.<.<.F.qXZ.J.d.+ E E E E E o o + +   +             o + S + S +.$ X $ . X X X X . . . . . . . i X X X X $ $ X . >.+.@.% o o % +                   +     o o o o o o o o   o o o   o o o       o   o   o o o o o p + d.j.b.v.J.J.H.H.S.6X1X<.<.<.<.<.<.<.<.<.pX0X..................0XrXpXpX<.<.<.pX9X..........L.S.XX0 0 @ @ @ @ O @ 0 O @ @ O @ @ @ O O O O O O @ 0 O O @ H H 3.^.s.a._ ! ! ! _ y.7X",
"o   o   + o % o o o o o o o + + + + + + % % % o + + S + S + o                                                 o o o + +  .$.J . X J X X X X X X X i i i X >.$./ / / / $.>.} } } } >./ +.{ ^ % + + % % + + o o o % % + ^ | { +.] / >.J J X . X }  .S % + + S + S S + + o o + S ^ ^ @.@.@.@.@.@.@.^ ^ S + + S + + + + o   +                 o o o % +.$ [ X i X X X X X $ $ $ $ $ X $ J X X . X $ $ J i . i . . i X . . . . . $ $ $ X X X $ $ X . X X X . X X X . X X . X . . . . . . . . . . . . . . . . . . X X X X X X X X . X X X X . ] @.Y + o o %   + + + + o + % + { +.$.} J X . X $ X X . X $ } $.]  .| S % % d.J.OX1X<.rX9X............9XaX!.S.6XF.<.<.<.<.<.1XOXE.b.d.{.E E Y o + E   p + p           + o + S + S +.J . X $ $ X X . X X X X X X X X X $ X i . X } / { + Y + o o o                       o +                 +       +       o o o       o   o o % E j.b.>XT.T.OXOX6X6X6X1XF.<.<.<.<.<.<.<.<.<.pX0X......................9X9X9X0XrXrX0X..........M.L.>X3.@ @ @ @ @ @ O O @ @ O O @ O O 0 @ @ 0 O 0 0 O @ @ @ @ H 9.l.N.J.a._ ! ! ! _ _ a.",
"o + o   o o o o o     o     + + + +   o o o o o +   o o +                                                   o o o % % o + | ] $.$ i [ [ [ [ [ . J } $.]  .| @.^ ^ ^ @.@.| | | | | @.@.S   o o o % % % + + + ^ | { +.] / >.>.$ J J $ $ $ $ $ J >.| o o o o o o +         p p + o o o o + + + + + o o       +     + + + o +                 o   % ^ +.$.$.$.$.$.$.$.$.} i X $ $ X X X i X X . . X X i X X X X X X X . . X X X X X X X . X X X . . . X X X X X X X $ X X X . . . . . . . . . . . . . . . . . . . X X . . X $ X X $ $ $ . $. .E % + o % + o + + + S + + | +.>.$ J X X X X . . X X X X X a . i J >.]  .{ k.H.6XF.pXaXP.P.............P.I.!.rXpXpXpXpX1XF.F.1XOXE.H.J.b.j.  o E E p o + o p         +   +   + o @. .$.i i i $ X X X X $ $ X $ X a $ X . [ } /  .@.  o   o + +                       +   % + S + + + S S S + o o o o + S S + S S + + + % + + o   j.J.T.qX1X1XF.F.F.F.<.F.<.<.<.<.<.<.<.F.F.F.pX9X................................9X............P.S.XX}.3.@ @ @ @ O O @ O @ H @ @ @ @ @ 0 0 3.3.3.3.@ @ O O O 2.:.,X8X>Xs._ ! ! ! ! ! p.",
"                  o o   o o         o           o o       + +                                               o % o % %   o o ^ |  .] ] ] / / ] ] +.{ @.^ S o % o o o o o o o o o o o o o     o o o Y S { +.] / $.>.} $ X X X X X . X $ $ X J i ] ^ % o           o o + + +                               o   o o                           + o o S @.@.@.@.@.@.@.@.@.+.>.X X X X X . X i i X X i . X X X X X X i X X X i i i . . . . X . . . X X X . X X X X $ X X X X X . . . . . . . . . . . . . . . . . . X X X X X X . X $ $ . J /  .S % + +   o %   o % + % + { $.} X X X X X X X . . X X $ X X J J X $ $ z.&.5XJ.T.qXF.1XiXI.I.M...........P.L.iX9X9X9X9XiXOX6X<.F.1XqXOXOXE.H.b.d.{.Y o E p o +           +     o o % S | +./ J . . X X X X X X X X . . } $.]  .@.S + o o o       o                     + o + % % + + + % % % Y Y % Y Y Y Y w.Y + + + S + + S o p d.v.S.qXF.<.<.<.<.<.<.<.<.<.<.<.<.<.pXpXpXpXrX0X..............................................M.iX&X3.3.3.@ 3.@ @ @ @ @ 0 @ 3.3.3.0 3.3.0 0 @ O O O H 6.:.,X5X .CX@.d.H.s._ ! ! ! ! ! ! ",
"+         + + + + +   o o o         o o o o     o   o + o   o + +                 + + +     + + + o +       o o o o o     + % % S ^ ^ ^ ^ ^ ^ ^ S % % % + o o                               o o   + { $.} $ J J J X X X X X $ $ $ X X X [ J $.{   o   o o o o o o o o o o + + + + + + + o + +     o + +         + +     o o o o         o o o o + Y Y % % % % % % % + ] $ . X X X X i X . . . X X i . . . . . X i i . . . X X X X X . X X X . . . X $ X X $ X X } } X $ . . . . . X . X X X X X X . . X X X X X X . X X X X J J >.] | + % + + + o o o o o + + % @.] . $ . a X X i X X X X X . X $ X X . . . &.5X^.J.T.qXF.<.rXiXI.L.P.M.M.P.P.L.L.I.L.P.P.P.P.L.I.iXaXpX<.<.1X1XqXOXH.v.j.o o E o o +             +     o % + S ^ @. .] / $.>.} $ } } } >.$.]  .| ^ + + + + o   o o o +           +     + + +   o S + + Y Y % + ^ ^ @.@.@.@.@.@.@.@.@.^ + Y + S + E Y ^ d.J.S.1X<.<.<.<.<.<.<.<.<.<.<.rX0X0X0X9X9X9X9X......................M.M.M.M.M.M.M...........M.L.T.N.l.O O O O @ H @ @ @ @ @ @ @ @ l.l.O O 9.6.1.:.,X5XuX{ @.{.E E + k.H.7Xp.! ! ! _ p.p.",
"    o   o o o                 o o o         o   o o       o           o o o o o         o o                   o   o o o + o % % + % Y Y Y Y Y % % + + + + o o +                           + o o + @./ i i X X J $ $ $ } $ X $ $ X . . $ $.+.{ ^ % + o o   + +                         o +     + o + o                           + o o + o o o o o % o   + + + + % % w.+.} . X X X . . . . . . . . . . . . . . . . . . . . . . . . . . . . . . . . . X X X X X X } } X X . . . . . . X . . . . . . . X X . . X X $ X X . [ X >.]  .^ E % + + + + o % o o + + + % | $.X } $ X X X X X a X . [ [ [ . X } >.>.8X<X>XS.OX6XrXrX0X9XM.M.L.L.!.~.:X:X:X:X:XT.S.!.L.L.P.P.P.M.9XpX<.<.<.F.1X6XH.v.E + w.o o +                   o o o o % % + ^ | {  . . . . . . .| @.S % % % +   o   o                     +   o o     % % % S @.{  .+.] ] ] / / / / / / / / ] +.| S + % Y ^ +.uX>XS.1X<.<.<.<.<.<.<.<.<.pX0X9X................................P.L.I.I.Z.Z.Z.Z.L.M.......M.L.S.<X1.:.:.,X,X2.O 0 0 0 0 O l.O O H 2.1.&.,X8XuXuX{ CX{.E w.Y Y Y E p j.H.7Xp.! _ p.a.7XoX",
"    +   + +               o o o o o         o             o       o o S ^ ^ S + % % +                       o o   o % o % % % + S S S S     + +       o o o o +                           + + o + { >.i i [ i X X . i J X i i i J >./ +.{ ^ % + o o o     + + + o o                             o                               + o o   o o o o % % % % Y Y % Y E S | ] $ X X X X . . . . . . . . . . . . . . . . . . . . . . . . . . . . . . . . . . X X X X X X X X X . . . . . . X . . . . . . . X X . X $ X . i J >.$.]  .@.% % + + + + + +   % o o o + % Y | $.[ X J X i [ [ . X $ } >.$./ ] ] +. .{ k.T.eXiX0X0X9X9X......M.L.T.4XbXmXtXtXtXmXbXbX4XS.L.M.........0X<.<.<.<.F.1XOXH.d.+ w.o o +                 o o o % % o o o % % % + + + + + + % % Y % +       o o o o +                   +   + + + % + @.{ +.] $.>.$ J i i i . . . . i i [ i } /  .@.@. .] $ 8XQ.S.1X<.<.<.<.<.<.<.<.<.0XM...............................M.L.I.7X7Xa.a.a.y.a.oXL.M.M.P.I.E.Q.] ]  . .| | 5X:.6.6.6.6.1.&.,X8X5XuXuX{ | {.E E E w.w.% o o o % E % d.J.oXy.! p.a.oXT.~.",
"+ + S + + S + + + +   o o % o       + o o o   o o o o o o   o % % ^ { +.+.+. . .| ^ + E + + + + + o +             o o o o o + + +       o   o o           o o                             + o o S | +./ $.$ J J J J J $ } >.$./ ]  .@.S Y + S S + o     o o o o o o o o o o + + + + +   o o o o o o                     o o o o o o   + % % % % + + S ^ @.@.| | { +.$.$ $ $ . X X X . . . . . . . . . . . . . . . . . . . . . . . . . . . . . . . . . X . . X X . . X . . . . . . X . X X X X X X X X . . i X X $ $.] +.| ^ % % %   + o o o o     o o   o o o % S +.} $ $ } >.$.$./ ] +. . .{ | ^ S E + k.H.S.0X9X..............P.S.bXtXzXD.D.D.D.zXzXD.tX4X!.P.........9XpX<.<.<.<.F.6XH.d.p E o o                     o o o               o o o o o o o     o         o o o o +                 +   o + + + ^  .] >.$ . . . . i i X X . X X X X X J i . i } ]  .] / >.,X^.S.qX<.<.<.<.<.<.<.<.pX9X............................M.P.I.oX7Xy._ ! _ _ ! _ 7XI.L.L.Z.H.b.{.@.+ Y w.w.w.{.] j ,X$./ +.{ @.{.{.E w.w.w.Y % o   o % o o o o + o o ^ b.C.a._ a.oXOXG.G.",
"S S + S S + + + S + + + + o + + % + + % % o o o o o o o % o o Y ^ +.>.X X $ $ } $.]  .@.+ % + + o o % +                         o o o o   o     o o o o o                                 + o o + + + @.{ +.] ] ] ] ] ] +. .{ @.S % Y + + S + + + o o + + o % o + % % % % % % % % % % % Y Y % o o o o                   o o % +   + o % E + ^ @.{  .+.+.] / $.>.>.J [ X X X X X X . . . . . . . . . . . . . . . . . . . . . . . . . . . . . . . . . X . X X . . X X . X . . . . . X X X $ X X X X X i . X } $./ +.| ^ % % Y %   + +                 o o o o o o o ^  .+.+.+. .{ @.^ S + Y w.Y Y Y Y Y o k.H.iXM...............M.L.&XtXD.tXD.D.tXtXD.tXtXzXmXT.I.P.P.P.P.P.0X<.<.<.<.<.6XH.d.p p o o                             o o o o                             o o                           + o o E S | ] } [ . X X X X $ X X . X X X X X X X $ X $ $ X X ] | @.{ +.<XH.6XF.<.<.<.<.<.<.<.rX9X........................M.L.I.Z.7Xy._ ! _ ! ! _ _ a.oXZ.Z.H.v.j.{.Y w.Y p o     Y |  .| S E w.w.w.w.Y o o         p p o % + + + + E E E E k.H.s.a.7XS.*X~ G.",
"+ + + + + + % + + + + + + % % % % % % % o o o     o o o o o % ^ ] J [ . $ $ $ i [ . J /  .^ + S o   + o o o o o   o o o o o + + + +     o   o o           o                     o   o o o + o o + + + % Y Y % + + + + + % % w.w.% + + + % % % % % % % % + % Y % + + + S + + + + S ^ S S S S S + o o o o     o o o o + +   o + + + + S @.|  .] / >.J i [ i i [ [ [ i $ X . X X X X X . . . . . . . . . . . . . . . . . . . . . . . . . . . . . . . . . X . . X X X . X X X X i i i X $ X X X X X J J } $./ +.| ^ E Y Y % + + + o o   o + + + + +   o o o   o o o   % Y Y w.w.Y Y Y Y % + + S S S o o E   k.H.L.M...........M.P.P.L.&XmXtXtXD.D.D.D.D.D.D.tXtX:XI.L.L.I.I.L.0X<.<.<.<.1XOXH.d.p p o p                   o     o o             + + + + + +     o o         o o   o                   E o o % | / [ [ $ } $ X X X X X X X X . X X X X X X X X X } . / @.w.w.w.j.v.E.qXF.<.<.<.<.<.pX9X........................P.L.oXa.y._ ! ! ! _ ! ! _ a.oXE.J.b.j.{.S % E E E o   % o o o % Y Y Y E + + E + o o + + + + o + o E E w.|.|.W.W.W.n.W.J.C.7XoXOXG.G.G.",
"% % % % % % + % + + S + ^ ^ @.{ { {  . .@.o o o o o o %   o % { / >.} . . X X X X X . [ }  .% S + o   o       o o   o     +         o o                                           o       o o o o o o   o + + + + % Y % + + % Y Y Y % % % % S ^ ^ @.@.| | | { {  . .+.+.+.+.+.] ] ] ] / / /  .^ % o +   o o   o p   o     o o % ^ { +./ } i [ . . X $ $ X X $ $ X $ X X $ X X . X X . . . . . . . . . . . . . . . . . . . . . . . . . . . . . . . . . . . . . X . X . X . . X X X X X . X . $ >./ ]  .@.+ % % + + + + + + +   o                     o % o % % o     + + + S +   o o o o     + % o o Y + j.J.I.P...........L.I.L.L.I.4XmXzXtXtXtXtXtXD.D.tXbXS.P.M.P.I.I.P.rX<.<.<.F.6XE.v.{.p E + o                                                                                               +   % ^ ] [ i X . $ $ X X X X X . . . . . . . . X X . $ $ } [ / | Y E Y E j.H.S.1XF.<.<.<.<.pX9X........................P.Z.a._ ! ! ! _ _ ! ! ! y.7XH.v.j.{.S + E E E E E o o o o o % E o o E Y E E +   o o     p p o o + E W.n.B B B B B B B i.Y.C.Z.eX3XG.G.",
"+.+.+.+.+.+.+.+.+.] ] ] / $.>.} } J J / ^ % o   o o o o o o   + S |  .+./ >.} [ [ [ i [ >. .% S o o o   o o o     o   o o   + + + +     o +                                     o   o o o o o % Y Y Y Y w.w.w.Y + S ^ ^ @.@.| {  .+.+.+.] ] ] / / $.>.>.} $ J J i i i i i i i i [ [ . i [ >.{ Y Y + % o     o o o + S + % + @.+./ } [ [ X X $ X $ $ X X X X $ X X X X X X X X X X X . . . . . . . . . . . . . . . . . . . . . . . . . . . . . . . . . . . . . . X . X . X X i [ i J >.$./ ]  .| ^ + Y Y E   o   o % + + + + o o +                   o o % o o o o % + + S S     o o o   o o   + p o E % E k.E.L.M.......M.L.I.L.P.L.I.4XmXtXtXzXzXtXtXmX4XS.P.M...M.P.P.0X<.<.<.<.1XOXE.k.{.o E o o +                                                                                               o Y | / [ J . [ X X X X X X X . . . . X X X X X X X X $ $ [ ] ^ % + % % E k.H.OXqXF.<.<.<.<.pX9X......................L.Z.y._ ! _ p.a.a.m ! _ a.oXv.d.p % E o + Y % + + p + E + E E % % Y Y % + E + o o o o o + + E o w.W.B B B B B B B B B i.i.H.!.A.$XG.G.",
"$ X X X i . . . . . [ . [ [ [ i i [ $  .o o o                 o o o + S ^ @.{ +.] / $.>.+.^ % S o o + o o o o o o o o % o % + S + + S   % o                                     o o o o o o o   ^ ^ ^ | { +.+.+.+.] / / >.} } } $ J J i . . . i a X X . . . a X i i i i X X i i i X X J J >.] | + % +   o o % % o % Y E | +.$.X . X $ X X $ . . . . . . . . . . . . . . . . . . . . . . . . . . . . . . . . . . . . . . . . . . . . . . . . . . . . . . . . . X X X $ X X . >./ +. .{ @.^   % % o o o +   +               o                                             o   o o       o       p + o o o p d.v.Z.P.........M.M.M...M.L.!.T.&X:X:X:X:X&XS.I.L.M.....M...M.0X<.<.<.F.6XE.v.d.{.S + o o                                                                                               + + % ^ ] i $ $ X $ . . . . . . . . . . X X . X $ X . J $ [ $.{ + o p o o + S k.J.T.6XqX1X1X1X<.pXrX9X..................P.I.7Xa.a.a.s.oXoXs._ ! a.C.v.d.E % % o o % % o o % + + E E E + + + + o o   p       o o + E Y + |.n.B B B B B B B B B B i.H.!.A.#X3XG.",
"i i i J i i $ } } >.>.>.$.$.$.$.$.$.] ^ o o   o o o o o o o o + o o % % % % + S S ^ @.| @.+ % S   o o o o o o o o   + + S + + + + + S S o +   + o     +   + +       o             % o     %    ./ / $.>.>.$.>.J . $ X X X X X X X X X i . i . . a X X X X X X X X X X X X X X X X $ X $ } $ $ >.] @.Y % + + + + Y + | +.$.J . . X $ $ $ X X X X X X X X X X X X X X X X X X X X X X . . . . . . . . . . . . . . . . . . . . . . . . . . . . . . . . . . . . X X . $ $ $ X . ] @.+ + % % % % o o o o o + +   o   o o + + + + o o + o o + + + + + +   o + o o o o o o + + + + o o + o o   o o   o o + o o + + j.E.aXrX9X..............M.L.L.L.L.L.L.L.L.L.I.L.M.........9XpXF.F.F.6XS.J.j.{.E + + o o     o o                                                                                       +   o p  .} i } X X X X X X X X X . X X X . X $ } $ X J [ >.{ + o   o o o + p S j.b.b.>X>XT.T.OX6XqXrXrX0X0X9X........M.9XeXS.oXC.v.b.v.E.7Xy._ y.s.Y.j.o Y p o % + + % + ^ + w.Y % % E E E E o + o + o o o o % o + E + |.B i.B B B B B B B B B i.H.!.A. X$XG.",
" . . . . . .{ { { { { { { | | | | | @.+ o       o o           o o o + + + % % % % % % % % % + S + p + o o o o o % % Y Y w.w.w.Y Y Y Y % o o o     o +   +         o   +         o o o o o o o | / [ i /  .{ { ] >.. X J $ $ } $ $ X X X X X . . . X X . . . . . . . . . . . . . X $ X $ $ $ X . $ / { S % S % Y @. ./ } i J X X X . X $ X X . . . . . . . . . . . . . . . . . . . . . . . . . . . . . . . . . . . . . . . . . . . . . . . . . . . . . . . . X X X X X } . }  .% Y + % + o o o o o o o         o o o + + + +                   p o o   o o       + +                       o o     + o o % E d.J.S.qXpX0X9X........M.P.L.L.M.M.M.M...M.L.I.L.M.......M.0XqXqXqX6XS.J.k.E % E Y E o o o p                                                                                             o   % @.] [ $ $ i J X X X X X i X . . X X X $ $ $ . i $.{ S +   o o o o E % p S E w.j.j.k.b.v.J.T.T.OXOXaXaXiXiXiXL.L.!.T.Q.^.<X5XuX{ J.oXa._ p.a.Y.k.p E p o + % w.S  ./ / { @.{.{.E E Y E p   o   o o % % % E E w.w.W.B B B B B B B B B B B i.H.!.A. X#X3X",
"S + + S + + E E E + o % % % % Y % % % + o o o +     o           o   S + + % % o o o % + + + S S o o % Y % % % % o   ^ @.| | | | { | @.S % % o   o         o + o o               o   o % o o % + | / / @.% % % ^  .>.X $ $ $ $ $ X X X X X X . . . X . . . . . . . . . . . . . . X X X X $ $ $ X i J $. .+ Y + { ] >.X . $ $ X X X X X X X X . . . . . . . . . . . . . . . . . . . . . . . . . . . . . . . . . . . . . . . . . . . . . . . . . . . . . . . . . X X X X $ . / | % S S S         o o o o o o o o                       o o % o o               o o             o o o % % o o     o p o + o E E d.k.E.OX1X<.pXrX0X9XM.L.I.I.L.M...........P.L.P.M.M.P.L.L.S.OXS.T.>XQ.d.{.% % + E E o o +   o o                                                                                         o o + + { >.X $ X $ X . . . . . . . X X $ X X . [ $ / { + o     o % o o E E % E + o       E w.W.k.b.Q.>XT.T.S.S.S.S.T.Q.<X5X,X&.[ } >.<XH.s.p._ a.C.b.S E p o Y + | ] } ,X5X<Xj.k.j.j.d.Y w.Y Y Y % Y w.w.Y Y Y {.@. .{.B B B B B B B B B B B B Y.Z.B.;. X$X",
"% % % E E + + + o o o % + + E % o o + % o + o o o o o o         o +   + + % +   o o o + + + % % Y E S ^ | {  . .+.+.] / / $.$.$./ / ] +.| + + + o o + +   + +   S + o o         o   o o o o o Y % | | % + + E w.@./ . X $ $ X X X X . X X X . . . . . . . . . . . . . . . . . . X X i X X X X X $ X i / { |  ./ i i $ $ X . . X X X X . . . . . . . . . . . . . . . . . . . . . . . . . . . . . . . . . . . . . . . . . . . . . . . . . . . . . . . . . . . . X X X X $ X +.S Y + + +         o +   + S     o     o o o o % % % % % % E + ^ S E % % % + + % o o o o + % % % % + S ^ ^ ^ o o p o o o + + o o E d.v.E.OX1XF.<.pXrX9XP.L.L.P.............M.M.M.P.iXS.T.>XQ.Q.Q.^.uX,X/ | Y + E E % o o + o o o                                                                                       + o o + % ^  .>.i . $ $ . X X X X X X X X a [ i } / +.@.% % o o   o o o o o + % E E E w.Y + ^ |  .] / 8X5X<X^.^.^.^.<XuX>.a [ . a . . [ ,X>XC.y._ y.C.b.^ E Y o @. .uXuX^.b.v.Y.Y.Y.Y.v.k.{.@.^ ^ ^ ^ @.@.| { {  .+.$.:.8XW.i.i.B B B B B B B B B V.E.!.A.;. X",
"+ S + + E +     o o % % % % %     S   + Y % + o o o o o           + + o o o o o o + % % + + ^ | |  .+.] / $.} } $ $ . [ [ [ [ [ [ . . J / { + + + o o + o S % ^ | S % + +       o o o   o + + o o % % o + % % Y @.] . $ $ X X . X X . . X . X . . . . . . . . . . . . . . . . . X X i X i X X X X X X } / / } . . X $ X X . . X . . . . X . . . . . . . . . . . . . . . . . . . . . . . . . . . . . . . . . . . . . . . . . . . . . . . . . . . . . . . . . . X X X X $ X ] | ^ + % % o o + o + + + + + + % % % % % + + S S ^ @.@.| { { +. .@.Y S @.@.+ Y % % % % + S ^ @.| {  . .+. .| p % % o o E + + +   d.d.j.v.E.OXqX1XF.pX0XM.M.M.................M.L.S.Q.XX8X$ $ j z.@X[ [ } +.S + S ^ S o o o o o o                                                                                       + o % + + % ^  .$.$ X X . . . . X . X J J $ >./ +.| E Y o + o o     o o o S + % + % E S @.{ +./ >.$ [ [ @X@X@Xz.z.@X@X@X@X[ [ . a j $ $ @X<XC.a._ p.s.J.d.o ^ { uX<Xb.Y.C.a.a.a.a.a.s.s.Y.^.5X] ] ] ] ] / / $.>.} &.1.9.9.uXW.B i.i.B B B B B i.B V.E.I.A.;.;.",
"E E + E E +       % % + S ^ | {  . . .{ @.S + + o o o o             o o o o o % % % + @.|  .] / >.} i [ [ [ . X X $ $ X $ X X X X X X J [ $.@.+ + o o o o S % @.{ ^ o o +         % o     +   + % % % + + ^ @.| +.$.i X J . . X . . X X . X . . . X . . . . . . . . . . . . . . . . . . X X X X X X $ $ . . X $ X X X X . X X . . . X . . X . . . . . . . . . . . . . . . . . . . . . . . . . . . . . . . . . . . . . . . . . . . . . . . . . . . . . . . . . X X . $ $ X } / +.| ^ + + + + + + + + + + + + ^ ^ @.| { {  .+.] ] / $.>.>.J $.{ | +.] ] @.E + ^ @.| { +.] / $.} J >.]  .@.o % % o o E + E j.k.n.B b.^.Q.J.T.OX6XqXrX9X................M.P.I.T.<X&.@X. . . . . $ } } J ] | @.{ | @.  o o       o                                                                                       o o S S + % S | +./ >.>.} } } } >.$./ ] ]  .@.+ Y + S o o +       + + o + % + % ^ | +./ >.J . j $ $ X X J $ $ J j ,X,X8X5X5XuXuX<X<X<XXX<XH.7Xp.p.s.Y.j.{ uX<Xb.Y.a.p.p.p._ _ _ _ p.a.s.Y.<X@X[ [ [ [ [ [ [ . a j &.1.6.6.5X|.n.B B B i.B B B B i.Y.Z.B.;.;.",
"E E E E E o p   o % + | +.] $.} } } } } $.+.@.+ + o o o o   +         o o   o o S @. .] >.$ i [ [ J $ $ $ $ $ $ $ X X X X X X X X X X $ J J  .S o o % + o S S + ^ S o o o o o     o o o o o o o % S ^ {  .] / >.} J . $ X X X . . . . . X . . . . . . . . . . . . . . . . . . . X X i X X X X X X $ X X } } $ X $ $ X X X . . X . . . . . . . . . . . . . . . . . . . . . . . . . . . . . . . . . . . . . . . . . . . . . . . . . . . . . . . . . . . . . . . X X X X X $ X i i $. .S + S S S ^ @.| | {  .+.+.] / $.>.} $ a [ [ i i i X X } $.>.J i i ] { { +.] $.>.a [ . i J $. .^ % o o   o o E E S d.v.C.s.s.h.Y.Q.<X^.>XT.S.S.aXaX0X9X........M.L.I.>XXXa . X X } } $ $ } a } / +.{ { { @.^ + % o o     o o o o + + +       + + + + + + +     o                                               + o   + + + S + Y E @.{ +.+. .+. . .{ @.^ + % Y % + S + o +   o     o o o + % + | +.$.$ i i J $ } $ $ j ,X8X5X5XuX<X^.^.Q.>XJ.Y.C.C.C.C.H.>XH.oXy._ y.C.^.,X<XY.s.a.p.! ! ! ! ` ! ! ! _ y.s.v.8Xi $ } J $ $ $ $ $ } j &.&.:.2.&.uXCXW.n.n.n.n.n.n.j.sXT.!.;.;.",
"d.d.E E E + o % o | +.$.J i i X X i X i i $ +.^ %   o +   o   o o     +   o   @.+./ } i . X X X X $ $ X X X X . X $ X . X . . . i J X J $ i ] ^ % o o o o + + % % + o o o   o o o   o o o % o ^ { +./ } J i . . J $ X X X . . . . . . . . . . . . . . . . . . . . . . . . . . . . . . . . X X X X $ X X X . X X X $ X X X . . . . . . . . . . . . . . . . . . . . . . . . . . . . . . . . . . . . . . . . . . . . . . . . . . . . . . . . . . . . . . . . . . X X X $ X $ X $ J i $. .{  .+.] / $.$.>.} J [ . i i i . X X X $ } $ $ $ $ $ . . J $ J J J } } $ X X i X } $.]  .@.S + + o o o o o E % S j.Y.a.y.p.p.p.s.Y.<X,XXXH.7XoXS.6XrX0X9XP.L.I.S.^.,Xa } $ i $ $ $ $ $ J $ ] | + % % % % + o o o o o o                                   p o   +                                               o o + + + + + + + % % + % % % % + % % % o o o o o o   o         + + o % + E { / J X X J X . $ $ $ $ 8X<Xv.Y.Y.C.C.s.s.a.a.a.a.y.y.a.a.a.7XoXoXy.! y.C.^.<XC.s.y.` ! ! ! ! ! ! ! ! ! ! p.a.Y.5X[ } $ X X . X X $ $ $ } $ j j &.z.&.8X8X/ 8X8X8X=X1.3.-XS.A.;.",
"H.v.j.d.p p S | +.$.J J $ $ J X X X X . $ . >.{ + o   o o S + + S + + S + ^  .$.$ X J X X X . . X X . . X X . . X X . X . . . . . X X X J [ ] S % o o   o   +     o   o o o o   S % % + @.{ +./ } J J i i X X X X X X . X . . . . . . . . . . . . . . . . . . . . . . . . . . . . . . . . X X . X X . X X . . . X X X . X . . . . . . . . . . . . . . . . . . . . . . . . . . . . . . . . . . . . . . . . . . . . . . . . . . . . . . . . . . . . . . . . . . . X . . X X X $ $ $ $ } $ $ $ J J i i i i X X X X X X X X X X X X X X . X $ X X $ J $ X i i J $ } $ J } +.| S E % E + S + E + E + % % + j.V.s.p._ ! ! y.a.Y.^.<XC.a.a.7XoXS.S.!.I.S.Q.XX,Xa a . J J J $ $ J [ >.+.@.% +   o +   + o o o o o o   o o o +         S + % % % % S S p   o                                               o             +   o o                     o o o     o o o +       + + o o + E +.J X $ $ $ a a $ $ . 8Xb.C.a.y.y.y.p.p.y.p._ ! ! ! ! ! _ p.y.s.s.y.! y.oXT.H.s.y._ ! ! _ _ _ ! ! ! ! _ y.a.oXv.8X[ $ X X X X X X . . a X X a X X X $ j a . z.z.@X@Xz.1.5XT.B.;.",
"Z.E.H.v.k.E  .$.$ J X $ $ J J $ } } $ } } . }  .+ o   o   + + + S S + + | ] } X X X . i X X X X . . X X . X X X X . X . X . . . . X X X $ i +.S % o o +   o   o o   o o o o o o % S { ] / >.J J J X J X X . X X . . . X . . . . . . . . . . . . . . . . . . . . . . . . . . . . . . . . . . X X . . X . . X X X . . . X . . . . . . . . . . . . . . . . . . . . . . . . . . . . . . . . . . . . . . . . . . . . . . . . . . . . . . . . . . . . . . . . . . . X . X X X . X $ $ $ $ X X J X X X X X X X X X X i X X X i i X i i i i X . X X X X X . X X X X X X X J / @.+ + % % % o % E E + E + E Y E d.v.C.p._ ! ! ! y.s.J.>XC.p._ p.a.a.7X7XoX>X^.Q.Q.>XQ.<X8Xj X $ . $ ] | S + S + o o o       o o o o o o +   E Y Y Y % S ^ ^ @.@.@.@.^ % % + o +                                               +                                   o o     o o o               + +   o + | $.a $ X X X $ X J } z.^.C.a.p.! _ ! ! ! ! ! ! ! ! ! ! _ ! _ _ y.y.! _ y.7XE.s.y.! ! ! ! ! ! ! _ _ _ p.a.7XC.v.<Xa $ a X X X X X . X X . . . . . X X i i a X X . a $ $ a ,X<XS.B.",
"qX6XOXE.H.k.] i $ J $ X a i . . i [ [ [ i i ] @.+ p o o o + S ^ + Y ^  .$.J X X X X X X X X . X X X . X X X X X X X X X X X i i X X X $ $ J  .S o o % o o         o   o o o o   S +.$.J i i J J J X X X i X . . X X X . X . . . . . . . . . . . . . . . . . . . . . . . . . . . . . . . . X X . X X . X X . . . X X X . X . . . . . . . . . . . . . . . . . . . . . . . . . . . . . . . . . . . . . . . . . . . . . . . . . . . . . . . . . . . . . . . . . . . X . . X X X X X X $ $ . X $ $ X X X . X X X X X X X X X X X i i i i X X X X X $ $ X X . X $ J J [ J ] ^ % + + o + + E E E E E E E E Y d.b.Y.y._ _ _ ! _ y.s.C.s._ ! ! _ _ p.a.s.E.C.s.s.s.C.C.v.<X,X$ /  .^ E % + % + o o + + + + o o o   % Y Y % ^ @.{  .+.] ] ] / $./ / ] { + o   + o +   + + + +       o + + + + + + + +   +   o   + o o o o o o   o           p p + + p + + o o +     + + + +   + + + o ^ ] J X X X i X $ i i j ,Xv.7Xa._ ! ! ! ! ! ! ! ! ! ! ! ! ! ! ! ! ! ! ! ! ` a.s.y._ ! ! ! ! ! ! _ p.a.a.s.C.v.^.5Xj j $ } } X X X . X a . X X X X . X X . . X $ X X X X X X . ,XQ.S.",
"<.F.1X6XE.v.>.[ $ . i } >.} } } $ } } } >.] @.% o o o o o + % Y w.^ +.$.i . $ X X . X X X . X . . X X i . i . . i i . X X X X X X X J X . $.@.+ o o o                   o o + + { >.i i i X $ $ X X X . X i . . . . . . . . . . . . . . . . . . . . . . . . . . . . . . . . . . . . . . . . . . . . . . . . . . . . . . . . . . . . . . . . . . . . . . . . . . . . . . . . . . . . . . . . . . . . . . . . . . . . . . . . . . . . . . . . . . . . . . . . . . . . . X $ X X X . } / $.. . $ X X X X X . . . . X X X X X X X X X X X X a a . . . . [ [ [ i i i J $ / @.+ S S + E E + E E E E E E + S {.b.C.a._ ! _ ! ! _ y.y.y._ ! _ ! ! ! ` a.s.a.y.p.p.y.a.s.Y.^. .@.S Y % % + + + + o + %     o % Y % + @.{ +.] / $.>.} } $ X i . X i i / | % o       o                                     p o o o % % Y Y w.Y % % % % % % o + + +   p p o o                 o o p o o | $.J $ X X . X X i X X ,Xb.C.7Xa.a.p._ _ _ ! ! ! ! ! ! ! ! ! ! ! ! ! ! ! ! ` ` _ ! ! _ ! ! ! _ y.a.oXH.v.<X5X,Xi i $ $ } $ X X X . . . X . . X . X X X X X . . [ [ [ . X } >.$.uX>X",
"<.<.F.1XOXH.uX[ J / +. .{  . .{  .{ { { { ^ Y % + o % Y Y + S |  ./ } i J X X $ X X . . i i . . . . . . X X X X X X X X i i i . [ [ [ [ } +.E % o o o                   o o + % +.i $ $ $ $ $ $ X X X X . . . . . . . . . . . . . . . . . . . . . . . . . . . . . . . . . . . . . . . . . . . . . . . . . . . . . . . . . . . . . . . . . . . . . . . . . . . . . . . . . . . . . . . . . . . . . . . . . . . . . . . . . . . . . . . . . . . . . . . . . . . . . . . . X X X X [ >.{ | ] >.i i X X . . X X X X X X i . . . [ [ [ [ [ . X J $ } >.$.$./ / ] ] +.+.+.{ @.+ % |.W.W.W.W.W.W.W.W.W.W.W.|.|.v.C.a.! ! ! ! _ ! _ _ _ ! ! _ ! _ ! _ _ p._ ! ! _ _ p.y.s.Y.j.E % + % % + + + o + + o % Y Y + @.{ +.] $.} X X X . . . . X $ X . X [ >.{ % o     + + +       o o o % % % Y Y Y % % % Y Y % % + + + o o   ^ ^ ^ S ^ ^ ^ ^   p p o o + +                 o o       o    .$ X X J J X X J J $ $ j uXQ.v.Y.C.s.a.a.y.p._ ! ! ! ! ! ! ! ! ! _ _ ! ! ! ! ! ! ! ! ! ! _ p.a.s.Y.Q.<X8Xj z.a $ J X X X X X X X X . . . X X . . X X . . . . $ } $./ ] +.+.{ { | j.",
"<.<.F.F.6XS.J.j.CX{.^ E w.w.Y Y Y Y Y Y % % o o + % + ^ @.{  .] / >.a . X X X $ $ $ X . X X X $ $ X X X X . . . [ [ i J i J J } } >.>./ +.^ % + o o o o               + o o + %  .$ J $ } $ $ X X X $ $ X X X . . . . . . . . . . . . . . . . . . . . . . . . . . . . . . . . . . . . . . . . . . . . . . . . . . . . . . . . . . . . . . . . . . . . . . . . . . . . . . . . . . . . . . . . . . . . . . . . . . . . . . . . . . . . . . . . . . . . . . . . . . . . . X X X i [ $.@.w.^  ./ J X X X X X J i i i i J $ } >.>.$.$.$./ ] ] +.+. . .{ { | @.^ ^ S + E % + E W.n.B B B B B B B B B B n.B B V.C.a.! _ ! ! ! ! ! ! ! ! ! ! ! _ ! ! ! _ ! ! ! ! ! ! p.a.Y.k.{.% + o o o o o o   + + + ^ | +.] $.$ i i i . $ } $ X X $ $ $ $ X X i / | % + + o + + + + % % % o   S ^ @.@.@.@.| | | | | { {  . .+.+.+.uXuX+.] / / ] ] ]  .| ^ S + p + + o o       S + + + + + + + S  .i X X J $ J J X a a . z.@X,X8XXX^.J.C.oXs.s.a.y.y.p._ ! ! ! _ ! _ _ ! ! ! ! ! ! ! ! _ p.y.s.C.Y.<X,Xz.[ i $ $ a . X . . X X . X X X X X $ $ X i . . $ >.$.] +. .{ @.^ ^ + % % Y S ",
"rXqX1XF.1X6XS.E.H.J.b.j.o E % p o o       +   o + S @.{  .+.+. .{  .] $.} X i . . X i i X X i J J i X i X $ } } } >./ / ] ] +.+. . .{ | o % o   o o o o               o o o o % ^ ] J J $ $ X X $ $ $ $ } $ X X . . . . . . . . . . . . . . . . . . . . . . . . . . . . . . . . . . . . . . . . . . . . . . . . . . . . . . . . . . . . . . . . . . . . . . . . . . . . . . . . . . . . . . . . . . . . . . . . . . . . . . . . . . . . . . . . . . . . . . . . . . . X X X X X J ] S + % % { / $ . i . X J $ >.$./ ] ] +. .{ { | | @.^ S + % % Y % Y w.w.Y Y Y % + + + |.n.B i.i.B i.B B i.i.i.B i.i.i.V.Y.s._ _ ! ! ! ! ! ! ! ! ! ! ! ! ! ! ! ! ! ! ! ! ! _ p.s.Y.j.S Y S p o % o o o + % + { ] $.X [ [ X $ $ $ X $ X J X X X $ X $ J . }  .+ % + % o S + % % + ^ | {  .+.] ] ] ] / / / $.} } J J [ [ [ [ ,X<XQ.<Xz.,XXX<X^.^.^.k.k.j.{.p + E o o o     S + + + + % + S S { $ $ $ $ a . . a $ } >.$./ ] +. .CXk.v.Y.Y.Y.C.oXs.s.y.y.p._ _ ! ! ! ! _ ! _ _ _ p.y.a.s.C.Y.Y.B ] @X} } $ X X i . . X . . . X X X X $ $ $ X J $ >./ ]  .| ^ % Y w.Y Y Y % o   + o ",
"L.I.aXrX<.F.1X6XOXS.H.v.j.  + o o +       + o + S ^ @.@.@.S Y w.w.w.S | +./ $.} $ J J J J J J $ J $ >.$./ ] +. .{ | @.@.^ + % Y Y Y Y Y % o % o o o o o                 o o     Y @.] $ i J J J $ $ X X $ X X X . X X X . X . X X . . . . . . . . . . . . . . . . . . . . . . . . . . . . . . . . . . . . . . . . . . . . . . . . . . . . . . . . . . . . . . . . . . . . . . . . . . . . . . . . . . . . . . . . . . . . . . . . . . . . . . . . . X . X X X X X X . X $ X $ X }  .% + S + % @./ J J >.$.] +. .{ @.S + % % w.Y Y w.Y Y Y Y % % o o o o +   + o o + + + W.B B B B B B B B B B B B B B B i.Y.s.y.! ! ! ! ! ! ! ! ! ! ! ! ! ! ! ! ! ! ! _ _ p.y.s.C.v.d.S Y + p o o o o o + + @.$.[ [ . X X X X i . X X i J J i J $ $ J J i ] @.Y   o + % S % + @. .] $.>.J i [ [ [ [ [ [ @X@X. $ $ $ } >.} z.5XJ.oXQ.XXQ.T.T.T.T.T.T.T.J.k.E p + o p o   o +   + + + + + S + | >.X $ $ j $.] ]  .| {.|.W.n.B i.i.i.B B i.V.J.Y.Y.C.oX7Xa.y.p.p._ _ p.p.y.y.a.a.s.7XoXC.Y.V.i.n.] . $ j X X a a a X . X X X X X X X X X i X } ]  .@.+ w.w.Y % % + S S + + + p + o ",
"L.L.L.P.0XpX<.F.F.1X6XS.J.k.^ o o o       + o + + % Y Y Y % o     + Y Y % ^ |  .+.] ] ] ] ] ] ] +. .{ @.S % % Y w.w.Y % % % + o o o   + o o o o o o o o                 o o   o   Y ^ ] >.} J J } $ . i X X X X X . . . . . X . . . . . . . . . . . . . . . . . . . . . . . . . . . . . . . . . . . . . . . . . . . . . . . . . . . . . . . . . . . . . . . . . . . . . . . . . . . . . . . . . . . . . . . . . . . . . . . . . . . . . . . . . . . . X . . . . . . X . X X X . / | % S + + + % { ] +.{ @.+ Y Y w.Y Y % + S S     +   + + o o +     o o o o o % Y % % E W.B B B B B B B B B B B B B B B B V.C.a.p._ ! ! ! ! ! ! ! ! ! ! ! ! ! ! ! _ p.y.y.a.C.V.k.j.E + w.E o o   o o   o S +.i X J X . . . X $ } >.$.$.$./ / / >.J J i $.{ + S   o + o + ^  ./ $ [ [ i J $ X $ X $ $ X ,XXX^.Q.>X>X>XQ.^.XXXXQ.J.<X>XT.*X].].].].].*XT.J.k.S p o o p p   S + + + + + + + | +.>.X $ . ] |.n.B B B i.i.i.i.i.i.i.B B B B B B B v.V.Y.H.C.C.s.s.a.7X7X7X7XoXoXC.C.Y.Y.V.i.B B w.>.. $ X X X . . . . . . . . . X X X X X X $. .^ Y Y + S + + + + + + + + + + o o o ",
"M.M.M...9XrX<.<.<.<.F.qXS.J.j.  % o       + o + + + + + + + + o o o + + o % Y w.Y + + + + + + E Y Y Y Y % o + S S S S S S + +     o % o o     o o     o                 o + o p   o % S |  . .+.+.] >.J i . i i X X X X . X . X X X . . . . . . . . . . . . . . . . . . . . . . . . . . . . . . . . . . . . . . . . . . . . . . . . . . . . . . . . . . . . . . . . . . . . . . . . . . . . . . . . . . . . . . . . . . . . . . . . . . . . . . . . X . X X X X $ $ X X $ $ [ } +.% % + + Y + + + S + % + % + + + S S + + + % o o   o o o o o o o o o o   o o o % % Y E W.B B B B B B B B B B B B B B B B i.V.C.s.y._ _ ! ! ! ! ! ! ! ! _ _ ! _ y.a.a.s.C.V.k.d.{.S % % E Y p o   o o   % + ] i i i J } $./ ] +. .| @.^ ^ ^ S @.] i [ }  .+ + S o o + + { / $ i J $ $ $ $ $ $ $ $ $ [ ,X^.J.T.~.~.~.~.~.).&X-XQ.>XQ.T.].g.g.g.g.g.g.g.].S.v.E p o + o   o + + + + + % + { / X X X X j @.B i.B B B B B B B B B B B B B B B B B B B B i.V.J.Y.Y.Y.Y.H.H.H.H.Y.V.V.i.B B i.B |./ z.$ $ X X X . . . . . X . . X X X J J J ] | E % o o o o E E + % % % Y Y % % o S + ",
"M.........0XpX<.<.<.F.F.OXH.k.^ %                     o o + % + S + o o       S S + + + o o o o               o o o o o       o o   o o   o o     o o                       +   % % + o Y % % % + S @. .] $.} i [ [ . $ X X X X X X . . . . . . . . . . . . . . . . . . . . . . . . . . . . . . . . . . . . . . . . . . . . . . . . . . . . . . . . . . . . . . . . . . . . . . . . . . . . . . . . . . . . . . . . . . . . . . . . . . . . . . . . X X . . . [ [ [ [ . . [ i ] ^ Y S % o +   o o o o         o o o     o o o   o o o o o o     o o         o o o o % + w.n.B B B B B B B B B B B B B B B i.i.V.Y.h.y.y.p.p._ _ ! ! ! _ p.p.a.a.s.C.J.v.k.w.E E % o o E   +   + o o o o     | ] $.]  .{ @.S   o % o % % % % Y % { ] /  .  o +     % +  .>.X X X X X a X X . J . z.z.,X^.S.~.wXVXg.g.g.~ g.wX].~.S.S.~.wX~ ~ ~ ~ ~ ~ ~ wXOXH.j.p o o o   % %   o + E E { $.i $ X $ i $ {.B B B B B B B B B B B B B B B B B B B B B B B B B B i.B i.B i.B i.B B B B B i.B {.$.. X X . . . . . . . . . $ . X $ X X J $ / ^ % + o o o o o   + %   p ^ ^ ^ ^ p p o % ",
"P.M.M.M.M.9XrX<.<.<.<.F.OXJ.j.^ % o       +     + o o o o % Y Y Y Y o + + o o + S S S             o + o +               o o o     o     o     o o     o                   +   o o o o o % % % % + + % % S @.|  .+.] $.$ . X X X X X . . . . . . . . . . . . . . . . . . . . . . . . . . . . . . . . . . . . . . . . . . . . . . . . . . . X . X X X . . . . X . X . . . . . X X . X . . . . . . . . . . . . . . . . . . . . . . . . . . . . . . . . X $ X X } $.$.$.$./ $.$.] | + + + + %   o         + o o o       o o       +             o o     o o o     + o   + + Y |.n.B B B B B B B B B B B B B B B i.i.i.V.Y.U.s.a.a.a.y.y.y.h.h.C.Y.V.v.k.j.d.E E E E E + p o + p + p o o o o S   o ^ ^ S % % % o o o % o o + o o + % + ^ S % o o o   + S  .} i X J i . . X X $ i i ,X5X8X<X>X~.g.~ ~ ~ ~ ~ ~ ~ ~ g.wX).OX~.~ g.~ ~ ~ ~ ~ ~ 3XeXE.k.p o % o   o o %   % Y { / . X X X X J . { n.i.B B B B B B B B B B B B B B B B B B B i.B i.B i.B B B B B B B B B i.i.B |.+.>.a X J X X i a X . . . . X $ X . . X a . $.| +     o   o o o o p + j.k.b.b.b.b.k.j.d.^ ",
"I.L.L.L.L.P.rX<.<.<.F.1XS.J.d.S % o               + + o o S @.| @.^ + + + o o + + + + + + o + + o o o o o o                       o o o       o o     o                     o   o o + o o o o % + S + + % Y % + E | / X X X X . X X . . . . . . . . . . . . . . . . . . . . . . . . . . . . . . . . . . . . . . . . . . . . . . . . . . . X . X . X X X X X . X . X X X X X X X . X . . . . . . . . . . . . . . . . . . . . . . . . . . . . X . . X $ X J J ] @.@.@.@.@.@.@.@.S + + + + o +   + + o o o       + o +     + + o o o   o o o o     o o           o o + % % % E |.n.B B B B B B B B B B B B B B B B B B i.V.V.Y.Y.Y.Y.Y.Y.Y.V.n.j.j.d.+ + E E E E E E + p % o o     o o o o o o o % % + + + + o o o     o o o o + + % % + + o % o + + { $.[ J i J a a X X X $ $ z.<XH.v.Q.&X*Xg.~ ~ ~ ~ ~ ~ ~ ~ ~ ~ ~ ].G.~ ~ ~ ~ ~ ~ ~ ~ 3XA.S.b.S p o +   o     p Y | / J J X X X X $ z.] W.i.i.i.B B B B B B B B B B B B B B B B B B B B B B B B B B B i.B i.B B W. .$.j a a X X X X . a X . . . . . X . X X X . }  .+ + o o o   o o o E d.k.J.C.C.C.C.C.C.Y.v.k.",
"L.P.L.I.L.iXrX<.<.<.F.6XE.v.{.+ % +                 + o o ^ {  . .@.+ o +     S S S S                                                                                                       o % S S + + + o % + | ] } $ X X X X X X . . . . . . . . . . . . . . . . . . . . . . . . . . . . . . . . . . . . . . . . . . . . . . . . . . . . . . . . . . . . X . X . . . . . . . X . . . . . . . . . . . . . . . . . . . . . . . . . . . . X . X X . J $ i } +.% Y Y Y Y % Y % + + + + %   %                                                                 + o o % + + % + E w.W.n.B B B B B B B B B B B i.B B B B B B i.i.V.i.V.i.i.B W.w.^ p o + p % E o E E E + + +   o o o o o o o p o   + S S S + + o o o o o o o o o + + + % + o % o o % @./ i J J X i i . . X X i [ @X<XJ.J.J.T.*Xg.~ ~ ~ ~ ~ ~ ~ ~ ~ ~ ~ g.~ ~ ~ ~ ~ ~ ~ ~ G.#XA.S.v.d.o Y % % Y % % w.o +.$ J $ . X X X X a } { W.n.B B i.i.i.B B B B B B B B B B B B B i.B B B i.B B B i.i.i.B B n.W.{./ a X $ $ X X X . . . . . . . . X . X X X X [ $.| % + o o o o o % + d.b.Y.s.a.y.y.y.y.y.a.h.U.",
"M.M.M.L.L.0XpX<.<.F.1XS.H.k.^ % o +                 + o o S @.@.@.S + + +     S S S S                                                                                           o o     o   o o S S + + + % S { / i . X X X X X X X . . . . . . . . . . . . . . . . . . . . . . . . . . . . . . . . . . . . . . . . . . . . . . . . . . . . X X X X . . . X X X X X . . . X X . . . . . . . . . . . . . . . . . . . . . . . . . . . . . . . . . . X X J i $.{ Y + % o o o o o + + + o + + +                                                                 + o o + S S + o o + E w.W.n.n.B B B B B B B B i.i.B B B B B B B B B B B n.W.|.E p % % E E E % E E % o + + p p p p p p p o Y + o p p p + E E E o p o o ^ ^ + o o + + + + + + % + Y S +.$ i J X X X i i a X a ,X5X<X5XXXQ.E.OX].g.~ ~ ~ ~ ~ ~ ~ ~ g.~ ~ ~ ~ ~ ~ ~ ~ ~ ~ ~ 3X XA.S.b.d.S S ^ ^ @.@.| @. .$.i $ X X X $ $ $ $ . >.]  .{ {.|.W.n.i.i.B B B B B B B B B B B B B B B i.i.i.i.B B n.n.W.|.w.+ +.} X $ X X X X . . . . . . . . X X X X X i X ] ^ %     o o o o o E k.Y.s.y._ ! ! ! ! _ _ p.y.",
"......M.9XrX<.<.<.F.6XE.v.d.p o o +                 + o o o o % % o                                                                                                             o o     o o     o o o o % + { / J J $ X X X . . X . . . . . . . . . . . . . . . . . . . . . . . . . . . . . . . . . . . . . . . . . . . . . . . . . . . . X X X $ X X X $ X X X X X X X X X X X X X . . . . . . . . . . . . . . . . . . . . . . . . . . . X X . . X X a i ] @.Y   o         o       o + + + S S                                                               + +       + + o o + o o w.|.W.W.n.n.n.n.n.n.n.n.n.n.n.n.n.n.n.n.n.W.W.|.E E + + + + + o p S S + +   p % p   d.d.d.E     ^ S p o % % % E E % o p o o @.^ o % o o + o o   + + + Y | / [ X X X X X X X X . ,XXXJ.H.<X8XQ.S.~.~ ~ ~ ~ ~ ~ G.3X$X$X3XG.~ ~ ~ ~ ~ ~ ~ ~ VXG.$X;.B.E.j.+.+.] ] ] ] / / / $.$ X $ X X X X X X X X . [ [ . } $./ { W.B B B B B B B B i.i.i.i.i.i.i.B B B n.n.W.|.w.^ @.@.| { ] $ i X X X X X . . . . . . . . X X X X $ i } +.+ o     o   + o p {.b.C.a._ ! ! ! ! ! ! ! ! _ ",
"........9XpXF.<.1X6XE.J.j.  o o o +                                 o o                                                                                                                   o o   o %   o Y | / J J $ X X J i X X . . . . . . . . . . . . . . . . . . . . . . . . . . . . . . . . . . . . . . . . . . . . . . . . . . . . X X . $ $ X X $ $ X i X i X X X X X X X X X . . . . . . . . . . . . . . . . . . . . . . . . . . . X X X X X $ . >. .+ o   o o   o o   o o o   S S S S S                                                                     o o       o o o   + + + % w.|.|.|.|.|.|.|.w.|.|.|.|.|.w.|.w.w.E + + + S + E p ^ + E d.j.j.d.d.+ + j.k.v.v.v.v.v.b.j.w.E + + E + o % o o o o o   o o % % o o % % o + S + %  .} . X X X X J X $ J . ,X^.H.J.Q.>XT.*XVXg.~ ~ ~ g.~ 3X#X X X X$XG.~ ~ ~ ~ ~ ~ g.G.$X X;.!.J.5X[ i [ [ i [ [ [ . . X J X J X J J J J J J J J $ i [ [ @X$  .|.n.B B B B B B n.B B n.n.n.W.W.|.{.@.{  .+.+.] ] / / $.J X X X X X . $ . . . . . . . X X X X X $ [ >. .Y o o o   o + o p + b.C.s.y.p._ _ ! ! ! ! ! ! ",
"....M.9XrX1X1X1X6XE.J.j.  p % o p o                 +   o +   + + + o o o o o   + + +     o + + o   o                                                                                       o o o o o Y ^ / . X $ i X X X X X X X X X . . X X X . . X X X X X X X X X X X X X X X X X X X X X X X X X . . . X X X X X X X X X X X X i X X X X X X . X X i i i i i i X X . . . X X . i i X X X X X X X . . . . . . . . . . . . . . . . . . X X X X X X $ +.^ Y +     % + + + + o o   o p + + + S   o + o o o o   p p o o o + + o +                                 +     + o o + o o o o o % + + + + o o o o + + E + S + S S + E E E E % + + E E E j.k.v.v.J.J.v.v.b.k.v.H.E.S.E.E.E.E.H.v.b.k.d.d.+ + % E o o o   % % o o o o + + o o % + % ^ ] . X X X . $ X X X J a j 5X<XXXQ.E.*XVXg.~ ~ ~ ~ g.G.#X;.;.;.;. X$XG.~ ~ ~ ~ ~ G.$X X;.A.!.Q.,Xi $ J J J J J J X X J J J } >./ ] ] ] ] / / / / / / ] ] ] +.{ |.W.W.|.|.w.{.{.@.| { uX+./ / $.>.$ j j a J i i X . i X X X X X X X X X X X a . . X X $ $ . X $ . >. .Y   o   + o + o o S j.v.C.s.a.y.p._ _ _ ! ! ! ",
"M.P.L.iXOXOXOXT.J.v.d.E o % % o o o                         o     + +                 + o         o                                                                                           o o   %   +.$ X $ X . X X X . . . X X . X X . . . i X X i i i i i i i i i i i i . . . . . . . . . . . . . . . . . . . . . . . X . . . X X X . X X . . $ >.>.>.$.>.$.>.>.} $ X . a X X X i . . . X X . . . . . . . . . . . . . . . . . . . . X X X $ $ . $. .@.^ o o o o + + + + p + o o + + + + + + o p p p p p   o +     p   p                                                   o o o o o o % % o o % % o   o o o o o + o p + E E E + + % E ^ {.k.J.H.E.Z.Z.Z.Z.Z.E.H.E.S.qXqXqXqX6X6XOXS.E.H.v.k.d.E E + p o +   o o o   o o     %   % + % @.] [ X $ X X X $ X a $ ,X,X8X8XXX>X~.].g.~ ~ ~ ~ ~ ~ $X X;.;.;.;.;. X3X~ ~ ~ ~ G.$X X;.;.B.S.<Xj i a X $ $ $ X X X X J } $.]  .@.+ + S S ^ ^ ^ ^ ^ ^ ^ + % Y {.{ +./ $.$.>.$ a a . . . z.z.z.. . a j $ } $ J X } } X . . X $ X a X i . . . i X X . . X X X X } i } +.% o       + o % o w.W.B V.Y.C.s.s.a.y.p._ ! ! ",
"I.S.T.T.>X>XQ.<X5X{ o o S + + o o +                 o   o o   o o     o o o o   o o + + + + + + %   %   o o o                                                                             o o + % o Y { >.i $ X . X X X X X $ X . X X . . X $ $ X X X X $ $ X X $ $ $ X X X X $ X $ $ X X X X X $ X X . . . X X X X $ $ X X X $ X X X X J J J J } $.+.{ | | | | | | { {  .+.] >.J i i i J $ X X i X X . . . . . . . . . . . . . . . . . . X . X X X X X >.$.]  .| @.+ E % Y E E o   p p E d.d.S p p S {.+   ^   p p o o o E + o o                                               o o   o % % + + o o o % o o o o o o o % o o % % S + % % ^ { <XQ.H.Z.Z.Z.OX6XqXqX6XZ.Z.Z.OXF.F.F.F.F.F.F.1XqXOXS.H.v.k.o p p p E o o % o o o o   o o o +   % S +.X . X . $ i J ,X8XXX<X^.Q.&XT.~.].~ ~ ~ ~ ~ ~ ~ 3X X;.;.;.;.;.;. X#X$X$X3XG.$X X;.;.;.B.>X8Xi J i i i J J i } >.$.]  .@.^ E % o % o o o o o o o o % + % @.] >.i [ a . a a $ a a $ $ $ $ X X X a X X $ $ J X X . . X J X X X X a . J X X a . i J X X $ $ X $ J X ] S % % o E Y % {.w.n.B B i.i.V.V.Y.C.oXa.p._ ! ",
"^.XX8X8X,X,X,Xa J ] S o                                 o     % o   o o     o + + + % % % % % + %   % o   o % o                                                                           o o o o o + ] J X X . X $ X $ X X X X J X X X $ X X X . [ . . . [ [ [ . . . . X . . X . . [ [ X $ $ $ X X X . . . X X X X $ X $ X . $ $ X i J } >./ +.{ @.+ % % % % o o o o % o o S | +.] ] ] >.J X $ J X X . . . . . . . . . . . . . . . . . . . X . . . X . i i . $ } / +. . . .{ @.p % + + b.J.b.d.d.k.v.v.v.v.v.k.j.{.p o % % + o +                                                   +                                 o o o   o + E w.{ <XQ.E.Z.Z.S.6XqXF.F.F.F.F.6XZ.I.6XF.<.<.<.<.<.<.<.F.F.1X6XE.H.v.j.S o E % p o +         o   %     o % | ] >.} $ . i z.<X-X:X].].].].wXVXg.~ ~ ~ ~ ~ g.G.#X X;.;.;.;.;.;.;.;.;.;. X X X;.;.;.A.S.^.] ] ] ] ] ] ] ] +. .@.^ S % % o o o   o       o o   o o S % S +.$ i $ $ $ X $ i . . . . . . i i i i i i . . . . . . X X . . X X X X a } } } $ a . i . z.[ [ [ z.z.. [ } +.@.@.| {  .+. .|.B B B B B B i.i.V.Y.C.s.y._ ",
"j j a . . a $ a $.{ o o o o + + o +       +     + + o + %           % Y Y Y Y % + + + + S S + + Y o o   o o o                               o         o o o o   o o     + o o o   o       o o o % o +  .>.i $ $ X $ } $ $ $ $ $ $ J i [ [ [ J $ $./ / ] ] ] ] ] ] ] ] ] ] ] / / ] / ] ] >.X X X X X X . X X $ X X $ J . X $ $ i i } /  .{ | @.^ + + + + p   o +     o o o o % Y + ^ ^ S  .$.i X X X X . . . . X . . . . X X X . X . . . . X . X X X X X a a X i X a [ z.,X8X8X]  .| @.d.Y.oXv.b.J.H.T.T.T.T.T.T.J.b.d.p o E o o E o o +         +       o     o o o   o           +   o o o + + o o o o o o o o o o o o o o o o + w.{ uXJ.Z.S.6XqX1XF.F.<.<.<.<.F.1XOXOX1X<.<.<.<.<.<.pX<.<.<.<.F.qXS.E.J.j.S % E + o o p   o     o o o o o % + ^ @.| { +./ uX>X).wXg.~ ~ ~ g.~ ~ ~ G.G.3X3X3X$X X;.;.;.;.;.;.;.;.;.;.;.;.;.;.;.;.;.eXT.j.^ {.{.^ ^ ^ ^ S + % % + + o   o o o o o o     o o   % %   Y { $.. $ $ X X X X a a a a a a a X X X X a a X X X X X X a a X X X X X X $ $ j @X@X,X,X,X8X5X5X5X5X5XuX5X8X,X,Xa J >.>.>.. uXn.i.B B B B B B i.i.i.V.Y.C.s.",
". j $ $ X i J $.{ E o o o +                 +     o o o o o     % Y Y + ^ | {  .+.] ] ] ] / ]  .^ o o o o o                               o   o o o o         o     o o         o         o o o o % + S +.} [ X $ X X . . . [ [ [ i $ >./ ] +.{ | @.^ @.@.^ ^ ^ ^ ^ ^ ^ ^ ^ ^ ^ ^ S | ] >.X X X $ X X i . . X X X $ X X . . J >.]  .@.+ + + + + + S + + + o o + o o % % % o + + o % + + + { / $ i X J . . . X . X X X X X . . X . . . . . . a . . . a X a $ $ $ j ,XXX^.>X>X>X>X>XQ.^.<X>XJ.v.J.&X*X].3X].].].].T.H.k.^ + o o + o           o o     o     o o       o                             + + + +     o p     o o o + o Y ^ / Q.oXS.qXF.F.F.<.<.<.<.<.<.<.<.1X1XF.<.<.pXrX0X0X0X0XrX<.<.<.F.qXZ.Z.v.j.% Y E p o +       o o o % % % o + + E + E % @.k.H.*Xg.~ ~ ~ ~ ~ ~ G.$X#X#X X X X X;.;.;.;.;.;.A.A.B.!.!.!.!.A.;.;. XB.S.b.d.% E % % % % % % % o + + o o o %     %         o o o % o Y S ] $ $ } X X X X X . . . . . . . . . i i i . . . X a . . . . . . a X X J $ z.,X<XQ.>XJ.J.J.H.H.H.H.H.T.>X>X>XQ.^.uX,Xz.j j CXB i.B B B B i.B B B B B i.V.Y.",
"X $ } i [ J / { S % o o o                     + + o o o o o o % ^ {  .] / $.$.>.} $ X J J J J $.{ % o % % o o o                             o     o o o o o o o o o     + o o o   o         o o   o + Y ^ +.>.J i . X $ >.>.$./ ] +. .{ @.^ + E % % % % % % Y % Y % % % % Y % % S  .] >.$ X X X X X X X X X J X . [ [ X } / +.{ ^ + % + % + + + + + S + +   o o   o o o o o o o o % % Y Y ^ +.>.i $ X . . . . X . . . . . X X . X . . . . a . X X X X X $ $ $ a 8X^.T.&X).).).).).).:XQ.>XJ.J.T.*XVXg.g.g.~ g.VX*XT.v.d.S o p o o o o + + +     +             o o o   o                             p o p o o + o o o o o % % o % ] ,XJ.Z.6XF.<.<.<.<.<.<.<.<.F.F.F.F.F.<.pX0X9X9X........9XrXpX<.F.F.6XZ.E.k.S Y E o o +       o   o o o o o o +   o o %   k.J.*Xg.~ ~ ~ g.g.G.$X X;.;.;.;.;.;.;.;.;.;.;.A.!.Z.7X7X7Xs.oX!.A.A.!.S.v.d.o o o o + + + S + % o o o o o o o o o o o         o o o o w.| >.i $ $ X $ X . $ . . . . . . . . . a X a a X X . . X a a a a X $ a i J j XXQ.H.T.T.~.~.).).).).).).*X).*X*X).&XT.Q.XXj j CXn.i.B B B B B B B B i.B B B i.",
"[ a . . $.+.@.% + o % o o o               + o o + % + + S S Y + +.$.} J i i i . . . . i J $ i [ +.Y o o o o o o                             o o o o o o % % o     o + + o o o o o o         o       o o o ^ { +.+.+.+.+. .{ | @.^ S + % Y Y % + +     o o o         o + o   S + @.$.[ . X X X X X X . . . i i i J >.$.]  .| S Y Y % S S o   + o % + +       o o o   o o o o % % o % ^ {  .] / } X X X . . . . X X . $ } $ X X X X . . . . X X a X X i $ a [ @X>.^.T.~.].wX~ g.~ ~ wX].].).H.E.~.wXg.~ ~ ~ ~ ~ g.VXOXH.k.^ % p o o o o + + S S + o o   o o o o o o o o o p     S S S S             p o o p p o + o E o o % E   ^ { 5XQ.Z.S.qX<.<.<.F.<.<.<.<.<.qX6XOX6XqXrX9X................9X0X<.<.F.1XOXE.b.^ + o o o p         o         o o o o o   p p j.J.).~ ~ ~ ~ ~ g.3X X;.;.;.;.;.;.;.;.;.A.A.!.Z.7Xa.p._ p.p.a.Z.!.S.H.v.j.  o % o o + + + + o o o o   o o   o o o   o         o o o % %  .} i X X $ X X X X . . . . . . . . . a X a a a a X X X a $ $ $ $ a . >./ uX>XS.~.*X].wX~ ~ ~ ~ ~ ~ ~ ~ ~ g.~ wX].).S.>X8Xz./ | n.B i.B B B B B B B B i.B B ",
"8Xj >.] { S Y o   % % o o o                 o o + % + + % Y Y { >.z.. X X $ $ $ $ X X X $ J J $.{ %   o o o o o                           o o o o o + o % o + o % Y Y % o o o o o o o       o   o + o   o % Y % S S S + % % Y w.w.% o o o           o o o o   o   o o o o o o % ^ +.>.i . [ . . . . . X $ >.$.] +. .| @.+ Y % S + S S o % o   o o o o o   + + o o   o o o o % % + @.+.>.} . . X X X X . . . X $ X $ / / } X $ X X X . . . X X a X i X $ ,X5X5X<XT.~.VXg.g.~ ~ ~ g.g.g.g.wX).S.).wX~ ~ ~ ~ ~ ~ ~ G.eXS.b.^ o + % % o + + + S + + o o o o o % % o o o o o p     S S S S             o o o o p % + E % p ^ ^ d.j.k.b.>XE.S.qXF.<.<.F.F.F.<.<.<.F.6XZ.Z.Z.iXM.....................9XpX<.<.F.qXS.J.{.+ o % o p         o         o + + o o o o E d.v.T.].g.~ ~ ~ wX$X;.;.;.;.;.;.;.;.;.A.!.Z.7Xa.p._ ! ! _ y.s.E.H.v.k.d.+ o o o o + p p o o o   p     o o     o o   o         o o o + + ] $ J $ $ $ X X X X . . . . . . . . . X X X a a a J $ $ X $ X X a $ / ] uXQ.S.).wXg.g.g.~ g.g.~ g.g.~ g.~ ~ ~ g.g.VX*XS.Q.8X@X} +.|.n.B B i.B B B B B B i.B ",
"Q.uX{ {.% % o o o o o o o                   o o   + + + ^ @.{ / i . $ J X X X $ X i i X i J /  .S + o o o o o o o       o o + +       +   o o o o     o % % + + S @.@.S % o o o o o o         o   o + o o + % Y Y % % + + + + + o o o o o o + + + +         +   +     o o o o o Y +  ./ $.$.$.$.$./ ] ] +. .| @.+ Y Y % + + S S % % % % % +   o o o o + + + o     o   + o o + % +  .$ . . X X $ X X X . . . X $ . >.] / X X X X X X . . a a X X $ J $ z.uXv.>XQ.T.].g.~ ~ ~ ~ ~ ~ ~ ~ ~ g.g.].].~ ~ ~ ~ ~ ~ ~ ~ 3XA.S.v.{.E % + % % % % % % % + o   o   o o o o o o o o o     + + S S     o   o o o o o E + % % Y   {.j.b.v.H.E.E.Z.OXqXF.<.<.F.F.pXpXpXpXpXpX6X!.Z.I.L.M.................M.M.M.0X<.<.<.1XS.H.d.Y o o o o o +   o   o o o o         o E + % {.k.J.~.wXg.~ ~ G.#X;.;.;.;.;.;.;.;.;.B.oXa._ _ _ _ _ _ y.s.Y.b.j.d.^ p o o + p p p p + p +   o   o o     o o     o         + o o + S + +.} . $ $ $ $ X X X i X i i i . X i . X a X J $ X a $ $ $ X X } >.]  .] XXH.~.VXg.~ ~ ~ ~ ~ ~ ~ ~ ~ ~ ~ ~ ~ ~ ~ ~ g.VX).S.Q.8X@Xz.>. .w.n.B B B i.i.B B B B ",
"s.V.k.Y p p % % % o o o o                 + o o S S + @. .] $.} } $ . X . . . . X X i X >.] | + o o % +   o o o   o o o           o o     o o o o % % % % + @.{ +./ / | w.o o % o o   o o o         + o o + + + + S + S S % +   + % % o   %                           o o o o o + % + @.@.@.@.@.@.^ ^ + % Y Y % % + + % % % + Y % S ^ + Y % o % o o o +     o o o     + o o + % @./ i $ $ $ X X X X X . . . X X X $./ } . $ $ . $ X . X X X i $ a a a @X<XH.H.J.T.].~ ~ ~ ~ ~ ~ ~ ~ ~ ~ ~ ~ g.g.~ ~ ~ ~ ~ ~ ~ G.#XA.S.v.d.^ | { { | @.^ + % % + o % o o % % % % % o o o   o + S + S S   p   o     o o o + E + + @.CXb.J.E.Z.Z.S.OXqXF.F.<.F.1XqX6XaX0X0X0X9X0X0XaXL.I.P.................P.L.I.L.aXpX<.<.1XOXE.j.E % o % o     +                     o o + E o {.b.J.&X].wX~ ~ 3X#X X;.;.;.;.;.;.;.!.7Xy._ _ y.a.y._ y.C.b.d.^ p % o E o o o o +     o p o   o                             o o + S % @./ J . X X X X X X i . . a a X . a X X $ i X X . a j a a . } / +.+.$.,X^.Z.*X~ ~ ~ ~ ~ ~ ~ ~ ~ ~ ~ ~ ~ ~ ~ ~ ~ ~ ~ ~ VX~.S.Q.5X&.z.z.$ ] | |.n.B B B B B B ",
"a.C.b.E p % % o   % %   o o               + o o + % S { ]  .{ | | +.$.} $ J X i i } >.] { S % S S %       o o   o     o o o o o o o o o o   o o o % o ^ { +./ >.J [ [ +.S % o o o o o   ^ S     o   o o + S + + + + + + + + + o o o % o o o                           o o o o o o o + % Y Y % % % Y % + + + + % % % % % E + ^ |  .+.]  .^ % o o %   o o + +       o   o % o % ^ +.J i X $ $ X . . X X . . . $ X . / / } $ X X X $ X . . a X X X $ a 8X5X5X5X^.H.S.].~ ~ ~ ~ ~ ~ ~ ~ ~ ~ ~ ~ ~ ~ ~ ~ ~ ~ ~ ~ g.3X XA.S.v.{ ] >.} >.$./ ]  .{ @.^ S o +   + + S S ^ ^ S o o   + + + S S   p   o o o + o o + {.| ] uX>XE.S.OX6XqX1XF.F.F.<.pXqXOXZ.I.L.M...........M.L.L.P.................P.I.Z.I.aX1X<.<.1XOXoXb.d.% o o + o o   +                   + o + E o p {.k.J.T.).).*X].3X#X X X;.;.;.;.;.A.E.7Xs.s.C.C.a._ y.C.b.d.o E % + + o o o o o o +       o p                             o o % S + Y | ] } . X X . X X X a X X X X X X X X . . a &.,X5X5X5X8X8X5XuX/ ,X,X<XH.Z.].~ ~ ~ ~ ~ ~ ~ ~ ~ ~ ~ g.~ ~ ~ ~ ~ ~ ~ ~ g.VX*XS.>XXXz.i . z.z.j /  .{.|.W.W.W.",
"a.s.b.E p o o o p o o o o                 +   + + +   S S % % Y Y   @.{  .+.+.+.+. .@.S o % +   + + S + +     o o o o     o % + + S S S S + % % ^ { +./ } i i J X $ [ $.{ w.%   % o % @.+.{ % o   o       + o o +       + + o     + o o   o                             o o     o o o     S + % % % Y Y Y E + S S ^ | { +.] $.} $ J i $ / { % %   o % o o % % + + + % + + % +  .>.X } X $ X X X X X . . . . X $ X } >.} X X X X $ X X a a $ $ $ . 5X>XH.<X,XQ.S.~.VX~ ~ g.~ ~ ~ G.3X3X3XG.~ ~ ~ ~ ~ ~ ~ ~ ~ ~ #X XB.E.k.a . [ i i i [ [ i } >.>./ / / / / / / / / / ] { S +   o + +       o   % o + + Y ^ +.$ XXJ.S.6X1XF.F.<.F.<.<.<.pX0XL.I.I.I.I.L.P.M.M.P.P.L.L.I.L.P.P.M.........M.L.I.Z.I.OX1X<.<.F.6XZ.H.v.j.d.E Y % % o o                   o p o o o o o {.j.k.b.v.>XT.T.~.~.~.#XeX X XeXeXT.H.J.b.b.J.7Xy.p.s.v.d.  E E + % o   S S     + E E + o o                             + o o o + % Y  .$.j $ a j X X J [ [ [ [ @X@X@Xz.z.z.8X<X^.>XH.E.H.H.J.>X>X>X>XH.E.Z.~.VX~ ~ ~ ~ ~ ~ ~ ~ ~ ~ ~ ~ ~ ~ ~ ~ ~ ~ ~ ~ ~ ~ VX].OXH.^.5X/ ] +.] ] ] ] +.+.{ { ",
"7XoXv.d.S E o + + + + p +                   +       o o o     + o o % % % % + + % % % + o o o o S S + S S o o + o o o % % o   S + % Y Y % @.{ ] $.} J . X J X $ X $ X X / { % o o o o S @.^ o % o o o + +     o o o o o         + +                                   o     o + o o o % p % S |  .+.+.] ] ] ] / / $.} $ $ J X X X X X $ J $. .+ o o + o o + + S + S S + % % { $.i X $ . X . . . . . X . . . X X . . X . X $ $ } $ $ $ J J $ $ J a ^.H.H.>X>XT.*XwX~ ~ ~ ~ ~ ~ 3X#X X X X$XG.~ ~ ~ ~ ~ ~ ~ ~ $X X;.!.H.XX@X} . $ X X X $ X X . . [ . [ [ . . . . . X J >.+.^ % o o o       o o o   o % ^ +.j XXH.S.qXF.F.<.<.<.<.<.<.rX9X..M.P.L.P.L.L.I.L.L.I.I.I.S.T.T.S.OXeX!.L.P.P.P.L.L.P.P.9XrX<.<.F.F.6XZ.Z.H.v.j.E % o o p                     +   p o o o o p S d.d.j.k.b.v.J.H.E.E.S.S.E.H.v.k.j.d.d.b.C.a._ s.V.d.S E Y E {.d.j.k.k.k.j.{.  o E p %                             o o   o   Y { $.a $ $ $ } $ @Xz.8XXX<X<X^.<X^.Q.>XJ.H.E.E.S.!.!.!.!.!.!.OXS.T.OX~.*XwX~ ~ ~ ~ ~ ~ ~ ~ ~ ~ ~ ~ g.~ ~ ~ ~ ~ ~ ~ ~ ~ ~ ~ VXwX).S.H.b.CX| + % % + S   o o ",
"~.OXH.v.j.o E E E % % + E o p   + p       +   + + + +       o + o o + + + + S + + + + + o o o o S + + + +   o + o o o     o o % % S |  .+./ >.$ J X J } } J X X X . [ i $. .+ o   o o o o o o o %   %       + +         + + +       o o   o                             o o o   o o o + Y @.+.$.$ J i J J i J X J X i i J J X X X J X X X X >.{ E o   o + + % Y w.Y Y Y ^  .$.. . . X X . X X X X X X X . X X . X X X X X J i i i i i i i } } $ . 8XXXXX^.T.).VX~ g.~ ~ ~ ~ G.$X X;.;.;. X$XG.~ ~ ~ ~ ~ G.$X X;.A.!.>X8X[ $ $ a X X X X X X X X X X i X X . . X $ $ J J } { + o + +       o o o   % +  .} 8X>XZ.qXF.<.<.<.<.<.<.<.pX9X............P.L.I.Z.H.&XQ.4XbXmXmXmXmXmXbX4X~.!.I.L.M.......9X0XrXpX<.1X6XS.Z.oXJ.k.{.o o o p + + p +         + p + + + o + o o o o o p o E d.j.k.b.b.v.b.k.j.E   S S S j.Y.a.p.a.Y.j.  p {.j.b.V.Y.C.C.C.Y.v.k.d.% o o                             + o o o o S ] $ a $ $ $ a ,X<X>X>XT.&X&X&X&XT.T.S.OXeXeXeX X X;.;.A.A. X#X3XwXwXg.VX~ ~ ~ ~ ~ ~ ~ ~ ~ ~ ~ ~ ~ ~ ~ ~ ~ ~ ~ ~ ~ ~ ~ ~ ~ ~ ~ wX*X~.E.H.^.uX .@.o w.Y % o ",
"G.3X~.H.v.{.^   o E E o + + + + p +                           o p o + + + S S + S + % % o o +   S S S S S     + o   o % Y % S |  .] $.>.$ X X . [ z.[ . . [ [ [ X } / +.| ^ + o o o o o o o o % o o o                                                                   o     + + o o + { / $ i . X i X X . . i X X X J X X X X X J J X X X $ ] S o + o S @.| { { {  .+.] >.$ $ X X $ . X . . . . . . X X i X X X X X X . [ J >.$.$.} X . [ [ i } 8X5X<X>XT.].g.~ ~ ~ ~ ~ ~ 3X#X;.;.;.;.;. X3X~ ~ g.~ G.$X X;.;.B.S.^.[ J $ $ i $ X X X X X X X $ $ $ $ X X X X X $ J $ i ] @.%           o o o   o + +.@XXXH.OXF.<.<.<.<.<.<.F.pX0X..............P.I.T.4XbXmXmXtXtXzXD.D.D.D.tXtXmX4XS.L.M.............9X0X0XrXaXOXS.E.J.k.{.o o                           o p o E E E E o + E + % p p S {.{.{.{.d.d.d.j.k.k.k.v.7Xy.y.C.b.{.d.b.V.h.s.a.y.y.y.a.s.V.j.S o +                           + o o o o Y @.$.i $ $ $ a 8XQ.H.~.*X].].wXwXwX].*X$X#X X X X;.;.;.;.;.;.;. X#X3X~ g.~ g.g.g.g.~ ~ ~ ~ ~ ~ ~ ~ ~ ~ ~ ~ ~ ~ ~ ~ ~ ~ ~ ~ ~ ~ ~ ~ g.wX).S.E.Q.5X$.] { @.  Y ",
"G.G.].T.J.b.k.b.d.E o + o o o   o                             +     + + + + + + + S + + o o o   S + + + +     o % % + S |  .] / >.$ i [ [ . J } $.$.$.>.$.$./ ] +. .| ^ E % + o   o   o o   o o   o                                                                         o o +   o { / J i J X $ $ X X X X X X X X X X . X X X X X X X X X $.^ % + o S @.| {  .+./ $.J [ [ [ . X $ X X X X X X X X X . X X X X . i $ $.] +.{ | {  .+.] uXXX2X-X-X&X&X).*X~ ~ ~ ~ ~ ~ ~ 3X#X;.;.;.;.;.;. X#X$X$X3X3X$X X;.;.;.B.T.5X[ $ $ $ X X a X X X . . X X X X X X X X X X X X X J $.| % o         o o o   o o { / <XE.6XF.<.<.<.<.<.<.<.rX9X............M.L.S.bXtXzXzXzXD.D.D.D.D.D.tXD.D.zXmX:XI.P.....................9X0XrXOXE.J.j.p o   + +                     + p p E E + E E E E p + E d.j.k.k.b.v.V.V.Y.Y.Y.Y.Y.H.oXa.p.s.v.k.v.U.y.p._ _ _ _ _ p.y.s.V.d.o o                             o o o   Y @./ $ $ $ a 8X^.T.~.].~ g.g.g.g.G.3X$X#X X;.;.;.;.;.;.;.;.;.;.;.;.#X3X~ wX*X).).].~ ~ g.VX~ g.g.~ ~ ~ ~ ~ ~ ~ ~ ~ ~ ~ ~ ~ ~ ~ ~ ~ ~ ~ wX*XOXE.^.,XX $./ +. .",
"G.G.G.~.H.H.H.Y.k.p + + E o p o o p                                   o o o + + + + S   o % Y Y + + S S + S + S ^ |  .] / >.J i i i J >.$./ ] +.{ | { { { { | ^ S + % % +             o   o     o                                                                           o o o + S ] $ X $ $ X J X . . i . . . . . . . X . . . . X . . X i / ^ % +       S ^ @.|  . .] / $.>.} X i . . X $ X X X X X X $ $ . . >./ +.{ @.S o % % + + k.Q.:X:X*X*X*X].wXg.g.g.g.g.~ ~ G.$X;.;.;.;.;.;.;.;.;. X X#X#X X;.;.;.A.S.^.,X. $ X X X X . . . . . . . . . . . . . X X X X a X X >.| % o         o o o o o % ^ | b.E.6XF.<.<.<.<.<.<.pX0XM.M.M.......M.L.I.Q.tXzXtXtXtXtXD.D.D.D.D.D.D.tXtXD.bXS.L.M.......................0XaXS.H.k.^ o p + E p + +               + o o E + + Y E S + S d.k.V.Y.Y.C.C.h.h.m y.m y.y.s.s.oXy._ s.H.J.C.y.p._ ! ! ! ! ! _ p.a.Y.d.o o                             o o o o o   { / $ X a uXH.~.VXg.~ ~ ~ ~ ~ $X X X;.;.;.;.;.;.;.;.;.;.;.;.A.;. X#X3X$XS.Z.Z.OX].VX*X~.~.*X].~ ~ ~ g.g.g.~ ~ ~ ~ ~ ~ ~ ~ ~ ~ ~ ~ ~ g.VX*XZ.Q.,X[ $ X $ >.",
"G.G.G.~.E.H.H.Y.k.d.d.E % % o o + o                                 o o o o + + + % % % % + ^ @.{  . .+. . . . .] / } X [ . i } / ] ]  .{ | ^ + Y Y Y % % % % % % o p p             o     o o   o   o                                                                 o o o o % o % { >.X $ $ $ X X X X . X . . . . . . . X . . X X i i i X J +.S o     o o % % Y Y Y % ^ @.| { +.] $.>.$ J i i i X X X X X i } /  .| ^ % Y o o o % S j.J.T.wX~ ~ g.g.g.g.~ ~ G.G.3X3X3X$X X;.;.;.;.;.;.;.;.;.;.;.;.;.;.;.;.;.B.&X5Xz.$ $ . X $ X X X . X X . X . . . . . . X X X $ $ X $ ] @.o           o   o o o % o d.v.Z.OXF.<.<.<.<.<.F.pX9XP.L.L.P.P.P.L.I.T.bXtXtXtXD.D.D.D.D.D.D.D.D.D.D.tXzXmXT.L.M.........................aX!.H.k.^ % p E E p + +                 o o E E E E E Y |.|.k.Y.s.y.y.p.p.p.p.p._ _ ! _ p.a.s.m _ s.C.C.a.p.! _ _ ! ! _ p.y.s.C.v.d.o +                             o o o %   o o { / $ z.uXJ.T.wXg.~ ~ ~ g.3X#X;.;.;.;.;.;.;.;.;.;.;.A.B.!.!.B.;. X XeXI.Z.I.eX3X3X~.Z.Z.S.~.3X3X3X3X].].wXg.~ ~ ~ ~ ~ ~ ~ ~ ~ ~ ~ ~ g.].S.>X8X[ } X . [ ",
"G.G.G.6XS.H.b.k.b.v.b.j.E % % o + o o   +             o     o +       + o o + + % + + ^ |  .+.] >.$ $ $ $ $ >.>.i [ . X X X $ ] { @.^ % % w.Y + S S + + S + o       o + + + + o   o o         o   o o                                                                 o o o % % + ^ / i $ $ X X $ . X X X . X X X X X X X . X X X X X J J J / @.o o + o o o o o o o + + % Y Y Y S @.|  .] / >.} J i J } } >.$.+.| E Y + S + + o + % @.k.H.~.g.~ ~ ~ ~ ~ ~ G.$X#X#X#X#X X X X;.;.;.;.;.;.A.B.eXB.B.B.A.;.;.;.A.S.<Xj . $ X X X X X X X X X . . X X X X X X X X X J X $ J / | p o + +         o     o % p d.v.E.OX1X<.<.<.<.F.<.rXM.L.I.I.I.L.P.L.I.^.zXtXtXD.D.D.D.D.D.D.D.D.tXD.tXD.tXbXS.L.M.......................M.P.Z.H.k.p o p + + p + +               p o o + E E w.W.n.n.n.V.C.a.p._ ! _ ! ! ! ! ! ! ! ! _ p.! ! a.s.a.p.! ! _ _ _ p.y.s.C.Y.b.j.S o o o   o o o     +       +   o o o o % o S o E { / } ,X<XH.~.wX~ ~ ~ ~ 3X X;.;.;.;.;.;.;.;.;.;.A.!.I.Z.I.!.A.;.;.A.B.I.B. X#X#X!.I.I.I.B. X XeXeXS.OX*XwX~ g.~ ~ ~ ~ ~ ~ ~ ~ ~ ~ ~ ].S.J.5Xz.} X $ X ",
"G.G.G.G.~.T.v.k.J.oXY.k.E + o o o p p +   +         o   o o     + o     o o % + S @.{ ] $.} J i . i X $ X . X X . J $ $ $ $ / | w.Y + S         S + + + + % % o o o o                                                                                                 o o o % % o { } J $ X X $ X X $ . . . . . . X X X . . X . X X J J $ / | + o o o     o   o % %     o o % + p o Y % S @.{ +.] $.$.] +. .| ^ + + + + + + % o + % @.k.J.).g.~ ~ ~ ~ ~ G.$X X;.;.;.;.;.;.;.;.;.;.;.A.!.Z.oX7X7X7XZ.!.A.A.B.S.>X8X[ $ X X X . . a . . X . . X . . . X . . . i X X X J / { + % o o +       o o o o o % p E b.E.S.1X<.<.<.<.<.<.pXP.L.I.Z.I.P.M.P.I.T.bXD.D.tXD.D.D.D.D.D.D.D.D.tXtXtXbX&XI.L.P.P.P.M.................M.I.E.v.d.o o p E E p + +               + o o + E w.W.B B i.B V.C.s.a.y.p._ _ _ _ ! _ _ ! ! ! ! ! ! m y.` ! ! ! _ p.a.s.C.V.b.j.d.E % o % o   o o o o o o   o +   o o o o o o o o o Y E | +.>.,X^.E.*X~ ~ ~ ~ $X X;.;.;.;.;.;.;.;.;.;.A.!.I.Z.Z.!.A.;.;.;.A.!.A.;.;.;.B.!.B.A.;.;.;.!.I.I.I.!.$XG.~ g.~ ~ ~ ~ ~ ~ ~ ~ ~ g.wXS.H.<X@X$ $ X X ",
"G.G.G.G.G.~.T.H.v.J.Y.k.+ S o o E E o   +             o     o +       + + o + |  ./ >.i [ . $ $ $ $ X $ X X J $ $ } >.$./ +.@.+ + S + +     o o + +   S +   o o   o o                                                                                                 o o o o %   ] J J X X $ X X . X . . . . X X X X . X X . X $ X X $ / | % + o o +       o   o   o % o o o o o o   S + % Y % ^ @.@.S E % Y o S   + + + +   o o % ^ j.J.~.VX~ ~ ~ ~ g.3X#X;.;.;.;.;.;.;.;.;.;.A.B.Z.7Xa.p._ _ _ a.Z.!.S.H.v.d./ $ X X a X $ X . X X . X X . X X X . X X X J J J } ] | % % o o o o               o o o o k.E.Z.qXF.<.<.<.<.<.pX0XP.I.I.L.M.....P.I.Q.mXD.tXtXtXtXD.D.D.D.D.D.D.zXbX&XZ.I.L.I.I.I.L.M...............L.Z.H.k.E E o p + + p +                 o o o + E W.B B B i.B i.V.Y.Y.C.s.s.y.y.p._ _ _ ! ! ! ! ! ! ! ! ! ! _ _ y.s.C.J.b.d.{.{.S ^ ^ @.@.| | { | | | ^ +       o   o o   o o o % p S + % S { / 5XH.OXwX~ ~ ~ $X;.;.;.;.;.;.;.;.;.;.;.A.A.B.!.I.!.A.;.;.;.A.!.A. X;. XB.!.A.;.;.;. XB.!.!.B.A. X#X3XwX~ ~ ~ ~ ~ ~ ~ ~ ~ ~ VXOXE.^.,X. J J $ ",
"G.G.G.G.G.G.~.H.k.d.j.d.^ p o o + + % o o o         o o o % o o % o + + E ^ +.$.X X X X X $ J i X $ $ $ $ J J /  .{ | @.^ + % o   o       + o                   o                                                                                                     o o o o % @./ X X . X X . . . . . . . X . . . X X X X $ $ X X >.+.@.% o % o o o     o   o   o o     + +   + + o o       + o o o o         o           o   p E p E b.T.].~ ~ G.~ ~ $X X;.;.;.;.;.;.;.;.A.!.Z.7Xa.y._ ! ! _ y.7XE.H.v.j.{.w.{ $.. X $ $ $ $ X X . X X X X X X $ $ X J $ i i $. .S o   o % o o o         o     o o o p j.J.Z.OX1X<.<.<.<.<.<.0XM.P.P.M.......M.L.Z.&XbXtXzXD.D.D.D.D.D.D.D.zXbX>XI.L.L.L.I.Z.I.P.M.............P.I.H.b.d.o o o                           + o o + Y W.B B B B B i.i.B i.V.Y.Y.C.C.s.a.y.p._ ! ! ! ! ! _ _ _ p.y.a.C.v.j.{  . .+.] ] / $.>.>.>.} } } } >.] { S +   o o o o o     p o p p o % E E ^ uXJ.S.].g.~ ~ $X X;.;.;.;.;.;.;.;.A.A.;.;.;. XB.I.!.A.A.B.!.I.!.!.!.!.!.I.B.A.A.;.A.!.B. X;.;.A.B.!.~.wXg.~ ~ ~ ~ ~ ~ ~ ~ VX*XS.E.Q.5Xa $ i ",
"G.G.G.G.G.G.*XT.H.>X>Xv.b.k.j.d.% p ^ ^ o           o   % o S o   o % + { / } $ $ $ X . X $ $ X $ } $ X X [ $.{ Y Y % % % + S o o   + + o     o + + + + + o o o   o             + +   o o o o o o   +   +   + + + +   o o   + +     +                                 o o o o + | >.. X . X X X X X X X X i . X X X X $ $ X i [ $ ] | + % o   % o o o           o     o o o o o o       + +                 o +     + + + +   o o o % S j.J.T.wXg.~ ~ G.#X;.;.;.;.;.;.;.;.;.B.Z.a._ _ _ _ ! ! y.s.Y.b.j.j.d.E Y E { / J i J i X $ $ $ $ X X $ X $ } $ . [ i >.] | + o o o o o o o o               o o o p d.b.E.Z.qXF.<.<.<.<.<.0X................P.L.I.H.^.+XbXbXmXmXmXmXbXbX4XT.I.L.M...P.L.L.L.M.............M.L.E.b.d.% o o p p + + p +                 o o o + + Y W.n.B B B i.B B B i.i.i.V.V.Y.C.C.s.a.a.y.y.y.y.a.a.a.s.C.Y.^.8X,X$ $ $ J J J i i . . X X . X $ . X $.{ + o o   o % + o o o   o       o % p j.H.S.].g.~ g.3X#X;.;.;.;.;.;.A.!.!.!.A.;.;.;.;.B.!.I.!.S.T.H.T.T.T.&X&X&X&X~.~.eXI.!.A.;.;. XB.I.Z.I.~.G.~ ~ ~ ~ ~ ~ ~ ~ ~ wX].~.S.H.<X,XJ ",
"G.G.G.G.G.G.G.3X*X).).).).&XQ.b.d.{ @.S o o         o o o o o   % w.^ +.>.i X $ X X $ } $ X X . [ [ [ i i $. .+ + % + + % + + o o +                                     + + + o     o             o   +   o                   o o o     + +                             o o   + @.$.. X X X X . . . . . . X X X X X $ $ [ [ J / { ^ E %     % o o o o                                                                           o o % o S k.J.T.].VXVXg.3X#X;.;.;.;.;.;.;.;.B.oXa._ p.y.y.y._ a.C.b.{.E + + + + Y Y @. .] $.$ . [ [ [ [ [ [ . . [ . i $ $.+.| S % % o o % o o o o o               p o o o o j.J.Z.OX1XF.<.<.<.<.rX................M.P.I.I.I.I.S.S.T.S.H.T.H.E.Z.I.L.M.......M.M.M.............M.P.Z.>Xd.+ % o o o                           o o o o o E E |.W.n.B B B B B B B i.B i.i.V.V.Y.C.C.C.C.C.C.C.C.Y.Y.V.j.j . . X X . X J J J J X X $ } X X $ X J i ] ^ o o o o o p   p p o o o % Y E + d.k.E.OXwXg.~ ~ ~ $X X;.;.;.;.A.!.I.Z.I.!.B.A.;.A.B.S.T.4XbXmXmXmXmXmXmXmXmXmXmXmX4XQ.~.eXB.A.B.!.I.I.I.A.#X3XG.~ ~ ~ ~ ~ ~ ~ ~ ~ g.*XT.H.XX[ ",
"3X3XG.G.G.G.G.G.G.G.G.G.G.wX*X&Xb.{.  E + o         o o   o o o % { / J [ z.. . [ . . . [ [ . $ } $.] +. .| S % o % + + + + + o o +                                             + o   o o o o o o   +   +     o o     o o o +       + o                                 o o   + S +.[ . X X X X X X X X X X J X X . [ . } /  .@.+ % + + o o o   o   o                                                                           o o + E p o k.v.T.).).).*X$X$X#X X X;.;. X;.A.S.7Xa.h.C.C.a.p.y.C.b.^ p E E E E Y Y % + ^ |  .+.] / >.>.>.>.>.>.$./ +.{ | S % % o o o % o o o o o o               p p o o + E b.E.Z.6XF.F.<.<.<.pX9X..............P.L.I.L.P.P.P.L.L.L.L.L.L.I.L.P.M.......................9X0X0XI.>XCX^ Y E o o o                           o o o o o % + + E |.W.n.B B i.B B B B B B B B i.i.V.V.V.V.V.V.V.V.i.W./ [ j j $ $ J X X X X X X X $ $ X X X X J J >.@.o o o o o + o o o % o p Y E {.j.b.H.Z.*X~ ~ ~ ~ g.G.3X#X;.;.;.A.B.I.I.Z.I.!.B.B.!.T.4XmXtXD.D.D.D.D.D.D.D.D.zXD.D.mXmXmX4XT.I.I.!.B.B.A.;.;. X$XG.g.~ ~ ~ ~ ~ ~ ~ ~ VX*XS.Q.,X",
"#X#X#X#X$X$X3XG.G.G.G.G.G.G.wX~.H.k.^ o % o         o o o o % % | ] } J } } } } >.$.$./ ] ] +. .{ | @.S + % % o o o   + + + + o o +                                     + o + + + + + + o o o o o o + o + + + % + o o       o + + + +   o +                             o o o o % @.] >.i . i i . [ [ [ [ [ [ i J >./ ]  .@.+ % % + + o o o     o o                                                                             o o + o o p + j.k.b.Q.>X>XT.~.~.eXeXA.A.A.eXeXT.H.Y.b.k.J.s.y.p.s.v.d.p d.+ + + S S {.{.{.  + S {.| | | { | { { | @.S + % % % o     o o       o o                   o o + p o d.b.E.Z.6X1XF.1XF.1X0XM...........M.L.Z.I.P.....M...M.M.M.M.P.L.L.P.M...................M.0XpXpXOXE.^.{ p % + o o o                             o o   o o o o S + E w.W.n.n.B B B B B i.B B B B B B B B B n.W.w.| ] a a $ j $ J J i . X X . . . . X X X X X X J $  .+ + o o + o o o + E % p ^ d.b.H.E.Z.~.wX~ ~ ~ ~ ~ ~ G.3X$X#X X;.A.B.!.B.A.A.B.B.Z.:XmXzXD.D.D.D.D.D.D.D.D.D.D.D.D.D.D.zXtXbX>XS.!. X X;. XA.!.!.OXG.g.~ ~ ~ ~ ~ ~ ~ g.].T.J.,X",
";.;.;.;. X X$X3XG.G.G.G.G.G.G.).H.k.^ o o o           o o o % o @. . . . . . . . .{ { | @.^ S E % % Y Y Y o o o         o o     +                                     + o o + S S S S S       o o o + o o + % % + S + + o o o % % % + + o +                               o % o o % ^  .] / $.>.} >.} } >.>.$.] +. .| ^ % Y % o o o         o o   o o                                                                             o p p o o o S S % |.j.k.b.v.>XT.T.S.S.S.S.J.v.k.j.  ^ b.C.a.p.s.V.j.p E S ^ {.d.j.k.b.k.k.j.E Y w.w.Y Y Y % Y Y Y % +   o o   + o       o o                     + + o E o o E d.v.E.E.S.OXOXOXOXaXL.P.M.......M.L.Z.I.P.................M.L.I.I.L.P...............0XrXpXF.qXS.J.CXS % + + o o o                                 +     p p p p o p + w.|.W.W.W.n.n.n.n.n.n.n.n.n.|.w.@.{ ] $.$ X $ $ X X X X . X X . . . . . . . . X X X X X J / { S o   o o o o o % % {.j.v.E.Z.S.~.wXg.~ ~ ~ ~ ~ ~ ~ g.G.$X#X;.A.!.!.B.A.;. XB.Z.4XtXD.tXD.D.D.D.D.D.D.D.D.D.D.D.D.D.D.tXtXmX4XS.B.A.B.B.!.Z.Z.I.6XG.~ ~ ~ ~ ~ ~ g.g.*XT.v.,X",
";.;.;.;.;.;. X$XG.G.G.G.G.G.G.~.J.j.p + o +         o o   o o o o Y w.w.w.w.w.Y Y Y Y w.Y Y % + + o o % o o o o   o o   o     + +                                     + o o + S + + + % % % % % o o o o   S + + % % % Y % % % % % + + + o +                           o o o % o o % Y % ^ |  . . . . . . . .{ @.S E % Y + S S o o     + o   o o                                                                                 p o p p o o o % + + + {.^ S E |.b.b.v.v.v.b.k.j.{.^ ^ ^ d.J.s.p.y.Y.k.S + d.j.b.V.Y.Y.C.Y.Y.v.k.  p E + o o     o o     o o       o o   o o o   o                 o o o % % o % E d.b.J.E.oXZ.Z.Z.Z.I.I.L.P.M...M.P.L.L.M.................M.L.I.Z.I.L.M.....9X9X0XrXpX<.F.qXS.E.^.{.% Y E E o o o                           o   o o +     p   o o o o + S S E w.w.|.|.W.|.W.|.+ ] $.>.j z.z.z.[ X $ $ X X X a . i X X X X X X X X . X X X $ X $ i ] ^ % p o o p % E % E k.J.E.S.~.*XVXg.~ ~ ~ ~ ~ ~ ~ ~ G.3X$X#X XB.I.Z.I.!.B.B.B.Z.^.mXzXtXD.D.D.D.D.D.D.D.D.D.D.D.D.D.D.tXD.zXmX&XI.B.!.!.!.I.I.!.A.$X~ g.~ ~ ~ ~ g.~ ~.E.^.&.",
";.;.;.;.;.;.;.#X3XG.G.G.G.~ *XT.v.{.% o o o         o o o o o     o + + + + + + +   + + + S S S     o % o o o o o     +   + +     +                           + o +   + o   % Y % E % S ^ @.@.@.S o o o + + + % % S @.@.| | | | | @.^ + o                             o o o o o % % o + % Y Y % Y Y % % Y Y Y Y % + S + + S + o           o     o                                                                               o p p o o o p o + E E % % + p ^ {.^ ^ ^ @.@.{.d.d.j.k.k.j.J.oXy.y.C.b.{.j.b.V.C.s.a.a.a.a.a.s.V.j.o o o o o +     o   o o     o       o                           o o o o % Y % % p ^ d.k.v.v.J.J.J.H.H.E.I.L.P...M...M.....................P.I.Z.I.L.M.9X0XrXpX<.<.F.F.qXS.Z.v.d.E o E Y E o o o                             o       o o + +   + o o E E E E + S S S S S + @.] [ @X[ . a $ $ X . . $ X X X a X . . X X X X X X X X X X X X X X i ] ^ % p o o p Y d.o d.J.E.~.wXVXg.~ ~ ~ ~ ~ ~ ~ ~ G.3X$X X;.;.;.B.I.Z.I.!.!.!.!.I.T.bXzXtXD.D.D.D.D.D.D.D.D.D.D.D.D.D.D.D.D.tXtX4XZ.B.A.A.A.B.B.A. X#X3Xg.~ ~ ~ ~ g.].OXH.8Xz.",
";.;.;.;.;.;.;. X$XG.G.G.G.G.~.J.j.  o p E o p       o o % o % o o o o o o o o o o o o + + + + + o o + o                                                             o o o o + S @.| {  .] / $./ | % o o o % + ^ { +./ $.$.$.$./ +.{ S %   +                           o o o o % o o o S + S S + + % o o o + S + + % + S + + o p o                                                                                                       o o o + + E E E E E E E d.j.j.k.k.b.b.i.V.V.Y.Y.V.H.oXa.p.s.v.j.v.C.a.p.p.p._ _ _ _ y.s.V.j.E o o o +   o   o     o o                                     o o o o o Y %   + +   {.d.d.d.  d.d.j.b.J.E.I.P.M.........................M.P.L.P.M.M.0X<.F.<.<.<.F.qXS.Z.J.j.E E E + + + o o +                                               o o + + E E E E o o o   % +  .} J $ X X X X X X . . X X X X X . . X . . . . . . i i X X X X $ $ / @.+ o o o o p E d.S j.E.S.].g.~ ~ ~ ~ ~ ~ ~ ~ ~ G.$X X;.;.;.;.;.A.B.B.B.A.A.A.A.!.S.4XzXD.D.D.D.D.D.D.D.D.D.D.D.D.D.D.D.tXD.D.D.bXS.A. X XA.B.!.B.A. X$X~ g.~ ~ ~ g.*XS.J.,X. ",
";.;.;.;.;.;. X#X3XG.G.G.*XT.J.k.{.Y p p + o p         o o   o o o o o o o o + o +       + +     + o o o o     o                                               + o + S + + @. .] / >.} J . [ [ }  .% %   ^ | +./ >.J i i i >.]  .^ o % o o o                           o     o o   o o   +   S     o   o     + + + + o   S   + o                                                                                                 o o o % o + E % |.|.|.W.W.W.W.W.v.Y.Y.C.C.s.s.y.y.y.y.a.a.oXoXa.p.s.Y.v.C.y._ ! ! _ ! ! ! ! p.a.Y.j.{.o o o o     o   o o     o                                   o o   o o o + o + o p o o + + p o + S ^ d.b.H.I.L.M...........................M.....9XpX<.<.<.F.1XOXZ.E.v.j.S p E o + + + p o o                                               o + o o o + + +   o % o Y @.] i J i X . X X X X X X X X X X . . . . X X X X X X X X J J J >.]  .^ o o o o + % + % w.^ k.E.~.wXg.~ ~ ~ ~ ~ ~ ~ ~ ~ $X X;.;.;.;.;.;.;. X;.;.;.;.;.;.A.I.Q.mXzXtXtXD.D.D.D.D.D.D.D.D.D.D.D.D.D.D.D.tXbXS.B.B.!.!.Z.Z.I.B.;.#XG.g.~ g.~ g.G.~.J.8X] ",
";.;.;.;. X#X$X3X].*X*X).T.J.k.d.E E + + E p         o     o                       o o o     o o                                                               + o o + Y ^ ] $ $ . . $ $ X X X i $. .{ +.$.>.X . . . $ / +.@.+ % o +   o o o                             o o     o     o   o o + +   +   +             o o                                                                                                       % + o o + Y |.n.B B B B B B V.Y.s.a.y.y.y.p.p._ _ _ _ _ p.a.a.m p.s.C.C.a._ ! ! ! _ ! ! _ p.a.C.V.j.o o o o p                                                       o o       p p     + + +   o o o o + % w.d.b.H.I.L.M.............................9XrX<.F.1XqX6XS.Z.H.b.d.{.d.{.d.^ p p % o o E                                                 p       p p   + + o + Y | $.[ $ X $ X . . . . . . . . . . X X X X X X X $ } } X . i >.] | o Y % o o o o o o + % w.^ b.E.~.wX~ ~ ~ ~ ~ ~ ~ ~ g.G.#X;.;.;.;.;.;.;.;.;.;. X;. X XA.B.I.E.4XtXtXtXD.tXtXD.D.D.D.D.tXD.D.D.tXD.D.D.tXbXS.!.B.B.!.I.Z.I.B.;. X3Xg.~ ~ ~ ~ g.*XT.j.^ ",
" X X#X#X~.~.T.T.T.>X>Xb.k.d.E E E o + o + p             o   o o o     o       o         + +     + o   o                                                       + o   % +  .} i } $ $ $ X $ X X X J } >.J J $ J [ $ /  .@.S E + o o o % o o o                                 o o   o o             o   o       + + + +       +                                                                                           +   +   + o o + w.W.B B B i.B B B B Y.C.a._ ! ! ! ! ! ! ! ! ! ! ! ` _ _ p.a.s.a.p.! ! ! ! ` _ y.a.s.Y.v.k.d.o % o p o                                                     o o   o o o + o + p p p p o + + p % Y E E E d.b.H.Z.L.P.........................0XrXqX6XOXS.Z.E.H.b.j.d.k.b.v.v.v.b.d.o E + o +                                               o   p o o + + +   % + + Y @./ [ } X X J X X X X X i X i i . X . X X $ X J $ i [ [ $.+.{ ^ % % o   o % o + o o E + E ^ k.E.~.wX~ ~ ~ ~ ~ ~ ~ ~ g.3X#X;.;.;.;.;.;.;.;.;.A.B.B.B.!.!.B.B.!.T.bXzXD.D.tXtXD.D.D.D.D.tXD.D.D.D.D.tXD.mX:X!.A. X;.A.B.B.B.A.;. X3X~ ~ ~ ~ ~ g.].T.J.d.",
"S.S.S.H.J.>Xb.b.k.j.w.E o o % % o o + +                                                                                                                       o o + Y ^ ] [ [ . . . z.[ . . [ . . i i . i i } /  .@.S + + + + o o % o o o o                                                                                                                                                                                   o o o + w.W.B B B B B B i.B i.Y.C.a.y.p.p._ _ ! ! ! ! _ ! ! ! _ ! ! ` y.` ! _ ! _ _ a.s.C.Y.v.k.d.p Y % o o % +                                                                                   E o E E E E E + d.k.H.Z.L.P...............9X0XrXrXaXOXS.E.H.J.v.b.k.k.v.Y.h.h.s.s.C.C.v.j.S + % +                                                                 + o p % S  .>.[ . X X X X X X X X X X X X X X . . . [ [ J >.] +.| S + % o +   o o o o o o o + + E S j.H.S.*Xg.~ ~ ~ ~ ~ ~ ~ g.G.#X;.;.;.;.;.;.;.;.;.B.I.I.I.!.B.A. XA.!.&XbXmXzXzXD.D.D.D.D.tXtXtXtXtXD.tXD.zXbXT.!. X;.;.;.;.A.;.;.;.#XG.g.~ ~ ~ ~ g.wX~.H.k.",
"v.v.b.k.k.j.E o o   p + + + + o o +   p + p                                                                                                                   + o + % S  ./ >.>.$.$.>.$./ / / / ] ] ] +.+.+. .@.S + + + + + o o o o o o o o                                                                                                                                                                             + o +   o + % W.B B B B B B B B B B V.V.Y.C.C.s.s.a.y.p._ _ ! _ ! ! ! ! ! _ _ ! ! ! _ p.a.C.V.b.k.d.E p p E E + o + +                                                                           + + + + o o o + + E % p p d.k.J.Z.I.L.P.P.M.9X9X0XrXpX6XOXZ.oXoXH.b.j.d.j.v.Y.C.a.y.p.p.y.a.7XC.b.S p o +                                                                 + o o + E ^  ./ } i [ [ [ [ [ [ [ [ [ [ [ . . . J >.$.] +.{ @.S E % + o o % o   o o o + o o p + E p d.J.E.~.VX~ ~ ~ ~ ~ ~ ~ g.G.$X;.;.;.;.;.;.;.;.;.A.I.I.I.A.;.;.A.B.!.!.S.&X4XbXmXzXzXzXzXzXzXzXzXzXzXzXzXbX>XZ.!.B.A.A.A.A.;.;.;. X$X~ g.~ ~ ~ ~ ~ ~ *XE.v.",
"{.d.{.{.S   p p + E E o + + p       + +                                                                                                                       o o o o o S | { { { { | | | @.@.@.^ ^ ^ ^ ^ S   o o                                                                                                                                                                                                     + + o % + E S w.n.i.B B B B B B B B B B i.i.V.Y.Y.C.C.s.s.a.y.p._ _ _ _ ! ! _ _ _ _ y.a.h.Y.b.j.d.{.p o % o     + p p                                                                           + + + + + o o o + % o + o p S d.j.v.H.Z.I.I.iXaXrX6X6XOXZ.oX7X7XoXH.j.^ k.J.C.7Xa._ ! _ _ _ _ 7XC.b.d.+ % +                                                                         + + S @. .+.] / / $.>.>.>.>.>.>.$.$./ ] +. .| @.S + % + +         o                 +   o o {.b.E.S.].VX~ ~ ~ ~ ~ ~ ~ ~ 3X#X;.;.;.;.;.;.;.;.A.A.!.B.A.A.B.B.!.B.A.B.!.S.T.&X4X4XbXbXbXbXbXbXbX4X4X^.T.!.B.B.B.!.!.!.B.;.;. X$XG.~ ~ ~ ~ ~ ~ ~ g.].S.v.",
"b.k.k.j.E o o o o E E + o o       + + +                                               o     p p + +           p   + + + + +   p p + +                         o o o o o % Y Y % % % % Y Y % % % % % % o o o o       o                                                                                                                                                                           o       o o           + + o o % E S w.n.i.B B B B B B i.B i.B B B B i.i.V.V.Y.Y.C.s.s.y.y.y.y.y.a.a.a.a.s.C.C.Y.k.d.{.o % o + + + p p o o +                                         + +             o                   p + + + o o % o + S {.d.d.d.d.d.E k.J.Z.Z.S.S.S.S.Z.7X7Xa.p.p.7XH.j.k.J.oX7Xy._ ! ! ! ! _ p.7XY.k.{.E % +                                                                   +       + % Y + ^ @.@.| { { { { { { { { | @.^ S + % Y o o +     p + +           o     o + + o o E p j.v.H.T.*XwXg.~ ~ ~ ~ ~ ~ G.$X X X;.;.;.;.;.;.;.;.;.A.B.!.I.!.B.A.;.;.A.B.!.!.!.S.~.~.T.T.T.T.T.E.S.S.B.A.;.A.B.I.Z.I.B.;. X$XG.~ ~ ~ ~ ~ ~ ~ ~ ~ ].S.v.",
"C.Y.Y.V.k.d.+ o o E E + + + + + + +                                             o     o   p o p + o         p p p + + + + + p p o o + + p +                   o   o o   o o o S + S S + o                             + + + o o o o o o o o                                                                                                                                                   o o o     o o   o o     + o o + % + S Y W.B B B B B B B B B B B i.B B i.B B B B i.V.V.Y.C.C.C.s.C.C.C.C.Y.Y.V.V.B w.o E E o o o o p + + p   +                   o o     o           o + + +         o o o   o       +       + + p E E E o d.k.b.v.v.v.v.v.b.k.v.E.oXoX7X7X7Xa.y.p._ ! _ s.H.b.J.oX7Xy.! ! ! ! ! _ _ a.C.v.j.S + o +                                                                 + + o + + + + o + + Y Y Y Y w.Y % % Y % Y Y Y Y % + S S   + + + + + + + o o o   o o     + p p + % o o   j.b.H.S.).VXg.g.g.g.~ g.~ ~ 3X$X#X#X#X#X#X#X$X#X X XB.I.I.!.A.;.;.;.;.A.!.B.A.A.A.B.!.!.!.!.B.!.I.!.A.;.;.;. X!.I.!.A.;.#X3Xg.~ ~ ~ ~ ~ ~ ~ ~ g.].T.v.",
"p.p.y.s.Y.k.  % + + + p +                                                               p p   +     + + p o + + + p p p   p o + +   p p   p                     o     o o o   S + S + + o o       o                                                                                                                                                                                         o       o o     o   + o     o o + + % + + w.W.n.B B B i.B B B B B B B i.i.i.i.B B B B i.B V.V.V.V.V.V.V.V.V.i.B B n.Y p o o o + +                                 o   o     o o   + +       + o o o o       o   o o +     p o o o o E E d.k.b.Y.C.oXoXoXoXoXE.H.H.E.oXa.y.y.p._ ! ! ! ! p.s.E.J.C.s.y._ ! ! _ ! ! _ y.s.Y.k.E + + o o                                                                               o           + o % +       + o   S S + + + o +                                     o o o p p {.b.H.S.*XVXVXwXwX~ ~ ~ g.~ G.G.3XG.3XG.G.G.3X$X XA.B.!.A.;.;.;.A.B.!.!.B. X;.;.A.B.A. X X;. XB.!.B. X;.;.;.A.B.A.;.;.#XG.g.~ ~ ~ ~ ~ ~ ~ ~ g.wXT.v.",
"! _ p.a.C.b.{.E p o   o p                                                       o   o o + + o p o o     o + p p o + + + o + + p o o + + o +                   o   o o o o o % + + + +   o o                                                                                                                                                                                               o   o o o     o o   o     + + +   + + % % + + E w.|.W.n.n.B B B B i.B B B i.B B B B B B B i.B B B B B B B B B B B n.w.E o o o o + p + p                             o o   o o           + o E E   ^ ^ S o o o   o       + + + + E + + E d.k.J.C.s.a.a.a.a.a.s.7XoXoXoX7Xy.! ! ! ! ! ! ! _ p.s.oXoX7Xy.! ! _ ! ! ! ! _ a.C.v.j.o E E o +                                                                             + o o o o o     o o o o o % o o + + + + + + o +                                     o o o p p p d.b.E.OX*X*X).).).*X*X~ g.~ ~ g.g.g.g.g.g.g.G.#X;.;. X;.;.;.A.B.I.Z.Z.!.A.;.;.B.!.B. X;.;.;.B.!.!.B.A.;.;.;.;.;.;. X$X~ ~ ~ ~ ~ ~ ~ ~ ~ ~ g.*XS.v.",
"y.y.a.s.Y.b.E E + p + + + p                                                     o o o % + p o o E Y E o o o o o % % E + E + + % o o E % p %                   o   o o     o o o o   o +   + +                                                                                                                                                                                             o o o o o o o o o o o o + + % % + % % % + S ^ @.|  .+.+.{ w.n.B B B B B B B B B B B B B B B B B B B B B B B n.n.|.% S S + o o o p +                               o o o o   o o o S S + % E ^ |  .] ] @.% % % o o o o o +   + o o + + E b.H.oXa.p.! ! ! ! ! ! p.a.s.s.a._ ! _ ! ! ! ! ! ! _ p.a.a.y.! ! ! ! ! ! ! ! _ s.C.b.d.o E E o o                                                                               o     +   o o o o o o o o +   o o o o     o                                         o   + o % o j.J.E.E.Z.E.H.H.E.S.*Xg.~ ~ ~ ~ ~ ~ ~ ~ G.$X X;.;.;.;.;.;.;.!.I.Z.Z.I.B.;.A.!.I.I.B.;.;.A.!.Z.Z.I.B.;.;.;.;.;.;.#XG.g.~ ~ ~ ~ ~ g.g.g.VX*XT.H.k.",
"C.U.V.v.k.d.E E % o o % o                                                       o   o + + o % % E E E E + S {.{.+ E % o o o o % % % % o o o                           o o               + +                                                                                                                                                                                               o o o o o o o   + S S + % % % Y + ^ | { +.] / $.} i i a a j / { |.W.n.n.n.B B n.B n.n.n.n.n.n.n.n.n.n.n.n.W.|.w.S S + % + o o + +                                 o o o o % % % % + S @.{ +./ >.J [ ] S Y % Y % o % % o % % o o o o + j.H.7Xa.y._ ! ! ! ! ! _ _ _ p.p._ ! ! ! ! ! ! ! ! ! ! ! ! _ _ ! ! ! ! ! ! ! ! ! 7XC.b.d.+ % + o o                                                                                       o                   o         o o   +                                     o p o % + + E d.j.b.v.v.b.j.j.v.E.S.*XVX~ ~ g.~ ~ ~ G.#X X;.;.;.;.;.;.;.;.A.B.!.!.B.;.;.B.I.Z.I.B.;.;.B.I.Z.I.!.A.;.;.;.;.;.#X3X~ ~ ~ g.g.g.wX].*X).T.E.J.b.d.",
"b.k.j.d.o o + % Y % o o o                                               + o + + p o E o o % E E   ^ {.d.j.k.b.b.k.j.S S ^ ^ ^ ^ + E E E o + p o o p p o       o   o o     o o + +   +                                                                                                                                                                                 +     + + + + +   + o o o o     o % Y Y Y + ^ |  .+.] $.>.>.$ J X X X X X $ $ $ i J $.+.@.E |.w.|.w.w.w.|.w.w.w.Y Y Y Y Y Y o E E % % + + + + o o                   o o o       o + o + + o   + % ^ { +.] $.} i J $ [ / | o % % % o   o o o + + + S + + {.b.oX7Xp.! ! ! ! _ ! ! ! ! _ _ _ ! ! ! ! ! ! ! ! ! ! ! ! ! ` ! ! ! ! ! ! ! ! ! p.7XC.b.d.% % o o +                                                                 o   o o       o +   o o o o o o % o o   o       o o + + o                                       E o + + o o o E o   {.E E + S d.v.E.S.*XVX~ ~ ~ g.G.$X X;.;.;.;.;.;.;.;.;.;.;.A.;.;.;.;.A.B.B.A.;.;.;.!.!.!.!.B.;.;.;.;.;. X3X~ g.g.g.wX*X~.OXZ.Z.E.H.v.j.E p ",
"E d.E p p o o % Y % %   o o                                             +   +   o % o p o o ^ ^ j.b.v.J.H.E.E.E.H.H.b.k.b.v.v.b.k.j.{.S % % +   + o o                                                                                                                                                                                                                   +     o o     o     o o o % % % o ^ |  .] / $.} $ J J X X X X J X X X X $ } } $ J J $ $.] { ^ E E + + E E E E + + + o + + % % % o o o   o % o   o               + +   o o o o   o +     o % ^  ./ >.J i . X X X $ ] ^ E o o o     o o     + % w.w.w.w.E b.oXa._ ! ! ! ! ! _ ! ! ! ! ! ! ! ! ! ! ! ! ! ! ! ! ! ! ! ! ! ! ! ! ! ! ! _ _ y.7XH.k.E % E o o o                                                                   o         o   o   o   o % % % w.Y Y o % o               o                                     E p p + + p p o E   p + + + p p d.v.E.OXwX~ ~ ~ g.G.#X;.;.;.;.;.;.;.;.;.;.;.;.;.;.;.;.;.;.;.A.;.;.;.;.A.A.A.A.;.;.;.;. X#X3X~ g.VX*X~.S.Z.Z.E.H.J.b.j.d.o o % ",
"+ + + + + o p o % o o o o o                                             + o o + + + % S ^ d.b.v.H.T.OX6X6XqXqXqX6XS.E.E.E.S.S.E.E.H.v.j.^ p p   o + p                                                                                                                                                                                                                 +     + + % + + + + % Y Y + ^ {  .+./ $.>.J i . . . i X X X X . X i X X . a $ $ $ $ $ J X J >./ | + % o % % o o o o o o o + + o p     o   o o o o o               + o o o o     o + + % Y ^  .] >.J J X X X X . i ] ^ % + + o     o o + w.|.W.n.n.n.n.n.n.J.oXa._ ! ! ! _ ! ! ! ! ! ! ! ! ! ! ! ! ! ! ! ! ! ! ! ! ! ! ! ! ! ! ! ! _ _ _ a.oXJ.j.E o + o o +                                                                 o   o o o o   + +     + Y w.Y ^ | { @.^ % Y Y Y Y % o   o                                       + p + + + p p + o o o + E E % o ^ k.E.S.wX~ ~ ~ ~ G.#X;.;.;.;.;.;.;.;.;.;.;.;.;.;.;.;.;. X#X#X#X#X X;.;.;.;.;.;.;.;. X$X3Xg.VX*XOXS.E.H.J.v.b.k.j.{.  p p o + ",
"+ + + + S   o                                                           o o + Y + p   d.b.J.H.T.6XqX1XF.F.F.<.F.1XS.Z.S.6XqXqX6XS.Z.E.H.b.j.  % % o o o                                                                                                                                                                                                               + o o + + + % % Y + ^ |  .+./ $.} J X . . . . X X X X . i i X X X X X . X X i X X X X $ X . i J  .o % o o o o         p p     + + + o   o                         o o o o   o o o Y w.+ { ] >.$ . X J i . . X } / { % + S o o   o o E |.n.n.B B i.B B i.i.Y.oXs.y._ ! ! _ _ ! _ ! ! ! ! ! ! ! ! ! ! ! ! ! ! ! ! ! ! ! ! ! ! ! ! ! ! ! y.7XH.k.d.E E p + + p                                                                 o o o % o   o % Y Y Y + @.|  .] $.$./ ] +.+. .{ @.@.  o o o                                         p p   + + o p   o o o o E E d.v.E.OXVX~ ~ ~ ~ ~ $X X;.;.;.;.;.;.;.;.;.;.;.;.;. X#X$X$X3XG.G.3X$X#X X X X;. X#X$X3XG.~ ].~.S.E.J.b.k.j.d.^ S   p o o + p   ",
"+ + + S S + o                                                   p p o + o o E E % + j.v.H.OXqX1XF.<.<.<.<.<.<.F.1XOXS.qXF.F.F.F.qX6XOXS.E.J.k.+ o % o p   + + + + p   +                                                                                                                                                                                                 o o S + + + + |  .] / >.J . [ [ . X X X X . X X . X . i i X X X X X . X X X X X X $ X X . i >.| o o o o p o         p     o o + + o   o         o           +   + o o o + % % w.% @.+.$.J [ . i X i } $./ ]  .| S + % + o o o o E |.n.B B B B B B B B B V.Y.C.s.a.y.! ! ! ! ! ! ! ! ! ! ! ! ! ! ! ! ! ! ! ! ! ! ! ! ! ! ! ! ! ! ! ` a.oXJ.d.o E E + + +                                                                   o o o o o o o   ^ {  .+./ $.} X [ . J i J } >.$.] {   o o o                             + + + +     p +     o + p p p o p   E S j.J.Z.~.VX~ ~ ~ ~ ~ G.$X X;.;.;.;.;.;.;.;.;. X#X$X3XG.G.~ g.g.g.g.G.3X$X$X$X$X$X3XG.~ g.].OXE.J.b.j.{.^ S p + % o o     o p p ",
"+ + + + +   p o o o o                                         o p o o o % o E + p j.v.E.S.qXF.<.pXrX0X0X0XrXpX<.F.1XqXF.<.<.<.<.F.F.1XqXOXZ.v.E p Y + p p + + + o p   o                                                                                                                                                                                                 o o + % Y + { / } J i . . X X $ $ X i X X . . X . i X X . X X X X X . . X X X X $ X . . } $.+.S o o % o o o o o o +     +           o     o     o o   +   + o   + o o o + % + @. ./ $ [ [ J $ >./ ] +.{ @.S % % + % + + o + % p Y W.B B i.B B B B B B B i.V.Y.C.oXs.a.p._ ! ! ! ! ! ! ! ! ! ! ! ! ! ! ! ! ! ! ! ! ! ! ! ! ! _ ! _ y.7XH.k.E E E o + + + +                                                                 o o o o o % + ^  .] $.$ i [ [ . X . i . . [ [ >.+.@.o   o o                             + + + + +   + + p p o + + o p o p o % {.k.E.Z.*Xg.~ ~ ~ ~ ~ ~ G.$X X X;.;.;.;. X#X#X$X3X~ g.g.~ ~ ~ ~ ~ g.g.~ ~ ~ G.~ ~ g.g.~ g.*XZ.J.j.@.p Y E % o % o o     p   + + ",
"+ + + S S                                                       o     + o o o o ^ k.H.OX1XF.<.rX9X........9X0XrXpXF.1X1XF.<.<.<.<.<.F.F.qXZ.H.j.^ + o o o           p p                                                                                                                                                                                               + o o + + Y @./ [ . $ } $ X $ $ $ X X X X X X X i X . . . X . . . . . . X X X i . X X } / +.{ S + + o o o o                                       +   o         + o o o o + ^  ./ J [ X } >./ +. .| ^ % Y Y % % + + S S + o o +   Y n.B B i.B B B B B B B B B i.V.Y.C.oX7Xa.y.p._ ! ! ! ! ! ! ! ! ! ! ! ! ! ! ! ! ! ! ! ! ! ! _ _ y.7XC.b.d.o o o o + +   p                                                                 o o o o o o + ^ |  . .+.] / / $.>.} $ X X X / { + Y o o o                                         o     + + o o o p o o o E % ^ k.E.Z.*X~ ~ ~ ~ ~ ~ ~ ~ G.3X$X#X#X#X$X$X3X~ g.g.VXg.~ ~ ~ ~ ~ ~ ~ ~ ~ ~ ~ ~ ~ ~ ~ ~ ~ ~ ].S.J.j.^ Y E o p p o o o             ",
"+   +                                                         o p o o + o p o o {.v.T.qXF.<.rX9X..............M.0XOXS.OX1XF.<.<.<.<.<.<.F.S.E.b.d.{.E + p + + E o o o o o                                                                                                                                                                                             + o o   + ^ +.J J $ X X . . X X X X X X X X X X X X . X X . X X X X X X $ J J i J >.]  .@.+ Y % S % % o o o       o                                 o   + + + % + + % % S { ] } i J $.] +.| ^ % Y Y %         o + + S + + + + o   w.n.i.B B B B B B B B B B B B B i.V.Y.C.oX7Xs.a.y._ ! _ ! ! ! ! ! ! ! ! ! ! ! ! ! ! ! ! ! _ p.a.s.J.^.uX . .| S o o o o o                                                                 o   o o o   o o Y w.w.Y + ^ @.| {  .+.] / ] { o Y +     o o                           p + o + + + S + + + p   S + S o p p E E ^ k.E.S.].~ ~ ~ ~ ~ ~ ~ ~ ~ g.~ G.G.G.~ VXg.VXwXwX].].].wX~ ~ ~ ~ ~ ~ ~ ~ ~ ~ ~ ~ ~ ~ ~ g.].S.J.j.{.w.E o % o p o o             ",
"  o                                                           % o o E E E E Y E j.H.6XF.<.pX0XP.M.M.............M.I.I.!.qX<.<.<.<.F.F.<.F.qXS.E.J.v.k.j.S p S E o p o % o                                                                                                                                                                                               o +   % @./ i X X X . X X . . . . . . . . . . X X . $ X $ $ X X $ J X i J } $.+.| S % Y % o + + + % o o % % o   %                             + + o + + S % + + + S | ] >.i >.]  .| ^ % Y % o         + +         o       o o + w.n.B B B B B B B B B B B B B B i.i.i.V.Y.H.C.oXs.a.a.y._ _ ! ! ! ! ! ! ! ! ! ! ! ! ! _ p.a.s.oXY.<X:.a a i ] @.% o o o                                                                     o       o         o   o o % % % % % + ^ S o o   o o o                               + o o + % + + E % o d.j.k.k.k.j.j.d.{.E E j.J.Z.*Xg.g.~ ~ ~ ~ ~ ~ ~ ~ ~ ~ ~ g.VX*X~.~.T.S.S.Z.S.OX*X~ ~ ~ ~ ~ ~ ~ ~ ~ ~ ~ ~ ~ ~ VX*XE.J.j.  o o o +   o p               ",
"+   +                                                   + p + o o o o o o % + d.v.E.6XF.<.6XI.I.L.P.............M.L.L.iX0X9X0X0XaXaXqXF.<.F.1X6XS.Z.E.H.b.j.E p % + o o +                                                                               o +   +   +         o o   o                                                                                   o % +   % ^ ] X X X X X X X X X X X X X X X X X X X X X X X X J $ J i } >.]  .@.+ % % o % %   + + S + % o % % o   o                     o   o o + + o + + + + % % @.+.>.i >.+.| ^ + % + + + + o + + +       o o + +   + + o + % o Y W.B B B B B B B B B B B B B B B i.i.B i.V.V.Y.E.oXoXs.a.a.y.p._ ! ! ! ! _ _ _ p.y.a.a.s.C.C.Y.b.uXz.} J i ] ^ o   o o o                                                                 o   o o o   + o + +   o     + +   + + % % + + o o +     o                             + + o E E + E E d.k.v.Y.Y.H.Y.H.Y.J.b.j.d.E k.H.E.).].wXVXVXVXVXVXVXVXVXVX].*X).S.E.H.H.H.H.J.H.Z.S.*XVX~ ~ ~ ~ ~ ~ ~ ~ ~ ~ ~ VX*XS.E.b.d.o E o o + o p o o             ",
"                                                              o o o % + {.d.k.J.E.OX1XF.F.6XI.I.L.P.......M.M.M.L.L.L.M.M.M.M.P.L.I.I.aXrX<.F.F.1XqX6XOXE.H.k.d.+ E o o +                                                                                   o       o o o o     +                                                                                       o o   o + { } . $ X . . . . X X i i X X X X X . X X $ $ . [ [ $ $.]  .@.+ + % + % % o o o + % % % Y S   o o o   o                   o   o     + o o S + % S @. .$.i >.+.@.S + + + + % + +   o                             o % o + w.n.B B B B B B B B B B B B B B B B B B i.i.i.V.V.Y.H.C.oXs.s.a.y.y.y.y.a.a.s.s.s.C.Y.Y.V.V.i.n.+.z.J [ ] | + o     o o                                                                                     o o o o o o   o % + + % + o o o                                   + + o o + + d.j.v.Y.s.s.a.a.s.s.s.s.C.Y.b.CX] XXQ.H.S.S.OXOX~.~.~.~.~.~.T.S.Z.Z.H.b.j.j.j.d.j.j.v.E.S.].VX~ ~ ~ ~ ~ ~ ~ g.VXwX~.S.E.J.j.S o + o o o o o   o             ",
"                                                    + + + + + o + %   d.b.J.H.S.OX1X<.pXrX0XP.L.L.L.P.P.iXB.eXeX~.S.I.I.L.L.L.L.L.L.L.L.9XrX<.<.<.<.F.1XqXS.H.k.E + o o +                                                                 o   o o     + o o   +             o o   o                                                                                   o   o % % + | >.X X X X X X X . . X X . X X X X X X i [ . $ $.]  .| ^ E E + % + + + o o % % % ^ | +.]  .^ % o o   o                     o   o o + + o % % @. ./ } $ / { S + % % % S + % + + + o +                           o o   o E |.W.n.B B B B B B B B B B B B B B i.i.B B B i.i.i.i.V.V.Y.Y.Y.C.C.C.C.C.C.C.Y.Y.V.V.i.B B i.W.] @X} ] @.+ +       o o                                                                                             + + o   % % S + + o o +                                     o o + + E j.v.C.s.y.` _ _ p.p.p.y.y.y.h.Y.k.5X8XXX^.Q.>XT.H.H.E.Z.oXoX7X7X7XoXv.d.+ o   p p o j.J.E.S.3XVXVXVXg.g.g.~ G.*XOXE.E.v.k.E % E E o o o     o               ",
"                                                      + E p E E %   j.v.E.S.!.aXrXrX0X9X9XM...M.L.I.~.:XbXbXbXbXbXbX4X:X&XS.I.L.M.M.M.M...9XrX<.<.<.<.<.F.qXS.J.w.S + o +                                                                   o     o   o % + + + S % %     o % o + %                                                                                   o o o o % ^ +.J $ $ $ X X $ $ X X X . X X X . [ [ J >./ ]  .| @.S % % + + S   + + + o o o o o S | +./  .  o o o                       o o o o o o o % ^  ./ >.i } +.@.+ % + o + + + o o                                       p o p + + w.w.W.n.B B B B B B B B B B B B B B B B B B B B B B B i.i.i.V.V.V.V.V.V.V.i.i.B B B B B i.|.>.} +.^ o o +     o o o                                                                                       o       o + o + +       + +                                     + o o E + % d.v.C.7Xy.! ` ! ! ! ! ! _ _ p.y.h.Y.k.<XuXuXCXCX^.Q.J.7Xa.y.a.7XoXJ.k.E % E o p p + {.d.v.H.S.).).).).).~.~.T.E.H.J.b.j.E o + + + o o o o o o o             ",
"                                                    + + + + + E + j.v.E.OXaX9X9X9X............M.!.:XbXtXD.zXzXzXzXzXtXmXbX4XT.I.M...........0XpX<.<.<.<.<.F.6XE.j.S o o +                                                 o     o o o + + o   o o     o o S + % % S S + o o o o + o                                                                                   % o o o % ^ +.J i . X J X X $ $ $ X i . . i } $.] +.{ @.^ % % % % o +     o o         o o o o     ^ @.^ o o o                         o o o o o o S { +./ $.$.$.+.@.% % S + o + +       +                                     o   o o o o p E |.n.B B B B B B B B B B B B B B B B B B B B B B B B B B B B i.B i.B i.B B B B i.i.n.{ /  .^ % o o o +     o                                                                                                 +     o o o o +                                         p + o % % Y d.k.v.C.a.p.! ! ! ! ! ! ! ! _ _ p.a.s.Y.b.d.| { CXb.C.a._ ! y.7XH.b.{.S {.{.d.d.d.{.|  .CXk.>X>XT.T.T.T.J.J.J.v.b.j.E % o       S     o o o o o             ",
"                                                  + + + + + + % ^ k.H.!.0X9X................M.L.T.mXzXD.D.D.D.tXD.D.D.zXzXzX4XS.L.M.........9XrX<.<.<.<.<.F.6XE.k.  o % +                                                   o o o o o o o o   o o     o o Y Y ^ | +.+.| + % o o                                                                                       o   o o + S { +./ $.} J i X i i i J } $./ ] +.{ @.S Y Y Y % + + + o +   + + + +   + + o o o o o % Y w.% o o o     o                   o o o o o o ^ {  . . .{ { ^ % % + + o o o o     + + +   o                             o o   o + o o o + E w.W.n.B B B B B B B B B B B B B B B B B B B B i.B B B B B B B B B B i.B i.B n.W.{.{ | + % o o o o +   o o                                                                                                 +     o o o o + o o                                     p o o + % E d.{.j.v.C.a.p._ ! ! ! ! ! ! ! ! ! _ p.s.C.J.v.b.v.Y.a.p.! ! p.s.J.k.{.j.k.b.v.v.v.v.v.b.b.b.v.v.v.v.v.v.b.k.d.{  .| ^ p % % Y Y +   o o     o o   +     +   ",
"                                                  + E + + E + o ^ b.E.!.M...................M.I.4XzXtXtXD.tXD.D.D.tXtXtXtXzXbXT.L.P.P.P.P.P.M.rX<.<.<.<.<.1XOXH.j.p o o o                                                   o           o o   o o o o % % S | +./ $ J ] | + o o +                                                                                         o o   o % ^ @.{ ] $.J $ } >./ ] +. .| ^ + % Y Y % + + + + + o o + + +   + + + + + o o o % %   o o o o o o o   o                   o   o o o o o S + Y Y % % + + + + + o   o     + + +     o                                   + + + + o o + + E |.n.n.B B B B B B B B B B B B B B B B B B B B B B B B B B B B B B B B n.E | | {.w.% o o o o o         o                                                                                                 o   + +                                                 o o p + E E +   j.v.C.a._ ! ! ! ! ! ! ! ! ! _ ! m a.s.C.C.C.s.y.! ! ! _ a.Y.v.v.J.Y.C.C.C.C.C.C.s.C.C.C.U.Y.Y.Y.v.v.v.k.uX/ / ] +. .| @.^ S o % Y % o o o         +   ",
"                                                  + E + p E p o ^ k.H.I.M.............M.M.M.P.I.Q.mXD.tXtXD.D.tXD.D.tXD.D.zXmX&XI.L.L.I.I.L.P.rX<.<.<.<.<.1XS.J.d.p o o o                                                 o   o o o o o     o + + % + S | +.$.J [ i i i ] @.Y   o o                                                                                     o o o o o + % Y w.S  .] ] +.{ @.^ o % % o S S + % + + + % % + o o                     o o o o o o       o                             o o o   o o o + + % + + + + S S + o o o                                                         %   o % % + + E d.|.W.B B B B B B B B B B B B B B B B B B B B B B B B B B B B n.W.{.| ^ Y Y o % %   o o o                                                                                                                                                           + o o o o o + % % + % % {.b.C.s.y.! ! ! ! ! ! _ _ _ _ ! ! _ p.y.y.y.p._ ! ! ! _ y.s.C.C.s.a.y.y.p.y.y.y.p.p.p.p.p.p.a.a.s.s.C.Y.v.^.XX,Xi $ $./ ] +.{ | ^ S + o o o o o o     ",
"                                                    + + + + + % p j.J.Z.P...........M.L.I.I.L.I.Z.4XtXtXD.D.tXD.D.D.tXD.D.mX4X!.P.M.M.L.I.I.iXpX<.<.<.<.F.6XZ.v.E p o o o                                               o o o o o o o % % + % % + ^ { ] >.. [ . X $ J i / | Y o   %                                                                                   o +         o   S + % + ^ ^ + Y % %   o           +   + o o + + o o +                               o o     o                         o   o o       o     o + o +     o     o                                                           o o % % S @.|  ./ / { W.n.n.B B B B B B B B B B B B B B B B B B B B B B n.n.W.w.^ S Y %     p   o     o                                                                                                                                                               + S + + + E E + % + % E k.J.C.s.y._ ! ! _ ! ! ! ! ! ! ! ! ! ! ! ! ! ! ! ! ! ! _ y.a.y.p._ ! _ ! ! ! ! ! ! ! ` _ _ _ _ _ p.p.p.a.s.Y.b.jX8Xa z.. X $ $.] +. .{ @.S % o o +   ",
"                                                        p p   o o ^ k.H.L.M...........P.I.I.L.P.L.E.4XmXtXtXtXtXtXtXtXtXbXQ.!.L.M...M.P.L.P.rX<.<.<.<.F.1XS.E.k.E E o o o                                                 o o % o   o % + % % @. ./ } . X X X $ $ $ $ / { S +   o +                                                                                       + + + o   o o     o o o o                 o o   o                                   o   o o o o       o                                   o o o   o           o o   o o   o                                                         + o % ^ |  .+.+.{ @.^ ^ E |.W.n.n.B B B B B B i.i.i.i.i.B B B B B n.W.W.|.Y +   % o o   + +   o   o o   o                                                                                                                                                           o + + + + % % o % % o % E d.j.v.C.s.y.! ! ! ! ! ! ! ! ! ` ! ! ! ! ! ! ! ! ! ! ! ! ! _ ! ! ! ! ! ! ! ! ! ! ! ! ! ! ! ! ! ` ! _ _ _ p.p.a.C.^.8Xa $ X . . . [ J $ / | %   o +   ",
"                                                    + +   + p o % p E v.Z.P...........M.P.P.M...M.L.S.&X4XbXbXbXbX4X4X&XS.I.P.M.......M.M.9XrX<.F.<.F.1XOXE.v.d.E E o o E + +   +   +   o                               o o o % o o % Y + @. .$.J i X . i J $ i i >.+.@.% + S o o o                                                                                     +         o     + o           + +   o o         +   + + + +     o                                                           o o o   o o o o       o   o o o o o o o o   + o o                                                         o o + S ^ ^ + Y % % % + + + E E w.|.|.W.|.|.|.|.|.|.|.|.W.W.W.|.|.w.E + + o % % o o o o     o   o     o                                                                                                                                                 o   o o o + o + % + + % % o +     + + S {.d.b.Y.s.y._ _ _ ! ! ! ! ! ! ` ! ! ! ! ! ! ! ! ! ! ! ! ! ! ! ! ! ! ! ! ! ! ! ! ! ! ! ! ! ! ! ! ` _ _ p.y.a.C.^.8X. X X $ J J $ $ [ ] @.Y + o +   ",
"                                                              o % o   b.E.I.0X9X................M.M.L.I.I.I.I.I.!.I.L.L.I.L.M.............9XpX<.<.F.1X6XZ.J.j.+ E E o o o         o   +                                 o o o o % Y   | ] >.i [ [ [ [ [ [ i >./ +.| + % + + o o o o                                                                                                                                                                                                                       o         o                                                                                         + o   + % % + + + + S + E + + o o E + + E {.@.| | | | | ^ S E E + S + o % % % % + o o                                                                                                                                                                               o o + S S S S S + % w.|.|.|.W.|.|.b.Y.s.a.p._ _ ! ! ! ` ! ! ! ! ! ! ! ! ! ! ! ! ! ! _ ! ! ! ! ! ! ! ! ! ! _ ! _ _ _ _ p.y.a.a.a.7XoXC.b.<X8Xj $ a a X X X $ [ / @.Y % + o +   ",
"                                                              o + o p j.J.Z.qXpX0X9X............M.M.L.L.L.P.M.M.M.M.M.P.I.I.P...........9XrX<.F.F.1XOXE.J.k.{.% + S p + + + + + +   +   + +                             o o + + ^ { +./ $.$.$.$.$.$.$./ ] +.{ @.+ E + S + o     o o                                                                                                                                                                                                                 o o o   o o o o     o o o o o o o o o o     o o o                                                         + o S S S S S + + + S + + + o o o o o   o o E E + + + + S   + + + + o o % o + + + o +                                                                                                                                                                       o o o o o S w.|.W.W.W.W.n.n.n.n.n.B B B B B V.Y.C.a.y._ ! ! ! ! ! ` ! ! ! ! ! ! ! ! _ ! ! ! ! ! ! ! ! ! ! _ p.p.y.y.a.a.a.7X7X7X7XoXC.H.v.^.XX8Xa X X X a X $ J i [ $.| Y % + o o +   ",
"                                                              o o o p E b.E.OXF.<.rX0X9X......M.L.L.I.L.M.............P.I.I.P.....M.M.P.iX6X6X6X6XS.E.J.k.{.+ + + S + Y Y Y Y + + + + + o o +                           + o   S ^ | { { { | @.@.@.@.@.@.^ S o % % o + + o o                                                                                                                                                                                                                         o o o % o o % o     o o o % o   o     o o o o o o                                                             +     + o       +   +           o   p o o % % % % o o p o     o     o           p                                                                                                                                                                 o o   % o % % S w.W.n.B B B B B B B i.B B B B B B B V.Y.C.s.s.a.p._ ! ! ! ! ! ! ! ! ! ! ! ! ! ! ! ! ! ! ! _ p.p.a.s.s.C.C.Y.V.J.v.J.>XQ.^.<XXX8X,Xa . . . . [ [ [ i J $ $. .  Y o o o o     ",
"                                                          + + + o E % p j.J.Z.6XF.<.pXrXrX0X9XP.L.I.I.P.M.............M.P.P.M.M.P.L.I.I.Z.E.E.E.H.J.v.j.S p + + + % % % ^ |  .{ S % + + o o                             o o + + S S + % % % % % Y Y Y Y % % % + + + + o   o + + o o o     + + +     o                   +   + +           +                                                                                                                                             o o o       o o o o   + o o + S + % % Y % % % % + S + + o o +                                                         + o             + +   + + + o o o o o o o o p       p   + + + + + + + o o o + + + o o                                                                                                                                                                       o o % + S W.B i.B B B i.B i.B B B B B B B B B B i.V.Y.C.C.s.a.a.y.p.p.p.p._ _ _ ! ! ! ! ! ! ! ! _ p.y.y.h.C.Y.Y.Y.b.<X5X5X8X8X8X,X,Xz.@X@X@X[ J i J } >./ / ] +.+.| S o o o   o o     ",
"                                                    p p   + + + o E E o E k.H.Z.6X1XF.F.<.pX9XM.L.L.L.M.................M.M.P.L.!.E.J.J.J.J.v.v.b.j.{.S % + + + % ^ | +.] $.>. .+ % + + o o                             o o o + + % % + + + S S S + % % +   o + + + +         + o o o     + + + + + +           +             + + o + o +                                                                                                                                         o o o o o o o   o o         % Y Y % % % % % + ^ ^ ^ ^ S + + + + o o     o +                                                 + +             + +     + + + o o o o o o o o o o o + + + + + + + + + o o + + + + + +                                                                                                                                                                       o o o + S W.B i.B B B B B B B B B B B B B B B B B i.i.V.V.Y.C.C.C.h.s.s.s.a.a.y.p.y.y.p.y.y.y.y.y.h.h.U.V.V.i.i.i.n.uX[ $ $ $ X i } >.$.$./ / ] ] +. . .| @.^ ^ + % % o o o   o o     ",
"                                                    p   p p   % o E d.d.d.d.b.H.E.OXqX1XF.<.rX..M.M.M...................M.P.I.H.v.k.d.d.d.{.{.{.^ S + % E E S + ^  ./ >.} >./ @.Y + + + o + +                           + o % % + + + + o + o o S + % + + o o o                                   +   + o + + +             o o         +                                                                                                                                         o   o       o o o o o o o o o   ^ @.| {  . . .+.+.+.+. .| ^ + o o o     o +                                                                                                                                                                                                                                                                                                             % o + E S W.B B B B B B B B B B B B B B B B B B B B B B B i.V.V.V.V.Y.Y.C.C.C.s.s.s.s.s.s.s.C.C.C.Y.V.i.B B B B i.B w. .{ { { { { { { { { | @.@.^ + % % % % Y Y Y + + o o o o o o     ",
"                                                      o   + E o d.j.b.b.b.b.k.k.J.E.S.6XqX1XpX0X......................P.L.Z.J.j.^ ^ S o o o % % Y E E % o + + + { ] ] +. .| ^ % % + + +                                 +   + % + S   +   o % % + + + + + +   +                     o   + + + + o   o       + o o o + + + + + + + + + +   +                                                                                                                                         o   o o o     o % % S @.|  .+.] / $.>.} J J i [ [ i $ $.+.@.E + + + o o + +                                                                                                                                                                                                                                                                                                           o     + + w.W.B B B B B B B B B B B B B B B B B B B B B B B n.B B B i.i.V.V.Y.Y.Y.Y.Y.Y.Y.Y.Y.V.V.i.B B B i.i.B B B W.E w.% o % Y Y Y % % Y Y % + o o +     S + + + o   o o o o o     ",
"                                                    o o p Y Y   k.V.C.s.h.h.U.V.k.b.J.H.E.S.OX6XaX0X9X............M.L.I.E.v.j.+ Y % o % o   o o       p o     o ^ S % Y % Y o   o o     o +                               o       o o   +   +           o   + +                   + o   + % + + + + + + + E E + + S @.@.| | { { S % % + o +                                                                                                                                       o o o % o   + S S ^ { +./ >.X . . . . . . . . X . $ $ X . $ ] ^ E S S + o o                                                                                                                                                                                                                                                                                                                 o o o + w.W.n.B B B B B B B B B B B B B B B B B B B B B B B B B B i.B B B B i.i.i.i.i.B B B B B B i.B B B B B n.|.  o % p                           + o           o               ",
"                                                  p o + p o + {.v.C.a.p._ _ p.a.C.v.j.j.b.H.oXoXS.6XpXrX9X9XM.P.P.L.Z.J.k.d.o E E o o E + o + + o + + o o % % % Y Y % o o o o   % o + o     +                           +   o o +     +   +   + o o +     +     o   o o     o + o   % + + + + + + % % + S @.{  .+.] / $.$.} $ >.] | + o   +   o o   o                                                                                                           o     o   o + + + o o + + + + + @. ./ >.i . i X X X X X X X X X X X $ X J $ . } { Y + S S o o                                                                                                                                                                                                                                                                                                             o     E   + % % |.n.B B B B B B B B B B B B B B B B B B B B B B B B B i.B B i.B B B B B B i.B B B B i.B i.B B B B W.E p % +           + + o o +     + +     + o + + +   o o     o     ",
"                                          o   o o o p o o p + d.J.s.p.! ! ! _ p.a.oXJ.j.b.C.a.a.7XoXOX6XaXaXiXI.Z.H.b.j.S % E E E % + E p             o o   o % o     o o o o   o o                                                                           o   o     o o       + o   + % % E S @. .+./ >.>.} i i i J J J $ . i / { + o o o                                                                                                                 o   o o   o   o +   o o S + % @.+./ } i J $ $ X X $ $ X X X . . . $ . X $ X $ $ $ ] + % % o o o +                                                                                                                                                                                                                                                                                                                 o o o % Y E |.W.n.B B B B B B B B B B B B B B B B B B B B B B B B i.B B B i.B i.B B B B B B B B B B B B B n.|.+ o o o                                                           ",
"                                                  p o + p o % d.v.C.a.p.! ! _ ` p.s.C.v.v.h.y._ y.a.7XoXoXoXZ.E.>Xk.k.k.k.k.j.E   + o + o o         o % o o % o o o o o o o o   o o                                                                           + o   o o     o o   + o % % ^ { +./ $.} $ X X X X X X X X X X i X i i / | %     o o   o                                                                                                           o     o       o o p o % @. .$.} X X $ X X $ X . X X X X X . . . X X X X X X . i / S + + + o o +                                                                                                                                                                                                                                                                                                                 o + o o % Y E w.|.W.n.B B B B B B B B B B B B B n.B B B B B B B i.B B B B B B B B B B B B i.i.i.i.i.B B n.|.% E %   %                                                           ",
"                                          o o o + + + + + % o   k.Y.s.p.! _ _ ! ! p.s.E.H.s.p.! _ _ p.y.y.a.oXE.J.J.Y.Y.Y.Y.Y.v.b.d.  p + p         o o         o o   o o o o   o o                                                                             o o o o o o + + % + ^ { +./ >.$ X i X . X . X X X X X X X X i X J X } +.S + o o o   o                                                                                                         o o o % % o o + + S % Y { / } J i X X X X . X X X . . X X . . . . X X X . X $ J } +.+   % + o o                                                                                                                                                                                                                                                                                                                     o   o o o o + E E w.|.W.n.n.B B B B B B B B B B B B B B B B B B B B B B B B B B B B B B n.n.n.n.n.W.|.w.E + o o o +                                                           ",
"                                          o + o o % % % o E % p d.J.s.p.! _ ! ! ! _ y.s.s.y.p.! ! ! _ _ _ y.s.oXoXs.a.s.a.a.s.s.Y.v.d.p % o             o o o o     o                                                                                         o   o %     % Y + @. .] >.} X X X X X X X i X i i i . . . . . . . J X . / | Y o o %   o                                                                                                         o o o o % % o + % Y ^  .$.$ X X a X X X i X . . . X X . . . . . . . X X X $ J $ ] ^ % o o o o o                                                                                                                                                                                                                                                                                                                   +   +     p p   + + + + E w.|.|.W.W.W.n.W.n.W.n.n.n.n.n.n.n.n.n.n.n.n.n.n.n.n.W.W.W.W.W.|.|.|.|.w.|.E o o o                                                                     ",
"                              o +   p + + o o o % % % % p E %   j.J.s.y.! ! ! ! ! ! _ m m ` ! ! ! ! ! _ _ ! y.a.a.y.p.p.p.p.p.a.s.C.b.S o E           o         o o o o o o     o o                                                                   o     o o o o + % % S | +./ } i . . X X $ $ X X X X i X X X X X X X X X X i J [ >.{ Y o % o   o o                                                                                                       o o o o o o % Y + | ] >.. X $ X X X X X . . X X X X X X X X X X X X X J i X >.] @.% % % o o o o o                                                                                                                                                                                                                                                                                                                   +   o o o o + + + + + + + E E E E w.w.w.w.w.w.|.w.|.w.|.w.w.w.w.w.w.w.w.w.Y w.w.E E E E E + + + E + o o o + +                                                                 ",
"                              o o + + o o p p p S S + % % w.Y S k.Y.7Xp.! ! ! ! ! ! ! ! ! ! ! ! ! _ _ _ _ ! _ _ ! ! ! ! ! ! ! _ a.s.J.d.o o                       o     o o     o o                                                                   o     o o o o % + @.+./ >.i [ J $ $ X X $ $ X $ X X X X X X X X X X X X X X $ [ $.{ Y o % o   o o                                                                                                       o o o o   o o @.+./ J . X $ X X X X X X X X X X X X X X X X X X X X . . J $.+.@.% + o o o o o o o                                                                                                                                                                                                                                                                                                                         o o o + + + + + % Y E E + + + + + +     S S S S + S S S S S S S S S S   + E E E E E E E Y Y Y o % + + +     +                                                           ",
"                                  p o S S + % Y w.|.|.W.W.W.W.W.n.Y.s.p.! ! ! ! _ _ ! ! ! ! ! ! ! _ ! ! ! ! ! ! ! ! ! ! ! ! ! ! y.s.J.j.p o                                                                                                                   o o p @. ./ $ i i X J X X i i X X X X X X X X X X X X X X X X i i X . J ] ^ % o o %   o                                                                                                         o o % o o   { ] $ [ . $ X $ X $ $ X X X X i . . . . . . . . . . . i $ >.] { S % S S   o   o o o o                                                                                                                                                                                                                                                                                                                                 S E + + + E E E E o o o % o o o o o o o o o o o o o o o o p o o % % % % E E E E % Y Y o o +                                                                     ",
"                        o   o o o + p E w.|.W.W.n.B B B B B B B i.Y.C.y._ ! ! ! ! ! ! ! ! ! ! ! ! ! ! ! ! ! ! ! ! ! ! ! ! ! _ _ y.s.J.d.p o                                                                                                         o o o o o     { ] } i i J J J $ >.>.} $ J J i X i . X . . . . . . . i X J $ } J / { % o   o o   o                                                                                                         o o o o Y | $.[ . J X . . X . X X X X X . i J J $ $ $ $ $ $ $ } } $.]  .@.% %       o   o o   o                                                                                                                                                                                                                                                                                                                                     + p + + o + + +       o o       o o o   o       o o   o o o o o + +   S + + + + + +                                                                           ",
"                        o     o + + % W.n.n.B B B i.i.B B B i.B B V.C.a.p.! ! ! ! ! ! ! ! ! ! ! ! ! ! ! ! ! ! ! ! ! ! ! ! ! p.y.s.Y.b.d.o E                                                                                                         o o o o % % ^ ] i [ $ $ } $.]  .{ {  .+.] ] / / $.$.>.>.>.>.>.>.>.$.$./ / ] +.+.{ S o   o                                                                                                                 o o o % % +.J i $ X J $ $ $ $ $ $ $ } >.$./ ] ] ] +.+.+.+.+.+.+. .@.S % % o + o o o   o     o o                                                                                                                                                                                                                                                                                                                                           p p p     o + +     o o o       o   o o o     o             p p p p p     p p   p p                                                                     ",
"                        o         + w.n.i.B B i.i.B B B B B B B B V.Y.s.y.! ! ! ! ! ! ! ! ! ! ! ! ! ! ! ! ! ! ! ! ! ! _ p.a.a.C.J.k.d.% + o                                                                                                         o o o o   o %  ./ / ]  .{ @.+ Y % % % % % + ^ ^ @.| | | | | | | | @.@.@.^ % Y Y % + o + o o o   o                                                                                                         o o o   % { >.i } / ] +.+.+.+.+.+. . .{ | ^ Y % % Y Y Y Y % Y Y % Y % + + % % o         o o o o o                                                                                                                                                                                                                                                                                                                                   + p + + o o + + + p o o o   o o o o o   o       o o   o o o o o + + + + + + + o + o   o +                                                                     ",
"# # # # # # # # # # # # # # # # # # # # # # # # # # # # # # # # # # # # # # # # # # # # # # # # # # # # # # # # # # # # # # # # # # # # # # # # # # # # # # # # # # # # # # # # # # # # # # # # # # # # # # # # # # # # # # # # # # # # # # # # # # # # # # # # # # # # # # # # # # # # # # # # # # # # # # # # # # # # # # # # # # # # # # # # # # # # # # # # # # # # # # # # # # # # # # # # # # # # # # # # # # # # # # # # # # # # # # # # # # # # # # # # # # # # # # # # # # # # # # # # # # # # # # # # # # # # # # # # # # # # # # # # # # # # # # # # # # # # # # # # # # # # # # # # # # # # # # # # # # # # # # # # # # # # # # # # # # # # # # # # # # # # # # # # # # # # # # # # # # # # # # # # # # # # # # # # # # # # # # # # # # # # # # # # # # # # # # # # # # # # # # # # # # # # # # # # # # # # # # # # # # # # # # # # # # # # # # # # # # # # # # # # # # # # # # # # # # # # # # # # # # # # # # # # # # # # # # # # # # # # # # # # # # # # # # # # # # # # # # # # # # # # # # # # # # # # # # # # # # # # # # # # # # # # # # # # ",
"# # # # # # # # # # # # # # # # # # # # # # # # # # # # # # # # # # # # # # # # # # # # # # # # # # # # # # # # # # # # # # # # # # # # # # # # # # # # # # # # # # # # # # # # # # # # # # # # # # # # # # # # # # # # # # # # # # # # # # # # # # # # # # # # # # # # # # # # # # # # # # # # # # # # # # # # # # # # # # # # # # # # # # # # # # # # # # # # # # # # # # # # # # # # # # # # # # # # # # # # # # # # # # # # # # # # # # # # # # # # # # # # # # # # # # # # # # # # # # # # # # # # # # # # # # # # # # # # # # # # # # # # # # # # # # # # # # # # # # # # # # # # # # # # # # # # # # # # # # # # # # # # # # # # # # # # # # # # # # # # # # # # # # # # # # # # # # # # # # # # # # # # # # # # # # # # # # # # # # # # # # # # # # # # # # # # # # # # # # # # # # # # # # # # # # # # # # # # # # # # # # # # # # # # # # # # # # # # # # # # # # # # # # # # # # # # # # # # # # # # # # # # # # # # # # # # # # # # # # # # # # # # # # # # # # # # # # # # # # # # # # # # # # # # # # # # # # # # # # # # # # # # # # # # # # # # ",
"# # # # # # # # # # # # # # # # # # # # # # # # # # # # # # # # # # # # # # # # # # # # # # # # # # # # # # # # # # # # # # # # # # # # # # # # # # # # # # # # # # # # # # # # # # # # # # # # # # # # # # # # # # # # # # # # # # # # # # # # # # # # # # # # # # # # # # # # # # # # # # # # # # # # # # # # # # # # # # # # # # # # # # # # # # # # # # # # # # # # # # # # # # # # # # # # # # # # # # # # # # # # # # # # # # # # # # # # # # # # # # # # # # # # # # # # # # # # # # # # # # # # # # # # # # # # # # # # # # # # # # # # # # # # # # # # # # # # # # # # # # # # # # # # # # # # # # # # # # # # # # # # # # # # # # # # # # # # # # # # # # # # # # # # # # # # # # # # # # # # # # # # # # # # # # # # # # # # # # # # # # # # # # # # # # # # # # # # # # # # # # # # # # # # # # # # # # # # # # # # # # # # # # # # # # # # # # # # # # # # # # # # # # # # # # # # # # # # # # # # # # # # # # # # # # # # # # # # # # # # # # # # # # # # # # # # # # # # # # # # # # # # # # # # # # # # # # # # # # # # # # # # # # # # # # # # ",
"# # # # # # # # # # # # # # # # # # # # # # # # # # # # # # # # # # # # # # # # # # # # # # # # # # # # # # # # # # # # # # # # # # # # # # # # # # # # # # # # # # # # # # # # # # # # # # # # # # # # # # # # # # # # # # # # # # # # # # # # # # # # # # # # # # # # # # # # # # # # # # # # # # # # # # # # # # # # # # # # # # # # # # # # # # # # # # # # # # # # # # # # # # # # # # # # # # # # # # # # # # # # # # # # # # # # # # # # # # # # # # # # # # # # # # # # # # # # # # # # # # # # # # # # # # # # # # # # # # # # # # # # # # # # # # # # # # # # # # # # # # # # # # # # # # # # # # # # # # # # # # # # # # # # # # # # # # # # # # # # # # # # # # # # # # # # # # # # # # # # # # # # # # # # # # # # # # # # # # # # # # # # # # # # # # # # # # # # # # # # # # # # # # # # # # # # # # # # # # # # # # # # # # # # # # # # # # # # # # # # # # # # # # # # # # # # # # # # # # # # # # # # # # # # # # # # # # # # # # # # # # # # # # # # # # # # # # # # # # # # # # # # # # # # # # # # # # # # # # # # # # # # # # # # # # # # "
};
