/* XPM */
static char *_2b00a9305d44fe5b0c16b7d8baa8a6cEbJV0pNbnhfLyDCQ[] = {
/* columns rows colors chars-per-pixel */
"512 512 256 2 ",
"   c #274F1A",
".  c #74B42F",
"X  c #7DC728",
"o  c #44661D",
"O  c #7BC624",
"+  c black",
"@  c #73B22E",
"#  c #2D561D",
"$  c #7EC526",
"%  c #7AC824",
"&  c #588728",
"*  c #40661A",
"=  c #73B328",
"-  c #7FC42B",
";  c #C28241",
":  c #74B628",
">  c #0F6116",
",  c #7BC528",
"<  c #27521B",
"1  c #266704",
"2  c #77BA28",
"3  c #6EA731",
"4  c #455418",
"5  c #AD6942",
"6  c #985B36",
"7  c #6AD8FD",
"8  c #78DCFC",
"9  c #41802C",
"0  c #7CC12C",
"q  c #426319",
"w  c #356922",
"e  c #588429",
"r  c #98DE4C",
"t  c #566723",
"y  c #316916",
"u  c #13451F",
"i  c #A1E6FD",
"p  c #73DBFB",
"a  c #5BB34D",
"s  c #44631F",
"d  c #6EDAFD",
"f  c #558721",
"g  c #7EDCFD",
"h  c #C1815A",
"j  c #328245",
"k  c #2C591D",
"l  c #0D4E10",
"z  c #7DC224",
"x  c #6DA434",
"c  c #426918",
"v  c #175727",
"b  c #366D22",
"n  c #266932",
"m  c #185426",
"M  c #79BE26",
"N  c #427C2A",
"B  c #A7653F",
"V  c #125F12",
"C  c #476A20",
"Z  c #8CE0FD",
"A  c #598A26",
"S  c #84DEFC",
"D  c #547C27",
"F  c #9E603B",
"G  c #697D2A",
"H  c #225703",
"J  c #3B9952",
"K  c #507627",
"L  c #698128",
"P  c #4A8F3E",
"I  c #2C6D15",
"U  c #11731B",
"Y  c #156310",
"T  c #71D8FC",
"R  c #154A21",
"E  c #6A951E",
"W  c #548125",
"Q  c #9D662F",
"!  c #ADE9FA",
"~  c #15421D",
"^  c #7BBD2F",
"/  c #296405",
"(  c #4A6F24",
")  c #154D24",
"_  c #669731",
"`  c #89BF4A",
"'  c #266A05",
"]  c #75A429",
"[  c #7DCA2A",
"{  c #FAFDFC",
"}  c #99BA65",
"|  c #9ADB4F",
" . c #94DA45",
".. c #176E17",
"X. c #BC7A53",
"o. c #85CD33",
"O. c #225C04",
"+. c #86C12E",
"@. c #B4724A",
"#. c #82C830",
"$. c #246104",
"%. c #3A7426",
"&. c #49731A",
"*. c #95E3FA",
"=. c #8BD13A",
"-. c #7AB33F",
";. c #135C17",
":. c #DFF4FA",
">. c #1D4814",
",. c #4F7B22",
"<. c #679D2E",
"1. c #905F30",
"2. c #2E4A17",
"3. c #55531C",
"4. c #186713",
"5. c #90D640",
"6. c #5D7922",
"7. c #465A1A",
"8. c #326432",
"9. c #324F18",
"0. c #50611E",
"q. c #5B8F24",
"w. c #753F20",
"e. c #78AE35",
"r. c #639032",
"t. c #855822",
"y. c #7FA346",
"u. c #70431C",
"i. c #316121",
"p. c #607425",
"a. c #646123",
"s. c #338847",
"d. c #436E17",
"f. c #BD7D3E",
"g. c #BAEBF8",
"h. c #BE8438",
"j. c #0C5413",
"k. c #5F9429",
"l. c #A56D35",
"z. c #89BC32",
"x. c #915129",
"c. c #37650E",
"v. c #585A21",
"b. c #3A8F4E",
"n. c #7AD9F6",
"m. c #38551D",
"M. c #3F4A1C",
"N. c #276F36",
"B. c #E9EECE",
"V. c #77652D",
"C. c #317940",
"Z. c #FAFCC2",
"A. c #2A5405",
"S. c #87662D",
"D. c #E1E4C1",
"F. c #6B8439",
"G. c #409450",
"H. c #B17437",
"J. c #62AA4E",
"K. c #ECF6FA",
"L. c #6D8D22",
"P. c #325C0B",
"I. c #664B23",
"U. c #A4E3F1",
"Y. c #4F4E1D",
"T. c #D4E6A8",
"R. c #767627",
"E. c #2A7117",
"W. c #F0F5DF",
"Q. c #435D2F",
"!. c #84A74F",
"~. c #7CAC40",
"^. c #394118",
"/. c #546C1A",
"(. c #719C3B",
"). c #376D10",
"_. c #C6EFF7",
"`. c #849825",
"'. c #749D21",
"]. c #6DA316",
"[. c #586D27",
"{. c #6D592A",
"}. c #6D6D24",
"|. c #8EB356",
" X c #1A3D17",
".X c #DFEEB7",
"XX c #70A81C",
"oX c #86DAEF",
"OX c #898624",
"+X c #CFDBB7",
"@X c #897325",
"#X c #844A27",
"$X c #367F09",
"%X c #B27D2E",
"&X c #B0D07C",
"*X c #D5DD9A",
"=X c #487B13",
"-X c #89B32F",
";X c #BBDD8F",
":X c #96DDEC",
">X c #5A7D2E",
",X c #3A6F3B",
"<X c #9BC64F",
"1X c #A1D054",
"2X c #71AF1C",
"3X c #BAE7E1",
"4X c #317712",
"5X c #44804E",
"6X c #8AA82C",
"7X c #EACA56",
"8X c #554517",
"9X c #8BC541",
"0X c #C4D3A2",
"qX c #659C12",
"wX c #7CD5E5",
"eX c #C2E859",
"rX c #459267",
"tX c #5CA047",
"yX c #AB8751",
"uX c #91BEA8",
"iX c #513422",
"pX c #83CDC6",
"aX c #A0C76D",
"sX c #977B47",
"dX c #74B599",
"fX c #363613",
"gX c #97AB8D",
"hX c #AE631F",
"jX c #92D7D7",
"kX c #ADDBD0",
"lX c #7E9F78",
"zX c #D9BD48",
"xX c #B2CC95",
"cX c #A4CEBF",
"vX c #55873D",
"bX c #4C9C36",
"nX c #3E8E21",
"mX c #599B79",
"MX c #75C1B4",
"NX c #97942F",
"BX c #342C0F",
"VX c #9FA534",
"CX c #5FA88F",
"ZX c #78AF70",
"AX c #A7C181",
"SX c #608B62",
"DX c #819357",
"FX c #A9D769",
"GX c #B3BDA1",
"HX c #A6B741",
"JX c #D1ECDA",
"KX c #533B13",
"LX c #30200F",
"PX c #CBA138",
"IX c #4D734F",
"UX c #807D6D",
/* pixels */
"+ + + + + + + + + + + + + + + + + + + + + + + + + + + + + + + + + + + + + + + + + + + + + + + + + + + + + + + + + + + + + + + + + + + + + + + + + + + + + + + + + + + + + + + + + + + + + + + + + + + + + + + + + + + + + + + + + + + + + + + + + + + + + + + + + + + + + + + + + + + + + + + + + + + + + + + + + + + + + + + + + + + + + + + + + + + + + + + + + + + + + + + + + + + + + + + + + + + + + + + + + + + + + + + + + + + + + + + + + + + + + + + + + + + + + + + + + + + + + + + + + + + + + + + + + + + + + + + + + + + + + + + + + + + + + + + + + + + + + + + + + + + + + + + + + + + + + + + + + + + + + + + + + + + + + + + + + + + + + + + + + + + + + + + + + + + + + + + + + + + + + + + + + + + + + + + + + + + + + + + + + + + + + + + + + + + + + + + + + + + + + + + + + + + + + + + + + + + + + + + + + + + + + + + + + + + + + + + + + + + + + + + + + + + + + + + + + + + + + + + + + + + + + + + + + + + + + + + + + + + + + + + + + + + + + + + + + + + + + + + + + + + + + + + + + + + + + + + + + + + + + + + + + + + + + + + + ",
"+ + + + + + + + + + + + + + + + + + + + + + + + + + + + + + + + + + + + + + + + + + + + + + + + + + + + + + + + + + + + + + + + + + + + + + + + + + + + + + + + + + + + + + + + + + + + + + + + + + + + + + + + + + + + + + + + + + + + + + + + + + + + + + + + + + + + + + + + + + + + + + + + + + + + + + + + + + + + + + + + + + + + + + + + + + + + + + + + + + + + + + + + + + + + + + + + + + + + + + + + + + + + + + + + + + + + + + + + + + + + + + + + + + + + + + + + + + + + + + + + + + + + + + + + + + + + + + + + + + + + + + + + + + + + + + + + + + + + + + + + + + + + + + + + + + + + + + + + + + + + + + + + + + + + + + + + + + + + + + + + + + + + + + + + + + + + + + + + + + + + + + + + + + + + + + + + + + + + + + + + + + + + + + + + + + + + + + + + + + + + + + + + + + + + + + + + + + + + + + + + + + + + + + + + + + + + + + + + + + + + + + + + + + + + + + + + + + + + + + + + + + + + + + + + + + + + + + + + + + + + + + + + + + + + + + + + + + + + + + + + + + + + + + + + + + + + + + + + + + + + + + + + + + + + + + + + ",
"+ + + + + + + + + + + + + + + + + + + + + + + + + + + + + + + + + + + + + + + + + + + + + + + + + + + + + + + + + + + + + + + + + + + + + + + + + + + + + + + + + + + + + + + + + + + + + + + + + + + + + + + + + + + + + + + + + + + + + + + + + + + + + + + + + + + + + + + + + + + + + + + + + + + + + + + + + + + + + + + + + + + + + + + + + + + + + + + + + + + + + + + + + + + + + + + + + + + + + + + + + + + + + + + + + + + + + + + + + + + + + + + + + + + + + + + + + + + + + + + + + + + + + + + + + + + + + + + + + + + + + + + + + + + + + + + + + + + + + + + + + + + + + + + + + + + + + + + + + + + + + + + + + + + + + + + + + + + + + + + + + + + + + + + + + + + + + + + + + + + + + + + + + + + + + + + + + + + + + + + + + + + + + + + + + + + + + + + + + + + + + + + + + + + + + + + + + + + + + + + + + + + + + + + + + + + + + + + + + + + + + + + + + + + + + + + + + + + + + + + + + + + + + + + + + + + + + + + + + + + + + + + + + + + + + + + + + + + + + + + + + + + + + + + + + + + + + + + + + + + + + + + + + + + + + + + + ",
"{ { { { { { { { { { { { { { { { { { { { { { { { { { { { { { { { { { { { { { { { { { { { { { { { { { { { K.:._.U.jXwXwXT p d T T T T T T T d d d d d T T T T T T T T T T T T d d d d T T T T T T T T 7 T T T T T T T T 7 7 7 T T T T T T T T d d d d d T T T T 7 7 7 7 d d T T T T T T T T T T T T T T T T T T T T T T T T T T T T T T T T d d d d d d d d d 7 7 7 7 7 7 7 7 7 7 7 7 7 7 7 7 7 7 7 7 7 7 7 7 7 7 7 7 7 7 7 7 7 7 7 7 7 7 7 7 7 7 7 7 7 7 7 7 7 7 7 7 T T T T 7 7 7 wXpXCX5Xk A.H O.$.$.$./ / O.O.O.O.O.H O.O.H O.$.$.$.$./ 1 1 / / / 1 1 / $.H A.A.A.A.9.7.s s k   >.>.u u u R R R R R ) R R R R ) ) ) ) ) ) ) ) m m m m m m m m ) < < k i.b %.N & k.<.x x x x x x x x x x <.<.tXtX_ r.& N %.%.b b n n n 8.C.rXCXMXwXwXT 7 T 7 7 7 d 7 7 7 7 T T T 7 7 7 7 7 7 7 7 7 7 7 7 7 7 7 7 7 7 7 7 7 7 7 7 7 7 7 7 7 7 7 7 7 7 7 7 7 7 7 7 7 7 7 7 7 7 7 7 7 7 7 7 7 7 7 7 7 7 7 7 7 7 7 7 7 7 7 7 7 7 7 7 7 7 7 7 7 7 7 7 7 7 7 7 7 7 7 7 7 7 7 7 7 7 7 7 7 7 7 7 7 7 7 7 7 7 7 7 7 7 7 7 7 7 7 7 7 7 7 7 7 7 7 7 7 7 7 7 7 7 7 7 7 7 7 7 7 7 7 7 7 7 7 ",
"{ { { { { { { { { { { { { { { { { { { { { { { { { { { { { { { { { { { { { { { { { { { { { { { { { { { { K.:._.g.U.:XwXn.p p T T T T 7 d 7 d d d d d T T T T T T T T T T T d T d T T T T T T T T T T T T T T T T T T d T T T T T T T T T T T T d T T d d d d d 7 7 7 7 d d d T T T p p T p T T T T T T T T T T T T T T T T T T T d d d d d d d d d d d d d d 7 7 7 7 7 7 7 7 7 7 7 7 7 7 7 7 7 7 7 7 7 d d 7 7 7 7 7 7 7 7 7 7 7 7 7 7 7 7 7 7 7 7 7 7 7 7 T 7 7 7 T T T 7 7 7 7 T wXpXCXIX# A.A.H O.$./ $.$.O.O.O.H H O.O.O.O.O.$./ $.$./ 1 1 / / 1 1 1 / $.O.A.A.9.4 7.q 7.m.<   >.R R R R R R R R R R R ) ) ) ) R R ) ) m m m m m m m v v v m k k i.b N vXr._ <.x x x J.x x x x x x x tXx x x x tXtX_ r.q.vX9 %.b n w n n C.rXCXMXwXwXwX7 7 7 7 7 d 7 7 7 T T T 7 7 7 7 7 7 7 7 7 7 7 7 7 7 7 7 7 7 7 7 7 7 7 7 7 7 7 7 7 7 7 7 7 7 7 7 7 7 7 7 7 7 7 7 7 7 7 7 7 7 7 7 7 7 7 7 7 7 7 7 7 7 7 7 7 7 7 7 7 7 7 7 7 7 7 7 7 7 7 7 7 7 7 7 7 7 7 7 7 7 7 7 7 7 7 7 7 7 7 7 7 7 7 7 7 7 7 7 7 7 7 7 7 7 7 7 7 7 7 7 7 7 7 7 7 7 7 7 7 7 7 7 7 7 7 7 7 7 7 7 7 7 7 ",
"{ { { { { { { { { { { { { { { { { { { { { { { { { { { { { { { { { { { { { { { { { { { { { { { K.{ { { { { { :._.g.i oXn.p T T T T 7 T d d d d d d d T d d T d d T d d T d T d T T T T p d T T T T T T T T T T T T T T p p T T T d d d d T d T T T T T d d d d d d d d d d d d T p p p p d p d d T 7 T T T T T T T T 7 T T d T T T d d d d d d d d d d d d d 7 7 7 7 7 7 7 7 7 7 7 7 7 d d d d d d d d d d d d 7 7 7 7 7 7 7 7 7 7 7 7 7 7 7 7 7 7 7 7 T 7 7 7 d 7 T 7 T T T 7 7 7 n.pXCX5X< < A.H H O.O.O.H H O.H H H H O.O.O.O./ 1 / / 1 1 1 1 1 1 1 1 / $.O.A.A.P.7.q 7.#     >.>.R R R R R R R R ) R R ) ) ) ) ) ) ) m m m v m v < v k k i.w b %.9 vXr._ (.x x 3 3 3 x x x x x x 3 3 3 x x x x x x x tX<.<.k.vXN %.b w n N.C.rXCXMXpXwXwXT 7 7 7 7 7 7 d d T T 7 7 7 7 7 7 7 7 7 7 7 7 7 7 7 7 7 7 7 7 7 7 7 7 7 7 7 7 7 7 7 7 7 7 7 7 7 7 7 7 7 7 7 7 7 7 7 7 7 7 7 7 7 7 7 7 7 7 7 7 7 7 7 7 7 7 7 7 7 7 7 7 7 7 7 7 7 7 7 7 7 7 7 7 7 7 7 7 7 7 7 7 7 7 7 7 7 7 7 7 7 7 7 7 7 7 7 7 7 7 7 7 7 7 7 7 7 7 7 7 7 7 7 7 7 7 7 7 7 7 7 7 7 7 7 7 7 7 7 7 7 7 7 ",
"{ { { { { { { { { { { { { { { { { { { { { { { { { { { { { { { { { { { { { { { { { { { { K.{ K.{ K.{ { K.K.K.:.:._.g.*.n.T T T T T T d T d T d d d T d T T d T T d T T d T T T T p T p p p T p T d T p T T T T T T T p p p T T T d d d 7 7 7 T T T T T T d d d d d d d T d d d p d d 7 7 T p p p d d 7 d d d p p d d 7 T T T T T T T d d d d d d d d d d d d 7 7 7 d d d 7 7 7 d d d d d d d d d d d d d d d d d d d d d d d d d 7 7 7 7 7 7 7 7 7 7 7 7 T 7 7 7 d T T T 7 7 7 7 T n.wXdXSXk # # H H H A.A.H H H H j.H H O.O.O.O.1 ' 1 1 1 1 1 1 1 1 1 1 / $.O.A.P.q s 7.#   >.>.R R R R R ) ) ) ) l ) ) ) ) ) ) ) m m m m m m m # k k i.i.w %.9 A r.(.(.x x x x 3 3 3 3 3 3 x 3 3 3 3 3 3 3 3 x x x x x x x tXx tXk.9 %.b y w n C.s.CXMXpXwXwXT d 7 7 7 7 7 7 7 7 wX7 7 7 7 7 7 7 7 7 7 7 7 7 7 7 7 7 7 7 7 7 7 7 7 7 7 7 7 7 7 7 7 7 7 7 7 7 7 7 7 7 7 7 7 7 7 7 7 7 7 7 7 7 7 7 7 7 7 7 7 7 7 7 7 7 7 7 7 7 7 7 7 7 7 7 7 7 7 7 7 7 7 7 7 7 7 7 7 7 7 7 7 7 7 7 7 7 7 7 7 7 7 7 7 7 7 7 7 7 7 7 7 7 7 7 7 7 7 7 7 7 7 7 7 7 7 7 7 7 7 7 7 7 7 7 7 7 7 7 7 7 7 ",
"{ { { { { { { { { { { { { { { { { { { { { { { { { { { { { { { { { { { { { { { { { { K.{ K.{ K.K.K.K.K.{ K.{ K.:.:.g.*.n.n.n.T T T T d T T d d d d T T T T T T T T T T T T T T T T T T p T p p d T T T T T T T T T T T T T T d d d d d 7 7 d T T T T T T T T T T T T T T T T d d p d p p d d p p d d 7 d d d d p p p d T T d T T T T T T T d d d d d d d d d d 7 7 d d d d 7 7 d d d d d d d d d d d d d d d d d d d d d d d d d d d d d d d d d d d d 7 T 7 7 d 7 T 7 T T T T 7 7 T wXMXmX,Xk < < k k A.A.A.H H H H H H O.O.O.$.' I ' 1 1 1 1 1 1 1 1 1 / / P.P.q o s 9.>.>.R R R R R R ) ) ) l ) ) ) ) ) ) ) ) ) ) ) m m < m k k i.b N W A k._ <.x x x x x x 3 3 3 3 3 3 3 3 x x 3 3 e.3 3 3 3 x x x x x 3 3 3 3 tXk.A N %.y i.n N.5XmXdXMXwXn.T 7 7 7 d 7 7 7 7 7 7 wX7 wXT 7 T 7 7 7 T 7 7 7 7 7 7 7 T 7 7 7 7 7 7 7 7 7 7 7 7 7 7 7 7 7 7 7 7 7 7 7 7 7 7 7 7 7 7 7 7 7 7 7 7 7 7 7 7 7 7 7 7 7 7 7 7 7 7 7 7 7 7 7 7 7 7 7 7 7 7 7 7 7 7 7 7 7 7 7 7 7 7 7 7 7 7 7 7 7 7 7 7 7 7 7 7 7 7 7 7 7 7 7 7 7 7 7 7 7 7 7 7 7 7 7 7 7 7 7 7 7 7 7 7 7 7 7 7 7 7 7 ",
"{ { { { { { K.{ K.K.K.K.{ K.{ { { { { { { { { { { { { { { { { { { { { { { { { { K.K.{ K.K.K.K.K.K.{ K.{ K.K.K.:.:._.U.oXn.T T T T T T T 7 d d d T T T T T T T T T T T T T T T p T T p T p d T T d T T T T d d T T T T T T T d d d d 7 d d d d d p p p p p p T T T T T T T T T 7 d d d d d d d d d 7 7 d 7 7 d d p d d d d d d T p T p T d d d d d d d d d d d d d d d d d d d d d d d d d d d d d d d d d d d d d d d d d d d d d d d d d d d d d d d d T d d d d T T T T 7 7 7 7 T wXpXdXrX,X8.k ;.k H A.A.A.H P.H H O.O.O.$.1 I E.I ' 1 1 1 1 1 1 1 1 / / c.c.q s m.>.~ u ) ) R R R ) ) ) ) ) ) m ) ) ) ) ) m m m m m m k i.w b N & r.(.x 3 x x x x x 3 3 3 3 XX3 XX3 3 3 3 3 3 3 3 3 3 3 3 3 ] 3 3 3 3 3 3 3 3 3 x <.k.f &.).y y N.5XrXdXpXwXT 7 7 7 d 7 7 7 7 7 7 7 7 7 7 T 7 7 7 7 7 7 T 7 T 7 7 7 7 7 7 7 7 7 7 7 7 7 7 7 7 7 7 7 7 7 7 7 7 7 7 7 7 7 7 7 7 7 7 7 7 7 7 7 7 7 7 7 7 7 7 7 7 7 7 7 7 7 7 7 7 7 7 7 7 7 7 7 7 7 7 7 7 7 7 7 7 7 7 7 7 7 7 7 7 7 7 7 7 7 7 7 7 7 7 7 7 7 7 7 7 7 7 7 7 7 7 7 7 7 7 7 7 7 7 7 7 7 7 7 7 7 7 7 7 7 7 7 7 7 7 7 ",
"K.K.K.K.K.K.K.K.K.K.{ K.K.K.K.{ K.{ { { { { { { { { { { { { { { { { { { { { K.K.{ K.K.K.K.K.K.K.K.K.K.K.K.K.:.:.:._.U.oXn.T n.T T T T T T T d d T p T T 8 T T 8 T T 8 T 8 T T T T p T n.T p p T d T d d d d d d T T T T T p d d d d p T T T d d d d d p p d d d d T T T T T T T T d p T T 7 7 T T T T T T 7 T T d d d d d d T p T T T p T d d d d d d d d d d d d d d d d d d d d d d d d d d d d d d d d d d d d d d d d d d d d d d d d d d d d d d d d d d d d T 7 T T T 7 7 7 T n.wXpXdXmX5X,Xn i.k v k H H H H O.O.O.$./ ' E.E.I ' 1 1 1 / 1 1 1 1 / c.c.* q m.2.>.>.R R R R R ) ) ) ) ) ) ) ) ) ) ) ) l m m v k k i.b N W A k.<.(.x 3 3 3 3 3 3 3 3 3 3 3 3 3 XX3 3 3 3 3 3 3 x 3 3 XX3 3 3 3 ] 3 3 3 3 3 x x x x <._ A W %.b b ,XC.mXdXpXwXT T 7 7 7 7 7 7 7 7 7 7 wX7 T 7 7 7 7 7 7 7 7 7 7 7 7 7 7 7 7 7 7 7 7 7 7 7 7 7 7 7 7 7 7 7 7 7 7 7 7 7 7 7 7 7 7 7 7 7 7 7 7 7 7 7 7 7 7 7 7 7 7 7 7 7 7 7 7 7 7 7 7 7 7 7 7 7 7 7 7 7 7 7 7 7 7 7 7 7 7 7 7 7 7 7 7 7 7 7 7 7 7 7 7 7 7 7 7 7 7 7 7 7 7 7 7 7 7 7 7 7 7 7 7 7 7 7 7 7 7 7 7 7 7 7 7 7 7 7 7 ",
"K.K.K.K.K.K.{ K.K.K.K.K.K.K.K.K.{ K.K.{ { { { { { { { { { { { { { { { { { K.K.K.K.K.K.K.K.K.K.K.K.K.K.K.K.K.:.:.:.g.U.oXn.n.T T T T T T T T T T d T T p T T p T T p T T T T n.T T T p T T T T T p T d d d d T T T T T T T p d T T n.T n.T T T 7 d d d d d d d d d T d T T T T n.n.wXT wXwXT wXT T T T T T T T T T T d d d d d T T p T T d T p d d d d d d d d T T 7 T T 7 T T d d p d d d d d d d d d d d d d d d d T T 7 T T 7 T d d d d d d d d d d T d d d d d T T T T 7 7 d 7 T n.n.wXpXMXCXmXrX5XC.,X,Xn w w y / $./ / 1 ' I ).I ' 1 1 1 1 1 1 ' 1 1 / c c P.2. X>.R R R R ) ) ) ) ) ) ) ) ) ) ) ) ) m m m < O.y %.N & k._ <.x x x 3 x x 3 3 3 3 3 3 3 3 XX3 3 3 3 3 3 3 3 3 3 3 x x 3 3 3 3 3 3 3 ] 3 3 3 x 3 3 3 x (.<.k.A 9 %.b n 5XmXMXwXwXwX7 T 7 7 7 T 7 T 7 7 7 7 7 7 7 7 7 7 7 7 7 7 7 7 7 7 7 7 7 7 7 7 7 7 7 7 7 7 7 7 7 7 7 7 7 7 7 7 7 7 7 7 7 7 7 7 7 7 7 7 7 7 7 7 7 7 7 7 7 7 7 7 7 7 7 7 7 7 7 7 7 7 7 7 7 7 7 7 7 7 7 7 7 7 7 7 7 7 7 7 7 7 7 7 7 7 7 7 7 7 7 7 7 7 7 7 7 7 7 7 7 7 7 7 7 7 7 7 7 7 7 7 7 7 7 7 7 7 7 7 7 7 7 7 7 7 7 7 7 ",
"K.K.K.K.K.K.K.K.K.K.{ K.K.K.K.K.K.{ K.K.K.K.K.K.{ { { { { { { { { { { { K.K.K.K.K.K.K.K.K.K.K.:.K.K.K.K.:.:.:.:.:._.U.oXn.n.T n.T T T T T T T p T p T T T p T T p T T T p T T T T n.T p T p T T T T d p d T T T T T T T n.n.n.wXT wXn.wXn.wXn.T d d p p p p p T T T T T n.n.wXwXwXpXMXpXpXwXwXwXwXwXwXn.n.n.T T T T T d d d T T T 7 T T T T p d d p d p d p T 7 T d d p d p d T 7 T T d T T d T d p d p d p d p T T 7 p 7 p 7 p d T p d T d T p d T d T T d d d d d T T T d d d 7 d p n.wXwXwXjXpXMXCXCXmXrXrXSXvXN b y / / 1 ' I I ' 1 1 1 1 1 1 1 ' 1 1 / c c P.2. X>.R R R ) ) ) ) ) ) ) ) ) ) ) ) R ) m m l k y N r.<.x x x 3 ~.3 3 x x x 3 ] 3 3 3 ] x 3 3 3 3 3 3 x x x x 3 3 3 3 3 3 ] 3 3 3 3 x x x 3 3 3 3 3 x x x y.x <.k.W %.w 8.5XdXpXpXwXwXwXwXT wXT T T 7 7 7 7 7 d 7 7 7 7 7 7 7 7 T 7 7 7 7 7 7 7 7 7 7 7 7 7 7 T 7 7 7 7 7 7 7 7 7 7 7 7 7 7 7 7 7 7 7 7 7 7 7 7 7 7 7 7 7 7 7 7 7 7 7 7 7 7 7 7 7 7 7 7 7 7 7 7 7 7 7 7 7 7 7 7 7 7 7 7 7 7 7 7 7 7 7 7 7 7 7 7 7 7 7 7 7 7 7 7 7 7 7 7 7 7 7 7 7 7 7 7 7 7 7 7 7 7 7 7 7 7 7 7 7 7 7 7 7 7 7 ",
"K.K.K.K.K.K.K.K.K.K.K.K.K.K.K.K.K.K.K.K.K.K.{ K.K.K.{ K.{ { { { K.K.K.K.K.K.K.K.K.:.:.:.:.:.:.:.:.:.:.:.:.:.:.:._._.:XoXn.T n.T n.T T T T T p p p T p T p T T T T T p T T T p T T p T T p T T T T T T T T T n.n.n.wXwXwXwXwXwXwXwXwXwXwXwXwXwXwXwXwXwXwXwXwXn.wXwXwXwXwXwXwXpXMXMXCXCXCXCXCXdXMXMXpXpXwXwXwXn.n.T T T d d 7 T T T T T T T T p p p d T d p 7 p 7 p d p 7 p d d T p 7 p 7 p 7 p 7 T p d T d d p 7 p d p 7 n.7 T 7 p 7 T 7 p 7 p 7 T d T d p d d p d d T T d d d d d d p T T wXwXwXwXwXpXpXMXMXMXMXdXmX9 y $./ ' I I ' 1 1 1 1 1 1 1 1 ' 1 / / c.c.P.9.>.>.>.>.R ) ) ) ) ) R R R R R R R R R >.l k b W _ x x x x x 3 3 x x ] x 3 3 3 3 3 3 x x 3 3 3 3 3 3 3 x x x x x 3 3 x x x 3 3 3 3 3 3 3 3 ] 3 3 3 3 x x x 3 3 x _ A W ,X5XCXuXpXpXpXwXwXwXwXwXT T T 7 7 7 d 7 7 7 7 7 7 7 7 7 T T 7 7 7 7 7 7 7 7 7 7 7 T 7 T 7 T 7 7 7 7 7 7 7 7 7 7 7 7 7 7 7 7 7 7 7 7 7 7 7 7 7 7 7 7 7 7 7 7 7 7 7 7 7 7 7 7 7 7 7 7 7 7 7 7 7 7 7 7 7 7 7 7 7 7 7 7 7 7 7 7 7 7 7 7 7 7 7 7 7 7 7 7 7 7 7 7 7 7 7 7 7 7 7 7 7 7 7 7 7 7 7 7 7 7 7 7 7 7 7 7 7 7 7 7 7 ",
":.:.:.:.:.:.:.:.K.:.:.K.K.K.K.K.K.K.K.K.K.K.K.K.K.K.K.{ K.{ K.{ K.{ { K.K.K.K.K.:.K.:.:.:.:.:.:.:.:.:.:.:.:.:.:.:.g.:XoXn.n.n.n.T T T T p p p d n.p T p p p p p p p p p p p d p T T T T T T T T T T T T n.n.n.n.n.wXwXwXpXpXMXMXMXMXdXMXMXMXMXMXMXMXMXpXMXpXMXMXMXMXMXMXMXMXdXCXmXmXrXrXmXmXmXCXCXCXMXMXpXwXwXwXn.T T d d d T T T T T T T T d p T p d p d p 7 n.7 p d p 7 p d p 7 p 7 n.7 T 7 n.7 d d p d p d p 7 p d p 7 p d n.7 p 7 p 7 n.7 T d T d T p d d d d d T T d d d d d d 7 d d 7 T T n.n.n.wXwXpXpXpXuXCX5Xy / 1 I I ' ' 1 1 1 1 1 1 1 1 1 1 / / c.c.q # 2.>.>.>.R R ) ) R R R R u u u u R R l   k b W k.<.x x x x 3 3 3 ] x x x 3 3 3 x x x 3 3 3 3 3 3 3 3 x x x x 3 3 x 3 3 3 3 3 3 3 3 3 3 3 x ] 3 3 3 x 3 x x x x 3 x (._ vXr.lXZXdXdXdXMXMXpXpXwXwXn.T T 7 d d d 7 7 7 7 7 7 7 7 wXT 7 wXT 7 7 7 7 7 7 T T T T T T T T T 7 T 7 7 7 T T T 7 T 7 7 T 7 7 7 7 7 7 7 7 7 7 7 7 7 7 7 7 7 7 7 7 7 7 7 7 7 7 7 7 7 7 7 7 7 7 7 7 7 7 7 7 7 7 7 7 7 7 7 7 7 7 7 7 7 7 7 7 7 7 7 7 7 7 7 7 7 7 7 7 7 7 7 7 7 7 7 7 7 7 7 7 7 7 7 7 7 7 7 7 7 7 7 7 7 7 ",
":.:.:.:.:.:.:.:.:.:.:.:.:.K.:.K.:.K.K.K.K.K.K.K.K.K.K.K.K.{ K.{ K.K.K.K.K.K.:.:.:.:.:.:.:.:.:.:.:.:.K.:.:.:.:._._.g.:XoXn.T n.T T n.T p p p p p p p n.T T T T T p p T p p p p p p p T T T T T T T n.T n.n.wXwXwXpXpXMXMXMXCXCXCXCXCXCXmXCXCXCXCXCXCXCXCXCXCXCXCXCXCXCXCXCXCXmXrXJ rXG.J J J rXrXrXmXCXdXMXpXwXwXwXn.n.T d d d T T T T T d p d d p p T T d p d d T T p p d p 7 p 7 n.7 p 7 n.7 d p p d d p 7 p d p d d p d p d d T T T T d 7 p T d T p d p T p d d T T T d d d d d T 7 d d d T T T T T T wXwXwXjXMXmX5Xb 1 1 ' ' ' 1 1 1 1 1 1 1 1 1 1 1 / / c.c.c.P.A.  >.>.) R >.R R R R u R u u R R R   k b W _ x x 3 ] 3 3 3 x 3 3 3 x 3 x x x x x x 3 3 3 3 3 3 3 3 x x 3 3 3 3 3 3 3 x 3 x 3 3 3 x 3 3 x x 3 3 3 3 3 3 3 x 3 3 3 x x (.(.(.J.J.ZXZXZXCXdXMXpXpXwXwXT T T 7 7 7 7 7 7 7 7 T T T T wX7 wX7 wX7 wX7 wX7 wXT wXT wXT wXwXT wXwXT wXT T T T T T T 7 7 T 7 7 T 7 T 7 T 7 7 T 7 7 T 7 7 7 7 7 7 7 7 7 7 7 7 7 7 7 7 7 7 7 7 7 7 7 7 7 7 7 7 7 7 7 7 7 7 7 7 7 7 7 7 7 7 7 7 7 7 7 7 7 7 7 7 7 7 7 7 7 7 7 7 7 7 7 7 7 7 7 7 7 7 7 7 7 7 7 7 7 7 7 ",
":.:.:.:.K.:.:.:.:.:.:.:.:.:.:.:.:.:.:.:.:.:.K.:.K.K.K.K.K.K.K.K.K.:.K.:.:.K.:.K.:.:.K.:.:.:.:.:.:.:.:.:.:.:.:._._.U.oXoXn.n.p p p p p p T p T p n.p T T T T T T T p T T p 8 8 p p p p T T T T g n.n.n.n.wXwXwXpXMXCXmXrXrXrXrXrXrXrXrXrXrXrXrXrXrXrXmXmXrXmXmXrXrXrXrXrXrXrXrXJ J J J J J J J J J J J mXCXMXpXwXwXn.wXn.T d d T 7 T T T p p d d p T T T T d p T n.T p p p d p d p T T 7 n.7 p T T T p p 7 n.7 n.7 n.7 n.7 p p T p T p 7 n.p T p p p p T p d d d T T T T T T T T T T T T d d d 7 d T T T T wXwXpXdXSXN ).).c./ 1 1 1 1 1 1 1 1 1 1 1 1 1 / / / c.c.q q P.# < >.>.>.>.>.R >.R R u R R >.>.< * W _ x e.e.3 3 3 ] x 3 3 3 3 x x 3 x x x 3 3 3 x x 3 3 3 3 3 3 3 3 3 3 3 3 3 3 x x x 3 3 3 x x 3 x x 3 3 3 3 3 3 3 2X3 XXe.] 3 3 3 x x x J.tXJ.J.J.ZXdXdXMXpXwXn.T T 7 d 7 7 7 T T T n.n.wXT wXwXwXwXwXwXwXwXn.wXn.wXwXwXwXwXwXwXwXwXwXwXwXwXn.T wXT T T 7 7 7 7 7 7 7 7 7 7 7 7 7 7 7 7 7 7 7 7 7 7 7 7 7 7 7 7 7 7 7 7 7 7 7 7 7 7 7 7 7 7 7 7 7 7 7 7 7 d d d d d d 7 7 7 7 7 7 7 7 7 7 7 7 7 7 7 7 7 7 7 7 7 7 7 7 7 7 7 7 7 7 7 7 7 7 7 7 7 7 7 ",
":.:.:.:.:.:.:.:.:.:.:.K.:.:.:.:.:.:.:.:.:.:.:.:.:.:.:.K.:.K.:.K.:.K.:.:.:.K.:.:.:.:.:.:.:.:.:.:.:.:.:.:.:.:.:._.! :XoXn.n.p p p p p p p p p p p p n.T n.p p p T p p T n.p p T T p p p T T T n.n.n.n.oXwXwXMXMXCXmXmXrXrXrXb.b.b.G.G.J J J J J G.J rXJ G.rXG.G.rXb.rXb.b.b.b.G.J G.J G.J J J G.G.G.b.b.rXrXCXdXMXpXwXwXwXn.n.n.wXn.n.n.n.T T p p p p T T d p p T T T T p d p d p p T n.T n.T n.d p p d p p d p 7 p 7 p 7 p p T T T d T p 7 p p T p 7 p d p p d d T T T T T T T T T T p d d d d d d d d T n.wXwXMXmXvX=X&.).1 / / 1 1 1 1 1 1 1 1 1 1 1 1 1 / / P.c.c.q q P.k < < <     >.>.      >.>.>.  i.,.r.(.3 e.3 3 ] 3 3 3 3 3 3 ] x 3 3 3 3 3 3 3 3 3 3 3 3 3 3 3 3 3 3 3 3 3 3 3 3 3 x 3 3 3 3 3 3 3 3 3 3 3 3 3 3 3 3 3 2X3 3 XX3 3 3 3 3 x x x J.tXtXtXmXmXCXdXMXwXwXwXn.T T T T n.n.oXoXoXoXoXoXoXoXwXoXoXoXoX:XoX:X:XZ :X:X:XoX:X:XoX:XoXZ oXoXwXwXwXwXwXT T 7 7 7 T 7 7 7 7 7 T 7 T T 7 T 7 7 d 7 7 7 7 7 7 7 7 7 7 7 7 7 7 7 7 7 7 7 7 7 7 7 7 7 7 7 7 7 7 7 7 7 7 7 7 7 7 7 7 7 7 7 7 7 7 7 7 7 7 7 7 7 7 7 7 7 7 7 7 7 7 7 7 7 7 7 7 7 7 7 7 7 7 ",
":.:.:.:.:.:.:.:.:.:.:.:.:.K.:.:.:.:.:.:.:.:.:.:.K.:.K.:.:.:.:.:.:.:.K.K.:.K.:.K.:.:.:.:.:.:.K.:.K.:.:.:.:.:._.g.U.oXwXn.8 p p p n.p p p p p p p n.p T n.8 8 p p p 8 T T p T T n.n.n.n.n.n.n.n.wXwXwXpXMXMXCXmXmXrXrXrXb.rXrXG.G.G.J J J J J J J G.G.G.J J J G.G.G.G.G.G.b.G.G.G.b.b.b.G.b.b.b.b.s.b.b.s.s.rXmXCXCXMXMXpXwXwXwXwXwXwXwXwXwXwXn.p p p p p p p p T T T T d p p p 7 p p p p T p T T p p p T p T p d n.T T p T p p d n.7 n.T T T p d p p p d p d p d T T T T T T T T T p p p d d d d 7 T T n.wXpXpXCXG.9 4X4X).1 / / / / / 1 / 1 1 1 1 1 1 1 1 / c./ c.P.c.P.P.P.P.k k # < <     # # i.s o ( K r.(.x x 3 3 3 3 3 3 3 3 3 3 x 3 3 3 3 3 x 3 3 3 3 3 3 3 3 3 3 3 3 3 3 3 3 3 3 3 x 3 x 3 3 3 3 3 3 3 3 3 3 3 3 3 3 3 3 3 2X3 3 3 3 3 3 3 ~.3 J.x x x tX_ P rXmXCXMXMXpXwXwXwXwXn.oXoX:XU.! g.! g.! U.U.U.U.! ! ! g.g.g.g.g.g.g.g.g.g.g.g.g.g.! U.U.:X:X:XoXwXoXwXwXwXwXT d 7 7 d T 7 7 T d d d d d d 7 7 7 7 d d d d d d d d d d d d d d d d d d d d d d 7 7 7 7 7 7 7 7 7 7 7 7 7 7 7 7 7 7 7 7 7 7 7 7 7 7 7 7 7 7 7 7 7 7 7 7 7 7 7 7 7 7 7 7 7 7 7 ",
":.:.:.:.:.:.:.:.:.:.:.:.:.:.:.:.:.:.:.:.:.:.:.:.:.:.:.:.:.:.:.:.K.:.K.:.K.:.:.K.:.K.:.:.:.:.:.:.:.:.:.:.:._.g.U.:XoXn.n.8 p p p p p p p n.p p p p p n.8 8 8 n.p p 8 p T 8 g n.n.wXwXwXwXwXwXwXwXpXMXdXCXmXrXrXrXrXG.rXG.G.G.G.J J J J J J J J G.G.G.J J J J J J G.G.G.b.b.b.b.b.s.b.s.s.s.b.s.s.s.j j j 5Xj 5X5XrXmXCXdXMXMXMXpXpXMXMXpXwXoXn.n.p p p p p p p p d p T p d p p p n.d n.7 n.7 n.d p p p p p p T p d 7 p T p d p T 7 p 7 p T p T p T p T p d p d p d T T T T T T T T T p d d 7 d d T T n.wXwXpXdXJ 9 4X4X).).1 / / $.$.$.$.1 / 1 / / / / / / / / / / / c.P.P.P.k P.k k k k m.m.m.7.K F.(.(._ (.x x x 3 3 3 3 ] 3 3 3 3 3 ] 3 3 3 3 x x x x x 3 3 3 3 3 x x <.<.<.<.x x x 3 3 3 3 3 3 3 3 3 3 3 3 XX3 3 3 3 3 3 3 3 3 3 3 3 3 3 3 3 3 3 3 3 3 J.x <._ r.P P rXmXCXdXMXpXwXoXoX:X! _._.:.:.:.:.:.:.:._.:.:.:.:.:.:.:.:.:.:.:.:.:.:.:.:.:.:.:.:._._.3X3XU.U.U.:XoXwXwXT p d d d d d d d d d d d d d d d d d 7 d 7 7 d 7 7 d d d d d d d d d d d d d d d 7 7 7 7 7 7 7 7 7 7 7 7 7 7 7 7 7 7 7 7 T 7 7 7 7 T 7 7 7 7 7 7 7 7 7 7 T 7 7 7 7 7 7 7 7 7 7 ",
":.:.:.:.:.:.:.:.K.:.:.:.:.:.:.:.:.:.:.:.:.:.:.:.:.:.:.:.:.:.:.:.:.:.:.:.:.:.:.:.K.:.:.:.:.:.:.K.:.:.:.:._.g.U.:XoXn.8 p p p p p p p n.p 8 p 8 p n.8 8 8 8 p n.p p 8 p T T n.n.n.n.wXwXwXwXpXMXMXdXCXmXrXrXrXG.G.J J G.G.G.G.J J J G.J J J J J J J J J J J J G.J G.G.b.b.s.s.s.s.s.s.s.s.s.s.j s.j j j j C.j 5XC.C.5XrXrXmXmXCXdXCXmXmXCXMXjXwXwX8 p p p p p p p p p p d p p p p p p p d n.T p p p p p p p p d p p p T T T T p d n.7 n.T T T p d p p d p p d p p p d T T T T T T T d p d 7 d d d T n.wXwXpXdXJ nX$X$X4X).' 1 / $.$.$.$.$.$./ / 1 $.$.$.$.$./ / / / / / / O.O.H H H P.P.P.P.m.m.7.p.DX!.!.y.x x x x 3 2X3 3 x x x x 3 3 3 x x 3 3 3 3 3 3 3 3 3 3 3 3 x <.<.k.k.k.<.<.<.x x x 3 3 3 e.3 3 3 2X3 3 3 3 3 3 3 3 3 3 3 3 3 3 3 3 3 3 3 3 3 3 @ 3 3 x <._ q.& vXvXSXmXCXMXpX:XU.! _.:.K.{ { { { K.{ K.{ { K.{ { { { { { { { { { { { { { { { { K.K.K.:.:._._._.g.U.:XwXn.p d 7 d d d d d d d d d d d d d d d d d d d d d d d d d d d d d d d d d d d d d 7 7 7 7 7 7 7 7 7 7 T 7 7 7 7 7 7 7 7 7 7 7 7 T 7 7 7 T 7 T 7 T 7 T 7 T 7 7 T 7 T 7 7 7 7 7 7 ",
":.K.:.:.K.:.:.:.:.:.K.:.:.:.:.:.:.:.:.:.:.:.:.:.:.:.:.:.:.:.:.:.:.:.:.:.:.:.:.:.:.:.:.:.:.:.:.:.:.:._._.g.U.:XoXn.8 8 p p p 8 8 8 8 8 8 p n.8 8 8 8 g 8 p n.p p p 8 T T n.n.wXwXwXpXpXMXMXdXCXmXrXrXJ G.G.G.J J J J J J J J G.J G.J J G.J J J J G.J G.J G.b.b.b.b.b.s.s.j s.j j j j j j j j j j j j j j j 5Xj 5XC.C.5Xj j j 5XrX5XIXIX5XCXMXwXwX8 8 p p p T p p p p p p p p p p p p T n.T T n.T p T p p p p p T p 7 n.7 p T T T d T d T p 7 n.d p T p p d p d p p p T T T g T T p p 7 d d d d T n.wXwXpXMXmXj $X$X$X4XE.' 1 / / $.O.$.$.$.1 / $.$.$.$.O.$./ / 1 1 c.1 / O.O.H A.A.A.A.A.A.4 A.9.q 6._ y.(.] x x 3 3 e.3 3 x 3 x x 3 3 x x x x x 3 3 3 3 3 3 3 3 3 x <._ q.q.q.q.q.k.k._ <.x x 3 3 3 3 3 3 3 3 3 3 3 3 3 3 3 3 3 3 3 3 3 3 x 3 3 3 3 3 3 3 3 3 3 x <.k.A e W vXvXmXmXdXjX3X:.:.K.{ { { { K.{ { { { { { { { { { K.{ { K.{ { K.{ K.K.{ { { { { { { K.{ K.K.:.g.U.:XwXn.7 d d d d 7 d d d d d d d d d d d d d d d d d d d d d d d d d d d d d d d d d d d d 7 7 7 7 7 7 7 d 7 T 7 7 7 T 7 T 7 T 7 T 7 T 7 T 7 7 T 7 7 T 7 7 7 T T 7 7 7 7 7 7 7 7 7 ",
":.:.:.:.:.:.:.:.K.:.:.K.:.:.:.:.:.:.:.:.:.K.:.K.:.:.:.K.:.:.:.:.:.:.:.:.:.:.:.:.:.:.:.:.:.:.:.:.:._.g.U.U.:XoXn.p 8 8 p p p p p p p p p p p p n.T T 8 8 p p p 8 p T n.n.n.oXwXpXMXdXCXCXmXmXrXrXrXJ J J J J J G.G.J J J J J J J J G.G.G.G.G.G.b.b.b.b.b.b.b.b.s.s.s.s.j j j j j j j j j j j s.s.s.s.s.j j j j j j 5Xj 5X5Xj 5X5XC.,X8.8.IXCXMXwXwXT T T T T p p p p p p T T T p p T T T n.T T p p p p p p d p p 7 n.d T p T p T p p p p p p d p T p d p d p p p p p T T T T T T p p d d d p T n.wXwXpXMXCXb.N $X$X4X4XE.' 1 $.1 $.$.$.$.1 / 1 $.$.$.O.O.$./ / 1 1 1 1 $.O.O.H H H H A.A.A.A.A.4 /.L (.(.(.] 3 ] 3 2X3 3 ] x 3 3 3 3 3 x x x x x x x x x x x x x <.<.k.q.A f f f A A q.q.k._ <.<.x 3 3 3 3 3 3 3 2X3 3 3 3 3 3 3 3 3 3 3 3 x 3 x 3 3 3 3 3 3 J.x <._ k.A & e e vXvXSXlXuXkXJXW.K.{ { { { { { { { { { { { { { { { { { { { { { { { { { { { { { { { { { { { :.:.3XU.oXwXT 7 7 7 7 d d d d d T T T T d d d d d d d d d d d d d d d d d d d d d d d d d d d d d d 7 7 d d d d T 7 7 7 T 7 7 T 7 d d d d d d d d d d d d d d T d T 7 T T T T d d 7 7 7 ",
":.K.:.K.:.:.:.:.:.:.:.:.:.:.:.:.K.:.K.:.K.:.K.:.K.:.K.:.:.:.K.:.:.:.:.:.:.:.:.:.:.:.:.:._._._._.g.! U.:XoXoXn.p p p 8 p p p n.p n.p n.p n.p n.p n.T T T 8 8 8 8 n.n.n.n.wXwXpXMXCXmXmXrXrXrXb.G.G.J J J J J J J J b.b.G.J J J G.G.G.b.b.b.b.b.b.s.s.s.s.s.s.s.s.s.j j j j j j j j j j j s.j s.j s.j s.s.j j s.j C.j 5Xj j 5XC.C.IX,X,XQ.8.SXdXpXwXn.T T T T p p p p p p p p T T T p T T T T T p T p p p p p p T p T T p T T T p p T p T p T p p p p p d p p d p p T T T T T T T p p T p p n.n.wXwXpXMXCXG.9 4X$X$X$X4XE.' 1 / 1 / $.$.$.1 / $.$.$.O.O.$.$./ / / 1 1 1 $.O.O.H H H H H A.A.A.4 c 6.L.(.] ] ] 3 3 3 3 3 3 3 3 3 3 x x x x x x x x <._ <.<.x x x (.<.k.q.A f f f f f f f A q.q.k.<.x 3 3 3 3 3 3 3 3 3 3 3 3 3 3 3 3 3 3 3 3 3 x 3 3 3 3 3 J.3 3 x _ k.q.A A f & e vXvXSXlXgXxX+XW.K.{ { { { { { { { { { { { { { { { { { { { { { { { { { { { { { { { { { { K.:.:.g.:XoXn.T T 7 7 d d d d d T T T T T d T d T T 7 T d T d T d d d d d d d d d d d d d d d d d d T T T d d d T T T T T T d T T d d d d d d d d d d T d d d d d d T d 7 d T d d d d d ",
":.:.:.:.:.K.:.:.:.:.:.:.:.:.:.:.:.:.:.:.:.:.:.:.:.K.:.:.K.:.:.:.:.K.:.:.:.:.:.:.:.:.:._._.g.U.U.:X:XoXoXn.n.T p p 8 8 p p p 8 8 8 8 8 8 8 8 8 8 8 T T T 8 8 g 8 n.n.oXoXwXpXdXCXrXrXrXG.J J G.G.J J J J J J J J J J b.b.b.b.G.G.b.b.b.s.s.s.s.s.s.s.j j s.s.s.j j j j j j j j j j j j j j j j j j j j s.j j s.j j C.j 5XC.C.5XN 5X5X,X8.# ,XmXMXwXoXn.T T n.8 p p p p p 8 p T T T T T T T n.T n.p T p T p p 7 n.T d n.7 n.d n.T p 7 n.7 n.d n.p T p T p p p p p p T T p T n.T T p p T p n.n.oXwXpXMXCXP 9 4X$X4X$X$X4X' ' ' 1 1 1 / / 1 / 1 / $.$.V O.O.$.$./ 1 1 1 1 $.$.O.O.H H H H H A.A.c.D r.(.(.] y.3 3 XX3 XX3 3 3 3 x x <.<._ <.<.x x <.k.q.q.k.<.x x <.k.q.f f f A A & f f f f f A q.k.<.3 ~.3 3 3 3 3 3 3 3 3 3 3 3 3 3 3 3 3 3 3 3 3 x 3 3 3 3 3 x <.k.q.A f f f f & & & e vXF.DXGX+XW.K.{ { { { { { { { { { { { { { { { { { { { { { { { { { { { { { K.{ K.K.{ { K._.! :XoXn.T T d d d d d d T T T T d T d T d T d T T d T T d T T d T T p T T T T T T T T T d T T T T T T T T T T T T T T T d T T T T T T T T T T d T T T T T T T T T T T T T T T T ",
"_._.:.:.:.:.:.:.:.:.:.:.:.:.:.:.:.K.:.:.:.:.:.:.:.:.:.:.:.:.:.:.:.:.:.:.:.:.:.:.:._._.g.! U.:XoXwXn.n.n.n.T T p 8 8 8 8 n.8 8 8 8 8 8 8 8 8 8 p 8 8 8 8 p 8 g n.n.oXoXwXpXdXmXrXrXG.J J G.G.G.J J J J J J J J J b.b.b.b.b.s.s.s.s.s.j s.s.j j s.j s.s.j s.j j j j j j j j j j j j j j j j j j j j j j j j j j j j 5Xj 5Xj j 9 5XC.,X,X8.k 8.5XCXjXwXwXwXn.n.n.8 p p 8 8 8 p T T T p T 8 T T T T p p p p p p p p p p p p p T p p T p p p p p d p p p p p p p p T T p p p p p p p p T n.n.n.oXwXpXMXCXP 9 $X$X$X$X$X$X' 1 1 ' 1 1 $.1 1 1 1 1 / $.$.O.O.V $./ 1 1 ' ' 1 1 $.$.O.H H H O.P.H P.d.r.(.x x ] ] 3 3 3 3 2X3 3 3 x <.<.k.q.q.k.<.<.<.k.q.A q._ <.x x <.k.q.f f f A A A f f & f f f A k.<.x x x x x x 3 3 3 3 3 3 3 3 3 3 3 3 x 3 3 x 3 3 x x x x x x <.k.q.A f A q.A A & & e >X>XF.DXAX+XW.{ { { { { { { { { { { { { { { { { { { { { { { { { { { { { { K.{ K.{ { { K.:._.! :Xn.T T T d d T d d d T d T T d T T d T d T T T T T T d T 8 T d T d d T d d T d d T T d T T T T T T T T T T T T T T d T d d T d d T d T d T d T d d T d T T T d T T T n.T T ",
"g.g._._.:.:.:.:.:.:.:.:.:.:.:.:.:.:.:.:.:.:.:._.:._.:.:.:.:.:.:.:.:.:.:.:.:.:._._.g.! U.:XoXoXoXn.n.n.n.p p p p 8 8 p n.n.8 8 8 8 8 8 8 8 8 8 8 8 8 8 8 n.8 g n.n.oXwXpXdXmXrXrXG.J G.G.G.G.J J J J J J J J b.b.b.b.b.s.s.s.j j j j s.j j j s.j s.s.j s.j j j s.j j j j j j j j j j j j j j j C.j j j j C.C.j j 9 s.5Xs.s.vXs.5X5X5XD ,X,X,X5XmXdXMXpXwXwXoXn.n.n.p p 8 8 p T T p 8 T T T T T p p p p p p p p p p p p p p p p p p p p T p p p p p p p n.p n.p 8 T T p p p p p p T T n.n.oXwXwXMXCXG.9 $X$X$X$X$X$X4XI ' ' 1 1 ' ' ' 1 1 1 1 / $.$.O.O.$.$./ 1 1 1 1 1 / $.$.O.O.H H H H c.).,._ x 3 ] x ] 3 3 @ 3 3 3 3 x <._ k.q.q.q.k.<.<.<.k.q.A q._ x x x <._ k.q.A f f f f f f & f & & A q._ <.<.<.<.<.x 3 3 3 3 3 3 3 3 3 3 3 3 3 3 3 3 3 x x x x x x <.<.<.k.q.f f f f & & & e e L G F.DXgX0XB.W.{ { { { { { { { { { { { { { { { { { { { { { { { K.{ K.K.K.K.K.K.K.K.K.:._.! :XoXT T T T T d T d d T p T d T T T T T T T T T 7 T T T T T T T T T T T T T T T T T d T d T T T T T T T T T T T T T T T T T T 8 T d T 8 T d T 8 T T d T d d T T d n.T T T n.",
"U.U.! g._._._._.:.:.:.:.:.:.:.:.:.:.:._._._._._._._._._._._._._._._._._.g._.g.g.U.U.:XoXoXn.n.8 n.8 8 8 d p 8 8 8 n.n.n.g 8 8 8 8 8 8 8 8 8 8 8 8 8 8 8 p n.g n.oXwXpXdXCXrXrXJ J J G.b.G.J J J J J J b.J b.b.s.s.s.s.j s.j j s.j j j j j j j s.j j s.j j s.j j j j j j j j j j j j j 5XC.5XC.5X5X5X5Xj C.j 9 P s.vXb.P P b.b.b.5XvXvXvX5X5X5XrXmXCXdXMXpXwXwXn.n.T p p 8 p T T p T 8 T g T T 8 p p p p p p p p p p p p p 8 8 p p T p p p p p p p p p p p p 8 T 8 p p p p p p p T 8 n.oXwXwXMXCXrX9 $X$X$X$X$X$X4XE.' ' ' 1 $.' ' ' 1 1 1 1 / $.$.O.O.$.$.1 1 1 1 1 1 / $.O.O.H H H P.P.).,.q.<.x ] 3 3 3 ] 3 3 3 3 3 3 x _ k.q.q.k.k.<.<.x <.k.q.q.k.<.x x x x <.k.q.q.f f f A f & e e & & A q.k.k.k.k.k.k.<.x x x x x 3 3 3 3 3 3 3 3 3 3 x 3 x x <.<.<.<.x x <._ q.A f f f & e e e L L L >XF.DXgXxXD.W.{ { { { { { { { { { { { { { { { { { { { { K.{ K.K.K.K.K.K.K.K.K.K.K.:._.! :Xn.T T T T T T d T T d T T d T T T T T T T T T T T T T T T T T T T T T T T T T T T T T T T T T T T T T T T T T T T T T T T T T d T d d d T d T d T T d T T T T T T T n.T n.",
"oX:X:X*.U.! ! g._._._.:.:.:.:.:.:.:._.g.g.U.U.:XU.*.*.i U.i U.! U.U.U.:XU.*.*.:XoXoXoXn.n.p 8 8 8 8 8 p 8 p 8 8 n.n.n.n.n.8 8 8 8 8 8 8 8 8 8 8 8 8 8 8 p n.n.wXoXjXMXCXrXrXG.G.J J G.b.G.G.J J J b.b.b.s.s.s.s.s.s.j s.j s.j j j s.j j s.j s.j s.j s.j j j j j j j 5Xs.j j j j j C.C.C.C.C.C.C.C.C.j 5X5X5Xb.P G.G.P b.b.G.G.rXG.G.G.G.P P b.b.rXrXmXCXdXMXpXwXwXn.n.T 8 8 n.p T 8 8 p p n.p 8 p p 8 8 8 8 8 8 8 p p p p 8 p p p p p p p p p p p p p p p p T T p n.n.n.p T T p 8 8 n.oXwXpXCXrXj N $X$X$X$X$X$X4XI ' ' 1 1 1 ' ' ' 1 1 1 1 1 / $.$.O.$.$./ 1 1 1 1 1 1 / O.O.H H P.P.c.=XA <.x x x 3 3 3 3 3 3 3 3 3 x <.k.k.q.<.<.<.x x x <.k.q.q.k.x x x x _ k.k.k.q.A f A A & & e e & & & A A A A A A q.k.<.x x x x x x 3 3 3 3 x 3 x 3 x 3 x <.k.k.k.<.<.x <.<.k.q.A f & & & & e e e e e e F.F.lXGXD.W.{ { { { { { { { { { { { { { { { { { { K.{ K.K.K.K.K.K.:.K.W.K.W.:.:._.! oXn.T T T T T T T T d T d p T T T T T T T T T T T T T T 7 T T 7 T T T T T T T T T T T T T T T T T T T T T T T T T T T T T T T T T T d d d d T T T T 8 d d d T T T T T d p p ",
"oXoXoXoXoX:X:XU.U.g.g.g._.g._.g.g.g.! U.U.:XoXoXoXoXoXoXoXoXoXoXoXoXwXoXwXoXwXoXn.n.n.p p p p 8 8 p 8 p 8 8 8 8 n.n.n.n.8 8 8 8 8 8 8 8 8 8 8 8 n.p 8 8 8 n.n.oXwXpXCXrXrXJ J J G.J G.G.G.J J G.b.b.s.s.s.s.s.s.j s.s.j j j s.s.j j j j j j j s.j j s.j j j j j j j j 5Xj 5XC.C.C.N.N.N.C.,XC.C.5Xj s.s.b.P G.rXG.G.G.G.G.G.G.G.rXG.rXP rXG.rXG.G.J J rXmXCXdXMXwXoXn.n.n.8 8 n.8 8 8 8 p p 8 8 p p 8 p p p 8 p p 8 p p p p p p p p p p p p p p p p p p n.8 8 T 8 8 n.8 8 T T 8 n.n.oXjXpXdXrX9 N $X$X$X$X$X$X$X4X' ' ' ' ' ' ' ' ' ' 1 1 1 1 / / $.$.$./ / 1 1 1 1 1 1 / O.H H P.P.c.&.& (.x x ] 3 3 3 3 3 3 3 3 x 3 3 x <.<.<.x x 3 3 3 x <.k.q.k.<.x x x <.k.q.q.k.q.A f A A & e f e & & e e f f & & & A q._ (.x x x x x x x x ~.x x 3 x x x x <.q.q.q._ <.<.<._ _ q.A & & & & vX& & & & e e e D F.lXxXD.W.{ K.K.K.K.{ { { { { { { { { { { K.K.{ K.K.K.K.:.:.:.:.:.:.:.:.:._.g.*.oXn.T T T T T T T 8 T T 8 d T T T T T T T T T T T T T T T T T T T T T T T T T T T T T T T T T T T T T T T T T T T T T T T T T T T d d d d d T T T T T d d T T n.T T T d d d ",
"n.n.n.oXoXoXoX:X:X:X:XU.U.U.U.U.U.U.:X:XoXoXoXoXn.oXn.oXn.oX8 oXoXoXoXoXoXoXn.n.n.n.p n.p 8 8 8 8 8 8 8 8 8 n.8 8 8 8 8 8 8 8 8 8 8 8 8 8 8 8 8 8 8 8 8 8 n.n.wXpXdXmXrXG.G.G.G.J J J J G.J G.G.b.s.j s.j s.j s.s.s.j s.j j s.j j j j j j j j j j j s.j j j j j j 5Xj j C.C.N.n N.N.N.C.C.j j s.b.b.b.G.b.b.G.G.G.G.G.b.G.b.G.G.G.G.b.G.G.G.G.J G.J rXG.rXrXmXCXMXpXwXn.n.n.n.n.n.8 8 8 8 8 T 8 8 p 8 8 8 8 p 8 p 8 p p p p p p 8 8 8 8 8 8 8 8 8 8 8 8 p 8 8 8 8 p p 8 8 8 p n.n.wXwXpXdXJ 9 9 $X$X$X$X$X$X$X4X4X' ' ' I E.I ' ' ' ' ' ' 1 1 1 / / / / / / / 1 1 1 / / $.P.P.P.P.P.d.e _ x 3 x x 3 3 3 x x x x x x 3 3 3 3 <.<.3 3 3 3 3 3 x <.k._ <.x x <._ q.A A q.q.f f & A & e e e e e f e & & & & & & A k._ x x (.<.(.<.<.<.<.x x 3 x x x x <.q.q.q.k._ _ _ k.r.q.& f & & & & & & & e e e W >Xe DXlX0XB.W.W.W.K.K.K.K.K.K.K.K.K.K.K.{ K.{ K.K.K.K.:.:.:.:.:.:.K.:.:.:._.g.U.:XwXn.T T T p 8 T T T T T T T T T T T T T T T T T T T T T T T T T T T T T T T T T T T T T T T T T T T T T T T T T T T T T T T T T T T d d d T T T T T d T T T T T T T d d T T ",
"g n.n.n.n.oXn.oXoXoXoXoXZ :XZ :XoXoXoXoXoXn.n.n.8 8 p p n.p p p p n.n.n.n.8 8 n.n.n.n.n.n.n.n.n.g n.n.n.n.n.n.8 p n.p p 8 p 8 8 8 8 8 8 8 8 8 8 8 8 p 8 p 8 oXwXMXCXrXG.J J G.G.J G.J J J J G.b.b.s.j j j j j j j j s.j j j j j j C.j C.j j j s.j s.j j j j j 5XC.C.C.C.N.N.n n N.C.C.j j s.b.b.G.G.J J J G.J G.J G.G.b.b.b.b.b.b.b.b.b.b.G.G.J J J J b.G.rXrXmXCXdXMXwXn.8 8 n.n.n.p 8 8 8 8 8 T 8 8 8 d 8 8 p 8 p 8 8 8 8 8 8 8 p 8 p 8 p 8 p 8 p 8 p p 8 8 8 p 8 p 8 8 8 p n.wXwXpXdXtXnX$X$X$X$X$X$X$X$X$X$XE.' ' 4X4X4XE.' ' ' ' ' 1 1 1 1 / / / / / / / ' ' ).).).c.c.P.c.c.c.&.r.(.x y.x ] 3 3 3 3 3 3 3 3 x x 3 3 3 x 3 3 3 3 x x 3 x <._ _ k._ _ k.r.A f A A A f f & & & e e e e e e e e & & & & A A r._ (.(._ _ k.k.q.k.k._ <.x x x x x <.q.A f q.q.q.q.q.q.A & f & & & & & A & e & e W e e F.DXgX0XB.W.W.K.K.:.:.K.K.K.K.K.K.K.K.K.K.K.K.:.:.:.:.:.:.:.:.:.:._._.g.U.:XoXn.T T p p T d p T T d T T T T T T T T T T T T T T T T T T T T T T T T T T T T T T T T T T T T T T T T T 8 T T T T T T T T T T T T T d d T T T T T T d T T T T T T T n.n.n.wX",
"g g g g g g g g g g g n.g n.n.n.n.g n.g n.g 8 8 8 8 p p p T p n.p 8 8 g 8 8 8 g T g T g g g n.g n.n.g n.g n.8 p 8 8 p 8 p 8 8 8 8 8 8 8 8 8 8 8 8 p 8 p n.n.oXwXMXmXrXG.J J J b.J J J J J G.J b.s.s.j j j j j j j j j j j j C.C.C.C.C.C.C.j j j j j j C.C.C.C.C.N.N.N.N.N.n n n ,Xj s.b.b.G.G.J J J J J J J J J J J b.b.s.s.s.s.b.b.s.s.b.b.G.J J J G.G.G.rXG.rXrXmXMXpXoXoXn.n.n.n.p p 8 8 8 T 8 8 8 8 8 p 8 8 8 8 8 p 8 p 8 p 8 8 8 8 T 8 8 8 T 8 8 p n.8 g 8 p p p p p p n.oXwXpXdXtXP $X$X$X$X$X$X$X$X$X$X4X' ' ' E.4X4X4XI ' 1 1 1 1 1 1 / / 1 1 1 y ).).4X4X=X=X=X=X&.d.&.&.&.W _ (.x x x 3 3 x 3 3 3 3 3 3 3 x 3 3 3 3 x 3 3 x x x x x <._ k.q.q.q.A A & & & & & e e & & e e e e & & & e e & & & A A A r._ _ r.r.q.A f f A q.q.k.<.x x 3 3 <.k.f f A A A A A A & & e & & & & A A & & & e e & & e F.DXAX+XB.K.K.:.K.:.:.:.:.K.:.:.:.K.:.K.K.:.:.:.:.:.:.:.:.:._._.g.! U.:XoXn.T T T d d d p d 8 d 8 T d T T T T T T T T T T T T T T T T T T T T T T T T T T T T T T T T T T T T T 8 T T T T T T T T T T T T T T T d T T T T T T d T T T T T d n.n.wXwXwXwX",
"g g g g g g g g g g g g g g g g g g g g 8 8 8 8 8 g 8 8 T T 8 8 g g g g g T g T g g g g n.g n.n.n.g n.g g 8 8 8 8 8 8 8 8 8 8 8 8 8 8 8 8 8 8 8 p p p p n.n.oXpXMXmXrXJ J J J J J J J J G.b.b.s.s.j j j j j j j j j C.C.C.N.N.n N.N.N.N.C.C.C.C.C.C.C.C.N.N.N.N.n n n n n n w ,X5XP G.G.J J J J J J J J J J J J J G.b.s.s.s.s.s.s.s.s.s.s.b.b.J J J J G.J G.G.b.rXrXCXMXwXwXwXoXn.n.n.p 8 8 8 T g 8 8 p 8 8 8 T 8 8 T 8 8 8 T 8 8 8 8 8 g 8 8 8 g 8 8 8 8 8 g 8 8 p p p p 8 n.wXpXMXmXs.$X$XnX$XnX$X$X$X$X$X$XE.' ' ' 4X$X$X4XE.' 1 1 1 1 1 1 / ' ).).4X=XW f q.q.k._ _ k.r.A A A A r.(.x ] x ] 3 3 x x 3 3 3 3 3 x x x x x x 3 3 3 x x x x x <.k.A f f f f & & & & & e & e e e & e e e & A A & & & & & & A A A r.A A & f f f f f A A q._ <.x 3 3 x k.f W f f & & & & & & & & & A A & & & & e e & A A & e F.DXGX+XW.:.:.:.:.:.:.:.:.K.K.:.K.K.:.:.K.:.:.:.:.:.:._._.g.! U.:XoXoXn.n.T T d d d d p T d 8 d 8 8 8 d T T T 8 d 8 d 8 T 8 T 8 T T 8 T T 8 T T 8 T T 8 T T 8 T T 8 T T 8 T T d 8 T T T 8 T T T 8 T T T 8 T p T T T T T T T T d T T 7 T n.oXwXjXpXpXpX",
"n.g g g g g g g g g g g 8 8 8 g g g 8 g g g 8 8 g g T g T n.n.n.g g g g n.g n.g g g g T g g g g n.g g n.8 n.8 8 8 8 8 8 8 8 8 8 8 8 8 8 8 8 8 8 8 8 8 8 n.n.wXpXdXmXrXG.J J J J J J J b.b.b.s.s.j j j j j j j j C.C.C.N.N.n n n n n N.N.N.N.N.N.N.N.N.N.N.N.n n n n n n n n n b 5Xb.G.G.J J J J J J J J J J J J G.b.s.s.s.s.s.s.s.s.s.s.s.s.b.G.J G.G.J J G.G.G.J J mXCXdXMXwXoXoXn.8 8 8 8 p n.8 8 n.p 8 8 8 8 8 8 8 g T 8 g 8 8 8 8 8 8 8 8 8 8 8 8 8 p 8 8 8 8 8 8 8 8 8 oXpXMXmXs.9 $X$X$X$X$X$X$X$X$X$X4XE.' ' ' E.$X$X=XE.' ' ' ' ' ' ).).=XW A q.k._ <.<.x x x x x <._ _ <.(.x ] x y.] 3 3 3 x x 3 3 3 x 3 3 3 3 3 x x <.<.x x x 3 3 x <.k.A & & e e & & A & & & & & e e & e e & A q.A A & & & & & & & e & & & & & & & A q.q.q.A q.k.<.<.x x _ q.f f & e & & & & & & & & & & & f & e e & & & & & e e F.lXGXJX:.K.:.K.:.:.K.:.K.:.:.:.:.K.:.:.:.:.:.:.:._.g.! U.:XoXoXn.n.n.T T p d d d p d d 8 d 8 d 8 d 8 8 d 8 T 8 T 8 T d 8 d d 8 8 d 8 8 d 8 8 d 8 8 d 8 8 d 8 8 d 8 8 8 d g d 8 d 8 T T T p T T T p T T p p T T T T T T T T d d T T n.wXpXpXuXdXgXlX",
"g g g g g g g g n.g g g g 8 g g g g g g g 8 g g g n.g n.n.g T g g g g g g n.g n.g g g g g g g 8 g 8 8 g 8 8 8 8 g g 8 8 g 8 8 8 8 8 8 8 8 8 8 8 8 8 8 8 8 oXwXMXCXrXrXG.G.J J J J J G.b.s.s.s.j j j j j C.C.C.C.N.N.N.N.n n n n N.n N.n N.n N.n N.N.n N.n n n n n n 8.n n ,X,X,X5Xb.G.G.J J J J J J J J J b.b.b.s.s.s.j j j j j s.s.s.s.s.s.b.b.b.G.G.G.G.G.G.G.G.rXrXrXmXCXMXpXwXoXg 8 8 8 p n.n.n.n.n.8 8 T g T 8 8 8 8 8 T 8 8 8 8 8 8 8 8 8 8 8 8 p n.p n.n.8 8 8 p 8 S wXMXCXP 9 $X$X$XnX$X$X$X$X$X4X4XE.' ' ' ' 4X4X4X4X).' ' ).).4X=X=Xf q.k.<.x x x x 3 3 x x x ] x ] (.] ] ] x ] 3 3 x 3 3 3 3 3 3 3 x x 3 3 ~.3 x x <.k.<.<.x 3 x x _ q.A & & & & & & A & & & & & e e & e e & A A r.A & f e & & & e e & & & & A A & A q.k.q.q.q.q.k.<.x x <.k.A A & & e & & & & & & & & & & f & & e & & f f & e e F.SXgX0XJX:.K.:.:.:.:.:.:.:.:.:.:.:.:.:.:.:._._._.g.U.:XoXoXn.wXn.n.T T p p p p p p p 8 d 8 d 8 d 8 d 8 8 d 8 d T 8 T 8 T 8 8 d 8 d 8 d 8 d 8 d 8 d 8 d 8 d 8 d 8 d d 8 d 8 d 8 d 8 T p T T p T T T p p p T T T T T T T T T T n.n.n.wXMXuXgXlXDXDXDX",
"g g g g g g g g g n.g n.g g g g g g g g g g g g g T g n.8 n.8 g g 8 g n.g n.g g g g g g g g 8 8 8 8 8 8 8 8 g g 8 g g g g 8 8 8 8 8 8 8 8 8 8 8 8 8 8 8 8 oXoXMXCXrXrXb.rXb.b.b.b.b.b.s.s.j j j j C.C.C.C.C.N.N.N.N.n n n N.n N.n N.N.N.N.n n n n n n n n N.n n n n n n n N.C.5X5Xb.G.G.J J J J J J J b.b.b.s.s.s.s.j j j j j j s.s.s.s.s.j s.s.b.b.b.b.b.b.b.G.b.b.b.rXrXrXmXdXpXwXn.g 8 p p n.8 8 n.n.8 8 g 8 8 g 8 8 8 8 g 8 g 8 8 8 8 8 8 8 8 8 8 8 8 p n.n.8 8 8 p p oXpXdXG.9 9 $X$X$X$X$X$X$X$X4X4XE.I ' 1 1 ' ).4X4X4X).).).4X=XA k.<.x x 3 x x <.x x 3 3 x 3 x 3 3 x 3 3 x x x x 3 x x x 3 3 3 3 3 3 <.<.x 3 3 3 x <.k.q.q.k.<.x <._ k.A & & & A & & & & & & & & & e e e e e & A A A A & e e e & & & & & & & & A & f A q._ k.q.f f q.k.<.x x _ q.A & & & & & & & & & & & & & f & & & e & A A & e e e F.DXGXJX:.:.:.:.:.:.:._.:._._._._._.:._._.g.g.! U.:XoXwXn.n.T n.T n.T d 8 d 8 d 8 d 8 d 8 T 8 T 8 d 8 d 8 d 8 8 d p T p T d 8 d 8 8 d 8 8 d 8 d 8 d 8 d 8 d 8 d g d 8 8 d 8 p 8 p T T T p T p p T T p d T d d T T T n.T n.T wXwXjXMXdXlXSXF.r.(.y.",
"g g g g g g n.g oXg g S g g n.g g g g g g g g g g g g 8 8 8 8 8 8 8 8 8 g n.g n.g g g g g 8 g 8 8 g 8 g g g g g g g g g g 8 8 8 8 8 8 8 8 8 8 g 8 8 8 8 g oXoXdXmXrXrXrXb.b.b.s.s.s.j j C.C.C.C.C.N.C.N.N.N.N.n n n n N.n n n n n n n n n n n n n n n n N.n n n n n 8.n n %.5XP b.G.G.G.J J J J J b.b.s.s.s.j j j j s.j j j j j j j j j j j j j s.j s.s.b.s.b.s.s.s.s.j j 5XrXmXdXpXwXn.n.8 p n.8 g n.8 8 8 8 g 8 8 g n.g 8 8 8 8 8 8 8 8 8 8 8 8 8 8 8 8 p n.g n.n.p p n.wXMXmX9 4X$X4X4X4X$X$X4X4XE.E.' ' 1 1 / 1 ' ).4X=X=X=X=Xf q.k.<.x 3 3 3 3 x <.<.<.<.x x x x 3 3 3 3 3 ] 3 3 ] 3 3 3 x x 3 3 e.x x <.<.<.<.<.x x x <._ q.q.q.k._ k.q.A & & & & & & & & & & & & & & e e e e e & & & & & e e e e e e e e e e & & & f f A k.<._ k.f f q.k.<.<.<.k.A & & & & & & e e e & & & & & f A A & e e A A & W e >XF.SXlXcXJX_._._._._._.g.! ! g.! g.! ! ! ! U.:X:XoXoXwXn.n.p p 8 8 8 p p 8 8 8 8 8 d 8 p 8 d T p p 8 T 8 p 8 d 8 p 8 p 8 8 8 d 8 d 8 d 8 d 8 8 d 8 8 d 8 8 8 d 8 d 8 d 8 8 d 8 T p T T T T T p p p T p p d d d d T T n.n.wXn.wXpXuXlXDXF.r.(.y.~.-X",
"g g g g g g g g g g g g g g g g g g g g g g g g g g g g g g 8 S 8 g 8 8 g g g g g g g g g g 8 8 g g g g g 8 g 8 g 8 g 8 g 8 g g g g g g g g 8 S 8 8 8 g g oXwXCXmXrXG.b.b.s.s.s.j j C.C.N.N.N.N.N.n n N.n n n n n n n n n n n n n n n n n n n 8.n 8.8.n n n n 8.n n n N.,X5Xb.G.G.G.G.G.G.b.b.b.b.s.s.j s.j s.j s.s.s.s.s.s.j j j j s.j j j j j j s.s.s.s.s.j j j j j j j j 5XrXCXMXwXn.n.8 8 8 8 8 8 n.n.g n.8 g n.8 8 8 8 g n.8 T g T 8 8 n.8 8 n.8 p 8 8 n.n.g n.T n.n.wXdXG.%.).4X).I ' ' E.E.' / 1 1 / $.$.$.1 ).=X=Xf f A k.<.x x x 3 x 3 3 x x <.k.qX<.x 3 3 x 3 3 3 3 3 3 3 3 3 3 3 3 3 3 3 3 3 3 x <.<.k.k._ k.k._ _ k.A A A q.q.A A & & & e e & & & & e & & & & & & & & e e e e W W W W e e & e e & e f W e & & f f A q._ <._ A f q.k.k.k.k.q.A & & A f & & e e e & & & & & & A & & e & & e W W >X>Xe F.DXuXcX3XU.U.! U.U.U.:X:X:X:X:X:X:X:XoXoXn.n.n.n.n.n.8 8 8 8 8 8 n.8 8 8 d 8 d 8 p p p p 8 p p p 8 d 8 d 8 p p p p 8 p d 8 p 8 T 8 p 8 d 8 p 8 d 8 p p d 8 p 8 p 8 p d 8 p p p T T T T T p p p p T d d d d d T T n.T n.wXjXuXlXDXr.(.y.-.` ` ` ",
"g g g g S g g g g g g g g g g g g g n.g g g g g g g g g g 8 g 8 S 8 g g 8 g g g g g g g g g g g g g g g g g g g 8 8 8 8 g 8 S 8 8 S 8 8 S 8 S 8 8 g g g n.oXwXCXrXrXG.b.s.s.j j C.C.N.N.N.N.n n n n n n n n n n n n n n n n n n 8.n n n n n n n n n n 8.n 8.n 8.n n ,XC.j s.b.G.b.G.G.b.b.b.s.s.j j j s.s.s.s.s.s.j j s.j s.j s.j j j j s.j s.j j s.j s.j j j j j j j s.j j j 5XmXMXpXoXn.8 n.8 8 8 T T 8 8 8 g T g 8 g n.g T g 8 8 n.8 8 n.8 8 T 8 8 8 p 8 g g n.n.T g oXjXdXb.%.y y / $.$.$./ / / $.O.$.$.$./ 1 ).=Xf q.k.<.<.x x 3 3 3 3 x 3 3 x x <.<.<.<.3 3 3 3 3 3 3 3 3 3 3 @ 3 3 3 3 3 3 3 3 3 3 3 x <.<.k.q.A A q.q.q.f f f A A A f & & & & e & & & & e & & & & & & & & & e W W ,.,.,.D W W e e e e e W e e & A A f A q.k.<._ q.A q.q.q.A A f f & A A A & & e & & & & & & & A & & e e e W ,.,.,.D >X>Xe vXlXuXjXjX:X:XoXoXoXoXoXoXoXoXoXoXoXn.n.n.n.n.T T 8 8 8 p 8 8 8 8 8 T 8 8 8 8 8 p p 8 8 p p p p p 8 p p p p 8 p 8 8 p 8 p p p 8 d 8 d 8 T 8 d 8 p p 8 p p p p p p p 8 T 8 p p T T T T T T p p p p p d d d d T T n.n.wXwXpXgXDXDX`.6X-.` ` 9X9X",
"g g g g g g g g g g g g g g g g g g g g g g g g g g g g g g 8 S 8 8 S 8 g 8 g g g g g g g g g g g g g g g g 8 g g g g g g 8 8 8 S 8 8 S 8 8 8 8 g 8 g g g oXpXCXrXG.G.b.j j C.C.N.N.N.N.n n n n n n n n n n n n n n n n n ,Xn n n 8.n 8.n n n n n 8.n 8.n n n n N.,Xj j b.G.G.G.b.b.s.s.s.s.s.s.j j j s.s.s.s.j s.j s.j j j s.j j j j s.j s.j s.j s.s.j j j j j j s.j s.j j C.5XrXCXpXwXoXn.n.p 8 8 T 8 8 g n.g g g g 8 g g g g n.8 8 8 g 8 8 8 g 8 8 8 8 g T g g n.8 g oXwXMXmX5Xi.O.O.O.O.O.O.H O.O.P.O.$.c.).=XW q.k.<.<.x 3 3 x x 3 3 3 3 x x x x <.<.<.<.x x 3 3 x 3 3 3 3 3 3 3 3 3 3 3 3 3 x x 3 3 3 x x <._ q.f f A A A f f f A A & & & A A & f & & f & & & & & & & & & & & e D K &.d.d.&.&.K K D D W e e e & & A A f A A q._ _ r.q.A A A f f f f & & & A A f & & & & & & & & & & & e e e W &.d.&.K ,.W e vXSXdXpXjXwXoXn.n.n.n.n.n.n.n.n.n.n.n.g T 8 T 8 8 p 8 8 8 8 8 8 p p p p T 8 T 8 p 8 p 8 8 8 p 8 p p p 8 p 8 T 8 p p p p p p p p p p 8 p p p 8 p p p p p p 8 T 8 p p p 8 p p p p n.T n.T n.n.n.n.p p p d d d T n.n.n.wXwXuXlXDXNX6Xz.` 9X` ` ` ",
"g g g g g g g g g g g g g g g g g g g g g g g g g g g g g 8 g 8 S 8 8 S 8 g 8 g g g g g g g g g g g g g g g g g g g g g g g S 8 8 S 8 8 S 8 S 8 S 8 S g oXoXpXmXrXG.b.s.j C.C.N.n n n n n 8.8.n 8.n n n n 8.n n n n n 8.n 8.n 8.n n 8.n n n n n n n n 8.n n n n N.j b.G.G.G.G.b.s.s.j j s.j j s.j s.j j j j j j j j j s.j j j j j s.j j j j s.j s.j j j j j j j j j s.j j j j 5X5XmXdXpXwXoXn.p 8 p 8 8 g g g g g n.g g g n.g g 8 g 8 n.g 8 g n.8 n.8 n.g n.g T g T g 8 oXoXwXMXmX,Xv < H O.O.H H H O.P.c.).&.f q.<.x x ] ] x ] ] x ] x x x x x <.<._ <._ k._ <.<.x x x 3 3 3 3 3 3 3 3 3 3 3 x x x x 3 3 3 x 3 x <.k.q.A A A f f f & A A & A A A A f f A f f & A & f f A & & & & e W ,.d.c * * * * c ( ( &.K D W e & & & & f A A A k._ r.A & & & & & e & & & A A A f f A & & & & & & & & & e e W D &.c c d.&.W e W 5XmXMXwXwX8 8 8 T p p p p 8 p p 8 8 8 8 8 8 p 8 8 p 8 8 8 p 8 p 8 8 n.g 8 g T g p 8 p 8 8 p p n.p T 8 T 8 p p T 8 p 8 p p 8 p p p p p p p p p p p p p p p p p p p p p 8 p p p T T T n.p n.n.T p p p d p p n.n.n.n.wXpXlXDXDXVXHX` 9X9X` ` ` ",
"g S g S g S g S g g S g g g g g g g g g g g g g g g g g g 8 S 8 8 g 8 8 S g g g g g g g g g g g g g S g S g S g S S g S S 8 8 g g 8 S 8 S 8 8 S 8 S g n.oXoXpXmXrXb.s.j C.C.N.n n n n 8.8.8.n n N.N.,XN.,XN.,XN.N.n N.n n 8.n n 8.n n n n n n n n 8.n n 8.n n C.j s.G.G.J G.b.s.s.j j j j j s.j s.j j j j j j j j j j j j j j j j j j j j j j j j j j j j j j j j j j j 5Xj C.5X5XrXmXdXpXoXn.8 p 8 S g g g g g g g g T g g g g g g g g g g 8 g g g 8 g g n.g n.8 8 8 8 oXoXwXpXdXmX,Xk H O.O.O.$./ ).&.W A k._ <.x 3 3 x ] x x x x x <.<._ k.k.q.q.q.q.q.q.A q.k.k.<.x 3 3 3 3 3 3 3 3 3 3 3 3 3 x x x x 3 3 3 x <._ q.A f f f f A & A A A A A A f f f A A & & f f f f A & & & & e ,.&.d.c * * q * * c o c d.&.K D W e & & & f f A q.q.A & & e e e & & & & A r.r.A f f A & & & f f & & & & e e W ,.d.c c c ( ,.D D N rXdXpXwXn.p p p p 8 p 8 p p p 8 8 8 n.p p p 8 p 8 8 p 8 8 8 8 8 8 g T g T g 8 8 8 8 8 8 8 8 T 8 n.8 n.T n.8 n.p n.T n.8 T n.p n.p n.p n.p p p p p p p p p p p p p p p p p p p p p p p p p p p 8 8 T p 8 n.n.n.wXpXuXlXDXy.HXHX` ` ` ` ` ` ",
"g g S g g S g g S g g S g g g g g g g g g g g g g g g g g 8 8 S 8 S 8 S 8 S g g g g S g S g S S S g S 8 S g S 8 S 8 S 8 S 8 S 8 g 8 8 g 8 S 8 8 S 8 g oXoXwXpXmXrXs.5XC.C.N.n n n n ,X,XN.,X,XC.C.j j 5Xj 5XC.j C.j C.C.,XN.N.N.n n 8.n 8.n 8.n n n n 8.n n N.j s.G.G.G.G.G.b.s.s.j j s.s.s.s.j j j s.j s.j j j j j j j j j j C.C.C.C.j j j j j j j j j j j j j j j j j j j j j j 5XrXCXMXwXoXn.8 8 8 S 8 g g g g g g g g g g g g g g g g g g g g n.g g n.n.n.g n.8 n.8 n.oXoXwXpXdXmXC.i.O.P.c.d.=Xf k._ <.x x x 3 3 ] 3 3 ] x 3 x <._ k.q.q.q.A f f A A f f f A q._ <.x 3 3 3 3 3 3 3 3 3 3 ~.x x <.<.<.x 3 x x x <.k.q.f f A A f f f f A A A A f f f A & & f f f f & & & & & & e ,.&.d.c * * * * o o o * c d.d.&.,.D W e & & e f & & & & e e e e e & & & r.r.r.q.A A A f & & & f & & & & e e W D &.c * c d.&.K K %.5XmXMXwXn.n.T T p 8 8 8 8 8 p p p 8 n.8 8 8 8 8 8 8 8 8 8 8 g g 8 T g g 8 8 8 g 8 8 8 8 8 8 8 8 8 8 8 8 8 p 8 8 8 8 8 8 8 8 8 8 8 8 8 8 8 n.8 8 8 8 8 8 8 8 p p p p 8 8 p p p 8 8 p 8 p p p T n.n.n.8 8 n.n.n.wXpXdXDX(.!.|.` ` ` ` ` ` ` ",
"S g g S g g S g g S g g S g g S g g g g g g g g g g g g S g S 8 S 8 S 8 g S g S g S g S g S g S g g g S g S 8 S g S g S 8 S 8 S 8 S 8 S 8 S 8 S 8 S 8 g oXwXpXmXrX5X5X5X,X,X,X,X,X,X,X,XC.5X5Xs.b.G.G.G.b.b.G.b.b.b.s.j j C.C.C.,Xn n 8.8.8.n 8.n n n n n n C.s.G.G.J J J G.b.s.s.s.j s.j s.j s.j j j j j s.j j j C.j C.j C.C.C.C.C.C.C.C.j 5Xj 5Xj j j j j j j j j j 5Xj j s.j j 5X5XrXdXpXoX8 8 8 8 8 g g g g g g g g g g g g g g g g g g g g g g g g g g n.n.g g n.8 n.g n.oXoXpXMXmXN c.).=XA k.<.3 x x 3 3 x <.x x x x x x x x <.k.q.q.q.q.A f f f f f f f f A k.<.<.x x 3 3 3 3 3 3 3 3 x x <.<.k.<.x x x x x <._ q.q.q.q.A f f f A A q.q.q.A A A A & f f f f A A & f f & & W ,.&.c c * * * * o o o o * * c c d.&.D W e e e W W e & & e e W W W e & & r._ k.q.A A A f f A A A & & & e e e e W &.C * * c d.( K ( ,X5XdXjXoXn.n.8 n.n.8 8 8 8 8 n.p n.8 8 8 8 8 8 8 p 8 T 8 n.8 n.g n.g 8 n.g 8 8 8 8 8 8 8 8 8 8 8 8 8 8 8 8 8 n.8 p 8 8 n.p 8 p 8 T 8 p 8 8 8 8 8 8 8 8 8 8 8 8 n.8 n.8 n.8 8 8 8 p 8 8 8 8 8 n.g n.n.8 8 p n.wXuXlXDXy.|.` ` ` ` ` ` ` ` ",
"g S g g S g g S g g S g g S g S g S S g S g g g S g S g S 8 S 8 S 8 S S S g S S S g S S S g S S g g g g g g g g g g g g g g g g S 8 S 8 S 8 S 8 S S S g g oXpXCXrX5X5X5X5X5XC.IXC.C.5X5X5Xb.b.G.G.G.G.G.G.G.G.G.G.G.G.G.b.b.s.5XC.,X,X8.n 8.8.n n 8.n 8.n n C.b.G.G.G.G.G.G.b.b.s.s.s.j s.j s.j j j j j j j j j C.C.C.N.N.N.N.n N.N.N.N.C.C.j j j j 5Xj j j 5Xj 5XC.j j j j j s.s.j 5XrXCXpXoXS S g 8 8 g g g g g g g g g g g g g g g g g g g g g g g g g n.g g oX8 n.n.n.g n.n.oXjXjXdXtXe & _ x x x 3 3 x 3 x <.<.k._ <.<.<.<.<.<._ q.q.q.q.k.q.A A A & & e f f A q.q.k.k.<.x 3 3 3 3 3 3 x 3 <.<.<.<.<.<.x x x x x <.<.<._ k.A A A A q.k._ (.<._ _ _ q.A f f & A q.q.A f f & e W ,.&.c * * c c o o o o o o * * q * C &.D >Xe e W W e & & & e W D ,.W e & r.r.q.A A A A f f A A f f e e & e e e e K ( c * o o ( K ( ,XC.CXpXjXoXoXoXn.n.n.n.8 8 8 8 8 8 p n.p 8 8 8 8 8 8 8 g T g T g n.n.g 8 8 g 8 8 8 8 8 8 8 8 8 8 8 8 8 8 8 8 8 8 8 8 8 8 8 n.8 n.8 8 n.8 8 8 8 8 8 8 8 8 8 8 n.n.8 8 8 8 n.8 n.n.n.n.n.n.n.p 8 n.oXn.8 p p n.pXdXSXDX!.` ` z.` <X` ` ` -.",
"S g S S S S S S S S S S S S g S g S g S g S g S g S S g S S S S S S g S S S S S S S S S S S S S S g g g g g g g g g g g g S 8 S 8 S 8 S 8 S 8 S 8 S 8 n.n.oXwXMXCXmXmXrXSXSXSX5X5XvX5Xb.b.G.rXG.G.J J J G.G.J G.J J J G.G.G.G.b.5X5XC.,X,Xn 8.8.n 8.n n 8.n C.5XG.G.b.G.J G.G.b.b.s.s.j j s.j j j j j j j 5Xj C.C.N.N.N.N.n n n n n N.N.C.C.C.j j j j j 5Xj j j j j 5Xj j j s.j j j C.rXCXpXoXn.g g g g g g g g g g g g g g g g g g g g g g g g g g g g g n.g n.S g 8 n.g g n.oXjXjXcXdXZX_ <.x 3 3 x x x x 3 x <.k.q.q.q.k.q.k._ <.k.q.q.q.k.k.r.q.A & & e e & f f f f A q.<.x 3 3 3 3 3 3 3 3 3 3 <.x x x x x x x x x <.x x <.q.A A f A k._ (.(.(._ _ q.A A A r.k.k.r.A & & & & W ,.&.c c c c C o s s o o o o o * o c C ( K D >X>Xe e e e e >X,.&.&.&.,.W & A A f A q.q.f & & A A f e e e e e e e D ( o q q s C ( ( C ,XrXdXMXpXpXjXwXoXoXoXn.n.n.n.p n.8 8 8 8 8 8 8 8 g T 8 n.8 n.T n.g n.g T n.8 8 8 8 8 8 8 8 8 8 8 8 8 8 8 8 8 8 8 8 8 8 8 8 8 8 8 8 8 8 8 8 8 8 8 8 8 8 n.8 8 8 8 8 n.8 8 n.8 n.n.n.n.oX8 8 8 g n.n.8 p p oXpXlXF.`.~.` ` ` ` ` ` -.e.-.",
"S S S g S g S g S g S g S g S S S g S S S S S g S S g S S S S S S S S S S S S S S S S S S S S S S g g g S g g g S g g g g g g g g g S 8 S 8 S 8 S 8 S 8 g oX:XjXMXdXCXmXmXmXrXrXb.b.G.G.rXG.J J J J J J J J G.G.G.G.G.G.G.G.b.G.b.b.5X5X,X,Xn 8.8.n 8.8.8.8.,X5Xb.G.G.J J G.J G.b.j j j j j s.j j j j j j j C.C.N.N.N.N.n n n n n n N.N.N.C.C.j C.j j j j j 5XC.j C.j j j j j j j j 5XmXMXwXoXn.n.g g g g g g g g g g g g g g g g g g g g g g g g g g g g g n.S n.g g g g oXoXwXpXpXdXZXJ.x x x x 3 3 x x x x <.k.q.A A A q.q.q.k._ k.q.q.q.r.k.q.A & f e f f & f f f f f q.<.x 3 3 3 3 3 3 3 3 3 3 x x x x x (.x x x (.x (.x (._ q.A f A q._ (.<.(.<.k.A & A r._ _ _ r.A & & & & W ,.&.d.d.( ( ( C s s s o o o o o o o o c C ( K D D D >X>X>XK ( C c d.&.D e & f f A q.q.A A A & f & & e e e vXe F.D &.C * o o C C ( C ( vXmXZXdXMXMXMXpXpXwXwXwXoXn.n.n.8 8 8 8 8 8 8 8 8 8 8 T 8 8 n.8 n.g n.g n.8 8 8 8 8 8 8 8 8 8 8 8 8 8 8 8 8 8 8 8 8 8 8 8 8 8 8 8 8 8 8 8 8 8 8 8 8 8 8 8 g n.8 8 8 8 8 8 8 8 8 p 8 8 8 8 8 8 n.n.p p 8 wXuXlXG y.-X` 9X` 9X` -.e.e.e.",
"S S S S S S S S S S S S S S S S S S S S S g S S S S S S S S S S S S S S S Z S S Z S S S S S S S S g g g g g g g g g g g g S g g g g 8 g g g g 8 S 8 S g g oXoXjXpXdXCXmXrXSXrXP rXG.G.G.J J J J J J J J J G.b.b.b.s.s.s.s.s.b.b.b.SXb.5X5XC.,Xn n 8.n 8.8.8.,XIX5XG.G.J J G.G.b.s.s.j j j j j s.j j j j j C.C.C.N.N.N.n n n n N.N.n N.N.N.N.C.C.C.C.C.C.C.C.C.C.C.C.C.j j j j j j 5XrXCXMXwXoXn.T n.g g g n.g g g g g g g g g g g g n.g g g g n.g g g g g g g n.S n.g S S oXjXpXMXdXZXJ.J.x x 3 3 3 x 3 3 x x <.k.A f A f A A A k.k.q.q.A A q.q.A A f f f f f & A f f f q.k.<.x 3 3 3 3 3 3 e.3 3 x x x x (.<._ _ _ _ _ _ _ _ <._ k.A f f A r._ (._ _ r.A & A k._ (._ q.f f & & & e W ,.&.&.K K K C o s s s q q o o o o o o o C ( ( ( K K K ( ( C * q c &.,.W W f f A r.r.q.A A & A & & & e e e e W D &.C * C ( [.t C C C D P J.ZXZXZXdXdXMXMXpXpXjXwXwXn.n.n.n.T T T 8 T 8 8 8 8 8 8 8 n.g n.8 n.8 n.8 8 8 8 8 8 8 8 8 8 8 8 8 8 8 8 8 8 8 8 8 8 8 8 8 8 8 8 8 8 n.8 8 8 8 8 8 8 8 n.n.n.8 8 8 8 p p p p 8 p p p 8 8 g n.n.8 p S pXdXDXOX6Xz.` ` 9X` z.-.e.e.-.",
"S S S S S S S S S S S S S S S S S S S S S S S S S S S S S S S S S g S S S S S S S S S S S S S S S g g S g g S g g g S g g g S 8 S S g g g g g S g g g S S oXoXpXMXCXmXrXrXb.G.G.G.G.J J J J J J J J J b.b.b.s.s.s.j s.j s.s.j s.5Xs.5Xb.5X5XC.,XN.n 8.8.i.Q.Q.,X5Xb.G.J G.G.b.b.s.j j j j j j j j j j j C.C.N.N.n n n n n n n N.n N.n N.N.N.N.N.N.N.N.N.N.N.N.N.N.C.C.C.j j j j 5X5XCXMXpXoXoXn.n.n.g g g g g n.g g g n.g g n.g g g g g n.g g g g g g g g g n.n.n.g g S oXjXpXMXZXJ.J.x x x 3 3 3 3 x 3 3 x <._ q.f f f f & A A q.q.q.A A f f A A f f f f f A A A f f A k._ <.3 3 x 3 3 3 3 3 3 3 x <._ _ _ _ q.q.q.k.q.q.q.q.k._ q.A f f f A r.k.k.r.A A & A k._ _ r.A f e f & & e e W D D >X>XK ( C o s s q q q o o o o o o o o o o C o C C C o q q * d.K D W & & A r.k.r.& & & & & & vXe e e e >XD K d.c ( K [.t t o C K r.tXJ.J.tXJ.ZXZXZXdXMXMXpXpXwXwXoXn.n.n.n.8 g T g 8 8 8 8 8 n.n.n.g n.8 n.8 8 8 8 8 n.8 8 8 8 8 8 8 8 8 8 8 8 8 8 8 8 8 8 8 8 8 8 8 8 T g p 8 8 8 8 8 n.g n.n.8 8 8 8 p p p 8 8 8 p p n.g g n.n.8 p oXpXgXDX`.-X` ` ` ` ` ` z.-.^ ` ",
"S S S S Z S S S Z S S S S S S S S S S S S S S S S S S S S S S S S S S S S S S S S S S S Z S S S S S S g S g S g S S g S S 8 S S S 8 S g S S g g g g n.S oXoXjXMXCXrXrXrXrXrXG.G.J J J J J J J J b.b.s.s.s.s.j j j j j j j j j j j s.5Xs.5X5X5XC.,X,X,X8.Q.Q.Q.t 5XvXG.G.G.b.s.s.j j j j j j j C.C.C.C.C.N.N.N.n n n n n 8.8.8.n n n n n n n N.N.n N.n 8.n n N.N.N.N.N.C.C.j 5XC.5XSXdXpXjXoXoXg g g g g g g g g g g g g g g g g g g g g g n.g g g g g g g g n.g n.g S oXjXpXMXZXJ.J.J.3 3 x x 3 3 3 x x 3 x <.k.q.f f f f f f & A A A f A f f f f f A A A q.q.k.q.q.A q.k.<.x x x 3 3 3 3 3 3 3 3 <.k.q.q.q.q.A f f A A f f f A q.A f f f f f A q.A A f f f A r.r.r.A f W e & & & & & e W >X>XD K ( C o o o o q q q q o o o s q q q q q s s s s s s q * d.( ,.W & & & q.r.r.A & e e & & & e e e e e W K ( c ( D >XK C o C K r.x 3 x x J.J.J.J.J.J.ZXdXMXpXjXoXoXoXn.n.n.n.g n.n.8 8 8 n.n.g n.g n.8 n.8 8 n.8 8 T 8 8 T 8 T g T 8 8 T 8 8 8 8 8 8 8 8 8 8 8 n.8 T g p 8 p p p 8 8 n.n.n.n.8 8 8 8 n.n.n.8 oXoXwXwXwXoXoXwXn.8 n.wXuXlXDX6X|.` ` } ` ` 9X` ` ` ` ",
"S S S S S S S S S S S Z S S S S S S S S S S S S S S S S S S S g S g S S S S S S Z S S S S S S S S S g S S S S S S g S S S S 8 S g S S g S g g g g S oXS oXwXMXCXmXrXrXG.G.G.G.G.J J J J J rXb.b.s.s.s.s.j j j j j j j j j 5Xj s.j j j j 5Xj C.C.C.,X,X8.Q.Q.Q.Q.IX5Xb.G.b.b.s.j j j j C.C.C.N.C.U N.U N.N.N.n n n n n 8.8.8.8.n n n n n n n n n n n n 8.n 8.n n n n N.N.C.C.C.,X,X5XCXpXjXwXoXg g g n.g g g g g g g g g g g g g g g n.g g g g g g g g g g g oXn.n.S S oXpXMXZXJ.tXx x 3 3 3 3 3 3 3 3 3 3 x <.k.q.f & & & & f f f f A A A f f f f f f f q.k.<.<._ k.q.q._ <.x x 3 3 3 3 XX3 3 3 3 <._ q.A f A f f f f f A & & A A & & & f f f f A A f f A A & A A A f e e & & & & & e e W D K ( C o * o o o o o o o o o o s s s q q s s o o s s s s * * c c &.W & f f A A A e W D W W e e e & & & & e ,.&.d.d.K K p.C o o &.r.x 3 3 3 x y.x J.J.J.J.ZXdXMXpXjXjXwXoXoXoXoXn.n.g n.g 8 n.8 n.n.g 8 g 8 8 8 8 8 8 g T g 8 T g T g T g 8 T g p 8 8 8 8 8 8 8 8 8 8 8 T 8 8 p 8 8 p 8 8 n.n.p 8 8 8 n.oXwXwXjXjXpXpXpXpXjXwXwXoXoXn.wXuXlXDX|.` ` } ` ` <X9X9X` ` 9X",
"S S Z S S S Z S S S S S S S S S S S S S S S S S S S S S Z g S S S S S S S S Z S S S Z S S Z S S S S S S S S S S S S S S S S S S S S S g S S S S S oXZ oXwXMXCXmXrXrXG.J J G.J G.J J J J J b.b.s.s.s.s.j j j C.C.j C.C.j C.C.j j s.j j j j C.5X5X5XC.IX8.Q.3.3.v.t IXvXb.b.s.s.j j C.C.C.N.N.N.N.N.N.N.N.n n n n N.n n 8.8.8.8.n n n 8.8.8.8.8.n n n n n n n n n n n n ,X,X,X8.i.k 8.SXdXpXjXoXoXS S g g g g g g g S g S g g g g S g g g g g g g g g g g g g g S oXoXjXpXMXZXJ.J.x x <.x 3 3 3 x 3 3 3 3 3 x <._ k.q.A A & & & & & f f & A A f f f f f f q.<.x x <.<._ <.<.x x x 3 3 3 3 3 3 3 3 x <.<.k.A f f f f f f & A A A & f & & & f W f f f f f f A & & & & & e e e & & & & e e e W D K d.* q q * o o o o o o o o o o s s s s s o o s s s s s o * * * d.,.W e f & A A W ,.K ,.,.,.D W e e e e e D &.d.c ( ( ( C q o &.A x 3 3 3 x x x x x x tXtXJ.ZXdXMXMXpXpXpXjXwXoXn.n.n.T 8 n.n.n.n.n.n.8 n.8 n.8 g T g T g T g g T g T g T 8 8 8 8 8 8 8 8 8 8 8 p p 8 8 8 8 8 8 n.p 8 8 8 n.p p 8 8 oXwXjXpXuXuXdXlXlXdXuXpXjXoXoXwXpXdXlXy.|.` ` ` } ` ` 9X9X9X` ` ",
"S S S S S S S S S S S S S Z S S S Z S S S S S S S S S S S S S S S S S S S S S S Z S S S Z S S S S S S S S S S S S S S S S S S S S S S g S S S S Z Z :XjXMXCXrXrXrXJ rXJ J J J J J J J G.b.s.s.j j j j j C.C.C.C.N.N.,XN.C.C.C.j j s.s.s.j 5XC.5X5XIXIXQ.3.I.I.I.v.[.vXb.s.s.s.j j C.N.n n n n n ..n N.n n n n N.N.N.8.Q.Q.8.n n n 8.8.Q.Q.8.8.8.n N.N.N.n n n n n 8.8.8.8.Q.  >.~ R ,XmXMXjXjXoXoXS 8 g g 8 8 g S S S g S g oXS S S S 8 S g g g g g g g n.g S oXoXjXpXMXZXJ.3 3 x x x x x ~.x x x x 3 3 3 x <.<._ _ r.A & & & & A & & & f & f & f f f f q.<.x 3 3 x x x 3 x x x 3 3 e.3 3 3 3 <.<.<.<._ q.f W f f f f f A A A & & & & f W W =XW f & & & & & & & & & & & e e e e e e e e e D K C * * * o * * o o o o o o o o o o o q o o o o s s Q.o o o * * d.&.D e & & A A ,.&.d.d.d.&.K ,.D W D ,.D D &.c * o o o s q C K A (.3 ~.x 3 x 3 3 3 x x J.J.J.J.ZXZXdXdXMXpXpXjXoXn.n.n.n.n.n.n.n.n.g n.g T g T g 8 8 g T g T 8 8 8 8 8 8 8 n.p 8 8 8 8 8 8 8 8 p p 8 8 8 8 n.n.n.n.S 8 p p p p p n.wXjXcXuXgXDXSXF.F.SXlXdXpXpXjXjXpXdXlX!.` ` ` ` ` ` ` ` ` 9X` ` ",
"S S S S S S S S S Z S S S S S S S S S S S S S S S S S S S S g S S S S S S S S S S S S S S S S S S S S S S S S S S S S S 8 S S 8 S S S S Z Z oXoX:XoXjXMXCXmXrXrXJ J J rXJ J J J J J J b.b.s.j j j C.C.C.C.C.N.N.N.n N.N.n N.N.C.C.C.j j j C.5X5XN IX[.v.I.I.I.I.v.[.vXs.j j j j C.N.n n n n N.N.N.n n 8.n 8.n n n n 8.Q.Q.Q.n n n 8.8.Q.Q.Q.8.8.n n n n n n n n n 8.8.8.# R ~  X Xu m IXmXMXjXjXoXoXS S S g S S g g g S S S S g g g S S S g g g g g g S g n.oXoXjXpXdXZXJ.J.3 3 3 x x 3 3 x 3 3 3 3 3 x <.<._ <.<.(._ r.q.A A & & & f & & f & & & f f & q.k.<.x x x x x x 3 <.x x 3 3 3 3 3 3 <.k.k.k.q.A A q.q.q.A & f & & & & & & & f W W W W f & & & & & & & & & & e e & & e e e e e W D K C c * * o * o o o o o o o o o o o o o o s o s s s s s o * * * d.&.,.W e & & A ,.&.c c c c ( &.&.&.( d.( ( d.c c o o o s q c K A (.x 3 3 ] 3 ] x 3 3 3 x x x x J.J.J.ZXZXZXdXMXjXoXoXn.oX8 8 oX8 S n.n.n.g g 8 8 n.8 8 8 8 8 8 8 8 T 8 n.p 8 8 8 8 8 8 8 8 8 8 8 p 8 8 8 n.8 n.8 n.8 8 8 8 8 n.n.oXjXMXdXlXlXlXDXDXDXDXDXDXlXdXpXcXuXZXZX|.` ` ` ` ` ` ` 9X` 9X` ` ",
"S S S S S S S S S S S S S S S S S S S S S Z S S S Z S S S S S S g S S S S S S S S S S S S S S S S S S S S S g S S S S 8 S S S S S S 8 S Z S oXoXoXjXMXCXmXrXG.J J J G.J J J J J J G.b.b.s.j j C.C.C.N.N.N.n N.n n n 8.n n n N.N.N.C.C.C.C.C.C.IXIXIXa.3.I.u.u.u.I.[.>X5Xj j j j N.n n 8.n n n n n n 8.8.8.8.n n n 8.Q.Q.Q.Q.8.n n 8.Q.Q.Q.Q.Q.8.n N.N.N.n n n n 8.8.8.#   >. X X~ ~ R v IXmXMXpXjXoXoXoXg S S S 8 g 8 g S S S g g S S g g g g g g g g oXoXoXoXpXMXdXZXJ.J.3 3 3 x 3 3 3 3 3 x 3 3 3 x <._ k.k.k._ _ _ r.q.A A & & & & & f & & & f & & & A q._ <.x x x 3 3 x <.<.<.<.x 3 3 3 x k.q.q.q.A f q.k.k.r.q.A & & & & f f & & f W W W f f & & & & & & & & & & e e & e e W W D ,.,.K ( C C o o o o o o o o o * * * o o o o o o o s s s s s s s o C C &.K D W e e & & ,.d.c * * * c d.c c c c C c * * c o o o o q c &.A (.x 3 3 3 ] ].].] 3 e.3 3 x x x (.y.J.tXJ.ZXdXMXpXwXoXoXn.g g g n.g n.g g g g n.8 8 n.8 8 8 8 8 8 8 8 8 8 8 8 8 8 8 8 8 8 8 8 8 8 8 8 g 8 8 8 8 p p 8 8 8 n.oXoXpXMXdXZXlX!.|.!.|.|.!.!.DXlXlXgXuXdXlX|.|.` ` ` ` ` ` ` ` ` ` ` 9X",
"S S Z S S Z S S S S S S S Z S S Z S S Z S S S Z S S S S S S S S S S g S S S S S S S S S S g S S g S g S oXg S oXS 8 S S S Z S S S S S S S S oXoXjXpXdXmXrXG.J J J G.G.G.J G.b.b.b.b.s.s.j j C.N.N.N.n n N.n n n n n 8.n n n n N.N.N.N.C.C.C.,XIXIXt v.I.u.u.w.w.I.a.IX5X5Xj j C.N.n 8.n n n n 8.8.8.8.8.8.8.8.n n 8.Q.Q.v.Q.8.n n 8.Q.Q.v.Q.Q.8.n N.N.n n n n n 8.8.8.m   u ~ ~  X~ ~ R v IXmXuXjX:XoXoXoXS S S S 8 S g S S oXS S S g S g g g S S S oXoXoX:XjXpXdXZXJ.J.x <.<.].x 3 3 ~.3 3 3 3 3 x <._ k.A A A q.r.r.q.A A & f f f & & & & & A A A A & f A q.k.<.x x 3 3 x <.k.k.qX<.3 3 3 x k.A A A A f q._ _ r.q.A & & & f f e f & f f f W f f & & & & & & & & & & & & e e W ,.K &.&.( ( C C o o o o o c o * * * * * * * * o o o o o s s s s s s C C ( K K ,.D W e e e e ,.d.c * * * w * * w * c c * q * o s o o o q * &.A (.x 3 3 3 <.<.<.].3 XX3 3 3 3 x x x (.y.J.tXJ.ZXdXpXjXwXoXg g n.g n.g g n.g n.g g 8 8 g 8 g 8 8 8 8 8 8 8 8 8 8 8 8 8 8 8 8 8 8 8 8 8 8 8 8 8 8 8 8 8 8 n.wXjXpXMXdXZXZX} } } } HXHX} |.!.!.DXlXgXlXy.!.` ` ` 9X` ` ` ` ` ` ` ` ` ",
"S S S Z S S Z S Z S Z S Z S Z S S Z S S Z S Z S S Z S Z S S S S S S S S S S S Z S S S S S S S S S oXS S S S S S S S S S S S S S S S g S S :X:XoXpXdXmXrXrXG.b.G.J J J J s.s.s.s.s.s.j C.C.N.N.n n n 8.n n n N.n n n n 8.n n n n n N...N.N.N.,X,X[.a.I.u.u.w.w.w.u.{.IX5X5Xj C.N.n n 8.8.8.8.8.8.8.8.8.8.8.n n n n 8.Q.Q.{.Q.Q.8.8.Q.Q.v.v.Q.Q.Q.8.n n n n n 8.8.8.8.8.m R u u ~ ~ ~ ~ ~ 2.m IXmXuXjXjXoXoXoXS S 8 S S 8 S S S S S S S S S S S oXoXoX:X:XjXjXMXdXZXJ.y.<.<.k.qX<.x 3 3 3 3 3 3 3 x <._ k.q.A f f f A A & & & A A & & & & & & & A & A & & f f f q.k.<.x 3 x x <.q.q.k.<.3 x x x q.A f A A A A r.r.r.A & & & & & f f f e f f W f f & & & & & & & & & & & & & e W ,.&.d.c c c * o C o * * * o c o * * * * * o o o * * * o o * s s s s s C ( D >X>XD W e e e e e K d.c * * * * * i.* c c * q q q * s o C C * * K r.(.3 3 3 x <.<.<.<.3 3 3 3 3 3 x ] ] x x x y.tXtXZXdXpXjXoXoXn.n.n.g g g n.n.g g S g 8 8 8 8 8 8 8 8 8 8 8 8 g 8 g 8 S 8 8 8 8 8 8 8 8 8 8 g 8 p 8 8 g n.wXjXpXuXlXlXZX} } } } } } HX} HX} } !.DXDXL.y.|.` z.` ` ` ` ` ` ` -.-.-.-.",
"S Z S S Z S S Z S S S Z S Z S Z Z S Z S Z S Z S Z S S S Z S Z S S S oXS S S S S S S S S S S oXS S S S S S S S S S S S S S 8 S S S S g S S S :XpXMXmXrXrXrXG.b.G.G.J J b.s.s.s.j j C.C.N.N.U N.n n 8.8.n n n n N.n n n n 8.n n n n n n n N.N.8.t t v.I.u.w.w.w.w.u.{.IXSXrX5XC.N.N.n 8.8.n 8.n 8.8.8.8.8.8.n n n n n Q.v.{.v.Q.s Q.Q.v.v.3.Q.Q.Q.8.8.n n n 8.8.8.8.8.# m R u u u ~ ~ ~ ~ ~ ~ m IXmXuXpXjXoXoXoXS S 8 S S g g S S S S S S S Z S oXoXjXjXjXpXMXZXZXJ.~.3 <.k.k.E <.x 3 e.3 3 3 ] x x <.q.A A A f f f & f f & & A A & f & & & f & f & & f f f f f q.k.<.x 3 3 x <.k.k._ x 3 x x <.q.f f A A A & & A A & & & & f & f & & f & & f f & & & & & A & & & & & & & e e W K d.c * * * o w o o * q q o o C C C c o o o o o o * * o o o s s s s o C K >XvX>XD D W e e e W K d.c * * * * * * C c c * c c d.c o o o C * c ,.r.x 3 3 3 x <.<.<.x 3 x x x x ] <.<.'.] x 3 3 x x J.ZXdXpXjXoXoXoXn.g g g g n.n.g S g g g g g g g 8 8 g g g 8 8 g 8 8 8 8 S 8 8 8 8 8 8 8 S g 8 8 8 8 g oXoXjXuXlXlX!.} } } } } } } HX} } HX} HXNXOXOXy.|.` +.` 9X` ` ` ` ` -.-.-.-.",
"S S Z S S S Z S S Z S S Z S Z S S S S S S S S S Z S Z S Z S S S Z S S S Z S Z S S S S S S S S g S S S S S S S S S S S S S S S S 8 S S S S :X:XMXCXrXrXrXrXJ J G.G.b.b.s.s.s.j C.C.N.N.U N.N.N.n 8.8.8.8.n n N.n n n n 8.n n n n n n n n N.,X,Xt v.I.u.w.w.w.w.w.w.{.UXlXmXrXrX5XC.,X8.n 8.8.8.8.8.Q.Q.8.i.8.8.n n i.Q.3.I.I.v.v.v.v.v.Q.v.Q.Q.Q.8.8.8.8.8.8.k # m m ) R u u u u ~ ~ ~ ~ ~  X2.# IXmXdXpXjX:XoXS S 8 S g g g S S g S S S S S oX:XjXjXpXMXdXZXJ.tXy.~.3 <.<._ <.x x 3 3 3 3 3 3 x <.k.A f f & f f & A A & & & & & & & & & f & f f & f f f f f q.q._ <.3 3 3 x <.<.<.<.3 3 x <._ A f f f f f e e & & & e & & & & f & f & A & & & & A & & & A & & & & & e & vXe D &.c * * * * s o o o s q q o C ( ( ( C c o o o o o o * o o * o o o o s C ( K >XD K ,.>Xe e e D &.c * * * s q * c c c c d.K D D &.C o q o * d.W _ x 3 3 3 3 x <.x 3 3 x x x x <.k.k._ x 3 3 x 3 3 x J.ZXdXpXjXoXoXS g g n.g g S g g g g 8 g 8 g 8 g g 8 8 g 8 S 8 8 S 8 8 8 8 8 8 8 8 8 g 8 8 8 8 8 8 oX:XjXuXgXlX!.|.} } } } } } } } } } } } HXVXNXNX6X-X` 9X9X` 9X` ` ` |.-.-.e.e.",
"Z Z S Z Z S Z S Z S Z Z S S S Z S Z S Z S Z S Z S Z S Z S Z S Z S S S Z S Z S Z S Z S S S S S S S S S S S S S S S S oXS S Z S S S S S S oXoX:XMXCXrXrXrXJ J J G.b.s.j j j j C.C.N.N.N.N.U N.N.8.,X8.Q.8.8.n n N.n n n n 8.n n n n n n n ,X,Xt a.3.I.u.w.w.w.w.w.u.{.UXgXuXCXmXrX5X,X8.8.8.8.8.8.8.,X8.Q.8.8.i.8.Q.Q.v.I.I.I.I.3.v.v.v.v.Q.Q.Q.8.Q.8.Q.8.Q.Q.#   R R u u u R R u ~ u ~ ~ ~ ~ ~ u m ,XSXdXpXjX:X:XoXn.g S S g S g g S Z S oXoXoXjXjXpXMXdXZXJ.J.J.x x 3 x x x x 3 3 3 e.3 3 3 3 x <.q.f f f & f & & & & & f & f f f f & A & f e f f f A A q.k.k.<.<.x 3 3 x x <.<.<.x 3 3 <._ k.f f f f f f e e & e e f & & f & f A & & A & & & & A & & & & & & & & e e & & e W K d.c c o * s w o s * s o o C K K ( C c o o o o o o o * * o o o o s s o C ( K ( ( K >Xe vXe D ( c * * * q * * c c d.&.D & r.& K C q q * c &.A (.x 3 3 3 3 3 3 3 3 3 3 3 x x <.q.q.k.x 3 3 x 3 3 3 tXJ.ZXMXpXjX:XZ S g n.g g g n.g g g g g g g g g g 8 S 8 g 8 g 8 8 8 8 S 8 8 S 8 8 S g g 8 8 8 8 n.oXjXuXgXlX!.gX} } } } } } } } } } } } } } |.VXNXy.-X` 9X` ` ` ` ` ` ` -.-.-.e.",
"Z S Z Z S Z Z Z Z Z S Z Z Z Z Z Z Z Z Z Z Z Z Z Z Z Z S Z S Z S Z Z S Z S Z S Z S Z S Z S Z oXZ S oXS S oXS S oXS S S oXZ oXZ S S S S S S oX*.pXdXmXrXrXJ J G.G.b.s.j j j C.N.N.n n n N.N.N.n 8.8.Q.Q.Q.8.8.n n n n 8.8.8.8.8.8.8.8.8.,X,Xt a.{.I.u.w.w.w.w.w.w.u.{.UXuXcXpXMXdXmXSX,X8.8.8.8.8.Q.Q.Q.Q.Q.Q.Q.Q.v.3.I.I.I.I.I.3.3.3.Q.Q.Q.Q.Q.Q.Q.Q.m.m.#   R u ~ ~ ~ u u u u u u u u u ~ ~ ~  X~ ) ,XmXMXpXjX:XoXoXn.S S S g g oXS oXoXoX:XjXpXMXdXZXJ.tXJ.~.3 x x 3 3 x x x x 3 3 3 x x x x x k.q.f f & & e e & & e e f & & f & & & f f & f f & A q.k._ <.<.x x 3 3 x x <.<.<.x x x x <.k.q.f f A f f e e e & & e e & & & f & & & & A & & & & A & & f & & & & & e e e & e W ,.( c * w * o s o s o s * o C K K ( C * * * o o o * * * * o o o o s q q o C C C C ( D e & e D ( c * * * * * * * d.&.W r._ (.r.K c q q * d.D r.(.x 3 3 3 3 3 3 3 3 3 3 3 3 x <.q.q.q.<.x 3 x ] ] x x tXJ.ZXMXpXjX:XoXn.n.g S g g n.g g S 8 S 8 S 8 g g 8 g g g g g g g g 8 8 g 8 8 S g g n.n.g 8 p oXjXpXdXlXlXgX} } } } } } } } <X} } aX} } } VXVX`.y.|.` ` 9X` 9X9X` ` ` -.-.e.e.",
"Z Z S Z Z Z S Z S Z Z S Z S Z S Z S Z S Z S Z Z S Z Z Z Z Z Z Z S Z Z Z Z Z Z Z Z Z S Z S Z S S S Z S Z S S S S Z oXZ S S S oXS S S S S S :X*.:XpXdXCXrXrXb.b.J G.s.j j 5XC.N.n 8.n n N.N.N.n 8.Q.Q.Q.Q.Q.8.8.8.n 8.8.8.8.8.8.8.8.8.8.,XQ.v.3.I.u.u.w.w.u.w.w.u.I.I.UXuXkXjXjXjXuXmX5X8.i.8.8.8.8.Q.Q.Q.Q.Q.v.{.I.I.I.I.I.I.Y.Y.Y.Y.Y.m.m.# < <     2.~  X X~ ~ ~ ~ ~ u u u ~ u u u u u u u ~ ~  X X) ,XmXdXpXjXjXoXoXS S S S oXoXoXoX:XjXjXpXdXZXJ.J.J.x 3 3 3 3 x x x tX<.<.<.x x x <.<.<.<._ k.A A A A & & & & & e e & A A A A A f f A A A A A q.k._ <.x x x x x x x <.k.q.k.k._ _ _ k.q.A f A A & f & e & & & e e & & & & f A & & A & & & & & & & f & & & & & e e e & & e ,.( c c * * * s s s o o o o C ( ( ( c * * * * * * * * * o * C o o s q q o o * * c ( D e e e D ( c o o o o o * * ( >Xr.(._ r.e &.c * * c K A (.x x 3 3 3 3 3 3 3 3 3 3 3 3 3 <._ k.k.k.k.<.x x <._ _ (.x J.ZXMXpXjXoXoXn.g S S g g g S 8 S 8 S 8 g g 8 S 8 g g g g g g g g g g g g 8 8 oXn.S g 8 n.oXjXuXlXDX!.} } } } |.|.} } ` } <X} } } } |.!.`.`.6X` 9X9X` ` ` ` 9X` ` -.-.-.-.",
"Z Z Z S Z Z Z Z Z S Z Z Z Z Z Z Z Z Z Z Z Z Z Z Z Z Z Z S Z Z Z Z Z Z Z S Z Z S Z S Z S Z oXZ S Z S Z S Z S Z S S Z S oXZ Z S S Z S S Z Z oX:X:XjXpXMXCXCXrXG.G.b.s.j C.j C.,X8.8.8.n n n n 8.8.Q.Q.{.v.Q.Q.8.8.8.8.8.Q.Q.Q.8.8.8.8.,XIXQ.3.I.u.u.u.w.w.u.u.u.u.I.I.UXgXjXjX:XjXdXSX,Xk i.8.8.8.Q.Q.Q.Q.Q.v.3.I.I.I.I.I.I.Y.M.2.2.2.~ 2.~ R u 2.u ~ ~  X X X~ ~ u ~ ~ ~ u ~ ~ ~ ~ u u u u u u ~  X X~ m ,XmXdXpXjXoXoXoXoXoXS oXoX:X:XjXpXMXdXZXJ.J.x x x ] ] ] x x <._ k.k.k._ k._ _ k.k.k.k.k.q.A f A A & & & & & e e A q.r.r.q.A f f A A A q.A k._ (.x x x x x x x x <.k.A A A A q.q.q.A f f A A & & e e e e e & & & A A & f A & & & & & & & & & & f & & & & & & & & & e e ,.( c c * * * s * s * o o o o C C c * * * * * * * * * * * C o o s s q o o c o o c ( K >Xe >XK d.c o o o o o * * K vX(.r.e ,.( c c c c c D r.(.x x 3 3 3 x x 3 3 3 3 3 ] x x x x <.<._ <.x 3 3 <.E _ <.x J.J.ZXMXpXwXoXS g n.S g S g g g g S 8 S 8 g g 8 g g g g g g g g g g g g g g S oXS S n.8 8 oXMXdXlX!.|.} } } |.!.|.|.|.} } } } ` |.|.!.y.y.y.|.` ` ` ` ` ` ` ` ` ` -.-.-.e.",
"Z S Z Z Z S Z S Z Z Z Z S Z S Z S Z S Z S Z S Z S Z Z Z Z Z Z Z Z Z Z Z Z S Z Z Z Z Z Z Z Z S Z S Z S Z Z S Z S Z S Z Z Z Z S Z Z S S Z Z S oXoX:X:XwXpXMXdXCXrXs.j C.C.C.C.,X,X,X,X,XN.n n 8.Q.Q.Q.{.3.Q.Q.Q.,XIXIXIXIXQ.Q.IXIXIXSXSXUXa.I.u.w.w.w.w.u.w.u.u.w.I.I.IXgXcXjXjXMXmXIXk m k i.8.i.k # m.M.M.Y.I.I.u.w.u.8X8XM.2.~ ~ ~  X~  X~ ~ ~ ~ ~ ~ ~ ~  X~ u u u ~ ~ ~ ~ ~ ~ ~ u u u ~ u u ~  X X X~ < ,XSXdXMXjXjX:XoXoX:X:XjXjXpXMXdXZXJ.J.J.x 3 x x ] ] <.<.<.<._ k.k.q.q.q.q.q.q.q.q.r.q.A f f A A & & & & & & & A A r.r.q.A f f A A q.k.k._ (.x y.x x x x x x x <._ q.q.q.A A A A f f f A A & & & e e e e & & & & & A & A A & & & & & e & & & e & & & & & & & & e e e D &.c * * * o s s o s s o o o o * * * * * * * * o o C C C o * * s s q o o o o o c ( K >X>XD K C * q o o o * * c ( e r.e K d.c c c c c &.& (.x x x 3 x <.<.<.x 3 3 3 x x x x 3 3 x x <.x 3 3 3 <.<.<.<.x x J.J.ZXMXpXwXoXoXoXg S S S g S 8 S g g g g g g g g g g g g g g g g g g g 8 S 8 oXS n.g oXpXdXlXZX} } } } |.|.!.|.|.|.HX|.|.|.|.|.~.!.y.y.6X|.` ` 9X` ` ` ` 9X` ` z.-.-.-.",
"Z Z Z Z Z Z Z Z Z Z Z Z Z Z Z Z Z Z Z Z Z Z Z Z Z Z Z Z Z Z Z Z Z Z Z Z Z Z Z S Z S Z S Z S Z Z Z Z Z Z S Z Z Z Z Z Z S Z oXZ Z Z Z oXZ Z oXoXZ :XZ :XoXjXpXpXmXs.N.n b b N.N.,X5XSX5XC.N.N.n 8.Q.{.{.3.v.t IXSXDXlXlXUXV.IXSXmXlXdXuXgXV.I.w.w.w.w.w.w.w.w.w.w.w.I.V.lXcXcXuXCXIX8.m < v v v v m < 2.^.^.^.8XI.u.I.8XKX^.~ ~ ~ ~ ~ ~ ~ ~ ~ ~ ~ ~ ~ ~ ~ ~ ~ u u u u ~ ~ ~ ~ ~ ~ u u u u u ~ ~  X X X X X X~ i.5XCXuXjXjXjXjX:XjXpXMXdXZXJ.J.x 3 3 3 x <.(.<._ k.k.<.<.x <._ q.A f f f q.q.k.q.A f f & & & & & & & & & & A A A A A & f & A A k._ <.(.x x x x x x x 3 3 x <.<.<.<.k.q.A A f f f f & & & & & & & & & & e e e A q.q.q.A A e & & vXe vXe e e e & & & & & & e W W e e K d.* * * o q q o s s s s s o o o o o * q q * o ( ( ( C o q q q s s o o o o o C ( K >Xe >X( c q q q o * * c c C ( K &.d.c * c c c d.D r.(.(.<.x x <.k.q.k.<.x 3 3 x x 3 3 3 x x ] 3 XX3 3 3 x x x 3 3 3 x J.J.ZXMXpXjXoXoXS S g g g S S S 8 g g g g g g S g g g g g S g g g g g S S oX8 8 g oXjXMXZXlX|.} } } } |.|.|.|.} } } |.!.!.!.!.y.y.y.`.6X|.` ` 9X` 9X` ` ` ` ^ -.-.-.-.",
"Z Z Z Z Z Z Z Z Z Z Z Z Z Z Z Z Z Z Z Z Z Z Z Z Z Z Z Z Z Z Z Z Z Z Z Z Z Z S Z Z Z S Z Z Z Z S Z S Z S Z Z Z S Z S Z Z Z Z Z Z Z Z S S Z Z oXoXoX:X:X:XjXjXpXCXs.N.n n 4.n n IXSXlXdXCXmXmXrXSXSXUXUX{.v.t UXDXgXgXgXlXV.IXlXuXcXcXcXuXUXI.w.w.w.w.w.u.w.w.w.w.w.I.{.lXuXuXdX5X8.m < < m v v m ) R ~  XfX^.Y.I.I.8XKXfX X~ ~ ~ ~ ~ ~ ~ ~ u ~ ~ u ~ ~ ~ ~ u u u ~ ~ ~ ~ ~ ~ ~ ~ ~ u u u u ~ ~ ~  X X X X~  XR k IXmXuXpXcXpXMXMXdXZXZXJ.J.x 3 3 3 3 x <._ r.q.A q.k.<.x x <._ k.A f A k._ _ k.A & f & & A & & & & & e & & & A A & & e & A A r._ _ _ x (.<.<.x x x x 3 x x x x x <.k.A A & f f & & & & & & A A & & e & e & r._ _ _ r.A A A & e W D D D D W e & e e e e W ,.D W e D K ( C ( C o s o o s s s s o o o o o o o o o C ( K ( C o q o o o o o o o o o o ( K >X>XD ( o q q q q q * * * c c d.C c c * c c c d.e _ (._ _ _ <._ A A q._ <.x <.<.<.<.x x x x 3 3 3 x x x x x 3 3 3 3 3 x J.a ZXMXjXoXoXoXg g g g 8 8 g S g g g g g S g g g g g g g g g g g g S 8 S 8 S n.oXjXuXZXZX} } } } } |.|.|.} } } |.!.y.!.~.y.y.y.y.(.6X|.` ` 9X` ` ` 9X` ` ` ^ -.. -.",
"Z Z Z Z Z Z Z Z Z Z Z Z Z Z Z Z Z Z Z Z Z Z Z Z Z Z Z Z Z Z Z Z Z Z Z Z Z Z Z S Z Z Z S Z S Z Z Z Z Z Z Z S Z Z Z Z S Z Z Z Z Z oXZ Z Z :XoX:X*.:X:XjXjXpXpXMXmXs.C.N.E.N.b N.5XmXdXuXMXMXMXMXdXuXgXgXUXUXUXUXDXlXgXgXyXV.V.UXgXcXcXkXGXUX{.u.w.w.w.w.u.w.w.w.w.w.I.{.UXgXgXSX,Xv m < m < m m ) R u ~  X^.Y.3.I.I.KXfXfX X~ ~ ~ u ~ u ~ u ~ ~ u ~ ~ ~ ~ u ~ u u ~ ~ ~ ~  X~  X~ ~ ~ ~ u u ~ ~ ~  X X X X X~  X~ # 5XlXdXdXdXZXZXJ.J.J.J.x 3 3 3 3 x <.k.q.A & f A q.k._ <.<._ k.q.A k._ <._ k.A A & & & & & & & & & e & & & & A & & e & A & A r.q.k._ _ _ _ <.<.<.<.<.<.<.<.x x <.k.A A & f & & & & & & & & & & e e & e A r._ _ <.r.A A & e D ,.K &.&.&.,.W e e e e e W ,.K ,.D W D K K K K ( o o o o s s q q o o o o o o o o ( ( K ( C o * o C C o o o o o o C C ( D >XK C c C C c * * * * * * c c c c * c c c d.&.A _ (._ k.q.q.q.A A q._ <._ _ k.q.k._ <.x x x 3 x <.<.x x x x ] XX3 3 3 J.J.J.dXMXjXoXoXg g 8 8 S 8 S g S 8 g g g g g g g g S g g S g S g S g S S S g oXoXjXdXZXZX} } } } } } } } } } |.|.!.y.y.y.y.!.y.y.`.6X|.` ` 9X` 9X` ` ` ` ^ -.-.-.-.",
"Z Z Z Z Z Z Z Z Z Z Z Z Z Z Z Z Z Z Z Z Z Z Z Z Z Z Z Z S Z Z Z Z Z Z Z Z S Z Z Z S Z Z Z Z Z Z S Z Z Z Z Z S Z S Z Z Z Z S Z Z Z Z *.Z Z :X:XoXjXpXpXpXdXdXCXrXs.j 9 j j j 5X5XSXmXCXdXMXpXpXpXjXcXcXuXgXlXlXUXUXUXUXUXV.{.a.UXgXuXcXGXUX{.u.w.w.w.w.u.w.w.w.w.w.u.I.UXSXSXIXi.m m # m ) ) ) R u ~  X^.M.3.{.Y.M.^. X X~ ~ ~ ~ ~ u ~ ~ ~ ~ u ~ ~ ~ u ~ u u u u u ~ ~ ~ ~  X~ ~ ~ ~ ~ ~ ~ ~ ~ ~ ~ ~  X X X X X X  ( vXtXJ.J.J.J.J.J.3 3 3 3 3 x x <._ q.A A f f f & A q.r.r.k.q.A q._ (.<._ q.A A & & f f & & & & & e e & & & & & & e & & f A A A A k.k.q.q.k.k.k.k._ k.k._ <.x <.k.A A f f & & & e e & & & & & & & & e & r.r._ _ q.& & e D K &.d.d.c d.&.,.W e & e e W ,.&.&.,.D W D D >XK ( o o o o o s s q * * * * * * * o o C ( C o * o o C C o o o o o o o o ( K D K c C K D K ( C o * * * * * * * o o c c &.D r.(.(._ q.A A A A q.k._ _ k.q.A f A q.k.<.<.x x x <.<.<.x x x ] 3 XX3 3 3 J.J.a ZXpXjXoXS g 8 8 8 8 S S S g g g g g g g g g g g S g g oXg S n.S 8 S g oXjXpXdXZX|.} } } } } } } } } |.|.!.!.y.y.!.y.y.y.y.(.6X|.` ` 9X` ` 9X` ` ` ` ^ -.-.-.",
"Z Z Z Z Z Z Z Z Z Z Z S Z Z Z Z Z Z Z Z Z Z Z Z Z Z Z Z Z Z Z Z S Z Z Z Z Z Z Z Z Z Z Z Z Z Z Z Z Z Z S Z Z Z Z Z Z Z Z Z S Z oXZ Z Z *.:XjXjXpXMXdXCXCXmXrXrXG.b.b.P G.P G.P b.rXrXmXmXCXdXMXpXjXjXjXkXcXcXuXgXlXUXUXV.I.I.I.Q.IXUXgXgXsX1.#Xu.w.w.u.u.w.w.w.w.w.w.I.a.IXIX8.m m < m ) ) R R u ~ ~ ^.^.{.{.v.M.^. X X Xu ~ ~ u ~ ~ u ~ u u ~ u ~ u ~ ~ u u u u u ~ ~  X~  X X X~ ~ ~ ~ ~ ~ ~ ~ ~ ~ ~  X X X Xl * W r.x x x x 3 3 3 3 3 3 3 3 x <.<.q.A A A & f & & & & A A A A A k.(.x x _ q.A f & f f f f & & & & e & & & & & & & & & & f f A f f q.A A A A A A q.q.q.q.q.k.<.<.k.A & f f & & & e e & & e & & & & A & & A A q.q.A & & D &.d.d.d.c * * c &.D e & & & W ,.d.d.&.,.W W W W ,.( c * q s s s s o o o * q q q q q * o o o q q * o C C o o o o o s s q C K K ( * d.D vXr.>X( C o o o o q q o o o o c &.e _ (.(.k.A f f f A k._ _ r.q.A f f f A q.q._ <.x x k.k.<.x ] x ] ] ] 3 XX3 XX3 J.J.dXpXjXoXg 8 8 S S S S oXS S S S S g S g S g S S S g S g oXS g g g oXoXjXuXZXZX} } } } } } } } } } |.!.!.!.y.y.y.~.!.y.y.`.y.|.` ` 9X` 9X` ` ` ` ^ -.-.-.-.",
"Z Z Z Z S Z Z Z S Z Z Z Z Z Z Z Z S Z Z Z S Z Z Z S Z Z Z Z Z Z Z Z Z Z Z S Z Z S Z Z S Z S Z S Z Z Z Z Z S Z Z Z S Z Z Z Z oXS oXZ :XjXpXMXdXCXmXrXrXrXb.s.b.G.G.J J J G.G.G.G.G.G.b.b.rXmXCXdXpXpXpXjXjXcXkXkXuXgXUXV.{.{.I.I.I.V.UXUXsX1.x.#Xu.u.u.w.w.w.w.w.w.w.u.3.v.m.  ) ) ) R u u u ~ ~  X X^.Y.V.{.Y.^. X~ ~ u u u ~ ~ ~ u u u u u u u ~ u ~ ~ ~ u u u u ~ ~ ~  X X X~  X X~ ~ ~ ~ ~ ~ ~ ~ ~ ~ ~  X  w vX_ x 3 e.3 3 3 3 3 3 x 3 x x <._ k.q.f A A & & & & & f f f f f q._ x x (.k.A f f & & f f & & & & & & & & & & e & & & & & f f & f f A A f f f f f f q.q.A A q.<.<.r.A f f & & & & e e & & vXe & vX& A & e e & & e e e e ,.&.d.( ( c * * * d.,.e & & & & W &.d.&.,.W e e W K d.* q q q q s o o o o o o o o o o q o o q q q q o o o o o o o o s q q C ( ( ( q d.D r.(.r.K C o o o o q q s o o q * &.A (.(.(.k.A f f A q._ _ r.q.A & & f f f f f q.<.x x <.k.k.x x '.<.<.<.x 3 3 3 3 x tXZXMXjXoXn.8 8 S S S S S S S S S S S g S g S S S S S oXS S S S g g oX:XpXdXZX|.} } } } } } } } } } |.!.!.!.y.!.y.y.!.y.y.`.y.-X` 9X` 9X` ` 9X` ` ` ^ -.@ -.",
"Z Z Z Z Z Z Z Z Z Z Z Z Z Z S Z Z Z Z Z Z Z Z Z Z Z Z Z Z S Z Z Z Z Z Z Z Z S Z Z S Z Z Z Z S Z Z Z S Z Z Z S Z S Z Z S Z Z Z Z :XoXpXMXCXCXmXrXrXrXJ rXb.b.G.G.J J G.G.J J J J J J b.s.5X5XSXmXmXCXCXCXdXdXMXuXcXcXGXgXUXUXV.V.V.{.{.t.6 6 6 6 x.u.u.w.w.w.w.w.w.w.u.I.Y.M.^. X X>. X X X X^. X^.^.Y.{.{.I.^.fX Xu u u u u u ~ ~ u u u u u u u u u u ~ u u u u u ~ ~  X~  X~  X~ ~  X~ ~ ~ ~ ~ ~ ~ ~  X~ >.8.vX_ x x 3 XX3 3 3 3 x x x x x x _ k.q.A f f f & & & & & & & A f A q._ x x (.r.A f & A A A A q.A A & & & & & & & e & & & & & & & & f f A f f f f f f A k.k.q.A q.<.(.r.& f & & & & & e e & & e W W W W W e e e & & e e e W K &.&.K K ( c * c d.K W e & A A & ,.,.,.,.W e e D &.d.c c * * q o o o o o o o o o o o o o o o o q q o o o o o o o o o s o C ( ( C * c K vX_ r.K C o o o o q s o o s q * K r.(.(._ q.A A f A A r.r.q.A & & & A A & f f q._ x x <.k.k.x x (.<.k._ x x 3 ] 3 3 x tXdXpXjXoX8 S S S S S S S S S S S S S S S S S S S S S S S S g oXoX:XjXuXlXZX|.} } } } } } } } } |.!.!.y.y.y.y.y.y.y.y.y.`.`.-X` ` ` ` ` ` ` ` ` -.-.-.-.-.",
"Z Z S Z Z Z Z Z Z Z Z S Z Z Z Z Z Z Z Z Z Z Z S Z Z Z Z Z Z Z Z Z Z S Z Z S Z Z S Z Z S Z S Z Z S Z Z S Z S Z Z Z S Z Z Z Z :XZ :XpXMXCXmXrXrXrXJ J J J G.J G.J J bXJ J J G.J G.J G.s.s.j 5X5X5XSXrXrXrXrXmXmXCXdXuXcXcXuXgXgXlXUXUXV.{.#Xx.x.F t.#Xu.w.w.w.w.w.w.w.u.I.I.8X^.^.^.fX^.^.^.^.^.^.M.8XI.{.{.8XfX X Xu u u l u u ~ ~ ~ u R u R R u u u u u u u u u ~ ~ ~ ~  X~ ~ ~  X X~ ~  X~  X~ ~ ~ ~ ~ u k N _ x x 3 x XX3 3 3 3 3 x x x x <.r.A A & f f A & f f f f & f f f A q._ (.(._ q.& f & A A q.r.k.r.A A & & & & & e & & & & & e e & A & f A f f & f f & q._ _ q.A q._ _ q.& & & & & & & e e e e W ,.&.&.&.,.W e e & & W D D ,.&.( ( K K ( c * c d.&.,.W W & A A e W ,.W W e W ,.&.d.c c * * q q * o o o o o o o o o o o o o o o o o o o o o o o o o o o o C C C * * C K vX>XK C o o o o s o o o s q c ,.r.(._ r.A A A A A & A A A & & & & A A & f f A k.x x <.k.k.x x x <.k.k._ x x x 3 3 x tXZXMXpXoXoXS S S S S S oXS S S S S S S S S S S S S S S S oXS g oXjXcXdXlX!.} } } } } } |.} } } |.!.y.y.y.y.y.(.(.y.y.y.(.`.6X` ` 9X` 9X` ` ` ` ` z.-.@ -.",
"Z Z Z Z Z S Z Z Z Z Z Z Z Z Z Z Z S Z Z S Z Z Z Z Z S Z Z Z Z Z S Z Z Z Z Z S Z Z S Z Z S Z Z S Z Z S Z Z Z S Z Z Z Z S Z :X*.:XjXMXCXrXrXrXG.G.J G.G.G.b.G.J J J J J J G.G.b.b.s.s.s.s.9 C.C.5XIXIXIXC.C.5Xs.rXrXCXMXjXjXjXjXcXuXgXUXV.{.#X#X6 6 #Xu.w.w.w.w.w.w.w.w.u.I.I.8XKX8X8XKXKX8X8X8X8XI.I.{.{.8X^.fX X X~ ~ u u u ~ ~ ~ u u u u R u u u u u u u u u u ~ ~ ~  X~ ~  X~  X~  X X~  X~  X~  X~ ~ l b r.x x x x <.x 3 x 3 3 3 3 3 x x _ A e e e & & A & f f f f f f f f f A k._ _ r.A & & & & A r._ _ k.q.A & & & e e e & & & & & e & & & & & A & & & & f A r._ _ r.& & A A & & & & & & & & & e e W ,.&.d.).d.&.W e e & & D K &.( d.d.( &.( C * * c c d.K ,.D W & A & e W W e e W ,.&.&.d.d.c c q q q * o o o o q q o o o o q o o o o o o o q * o o o o o s o s o o o * * c K K ( C o q q s o o o o o o ( D r._ r.A f f A A f f & & & & & & & & & & & & A k.<.x <.k.k.x x x (.k.r.r.(.x x ] 3 3 x J.dXpXjXoXoXS S S S S S S S S S S S S S S S S S S S S S S S oX:XjXuXZXDX|.} } } } } } } } } |.|.!.y.y.y.y.(.(.(.y.y.y.`.y.6X` ` ` 9X` ` ` ` ` -.-.-.-.-.",
"Z Z Z Z Z Z Z Z Z S Z Z Z Z S Z Z Z Z Z Z Z Z Z Z Z Z Z Z S Z Z Z Z Z Z Z Z Z Z Z Z Z Z Z Z Z Z Z Z Z Z Z Z Z Z Z Z Z *.oX:X:X:XpXMXmXrXG.G.G.G.G.b.b.s.s.s.s.b.b.b.b.b.s.s.s.s.s.s.s.j j C.5X5X5X5XIXC.j s.s.j j rXmXMXwX:X:XoX:XjXuXUXV.I.w.#X#X#Xw.w.w.w.w.w.w.w.w.u.u.I.I.I.I.I.I.I.I.I.I.I.I.I.Y.8X^.fX X X X~ ~ u u ~ ~ ~ u ~ u u u u u u u u u u u u u u ~ ~ ~ ~  X X X~  X X X X X X X X X X X>.k D _ x 3 x <.<.<.x 3 3 3 XX3 x x <.k.& W e & & & & & & & & A A A A A A A A r.q.A & & & & & q._ (.(.k.A & & & & & e e & & & & & e & & & & & A & & & e f A r._ _ A W W ,.,.W e & & & e e & & & e W ,.&.d.d.d.,.e e W e e K ( c * * c C C C c * q * c d.&.&.,.,.W & e e e e & & & e ,.,.,.,.K &.d.c * o C C C o o o o o o o o o o C C C o o q q * o o s s s s s s o o s q q o c c c * * q * o o o o o C K W r.r.A f f f & & & f f & & & & & & e e & f & A q.<.x <.k.<.3 x x x _ k.r._ x x 3 3 x x J.ZXMXjXjXoXoXS S S S S S S S S S S S S S S S S S S S S S oXoXjXpXdXlXy.|.} } } } } } } } |.|.!.!.y.y.y.y.(.(.(.y.y.y.`.`.6X|.` 9X` 9X` ` ` ` ` ^ -.e.-.",
"Z Z Z S Z Z Z Z Z Z Z Z Z Z Z Z Z Z Z Z Z Z Z Z Z Z Z Z Z Z Z Z Z Z Z Z Z Z Z Z Z Z Z Z Z Z Z Z Z Z Z Z Z Z Z Z Z :XZ :XZ :XjXpXdXCXrXG.G.G.J G.b.s.s.j j s.j s.s.s.s.s.s.s.j j j s.s.j j j j j j C.j j j s.s.s.j 5XrXCXpX:XZ oX:X:XjXuXUX{.u.u.w.#Xw.u.w.w.w.w.w.w.w.w.u.u.u.w.u.u.I.I.I.I.I.8X8X8X8X^.fX X X X~ ~ ~ ~ ~ ~ ~ ~ u u u u u u u u u u u R ) ) ) ) ) R R ~ ~  X~  X X X X X X X X X X X~ >.i.r.<.3 3 x <.k._ x x 3 XX3 3 3 ] <.k.q.f & & & e e e & & A A A A A & & & & A & & e & & & A r.(.(.<.r.A f & & A & & e & & & A & & & & & & & & & & & e e & A r.r.A W ,.&.&.,.W & & & e e & & & & W ,.K &.&.&.,.W W ,.,.D K C c q * c * c c C * * * * c d.d.&.,.W & e e & & & & & & W W W W W D &.c * o C C C o o o o o o o o o C C C ( C o o * * o o o s s s s s s s s s q q * * * * * * * o o o o o ( K e & e W W W e f f f f f & & & & & & & & & & f A q.<.x <.k.<.3 3 3 x <._ _ <.x 3 3 ] 3 3 J.J.dXpXjX:XoXS S S S S S S oXS S S S S S S S S S S S S S oXoXjXuXlXy.!.|.gX} } } } } } } } |.!.y.y.y.y.y.y._ _ y.y.y.`.`.!.|.` 9X` ` ` ` ` ` -.-.-.-.e.",
"Z Z Z Z Z Z Z Z Z Z Z Z Z Z Z Z Z Z Z Z Z Z Z Z Z Z Z Z Z Z Z Z Z S Z Z Z Z Z Z Z Z Z Z Z Z Z Z Z Z S Z Z Z Z :XZ Z Z :XjXjXMXdXmXrXb.G.G.G.G.b.b.s.j j j s.j j j j j j j j j j j j j j j C.j j C.C.C.C.j j C.j C.5X5XCXpX:X:X:XZ :X:XcXgXUXI.u.w.w.w.w.u.w.w.w.w.w.w.w.w.u.u.u.u.I.u.I.I.8X8X8X^.^.^. X X X X X X X~ ~ ~ ~ ~ ~ ~ ~ ~ u R R ) ) m m v k 8.8.8.8.8.8.8.v m ) R >.~  X X X X X X X X X~ < d._ x x 3 <.k.k.<.x 3 3 x 3 3 3 3 x _ q.A A f f e e & & & & A & & & & & & & & e e W e & & A r.(.<._ A f f & & & & e e & & & A & & & & & & & & & & & f e & A A r.& e D &.d.,.W e & & e e & & A & W W D D ,.W W W ,.&.( K C C o q * o c * * C C * * * * c d.&.,.W e e e & A & & & & W W e & & W K d.c * o o o o o o o o o o o o C ( ( K K ( C o o o o o s s s s s s s s s s s q * * * * * o o o o o C K D e e W ,.=X,.W e & & f & & & & & & & & & & & f A q._ (.<.k.k.x x 3 3 x <.<.x x 3 ] 3 3 x J.J.ZXdXpX:XoXS S S S S S S S Z S S S S S S S S S S S oXZ oX:XpXdXlXy.|.!.|.} } } } } } } |.!.!.y.y.y.!.y.y.(.(.y.y.y.`.`.6X` ` 9X` ` 9X` ` ` ` z.-.-.e.",
"Z Z Z Z Z Z Z Z Z Z Z Z Z Z Z Z Z Z Z Z Z Z Z Z Z Z Z Z Z Z Z Z Z Z Z Z Z Z Z Z Z Z Z Z Z Z Z Z Z Z Z Z *.Z Z Z Z :X:XjXpXMXCXmXrXb.b.G.G.b.b.s.s.s.j s.j j j j j j j j j j j 5XC.C.C.C.C.C.C.C.N.N.C.N.N.,XN.,X,XIXSXCXpXjX:X:XZ Z :XjXgXUX{.u.u.u.u.u.w.u.w.w.w.w.#Xw.w.u.u.I.u.8XI.Y.8X^.^.^. X X X X X~ ~  X X~ ~  X~ ~ ~ ~ u u R ) m v i.8.n ,X,XC.5X5X5X5X5X5XIXIX,X,X8.k   >. X X X X X X X X Xi.W (.x <.<.<.k._ <.x 3 3 x x 3 3 3 x _ q.A f f f f & A A A f A f & A & & & & & e e e W W e & r._ k.q.f f f & & & e e e e e & & & & & & & & & & & & & & & & & & & & e W &.&.=XW e e e & & & & & e W W e e e & e D &.C C C o o o q o o * * * * c c c * c d.&.,.e e e W e & A & & & & f f & A A e D &.d.* q o o o o o o o o o s o C ( >X>X>XK ( C o s o s s o o s s s s s s s s q q q * c c * o o * c ( D W e e W ,.&.&.=XW e & e f & & & & & & & & & & f & q._ <._ q.q.<.x 3 3 3 3 3 3 3 3 3 x <.x x J.J.ZXpXjXoXZ S S S S S S S Z S S S S S S S S S oXS Z oX:XjXpXZXlX!.|.!.|.} } } } } } |.|.!.y.y.y.!.y.y.y.(.(.(.y.`.L.`.~.` ` ` ` ` ` ` ` ` -.-.-.e.@ ",
"Z Z Z Z Z Z Z Z Z Z Z Z Z Z Z Z Z Z Z Z Z Z Z Z Z :XZ :XZ Z Z Z Z Z Z Z Z Z Z Z Z Z Z Z Z Z Z Z Z Z Z Z *.:X:X:X:X:XjXMXdXmXrXrXG.G.G.G.b.s.s.s.s.j j j C.C.C.C.C.C.C.C.C.C.C.C.C.,X,XN.N.N.N.N.N.N.n ,X8.8.8.n ,XIX5XmXMXjX:X:XZ Z :XjXGXDX1.#Xu.u.w.u.u.u.w.w.w.w.w.u.w.u.u.I.8X8X8X^.^.^.fX X X X X~ ~  X X X X~ ~ u u >.R   m k 8.8.,X,XC.5X5X5Xs.b.b.G.b.G.b.b.b.P 5X5X5X,X8.  2.2.Q.Q.Q.Q.Q.k Q.( r.x <.'.<.E _ <.x x 3 3 3 3 x x <.<.k.q.A f f f A q.q.q.A f f A q.q.A & & & & & & e W W e & A q.q.A W f f & & e & & e e e & & & & & & & & & & & & & & & & & e e e e W ,.,.,.W & e e & & & e W D ,.W W W e e e K ( c o o q o o s s o o * q * c c c c c d.,.W e & e e & & & e & A A f f f A A & W D &.c q q o o o o o s s s s s o ( K >X>X>X>X( C o q s s o o s s s o s s q s q o q * c c * * * * c &.W e e e e ,.=X=X,.W e & e & & & & & & & & & & & f f A r._ q.A A k.<.x 3 3 3 3 3 3 3 x ].k.<.x J.J.ZXMXpX:XS S S S S Z S oXS S S S S S S S S S S :XZ :XjXcXuXZXZX|.!.!.|.} } } } } } |.!.!.!.y.y.y.!.y.y.(.(.y.y.y.`.`.|.` ` ` ` ` ` ` ` ` ` -.-.-.e.",
"Z :XZ Z :XZ Z :XZ Z :XZ Z Z Z Z :XZ Z *.Z Z Z Z Z Z Z Z Z Z Z Z Z Z Z Z Z Z Z Z :XZ Z Z Z Z Z Z Z Z Z Z *.:X:X:XjXpXMXCXmXrXG.G.G.G.b.b.s.j j j j j C.C.N.N.N.N.N.N.N.n N.n N.,XN.N.N.N.N.N.N.N.N.n n n n n n N.,XC.5XrXdXpX:X*.Z Z :XjXGXDXS.x.#Xw.w.u.w.w.w.w.w.w.w.w.w.u.I.{.I.8X^.fXfX X X X X X X X X X~  X~ u ) ) m v i.n ,XC.5X5X5Xb.b.b.G.G.G.G.G.rXG.G.G.G.G.G.G.b.b.vXIXQ.m.,XSXSXSXmXSXSXSXr._ x <._ <.<.<.x x x 3 3 3 3 x <.k.q.q.A f f f A q.k._ k.q.f f q.k.k.A & f & & & e e e e e & & A A A W f f & & & & & e e & & & & & & & & & & & & & & e & & & e W e & & W W W & A & e e e e W ,.&.&.,.D ,.,.,.K &.C o o o o o o s q o o * * * c c c c d.&.,.W e & & & & & e W e & A f f f & & & e W K C * o o o o o s s s s s s o C ( K K >X>Xp.( C q q s o s s s o o s s q q q o o * c c * * * * c &.W e e e & e W W W W & A & & & & & & & & & & & & & f & q.q.A f f q._ <.x 3 3 3 3 3 3 3 qXk.<.<.tXJ.J.dXpX:XoXS S S Z Z S S oXS oXS S oXS S S oXoX:X:XjXpXuXgXZX|.|.|.|.} } } } } } } |.!.!.y.y.y.y.y.y.y.(.y.y.y.`.`.(.!.` ` ` ` ` 9X` ` ` -.-.-.-.-.",
"Z Z Z Z Z Z Z Z Z Z Z Z *.Z Z *.Z Z *.Z *.Z Z *.Z *.*.*.*.*.Z Z Z Z Z Z Z Z :XZ Z *.Z *.*.*.Z *.Z Z Z :X*.:X:XjXpXdXmXrXrXb.b.G.G.b.s.s.j j j j C.C.N.N.n N.n N.N.n n n n n n n N.n N.n n n n n N.n n n n n n n C.,X,X5XmXMXjX:XZ Z :X:XcXlXS.t.#Xw.w.w.#Xw.w.w.w.w.w.w.w.#XV.UXUXt Q.9.2.2.2.~ ~ R     R u >.R ) m k 8.N.C.C.5X5Xs.b.b.G.G.G.G.G.G.G.J J J J G.G.G.G.G.G.G.G.G.5X,XQ.IXgXuXuXuXuXuXZX(.(.x <.E <.x x x x x 3 3 3 3 x <.q.A f f A f f A r._ _ k.q.& f q.k.r.A f f & & & e W W e & & e & & f f f & & & & & & e e & & & & & & & & & & & & & & & & & & & & e & & & e e & A & e W e W ,.&.d.&.K D ,.&.( ( C c o o o o o o s q o o * * * c c * c d.K D W e e & & & & & e & & A & & f f e e e e D ( o o o o o q s s s s s s o s o C ( K K K ( C q s s s s s s o o o o o q q o * * c c * * * c d.K W e e & & & e e e & & A & & & & & & & & & & & & & & & & A f f f A k.<.x 3 e.3 3 3 e.3 <.qX<.x x x J.ZXMX:XoXoXS Z oXS oXS Z Z Z Z oXoXoXoX:X:XjXcXuXuXgXlXZX} } |.|.|.} } } } } } } !.!.y.y.y.y.y.y.y.y.y.y.y.y.y.`.`.~.` ` ` ` ` ` ` ` ` ` -.-.-.-.",
"Z *.Z *.Z *.Z *.Z *.Z *.*.*.Z *.Z *.Z *.*.*.*.Z *.*.Z *.Z *.*.Z *.Z *.Z *.*.Z *.Z *.Z *.Z *.*.Z *.Z :XZ :XU.jXMXdXmXrXrXb.b.b.b.s.s.j s.j j C.C.N.N.n n n n n n n n n n n n n n n n N.n 8.8.8.8.n n n n n n n n N.N.,X,X5XCXjX:XZ Z :X:XcXgXsX1.#Xw.w.w.w.#Xw.w.w.w.w.w.w.{.UXgXgXlXSXSX5XIXIXIXIXIX5XIX,X8.k i.8.,XC.j s.b.b.b.G.G.G.G.G.G.G.G.G.J J J J J J G.J G.G.J J G.G.G.SX5X,XIXSXgXuXcXcXAXZXy.x x <._ <.x x x x x 3 x x 3 3 <.k.A f A q.q.q.r._ _ _ r.A & f A r.q.A & f & & e D ,.D e e & e e f f f A A & & & & e e & & & A & & & & & & & & & e e W W & & & & & & & & & e & & & e W e W ,.d.c ( K K K ( C c c o o o o s o o o * * o * * * * c * c d.&.,.W W e & e e e & & & & A & & & e e e e e D ( o o o o o q s s s s s o s o o o t C C C C s s s o s s s o o o C C C o o q q * * c c c c c d.,.W e & & & A & & & & A A & & & & & & & & & & & & & & & & f f f f A q._ <.3 3 3 3 e.3 3 3 <.3 3 x J.J.ZXMX:X:XoXS Z S oXS Z Z S S S oXoX:XjXjXcXuXgXlXDXDXlX!.} } |.|.} } } } } } } |.!.!.y.!.y.y.y.y.y.y.y.y.y.y.`.(.y.~.` ` ` ` ` ` ` ` ` -.-.-.-.~.",
"*.Z *.Z *.Z *.Z *.Z *.Z *.Z *.Z *.*.*.*.Z *.Z *.Z *.Z *.*.*.Z *.Z *.*.*.Z *.*.Z *.Z *.*.*.Z *.*.*.*.:XoX:X:XpXCXrXrXrXrXb.s.s.s.s.j j j j j C.N.n n n n n n n N.n n n n n n 8.n n n n 8.Q.Q.Q.Q.8.n n 8.n n n n n n n N.5XmXpX:XZ oX*.:XjXgXUXS.#Xw.w.w.w.w.w.w.w.w.w.w.w.{.UXGXcXcXcXpXpXMXuXdXuXuXuXuXmX5XC.C.5Xb.G.G.rXG.G.G.G.G.G.G.G.G.G.J J G.G.b.b.b.b.b.b.G.b.G.b.b.b.b.P vXIX8.k ,XSXdXuXZXy.x y.x <.<.<.x x x x x 3 x x 3 3 x _ q.A q.k._ _ _ _ _ r.A & f f & A A A & e & & W K &.K D e e & & e f A A A & & e e e e & & & & & & & & & & & e e W W ,.,.W W & & & & & & & & e W e vXe e W K d.c ( ( K ( C o o o o q q s q o o o * * o c * * * * * c c d.&.K D e & e W W & A & & & & & & e e e e >XK C o o o o o o s s s s s o o o s q q s s q s s o o s s s s o o o C ( ( C o * q * * * c c c d.&.,.e & e e & & & & & & & & & & & f f & & & & & & & & & & e & A A A A q.k.<.x 3 3 3 3 2X3 3 XXe.e.3 3 tXJ.dXjX:XS S Z Z Z Z S oXg g oX:X:XjXcXuXgXlXF.R.F.DX!.} } } } } } } } } } } } |.!.y.y.!.!.y.y.y.!.y.!.y.y.y.(.`.y.|.` ` <X` ` ` ` ` ` -.-.-.~.-.",
"*.*.*.*.*.*.*.*.*.*.Z *.*.Z *.*.Z *.Z *.Z *.Z *.*.Z *.Z *.Z *.Z *.Z Z Z *.Z *.Z *.Z *.Z *.*.Z *.Z *.:X:X:XjXdXmXb.b.b.b.j j s.j s.j j j j C.C.N.n n n n n n N.n N.n n n 8.n 8.n n n n 8.Q.t 0.Q.8.8.n 8.8.n N.N.n n 8.,X5XCXpX:XZ Z Z :XjXuXDXS.#Xu.w.w.w.w.w.w.w.w.w.w.u.I.UXgXcXkX:X:XjXjXjXcXcXcXuXdXmXb.s.b.G.G.G.G.G.J J G.G.G.G.G.G.J J J b.b.b.s.s.s.s.s.s.s.s.s.s.b.s.b.s.5X5X,X8.8.,X5XDX!.y.x x x ] <.x 3 x x x x 3 3 x x x x <.k.q.k._ (.(.(._ r.A & f f & & f & & & e e e K d.c d.K D W e & & & & & e W e e e e e & & & & & & & & & & & e e W ,.&.d.&.=X,.W & A A A & & W ,.W e e e D &.c c C C C C o * q o o q q o q q o o * * * c c * * * * * * c d.&.K W & & e e & & & & & e e e & & e e D &.C * o o o o o o s s s s s s s s q q s q s s o s s s s s s o o s ( K K ( C o o * * * c c c d.&.W & & e W W e & & e e e e e & f f f f & & & & & & & & & & & A & f f A q.<.<.x 3 3 3 x 3 3 3 3 3 3 3 J.J.dXpX:XZ S Z S S S Z S Z :X:XjXcXuXlXDXF.F.OXOXDX!.} } } } } } } } } } } } } |.!.y.y.!.y.y.y.y.y.y.y.y.y.`.(.(.~.|.` ` ` ` ` ` ` ` ` -.-.~.-.-.",
"Z *.Z *.Z *.Z *.Z *.*.Z *.Z *.Z Z *.*.Z *.Z *.Z Z *.Z *.Z *.Z *.Z Z *.Z *.Z *.Z Z *.Z *.Z *.Z *.Z *.*.*.oXMXCXrXb.b.b.s.j j j j j s.j j C.C.N.n n n n n n n n N.n N.n 8.8.i.8.8.8.n 8.8.t }.a.0.8.8.n n n n n N.n 8.8.,XrXCXjX:XZ Z *.*.:XuXlXsXt.#Xw.w.#Xw.w.w.w.w.w.w.u.I.UXgXcX:X:XZ Z oX:XjXjXpXdXmXrXG.b.G.G.G.G.J G.G.J b.b.b.b.b.b.b.b.b.b.s.s.s.j s.j j j j j j s.s.s.s.s.j 5X5XIXw w K r.y.x 3 x x x x ] x 3 x x 3 x 3 3 x x x x <._ _ (.x (._ r.A & & e e & & & & & & e e W &.c * c &.K D e & A & e W ,.W W W e e & & & & & & & & & & & & e & W ,.&.d.d.&.=XW e & A A & W ,.&.,.>X>XD K d.c c C o o C o o o o o q o o q q o o * * * o o * * * c c C d.( &.K ,.e e e e e e & & e W W W & e e >XK ( c q o o o o o o o s s s s s s s s s s s o o o s s s s s s s s s C K K K C o o c c c d.d.d.&.,.W A & e W W e & e e e e e e f f f f f f f & & & & & & & & & A f f f f q.k._ <.3 3 3 3 3 3 3 @ 3 3 x x J.ZXpX:XZ Z Z oXoX:X:X:X:XjXuXgXlXDXDXF.F.OXNXVXVXHX} } HX} } } } } } } } } |.|.!.y.y.!.!.y.y.y.y.y.y.y.!.(.`.y.|.` ` ` ` -.` ` ` ` ` -.e.-.-.-.",
"*.Z *.Z *.Z *.Z *.Z *.*.Z *.Z Z *.Z Z *.Z :XZ :XZ *.Z *.Z *.*.:X*.:X*.Z *.Z Z Z Z Z Z *.Z *.Z Z Z Z Z *.oXMXmXrXG.b.s.j j j j j j j j C.C.N.N.n n n n n n n n n ,X,X,X8.8.i.8.8.8.8.8.s t }.}.t C 8.n 8.8.8.n ,X8.8.8.IXmXMXjX*.*.Z *.*.:XcXgXsX1.x.#X#X#Xw.w.w.w.w.w.u.u.I.V.lXcX:X:XZ Z :X:XjXpXdXmXG.G.J G.J J G.J G.G.G.b.b.b.s.s.j s.s.s.s.j s.j j j j j j j j j j s.j s.s.j j C.9 9 N K >Xr.(.x 3 3 3 3 x x 3 3 3 3 3 x 3 3 x x 3 3 x <.<.(.(._ r.A e e & e e & & & & & & e W ,.&.c * c d.&.,.W & A & W ,.&.,.W W e & & e & & & & & & & & & & & & e W ,.&.d.&.&.,.W & A A e D &.d.&.K K ( C * * o o o o o o o o o o o o o o q * o o * * o o * * c C ( K K K K &.&.,.D W e e e e & e ,.,.D e F.e >XK ( o * o o o o o o s s s s s s s s s s s s o o s s s s s s o s s s C K K [.C o c c c d.&.K K K ,.e A & e e e & & e e e e e e & & A A f f f f & & & & & & & & f f f f f A q.k.<.x 3 3 3 3 3 x 3 x <.<.x J.ZXMXjX:X:XoX:X:X:XjXjXuXuXgXDXF.F.OXOXDXy.!.} } } } } } } } } } } } } } } |.!.y.y.y.!.y.!.y.y.y.y.y.y.y.`.(.~.` ` ` ` -.-.|.` ` ` ` -.e.e.-.-.",
"*.:XZ *.:X*.*.:XZ *.:XZ *.Z *.Z Z Z *.Z Z Z *.Z Z *.Z *.*.*.:X*.:X*.:X:X:X:X:X*.Z *.Z *.Z Z Z *.Z Z Z *.oXdXmXrXrXG.b.s.j j j C.C.C.C.N.N.N.n n n n n N.n n n n ,X8.,XC 8.Q.s Q.t 8.s Q.a.}.V.t s 8.n 8.8.Q.Q.s Q.Q.IXSXdXpX:X*.*.*.*.*.U.cXgXyXQ 6 x.x.x.#Xw.w.w.w.u.u.w.I.{.UXcX:X*.Z Z Z jXMXCXmXrXG.J J J J J J J J b.b.b.s.s.s.j j j j j C.j C.C.C.C.C.j j s.s.s.s.j j j s.s.j j 5X9 W vX_ (.x 3 3 3 3 3 3 3 x 3 3 e.3 x x x x 3 3 3 3 x x (._ q.A e e e & & e e & & & & & e W K d.c * c C ( K D e & e ,.&.&.,.W W e & & e e & & e & & & & & & & & & & W ,.,.,.,.,.W e & & W ,.&.c c d.( C * q q o s o o o o o o o o o C C o * * o o * * o o o o C ( K >X>X>XK ( d.d.K D e W e e e W K &.K >X>X>XK ( C o * o o o o o o s s s s s s s o o s s s s s s o s s s s s s s s C ( K ( o * * c c ( ,.>XW W W & A & & & & & & e e e e & & A q.q.q.A f f f & & & & & & & f f f A f A A A A k.<.x x x x x x 3 x <.<.<.tXZXuXjX:X:XjX:XkXcXuXgXlXDXF.F.DXNXVXVX|.|.} } } } } } } } } } } } } } } } |.!.y.y.y.y.y.y.!.y.y.y.y.`.y.`.(.|.` ` ` ` -.-.-.` ` ` ` -.e.e.e.-.",
"*.*.*.*.Z *.Z *.*.*.Z *.*.Z Z Z Z *.Z *.*.*.Z *.*.Z *.*.*.:X*.:X:XU.U.U.:X:X:X:X*.*.Z *.*.*.*.Z Z Z Z *.:XpXdXmXrXrXP 5Xj 5Xj C.C.C.,Xn n n n n n n N.n n n n n 8.8.,XC t 0.v.a.a.a.Q.7.a.V.V.a.Q.Q.8.Q.Q.v.a.t a.V.UXlXuXkX:XU.*.*.*.:X:XcXGXyXl.Q hXhX6 x.#Xw.w.w.w.u.u.I.{.UXuXjX:XZ *.:XpXdXmXrXb.G.G.J J J J J b.b.s.s.s.s.j j j j C.C.C.C.N.N.N.N.C.C.C.j j s.j j j j s.j j j j 9 9 & _ x ~.3 3 3 3 3 x 3 3 x x 3 3 3 x x <.x 3 3 x 3 3 x (._ r.A & e e e e e W W W e & & e D &.C c * * c C &.D e e W ,.&.&.W e & & & A e e e e e & & & & & & & & & & & e e W W W e e & e W W ,.&.d.c * * q q o o s s o s o o o o o C ( ( C o * o o q q o o o o C K K D K K ( C c c ( D >XW W e e e &.d.( D >XK ( C o o o o o o o o s s s s s s s s o o o s s s s s s o o o s s o o s o C C C o * * * c ( ,.W W e e & & & & & e & e W W W e & A r._ _ k.q.A f f A A & e & & & f f A k.k.k.A f A q.k.<.<.(.<.<.<.3 x <.<._ tXZXuXjXjXjXcXcXuXgXlXDXF.F.DXNXVX|.} } } } } } } } } } } } } } } } } } |.|.|.!.y.y.!.y.y.!.!.y.y.y.y.y.`._ y.` ` ` ` ` ` e.-.` ` ` z.-.e.-.e.-.",
"Z *.Z :X*.:X*.:XZ *.:X*.Z *.*.Z *.Z *.Z *.Z *.:X*.*.Z *.:Xi U.! U.! U.! U.U.U.U.:X*.*.Z *.Z *.*.*.Z *.Z :X:XpXMXCXrX5X5X5X5X5X5X5XC.,Xn n n n n N.n n n N.n n n 8.8.Q.,Xt t {.{.V.V.v.v.a.V.S.a.Q.Q.Q.Q.v.{.V.V.V.S.sXlXGXcXjXjX:X:X:X:X:XkXGXyXl.l.hXhXhX6 #Xw.w.w.w.u.w.u.I.UXgXcX:XZ Z oXpXCXrXrXG.G.G.G.G.G.G.J b.s.j j j j j C.C.C.N.N.N.N.N.N.N.N.n N.N.C.C.j j j j j j j j j 9 j f r.(.x 3 3 3 3 3 x 3 3 x <.<.x 3 3 x <.k.<.x x x x 3 x x <._ r.A & & e e e ,.,.,.,.W e W ,.d.c * * * * c ( K W e W ,.&.,.e & & & & A f e e W W W W e & & & & & & e e & & & & & & & & e e e W ,.( c * * * o o o s s s s s s o o o C ( K ( o o o o q q q o o o ( K K ( C C * * * c ( K >XD D >Xe >X&.d.C K K ( C o q * o o o o o s s s s s s o s s o s o o o o o s s o o o o o o o q q * c * * * c c * d.K W W W e & & e e e W W W ,.,.W W & A r._ _ _ r.A f f A A & e & & A A A q._ <.k.q.A f A q.k._ k.k.k._ x x <._ <.(.ZXuXcXcXcXuXgXlXDXDXDXy.VX!.|.|.} } |.} |.} } } } } } } } } } } } } } } |.!.y.y.y.y.y.y.y.~.y.y.y.y.y.E (.~.` ` ` ` ` ` e.-.` ` ` z.-.e.e.e.-.",
"*.*.*.*.*.*.Z *.*.*.*.*.*.Z *.*.:X*.:X*.:XU.:X*.:X:X:X:XU.! g._._.:._.:._._.g.U.U.:X:X:X*.*.*.Z *.*.*.*.*.*.:XpXdXmXrX5XrXrXmXmXSX5X,X,XN.n n n n n n n n n n 8.8.8.Q.t [.a.V.V.V.V.{.{.V.S.V.{.v.v.Q.I.I.{.{.{.{.S.l.sXDXgXuXuXcXcXjXjXkXcXGXyXH.l.hXhXhX6 x.u.w.u.w.w.w.u.I.V.gXcX:XZ :XjXMXCXrXrXG.G.G.G.J J G.b.s.j s.j j j C.C.N.N.n n n N.U N.n n n 8.n N.N.C.C.j C.j j j j j 9 9 vX_ x y.x 3 3 3 3 3 3 x <.k.k.<.3 3 x k.q.<.x 3 x x x x x (.<._ A & & & e W ,.&.&.&.,.W D K d.c o o q q c C &.>XW W ,.,.W & & & & A A & e e ,.=X&.,.,.e & & & & & e e & & & & & & & & & & & e W &.C o o o o o o s s s s s s o o o C ( ( ( C o o o o o o o o o C C C C C o * * * C K K K &.&.K D D K ( C C C C o o s o o o o o o o s s s s s s s o s o s q * o o o o o o o o C * o q q * * * * c c c d.&.,.W W e e e e W D ,.,.D D &.&.D W e A q.r.r.q.A A f & & & & & & & & A r._ _ (.k.A f f A A q.q.q.q.q.k.x 3 x <.<.(.ZXAXuXuXgXlXDXDXDXDXVX|.|.} HX} } } } } } } } } } } } } } } } } } } } |.|.!.!.y.y.y.!.y.y.y.y.y.y.6Xy.(.y.-.` ` ` ` ` ` -.-.` ` ` z.-.e.-.-.e.",
"*.*.*.*.*.*.*.Z *.Z *.*.*.*.*.:X*.U.U.U.U.U.U.U.U.U.U.U.3X_._.:.K.K.K.K.K.:.:._.3XU.U.U.:X*.:X*.*.*.*.*.*.*.:XjXMXCXmXCXCXCXdXdXCXSXIXIX,XN.n 8.8.8.n n n n n n 8.8.Q.Q.t [.V.{.V.t.t.{.t.S.{.{.3.v.Q.{.V.V.V.V.{.t.t.1.S.UXDXlXlXgXgXuXGXGXGXyXH.hXhXhXhXhXx.#Xu.w.w.w.w.w.u.V.lXuX:XZ :XjXpXCXSXrXb.b.G.J G.G.b.s.j j s.j j C.C.N.n n 8.n n n N.n n n 8.8.8.8.n C.N.C.C.C.j C.C.C.N W r.(.x x x x @ 3 3 x 3 x k.q.q.<.3 3 <.k.A k.x 3 x <._ <.(.x (.k.A f & & & e ,.&.&.&.K D D K c c o o q s o c ( D W W ,.W e & & e & & A & & W ,.d.d.&.,.W e & & & & & & & e W W e & & & & & & e D &.C o o o o o o o o o s s s s o o C C ( ( C o o o o o o o o s s s s s o o * * * C ( ( ( C C ( K K K ( o q q s s s s s o o o o o o o o o o o o s s o o * * * o o o o o * C ( ( ( C c c c c c c c d.d.K ,.W W e e e & e D K &.d.&.K ( &.D W e A A A A & & & & & & & & & e e & r._ _ _ k.A f f f & A A A A q.k.<.x 3 x ] x x !.ZXgXlXDXDXDXDXVX|.} } } } } } } |.} } } } } } } } } } } } } } } } } |.|.!.y.y.y.y.y.y.y.y.y.~.y.6Xy.`.~.` ` ` ` ` ` ` -.-.` ` ` -X-.e.e.e.~.",
"*.:X*.*.*.*.*.*.*.*.*.*.:X*.U.U.U.! g.g._._.g.g.3X3Xg._._.:.K.{ K.{ { K.{ K.K.:.:._.g.3XU.U.U.U.:XU.*.*.*.*.:X:XjXjXpXjXjXjXjXjXpXuXlXSX5XC.,X,Xw 8.n n n n n n 8.8.8.s s t a.3.I.{.I.I.{.I.{.I.3.v.t UXDXgXgXDXV.I.u.#X{.{.V.V.1.S.UXUXUXlXgXyX%Xl.hXhXhXhXx.x.#Xw.w.w.u.u.I.{.UXuX:X*.:X:XcXdXmX5X5Xb.G.G.b.b.s.j j j j j C.C.N.N.n n 8.n n N.n n n 8.Q.Q.8.8.n N.N.n N.N.N.N.N.%.N e _ x y.x <.<.3 3 e.x x _ q.q.qXx 3 x <.q.f k.<.<.<.k.q.q.q.k._ k.A f f & & e W ,.,.,.,.D W K c * o s s s o o C &.D W W W & & & e & & A & e W ,.&.&.,.D e & & & & & & e e D ,.,.W & & & & & e W ,.d.* * o o q q o s o o o s s q q o o o C C o o o o o o o o o s s s s s q q q q * * c c c c C C ( ( ( C o o q s s s q q o o o o o o o o o o o o o s o o * c C c c * q * c ( K K K K K &.( d.c c d.&.,.W e e & e & & A & ,.d.c c d.( d.&.W e & f A A A & & & & & & & & & e & & A r.r.r.q.A f f & & & A A k.k.<.x 3 3 3 ] ] y.(.DXDXDXDXDX!.|.} } } } } } } } } } } } } } } } } } } } } } } } } } } |.!.!.y.y.y.!.!.y.y.y.y.y.y.y.y.6X|.` ` ` ` ` ` ` -.-.` ` ` -.-.-.~.~.x ",
"*.*.*.*.*.Z *.*.*.*.*.:X:XU.U.3Xg._.:.:.:.:.:.:.:._.:.:.K.K.{ { { { { { { { { { K.:.:._._._.g.g.3XU.U.U.:X*.*.*.:X:X:X:X:X:XU.:XjXjXcXdXlXvXN b w b N.b n N.N.N.n n 8.8.i.s 7.4 3.3.3.3.3.{.3.3.4 Q.,XDXgXGXcXuXlXUX{.I.I.I.I.I.#X#Xt.1.l.sXsXH.l.hXhXhXhXhXhX6 #Xw.w.w.w.w.I.{.UXuX:X:X:XjXcXdXSXIX,X5Xb.s.s.j s.j C.j j j C.N.N.n n n n n n n n n 8.Q.Q.Q.Q.8.8.n 8.8.8.n ,Xn w n N vX(.x x <._ <.3 3 J.x <.k.q.k.<.x x <.k.q.f q.k._ k.q.A f A q.k.q.A f f & & & e W W W W e >XK c * q s s s o * c ( ,.W W e e e e e & & & e e e W ,.,.W & & & & & & & e e W ,.&.&.,.W e W e e e W K c * q o o q o o o o o o o s q q * o o o o o o o o o o o o o s s s o o s q * * c * * c ( ( ( C c C C C o o s s s s q q o o o o s s s s s s s o o q * * * d.&.( ( C C C ( K D >X>XW D D ,.K &.&.K ,.W e & & & & & & & e ,.d.* c.* d.d.K e & & f f & & & & & & & & & & & e & & A A A A A & f & & & & & A q.k.<.x 3 3 3 3 ] y.(.(.y.y.!.|.} } } } } } } } } } } } } } } } } } } } } } } } } } } } |.!.!.y.y.y.y.y.!.y.y.y.y.!.y.`.y.~.|.` ` ` ` 9X` ` ^ ` ` ` ` -.-.-.~.x tX",
"*.*.*.*.*.*.*.*.*.:XU.U.U.3X3X_.:.:.K.K.{ { K.{ K.K.K.{ { { { { { { { { { K.{ { { { K.K.:.:.:.:._.3XU.U.U.:X*.U.*.*.U.:X*.:X*.*.:XU.kXuXlXvXN b y b b N.E.N...N...n 4.i.i.i.k A.m.7.7.4 4 7.4 m.m.k 8.SXgXcXkXcXuXgXUXUX{.{.I.I.w.w.#X#X1.1.Q Q Q hXhXhXhXhXhXhXx.#Xw.w.u.u.I.I.IXgXjX:XjXcXuXlXIX8.n C.s.s.j j s.s.j j C.C.N.N.N.n n n 8.n n N.n 8.8.Q.Q.Q.Q.Q.8.8.8.8.8.8.8.w n w N P x 3 x <.k.k.].3 3 x _ k.q.k.<.x <.q.q.A f A q.q.q.q.f f f A k.q.A A A & & & e e e e e e >XK c o s q s s q q * d.K W e e e W e e & & e e & & e W e & A A & & e & e e e D &.d.d.&.,.,.,.W e e W K C * q o o o o o o o o o o o s o o o o o o o o o o o o o o o s s s o o s s o o c * * ( K K K C * c c o o o o s s s s o o q s s s s s s s s s o * q * * c ( ,.,.K K K K K D W e e e e e W W D D W W e & & & A & & & & e ,.&.* c.* c ( ,.e A A f f f & & & & & & & & & & e & & & & A & & e & A & & & f f A q.k.<.x 3 3 ] ] ] (.y.|.|.|.} HX} } } } } } } } } } } } } } } } } } } } } } } } } } |.|.!.!.y.y.y.y.y.!.y.y.y.y.6Xy.y.'.|.` ` ` ` ` 9X` ` ` ` ` ` ` -.-.~.J.tX_ ",
"*.*.*.*.*.*.*.*.*.U.U.U.g._.:.:.K.{ { { { { { { { { { { { { { { { { { { { { { { { { { { { { { K.K._.3XU.:XU.*.*.*.*.*.*.*.*.i *.*.:XkXuXlX>Xb y y I ..4.......4.4.> > V ;.;.;.H O.O.O.k k k k H H # k ,XmXuXjXU.kXcXuXgXUXUX{.{.I.u.w.w.#X#Xx.6 Q hXhXhXhXhXhXhXhXx.w.w.w.w.u.I.{.gXkXkXjXuXlXIXQ.i.,X5Xb.s.j j s.s.j j C.N.n n n n n 8.n n N.n n 8.8.Q.Q.Q.Q.Q.8.8.8.8.8.Q.,X8.i.w 9 _ x 3 x <.k.k.x 3 x <._ q.q.k.<.<.k.A A A A A A q.A A f f f A q.k.q.q.q.A & & e e W W W D D K c o o q s s q q * C &.W & & e W e e e e e e & & & e e & & e e e e e e e e W K d.c d.&.&.&.,.W e e D ( o o o o o o o o o o o o o o o o o o o o o o o o o o o o o s s s s s s o o o * q C ( >X>XK C * * o o o o o s s s o o s s s s s s s s s s s * * c d.d.d.&.W W W W e e W W e e e e e e e & & & & e & & & & & & & & & e W K c c * c &.D e & A & f f f & & & & & & & & & & & & A & & & e A & & & & & f f A q.q.k.<.x x 3 ] y.] !.} } HX} <X} } } } } } } } } } } } } } } } } } } } } } } } } } |.|.!.y.y.y.y.y.!.y.y.y.y.y.y.6X(.] |.` ` ` ` ` ` ` ^ ` 9X9X` ` -.-.-.-.x _ ",
"*.*.*.i *.i *.*.*.U.! g._.:.K.{ { { { { { { { { { { { { { { { { { { { { { { { { { { { { { { { { K.:._.3XU.:X*.:X*.:X*.*.*.:X*.*.*.U.kXgXSX,Xy I ..........N...4.> > > V ;.V > V V V V ;.O.;.;.i.;.O.k k 5XdXjXU.U.U.:XcXuXgXlXUXUXV.{.I.I.u.u.x.x.hXhXhXhXhXhXhXhXx.#Xw.w.u.u.I.{.lXcXkXuXlXIXQ.# i.,X5XP 5Xj j j j j C.C.N.n n 8.8.8.8.8.n n N.n 8.8.Q.v.Q.Q.Q.Q.8.8.Q.Q.8.8.w w %.A <.3 3 x <.k.<.x x <._ k.A A q.k.q.q.f A & & A A A A f f & q.r._ _ _ _ k.A & e e e W D &.&.K ( c o o s o s q * o c &.,.e & & e e e e W W e e e e e e e e W e e e vX& e vX>XK d.c c c c c &.,.W e D ( C * * o o o o s s s o o o o o o o o o o o o o o o o o o o s s s s s s s o * q q ( K >X>XK C o o q q o o o s s s o o o s s s s s s s q * * * C ( &.&.&.,.e e e e e e e e & & & e e e & & & & e f & & & f f & & & & & W K c c c C ( ,.D W e f & & & & & & & & & & & & & & & & & & & & A A & & f f A q.k.k.k.q.k.<.x 3 ] ] ] y.|.} } } } } } } } } } } } } } } } } } } } } } } } } } } } } } |.!.!.y.y.y.y.!.y.!.y.y.y.y.y.(.y.6X|.` ` ` ` 9X` ` ` ` 9X` ` ^ -.-.-.-.J.x ",
"*.*.*.*.i *.*.*.U.U.g._.:.K.{ { { { { { { { { { { { { { { { { { { { { { { { { { { { { { { { { { K.:.:.g.! U.*.:X*.*.*.*.*.:X*.*.*.U.kXlX5Xb y ....U U U U U ..4.> > > > V V > > > V ;.;.;.V i.Y V ;.;.k ,XmXpX:XU.U.:X:X:XjXcXuXgXlXUXUXV.I.u.u.#Xx.hXhXhXhXhXhXhXx.#Xw.w.w.w.w.I.UXGXuXlXIX8.< # i.,X5XvX5X5XC.5X5XC.C.,Xn 8.8.8.Q.Q.8.8.n N.n n 8.Q.Q.Q.v.Q.Q.Q.8.s 8.Q.Q.s 8.w N k.x 3 3 3 <.<.<.] x <.q.A & & A A A A f & & & & A A & & & A r._ (.(.<._ q.A & e & e e ,.&.d.&.( c * * q o o * o o o c &.D e e W e e W D ,.D D W W e e & e e e e >Xe e >X>X>XK d.c c c * * c &.D >XD ( C * * * o o o q s s o o o o o o o o o o o o o o o o o o o s s s s s s o o * * * ( K >XK ( C o q q q o o q s s s s o o s s s s s s s o * * * c K ,.D ,.W e & e W W W e & & & & & & & & & & e f f A A A f f e e e W W D &.c c * c ( &.&.,.W e & & & & & & & & & & & A & & & & & & & & & A & & e & q.k._ _ k.q.q._ <.x 3 ] ] ] |.} } } } } } } } } } } } } } } } } } } } } } } } } } } } } |.!.y.y.y.y.y.y.y.!.y.y.y.y.y.y.(.y.~.|.` ` ` 9X` ` ` ` 9X` ` ` ` -.e.-.-.-.e.",
"*.*.*.*.i *.*.*.U.g._.:.K.{ K.{ { { { { { { { { { { { { { { { { { { { { { { { { { { { { { { K.{ { K.:._.g.U.U.*.*.*.*.:X*.:X*.*.U.U.cXSX,Xw ..U U U U U U ....> > > ;.> ;.;.V V V ;.j.j.j.;.> Y V O.V ;.n SXdXjX:X:X*.U.U.U.kXkXcXcXcXgXUXV.I.u.u.x.Q hXhXhXhXhXhX6 #Xw.w.w.w.w.I.UXlXlXIX8.k # k i.n C.5X5X5X5XN C.C.,Xn 8.8.Q.Q.Q.Q.8.8.n n n 8.8.8.Q.v.v.Q.Q.Q.s s Q.s Q.8.s b 9 _ 3 3 3 3 x <.x ] <.k.A f & & & & & & & & e e & & & & & A r._ _ (._ _ k.q.& & & & & e D &.&.K &.c * * * o o o o o q * d.K K K ,.D W D ,.&.&.&.,.W e & & & e e e >XD K K D K ( C * c c * q * ( K K K ( C * * * o o o s s s o o o o o o o o o o o o o o o o o o o s s s s o s o o * * * C ( K ( C o s q q o o o o o s s s o s s s s s s o o * * * * C &.D W W e & & W ,.&.,.e & & & & & & & & & & f f & A A A f f e W W ,.,.K ( * * * * C d.d.&.,.W & & & & & & & & & & & A & & & & & & e & & & & & e & q.k._ _ q.A q.k.x x ] ] x y.~.|.} } } } } } } } } } } } } } } } } } } } } } } } } } } |.!.!.y.y.y.y.y.!.y.~.y.!.y.!.y.y.(.y.-X` ` ` 9X` 9X` 9X` ` ` ` ` -.-.-.. -.-.-.",
"*.*.*.*.*.*.*.*.U.g.:.K.{ { { { K.{ { { { { { { { { { { { { { { { { { { { { { { { { K.K.K.K.K.K.:.K.:._.g.U.:X:X*.*.*.*.*.U.*.:X:XkXuXSX,XE.U U U U U U ....4.> > > ;.> > ;.;.;.j.;.j.j.j.;.> > V V V ;.;.,XCXpX:X*.i i *.U.U.U.:X:XkXkXuXlXUXI.u.u.t.hXhXhXhXhXhXx.u.w.w.w.w.w.I.V.UXIX8.# k k v ;.i.n n ,XC.C.5XC.,XN.n 8.8.Q.Q.Q.Q.Q.8.n N.8.8.8.Q.Q.v.v.v.v.Q.Q.8.Q.Q.8.Q.i.b & <.3 3 3 3 3 ] x x <.q.f f e & & & & & & e e & & & & & & A r.r.r.k.q.A A f & & A & & & W W D ,.K d.c c c c o o o o q q * C C C d.K D K &.c c c &.D e e e e W e W K ( ( ( ( ( C o o o c o o o o ( ( K ( C * * o o o o s s s o o o o o o o o o o o o o o o o o o o s s s s s s s s * * * o C C C o o s s o o o o o o o o s s s s s s s o o o * * * q * ( K W e & & & W &.&.,.e & e & & & & & & & & A A A A f f f f f W ,.d.d.&.d.* * * * c c c d.&.W e & & & & & & & & & & & & & & & & e e e & & & & & & A q.q.q.A f q._ x 3 3 ] ] x y.|.} } } } } } } } } } } } } } } } } } } } } } } } } } |.!.!.y.y.y.y.y.y.y.!.y.!.y.y.y.y.y.(.6X|.` ` ` 9X` 9X` 9X` 9X` ` ` -.-X-.@ -.@ -.",
"*.*.*.*.*.*.*.U.U.g.:.K.{ { K.{ K.K.K.K.K.{ K.{ { { { { { { { { { { { { { { { { K.K.K.K.K.K.K.:.:.:.:._.! U.:X*.*.*.*.*.*.i :X:XU.jXuX5XN.E.U U U U U U ..4.> > > ;.> ;.;.;.j.j.j.j.j.j.j.j.;.V V ;.j.l l 8.mXuX:XU.i i *.*.*.i U.:X:XU.kXcXgXV.I.u.#Xx.hXhXhXhXhXt.u.w.w.w.#Xw.u.{.Q.Q.# v k v k v v v j.v 8.,X,XC.,X,X8.8.8.Q.Q.v.Q.Q.8.n n 8.8.Q.Q.v.{.3.v.v.Q.0.Q.t Q.Q.8.i.%.r.<.3 3 3 3 3 3 x ] E q.f & & e e e & & e e & & & & & & & A A A A A f f f f f & & & & & e & e W ,.K ( d.( c * * * * * * * * q q * d.( ( c * c.c ( D >X>XD D K D D &.c * * o o o o o C o o o s o c C ( C * * c o o o s s s s o o o o o o o o o o o o o o o o o o o s s s s s s s o o q q * * o o s s s o o o o o o o o o o s s s o o o o o o o * * q q c ( ,.e & & & ,.&.d.,.e & e e & & & & & & & A A A A f f f f f W &.).c d.d.c c * * * * c c &.W e & & & & & & & & & & & & & & & & & & & & & & & & & & A & A f f A _ x 3 x 3 ] x (.y.|.|.} } } } } } } } } } } } |.} } } <X} } } } |.|.|.!.y.(.(.y.y.y.y.!.y.y.~.y.!.y.y.y.`.y.~.|.` ` ` 9X` 9X` ` ` ` ` z.-.-.-.-.. e.-.e.",
"i *.*.*.*.*.*.U.U.g.:.K.K.K.K.K.K.K.K.K.K.K.K.K.{ K.{ { { K.K.K.{ { { { { { { K.K.K.W.K.W.:.:.:.:.:._.g.! U.*.i *.*.*.*.*.*.*.U.:XjXdX5XN...U U U U U U 4.> V > > > ;.;.;.j.j.j.j.j.j.l j.j.j.;.;.;.H l >.i.SXuX:XU.*.*.*.*.*.Z *.*.U.U.:XcXuXUX{.I.u.#Xx.hXhXhXhXx.u.u.w.w.w.w.I.Y.4 m.# k v ;.v ;.v j.R R   # i.8.8.8.8.8.Q.Q.Q.v.Q.Q.8.8.8.8.Q.Q.Q.v.I.{.{.v.v.0.Q.Q.Q.8.i.w N r.<.3 @ 3 3 3 3 x x _ q.A A e W D D W W W e & & & & & & & & & A A q.q.A f f f & & & & e e & e e W D K K &.C * * * o o o * * * * * c c c * * * d.K >XD K K &.( K D K d.c q * o o o o o o o o s o * c o * * * c o o s s s s s s s o o o o o o o o o o o o o o o o o s s s s s o o C o * q * * o o s s s o o o s q s o o o o s s s o s C o o o o * * * * * c K W e e & W &.&.,.e & e e & & & & e e W e & A A A f f f W W =Xd.d.d.( c c * * * * c c &.,.W & & & & & & & & & & & & & & & & & & & & & & & & f f f f A A f f k.x x x ] y.] (.y.|.|.} } } } } } } } } } } |.} } } } } } } } |.|.!.!.y.(._ (.(.y.!.y.y.y.!.y.!.y.y.y.y.`.y.6X` ` 9X` ` ` 9X` 9X` ` ` -.-.-.-.-.-.-.e.e.",
"*.*.*.*.*.*.Z :XU.g.:.K.K.K.K.K.K.K.:.K.:.K.K.K.K.K.K.K.K.K.K.{ K.K.K.K.K.{ K.K.:.K.:.K.:.:.:.:.:._._.g.U.*.*.i *.*.*.*.*.*.*.U.:XcXdX5XN...U U U U ....> ;.;.;.;.;.;.;.v j.j.j.j.l l l l l j.j.j.j.l >.>.# 5XdXkXU.*.*.*.*.*.*.*.*.*.*.:X:XcXgXUXI.u.#Xx.hXhXhXhXt.u.u.w.w.w.w.I.Y.M.# v v k v i.v v ) u ~ u >.    < <   < 9.M.Y.3.v.Q.Q.Q.8.Q.Q.Q.3.I.I.I.3.v.v.Q.Q.Q.Q.8.i.w N _ <.x 3 3 XX3 3 <.<.q.A A & W ,.&.K D W e e & & & & & & & & & A q.k._ k.A f f f & & e e e & & e e W W D K d.* * * o * * * o o o * q * * * c.* ( K D K &.( C c K K K ( c * o o C o o * o o o o q o * * * * * * * q s s s s o s s s o o o o o o o o o o o o o o o s s s s s s o C C o o * * * o o o s s o o s s s s o o s s s s s s o C ( C o o * * * c c d.K W e & & W =X&.,.W e & & e & & & W ,.,.W e & & & & & e e W ,.,.,.K &.( c * * * * c c d.,.W e & & & & & & & & & & & & & & e & & & A A & & A & f f f & & f f k.<.x x <.x (._ y.|.|.} } } } } } |.|.|.|.|.|.|.|.|.|.|.|.|.|.!.!.y.y.(.r.L.r.(.y.y.y.!.y.y.!.y.y.y.y.y.`.y.~.` ` 9X` 9X` ` ` 9X` ` ` -.-.-.~.~.J.J.J.tX",
"*.i *.i *.*.:X*.U.g._.:.K.K.K.:.:.:.:.:.:.:.:.:.:.:.:.:.:.K.K.K.K.K.K.K.K.K.K.:.K.:.:.:.:.:.:.:._._.g.U.U.*.*.*.*.*.*.*.*.*.*.U.:XpXdX5XN...U U U ....4.;.j.j.;.;.;.j.j.j.j.l l l l l j.l l l j.j.l >.>.R Q.SXdXkXU.U.*.i *.*.*.*.*.*.*.:X:X:XuXUX{.u.w.#XhXhXhXhXx.u.u.u.w.w.u.I.Y.4 # # k v v v v m ) R ~ ~  X~ ~ ~ ~ ~ ~ ~ ^.M.Y.3.v.v.Q.3.Q.3.3.3.Y.I.Y.3.v.Q.Q.Q.Q.8.Q.i.w D _ x 3 3 2X3 3 3 <.k.A f f W ,.&.d.&.,.W e e & & A & e & A & & A k.<.(._ q.f f f A & e e e e & & & W e e D ( c * * c * q * o C o s q q * * * * ( K K ( d.C c c ( K K ( c * * o * o o o * o o o o o o o c c * q q * o s s s o s q q q * o o o q q q q q q o o o s s s s s s s o o C C C o o o o o o s s s s s s s o o o s s s s s s o ( ( ( C o o o C d.d.K D W e & A e ,.&.,.W & & e e e & e ,.&.K D e e e e e e & e e W W W W D ( c o q q * c c c &.,.W e & & & & & & & & & & & & & e e & A r.A f & A A f f e & & f f q.<.x <.<.<.] (.(.!.|.} } } |.|.|.|.!.|.!.!.!.!.!.!.!.|.!.!.!.y.y.y.y.DX_ r.(.(.y.!.y.y.y.!.y.y.y.y.y.y.(.6X-X` ` ` 9X9X9X` ` ` ` ` -.-.~.~.x tXtXtXtXbX",
"*.*.*.i *.i *.:XU.! g._.:.:.:.:.:.:.:.:.:.:.:.:.:.:.:.K.:.:.K.:.K.K.K.K.:.:.:.:.:.:.:.:.:._._._.g.g.U.U.*.*.*.i *.*.*.*.*.*.U.U.:XcXdX5XN...U U U ..4.V j.l j.j.j.;.j.j.j.j.l l l l l j.l l l l >.>.>.  8.IXlXuXkXU.:X*.*.*.*.*.Z i *.*.U.U.:XcXlXV.I.u.x.hXhXhXhXx.#Xu.u.w.w.w.I.3.4 m.# # < # # < <   >.>.~ 2.~ ~ ~ ~ ~ ~ ^.fX^.Y.3.{.{.3.3.Y.Y.3.3.Y.M.M.Y.4 Q.Q.Q.Q.8.Q.8.w D (.x x 3 XX3 3 x <.k.A & W ,.&.d.d.K W W W e e e & & & A A f f A r.<.x x _ q.A f A & e e & & e & e W e e D &.c * * c * * o o o o s o o o c c * C ( ( d.c c * * ( ( ( c * * * * c C ( ( C o o o o q o C C C c * * o o s s s s o o o o q q q q q o o * * * o o o o o o o o o o o o C ( ( K ( C * * o o o o s s s s o s o o s s s o o C ( ( C o C ( K K K K D W e e & & & e W W e & & & & & & W ,.&.&.,.D e e e & & & & & e W W e >X&.C o o q o * * * d.&.=XW e & & A A A & & & & & & & & & A r._ r.f f f f f & & A A A A k.<.x <.k.<.x (.y.!.|.} } } |.|.!.!.!.!.y.y.!.!.!.!.!.y.!.!.y.y.!.y.y.y.(.(.y.y.y.y.y.y.y.y.!.y.y.y.y.`.y.~.z.` 9X` ` 9X` ` ` ` ` -.|.-.J.tXbXP P bXG.G.",
"*.*.U.*.U.*.*.*.U.U.g.g._.:._.:.:.:.:.:.:.:.:.:.:.:.:.:.:.:.:.K.:.:.:.:.:.:.:.:.:.:.:.:._._.g.3XU.U.U.U.U.*.*.*.*.*.*.*.*.*.*.U.:XjXdX5XN.........4.Y j.l l l j.j.v j.j.v l l l l R l l >.l >.  < k ,X5XSXlXuXjXU.U.*.*.*.*.*.*.*.*.i *.*.U.U.kXgXV.I.#Xx.hXhXhXhXt.#Xu.w.w.w.w.I.I.Y.m.9.9.# 9.m.m.m.M.M.M.M.^.^.^. X^. X X^.^.Y.{.{.{.I.I.Y.Y.Y.Y.M.^.^.^.2.2.9.    < < < # * D (.x x 3 2X3 3 <.k.q.A & W &.d.c d.,.W W W e & A A & e & & f f & q._ (.x <.k.A A f f & & & e & & e e & e W &.d.c c c * o * s o o o o o * * * * c C C o o o * * C C C * * c c d.( K K K C o o o o o o ( ( ( C o * o s s s s s o o o o C C C C o o * * * * * o o o o o o s C o s * C ( K >XK ( C o o o s o o o o o s s s o o s o o o C C C o o C K >X>X>XD W e e e e & & & & & & & & & & e W ,.&.d.d.d.&.K K D D W W e e e W W >XD ( o q o * o c * * d.&.,.W e & & A A & & & & & & e & & A A r.(._ A f f f & & & & & & A k.<.x <.k.k.'.x y.!.|.} } } |.!.!.y.y.y.y.y.y.y.y.y.y.!.y.y.y.!.y.y.y.y.y.y.y.y.y.y.y.y.y.y.!.y.y.y.y.y.`.~.` ` 9X` 9X` 9X` ` ` |.-.-.J.tXbXP P G.P G.G.",
"i *.*.U.*.*.i *.U.U.U.g._._._._.:.:.:.:.:.:.:.:.:.:.:.:.:.:.:.:.:.:.:.:.:.:.:.:.:._._._.g.! U.U.U.U.U.*.*.*.i *.*.*.*.*.*.*.*.:X:XjXMXrXN.N...I I 4.;.j.l l l j.j.j.;.;.j.j.l l u l >.>.>.  # 8.,X5XmXCXdXuXjXU.U.*.*.*.*.i *.*.i *.*.*.*.*.U.U.gXUXI.#Xx.hXhXhXhX6 #Xu.w.w.w.u.u.I.Y.Y.M.M.M.Y.Y.Y.Y.I.Y.I.8X8XM.^.^.^.^.^.^.3.{.{.{.{.I.8X8XM.^.^.~  X X X~ ~ >.u u u >.>.  i.W (.x x 3 3 3 3 <.k.A & e W K d.c d.,.W e W & A r.A e W W f f f f A q._ (.<.k.q.A f f & & e e & & & e & e W K &.c c * * * * o o o o s q q * * c C o o o o o o o c C C * * c ( K D D >XK C o o o C C ( K K ( ( o o s s s s o o o o o C ( ( ( ( C o * * * o o o o o o o o s o o s q C ( K >XD K ( C o o s o o o o o s s s s s o o o o o C o q o C K >X>Xe D W e e e e e e e & & & & & & & e D &.d.c c c C d.d.( K K K D W e D ,.K &.C o q o * o c c d.&.,.W W e & & & & & & & & & & e e & A q._ (._ q.& f & & & e e W W f k.<.x <.q.k.<.x y.!.|.} } } |.!.!.y.y.y.y.y.y.y.y.y.y.y.y.y.!.!.!.y.y.y.y.y.!.y.!.y.y.y.y.y.y.y.!.y.y.`.(.-X` 9X` ` ` ` ` ` -.-.-.J.J.tXbXP P G.G.J G.G.",
"i *.U.*.U.i *.i *.U.U.U.U.g.g._._.:._.:.:.:.:.:.:.:.:.:.:.:.:.:.:.:._.:._._._._._._.g.g.! U.U.:X:XU.*.i *.*.*.*.*.*.*.*.*.i *.*.U.:XpXmX5XN.n b w w ;.j.l l l l l l m ;.j.l l l l l >.< k 8.IXSXlXdXpXjXkX:XU.U.*.*.*.*.*.*.i *.*.i *.*.*.*.U.U.gXUX{.#X6 hXhXhXhX6 #Xu.w.w.w.w.u.I.I.Y.Y.Y.Y.Y.Y.8XI.u.u.I.I.I.I.8X8X8X8XI.3.{.{.{.I.I.8XKX^.^. X~ ~ ~ ~ ~ ~ u u u ~ ~ ~  X>.i.e (.x x 3 XX3 x <.q.A e W W K d.c d.,.W e & A r._ r.W =X=XW f & & f f q._ _ k.A A f A & f e e e & & e e e W ,.&.d.c * * * * * * o s s o o C ( ( ( C o * o * * o c c C c c d.K D >X>XK ( o o C C C C ( K K ( C o o s s s o o o o * o C ( K >XK ( o o o o o o o o s s s s s s s s s o C ( K >XK ( C o s s o o o o o o s s s s o o o s q o q q o C K D D D K ,.W e & & e e e e e & & & e e W K d.c c * * * * * C d.d.( K D D K &.( C * * * o q o C ( K D W & & & & & & e e e & & & & e & & A A _ (.(.r.A & & & e W ,.,.,.W k.<.x <.k.k.<.x y.!.|.} } } |.|.!.!.y.y.y.!.y.y.y.!.y.!.y.y.y.y.!.y.y.y.y.!.y.y.y.!.y.y.y.y.(.y.y.y.y.(.] -.` ` 9X` 9X` ` ` -.~.J.x tXbXP G.G.J J J b.b.",
"i *.*.U.*.i i *.*.*.U.U.U.U.3Xg.g._._._._.:._._._._._._._._._.g._.g._.g.g.g.g.g.g.! ! U.U.U.U.U.*.U.*.*.*.*.*.*.*.i *.*.i *.*.*.U.U.jXdXCXrX5X5X5XN ,Xk j.l l l l l j.j.j.l l l >.>.>.8.5XmXCXuXcXkXkXU.U.U.U.*.*.*.*.*.*.*.*.*.i *.*.*.i *.*.! uXUX{.x.hXhXhXhXhXx.x.u.w.w.w.w.w.u.I.I.I.I.I.I.I.I.u.u.I.I.I.I.Y.I.Y.Y.Y.3.{.{.{.I.8XKXfX^. X X~ ~ u u u u u u u u ~ ~ ~ ~ >.* e (.(.x 3 3 3 3 <.q.f W D W &.c c d.,.W e A A r.r.r.W =X=XW f f f f f A q.q.q.A f f A & f f e & & & e e e e W ,.&.d.c c o o * * * o o C K K D D K ( o o * q q o * * C c c ( K >XD K ( c o o C o o C K K K ( c * q s s s o o o o * o o ( K K K [.C o o o o s s s s s s s s s s s o o o C ( K K ( C s s s s o o o o o s s s o o o q q q o o o o o C ( ( ( ( &.,.W & & e e e e & & & & e e W K C c C o * o * * c c C C ( K K K C c * q o o o q * C &.D e & & & & & & & e e & & & & & & & & & A r.(.(._ r.& & e W ,.&.d.&.,.q.<.3 x <._ <.(.x !.|.} } } } !.!.!.y.!.y.y.!.y.!.y.y.y.y.y.!.y.y.y.y.y.!.y.y.y.y.y.!.y.(.DX(.(.y.y.y.y.y.-X` ` ` ` ` ` ` |.~.x tXtXbXP P G.G.J G.b.s.s.",
"*.i *.i i i i i i *.*.*.U.U.U.U.! ! g.g.g.g.g.g.g.g.! g.! ! ! ! ! ! ! ! U.! ! U.U.U.U.U.U.U.*.i i i *.i *.*.*.i *.i *.i *.i *.*.*.U.U.jXpXdXCXlXmXlXSX,Xv l >.l l l l l j.l l l l l >.IXlXuXcXjXkXU.U.U.U.:X*.*.*.*.*.*.*.*.*.*.*.*.i *.*.*.U.! uXUXt.x.hXhXhXx.hX6 x.#Xu.w.w.w.w.w.u.u.I.I.I.I.I.8XI.8XI.8X8XY.M.M.M.M.M.Y.Y.Y.Y.8X^.fX X X~ ~ u u u u u u u u u u ~ u ~ ~ >.w vX(.(.<.3 3 3 x <.k.& ,.K K d.c c &.,.,.W & & A r.A W ,.,.W e & & f & A A & & f f f A & e f & & & e W W e & e W ,.&.( ( C o * * q o C K >X>X>X>XK ( o * * q q o * * c * c ( K K &.( o q o o C o q C ( K ( C o * q s s s s s o o o o * o C ( [.( C o s s s s s s s s s 0.s s s o o o q o C ( ( ( o q s s s s s s o s s s s o s q q q q o C o o o o * c c c d.K W & & e e e & & & & e e e D K C c C o o o o o o o C C ( K K K C o * q o o o q q C K >Xe & & & & & A & & & & & & & & A A & & A r.r._ _ r.& e W ,.&.c c d.&.A <.x x x <.k._ (.y.|.} } } |.|.!.y.y.y.y.!.y.y.y.y.~.!.!.y.y.y.!.y.y.y.y.y.!.y.!.y.y.y.(.r.r.r.(.y.y.(.~.z.` ` ` ` ` ` -.~.x tXbXP G.G.G.G.b.b.b.s.s.s.",
"i i i U.*.i i *.i *.i i *.U.i U.U.U.! ! ! ! i ! i ! ! i ! i U.U.U.U.U.U.U.U.U.U.U.U.U.*.i *.i i i *.i *.i *.i i i i *.*.*.i *.i *.*.U.U.kXjXcXcXcXuXdXSX8.R l l l l l l l j.l l l >.u 5XdXkXU.:XU.U.U.U.*.U.*.*.i *.i i *.i *.i *.i *.*.i *.U.U.uXUXS.6 hXhXhXhXhXx.x.#Xu.w.w.w.w.w.w.u.I.I.8X8X8X8X8XKX^.^.^.^.^.^.^.2.2.9.M.M.M.^. X X~ ~ ~ ~ ~ u u u u u u u ~ ~ u u u >.  w e _ _ <.x 3 3 3 x _ e K d.&.d.d.&.K ,.,.,.W f & A A e W W e & & & e & & & & e & & & A & f e & & e W ,.,.W e & e W ,.K &.C * * * o o C ( K >X>XK ( ( o q q q * o * * c * c ( ( ( C c * q q o C o s o C ( C C * * o s s s s s s o o o * q o o C C o o s s s s s s s s 0.s s s o o o o q q o C C C o o o o q q q q s s q q o o o o o q s o C o o o o q * * o d.K D e e W e e e e e e e e >X>XK C o o o q q q q o o o C ( ( K ( C o o q o o o q q C K e e & e & & & A A & & & & & & & A A & & & A r.r.r.r.e D K &.C * q c &.e _ x x x _ q.r.r.(.!.|.} } |.|.y.y.y.y.y.y.!.y.~.y.y.!.~.y.y.y.~.y.!.y.y.y.y.y.!.y.y.(.DXr.F.F.DX(.(.`.~.` ` ` ` ` ` |.~.(._ P P G.G.G.G.b.b.s.s.s.j j ",
"*.i *.i i i i i *.i i i i i *.i *.i *.i i i i i i i i i i i i i i i i i i i *.i i i *.i i i i *.i i i i i i i i i i i i *.*.i i *.:X:XU.U.:XU.U.kXkXcXCX,X) l l l l l l j.j.l l l l R 5XdXkXU.:XU.*.*.*.i i i i *.*.*.*.i *.i *.i *.*.i *.*.U.U.uXDXQ Q hXhXhXhXhXx.x.#Xu.w.w.w.w.w.w.w.u.I.Y.Y.M.^.^.fX^. X^.~ ~ ~  X~ >.>.2.2.~ ~ ~ u u u ~ ~ ~ ~ u u u u u u u ~ u u R >.  i.>X_ _ _ x 3 3 x x _ e &.c c d.&.,.,.K &.&.,.W e & A & e e & & & & e e & & e W e & A A & & & & & W ,.&.&.=XW e e W D ,.&.c * c o o o C C ( ( ( ( C C q q * * o c o o c o o C C C C o o q q s o o o o o o o o * * o o s s s s o o o o o s s s s s s s o o s s s s s s s s 0.s o o o o o o o o o o o o o o q q q q o o q q o o o o o s s o o o o o o * o o o C &.D e e W W e W >XD D D >X>XD K C o o q q q q q o o o o C ( ( C o o s s s o s q * C K e e & & f & & & A & & & & & & & & & & & & & e r.r.& >XK ( C o q q * d.W _ x x <.k.A A L.r.y.|.} } |.!.!.y.y.y.y.!.!.y.y.y.y.~.!.y.~.y.!.y.!.!.y.y.y.y.!.y.y.(.r.F.F.F.F.r._ (.~.|.` ` ` ` -.x tXP P P G.P b.b.b.s.s.j j j j C.",
"i i i i *.i i i i i i i i i i i i i i *.i *.i *.i i i *.i *.i *.i *.*.i i i i i i i i i i i *.i *.i i i i i i i i i *.*.U.:X*.*.i *.U.i U.U.U.U.U.U.U.MX5Xv R l l l l j.j.l l l >.>.R IXdXcX:XU.i *.*.*.i i *.*.*.*.*.i *.i *.i *.i i *.i *.:X:XuXlXsXQ hXhXhXhXhXx.x.u.u.w.w.w.w.w.w.w.I.8XY.M.^.^. X X X X X~  X X X X~ u ~ ~ ~ ~ u u u u u u ~ ~ u u u u u u u u u R R >.>.i.,._ r.k.<.3 3 x x _ W d.* c &.D >X,.( c d.&.,.W e A & e & & & & & e e e e W ,.W e & & & & & & e W ,.d.d.&.,.W e W W ,.&.c * * o o o s q q q q q o o q q o o o o o o o o o o o C C o o o s s o o o s s q s * o * o o o s s s o o o o o o s s s s s s o o o o o o s s s s s s s s q * o o o o q o o o o o q q o C C C o o q q o o o s s s s q s o C c o o o C ( D W e W >XD K K K &.&.K K K ( C c q q o o o o o o o o o o q q q s s s s s s q * ( D e e & A A A A & & & & & & & & & f f & & & & e e F.>XK ( C c * s * * c ,.r.(.(._ q.f e e L.(.!.} } |.!.!.y.y.y.y.!.y.y.y.y.y.y.y.y.y.x ~.!.!.y.y.y.y.y.y.y.(.r.r.F.F.F.F.F.L.(.~.|.` ` ` |.J._ P P P s.b.b.s.s.s.j j j C.C.N.N.",
"i i i i i i i i i i i *.i i i i i *.i i i i i i i i *.i i i *.i i i i i i *.i i i i i i i i i i i i i i i i i *.i i i i *.U.U.i *.*.i i *.*.i *.U.U.U.jXmXn ) l l l l j.j.v j.l l >.>.,XlXcXU.U.i i *.*.*.i i *.i *.i i i *.i *.i *.i *.i *.U.U.uXgXsXhXhXhXhXhXhXx.x.#Xu.w.u.w.w.w.w.w.KX8X^.^. X~  X X~ ~ u u u ~ ~ ~ ~ u u ~ ~ ~ u u u u ~ u u u u u u u u u u u R R R R >.k K _ _ k._ x 3 x (.r.,.( c c K >X>X&.d.c c d.&.,.W & & & & e W e e e & e W K &.,.W e & & & & & & & ,.&.&.=XW f & & e ,.&.C * * * s s s s s q o o o o o o c c o o o o o o q o o o o o o o s s s s s s s q s o o * s s s s s s o o o o o s s s s s s o * * * o o o o s s s s s o s s o o o o q q o o o o o q o C ( ( ( C o q q q s o s s o o o o o o q s s q * C K >Xe >XD K d.C C c c d.( C C C * q * o o o o o o o o o o q s s s s s o o o q q C ,.e e & f f A f A A A & & & & A & f f A & e e W D D K C o o s s o o c c K A (.(.k.A & e e L r.!.|.|.!.y.y.y.y.!.y.!.y.y.y.(.(.(.(.(.x !.y.~.!.!.y.y.y.y.y.(.DXr.F.F.F.F.F.F.L.(.~.` ` ` |.J.tXP P vXs.s.s.s.s.s.j s.j j C.N.n n ",
"i i *.i *.i *.i *.i i i *.i i i i i i *.i *.i i i i i *.i i i i *.i i i i i *.i i *.i i i i i i *.i *.i i *.i i i *.i i U.i U.*.*.i i i *.*.i i *.*.U.jXCX5X) l l l j.v v v j.l l >.u 8.mXuXU.U.U.i *.*.i *.i *.i i i i *.i i i i i *.i *.i U.U.cXgXsXhXhXhXhXhXhXhXx.u.u.u.w.w.w.w.u.u.8X^.^. X~ ~ ~ ~ u u u u u u ~ ~ u u u ~ u u u u u u u u u u u u u u u u u u u R R >.  H %._ _ _ qXx <.k.q.e &.C o o K K K ( c c c * d.&.,.e & & e W ,.W W W e e ,.&.&.K W e & & & & & & & W &.&.,.W f A & e W ,.( C c * q q s s s s o o o o o o o o C C C C C o q o o o o o o o s s s s s s s s s o o * * o o s s s o o * * o s s s s s s o * w o * o * o * * * o o o o s s q o * q q q * o o q q o C ( K ( ( C o q q s o s s o o o o o o q q s q q c ( K >X>XD ( c * * * * c c * * * * q * o o o o o q q o o o s s o s s s s o o o * c K W e & f f f A f A A A & e & & & e & & e W D K &.( C c o o s s s o c * &.A (.<.k.A & e W e L.y.|.|.!.y.y.y.y.y.y.y.y.y.(.(._ _ (.(.(.y.y.~.y.y.!.!.y.y.(.(.r.F.F.F.F.F.F.e r.(.|.` ` |.-.tXbXP P s.s.j s.j j j j j j C.N.n n n ",
"i i i i i i i i i i *.i i *.i *.i *.i *.i i i *.i *.i i *.i *.i i i i i i i i i i i i *.i *.i *.i i i i i i i *.i i i i U.i i U.*.*.*.i i *.*.*.i i U.jXdXSX) R l l j.;.;.;.j.l l >.u # SXuXkXU.U.i i i *.i i i i *.i i i *.i i i i i *.i i U.U.cXgXsXhXhXhXhXhXhXhXx.u.u.u.w.w.w.u.u.I.8X^. X X~ u u u u u u u u u u u u u u u u u u u R u u u ~ ~ ~ u u u u u u u u u >.u R H b r._ <.<.x k.f =X&.c o o o ( ( ( o o * * * * d.&.W e e e W &.,.D W e W ,.K K ,.W e & & & & e e e e W ,.W W f A A f W D K ( C c o q q s s s o o q s o o o o C ( ( ( ( C o o o o o o o s s s s s s s s s * o o * * o o s s s o o * * * o s s s s s * o w o o s o * * * * o o o s 0.0.q o * o q q * * o q q s C ( K ( ( C o s s s o o s s o o o o o o o o o * * C ( K K K ( o * * * * * * * * * * * q * o o o o q q q q q q s o s s s s s s o * * ( D e & & f f f f f A & e W e & & e e e W D K d.c c c * o o o s s o o * &.r.(.(.k.q.& e W e F.r.y.!.!.y.y.y.!.y.y.!.y.y.y.(.r.r.r._ (.y.y.y.y.y.y.y.y.(.(.r.r.r.vXF.F.F.F.F.L.y.|.` ` ` -.tXP P b.s.j j j j j C.j 5XC.N.N.n n n ",
"i i *.i i i *.i *.i i i i i i i i i i i i i i i i i *.i i i i i i i i *.i *.i *.i *.i i i i i i i i i i i *.i i i i i i i *.i i i i i *.i i i *.U.U.U.:XuXSXm l l l j.;.;.;.j.l l >.>.< IXdXkXU.U.U.i i i i *.i *.i i i *.i i i i i *.i i i i U.cXgXsXhXhXhXhXhXhXhXx.u.w.u.w.w.w.u.I.I.8X^. X~ ~ u u ~ u u u u u u u R u u u u R u R u u u u u u ~ ~ u u u u u u u u u u u >.l y & _ (.x x k.=Xd.c q q o q o o o s q * * * * ( ,.W W W D ,.&.,.D W W e W W W W e & & & & & & e & & e e W e f f f e e e >XK K ( C s q s s o o o o o s s o C ( K K >XK ( C o s o o o o s s s o o o o o s s s * * s s o o o s s * * * o s s s s s * * w C o s o * C o s s s s q s 7.0.s o o q q q q o o q q q o C ( C C o o o o o o o o o C C C o o o q q o o * * c C C C o * * * * * * * * * o o * o * * o o o q q q q q q q o o o o q q s o o c ( ,.e e & f & f f & & & W D D e & e W D K &.&.c c c * * * o o s s o o c ,.r.x <.r.A & e e L L F.r.(.y.y.y.y.y.y.y.y.y.y.y.y.(.(.(.(.y.!.~.6Xy.VXy.y.DX(.r.r.F.F.F.F.F.F.F.F.L.y.|.` ` |.a tXbXP P s.j j j 5Xj C.C.C.N.n n n n n ",
"*.i i i *.i i i i i i *.i i i *.i i i i i *.i i *.i i *.i *.i *.i *.i i i i i i i i i i i i i i *.i i i i i *.*.i *.i i i *.i i i i i i U.i U.U.U.U.U.kXuXSXm l l j.j.V > ;.j.j.l l >.  ,XlXcX3XU.U.i *.i i i i *.i i i i i *.i i i i *.i i U.U.cXgXyXQ hXhXhXhXhXx.#Xu.u.u.w.w.w.u.I.I.8X^. X~ ~ u u ~ ~ ~ ~ ~ ~ ~ u u R u R u u u u u u u u u u u u u u u u u u u u u u u >.l O.N r.x 3 x k.f &.d.c c c q q o o o s o o o c ( K D ,.K K &.&.,.W W W W e e e e e & e e e e e e e e e e e & f f f e e e e >X>XK ( o q s o o o o o o s q s o ( K K >XK K C o s o o o s q q s o o o o o * o o o q s s o o o s s * * s s s s s s s o * o w * s s o o o s 0.0.0.0.0.0.0.0.0.o 0.0.0.s o o s q q s o o o s s o o o o o o s o C C C o o o q q o c * * * o o * * o * * * * * o o o o o o o * * o o o o o o q q q q o o o s s s o o o c d.K D W e e & & f f & e W ,.&.W e W ,.&.d.d.c * * * * * s o o s o o * c ,.r.(._ q.& e e e e W 6.>XF._ y.y.y.y.y.`.(.`.DX(.(.(.DX(.y.y.!.y.y.`.`.L.DXr.r.F.vXF.F.vXF.F.F.F.F.r.y.|.` ` ` -.J.tXP P 9 9 9 j 5XC.C.N.N.n n n n n n ",
"i i i i i i i i i i i i i i i i i i i *.i i i i i i i i i i i i *.i *.i *.i *.i *.i i *.i *.i i i *.i i i i i i *.i *.i *.i i i i U.U.U.U.U.U.U.U.kXkXkXdX5Xm l j.H V > Y > ;.;.j.l l >.8.SXuX3XU.U.*.i i *.i *.i *.i i i i i i *.i i i i i i U.kXgXyXl.hXhXhXhXhXx.#Xw.w.u.u.w.w.u.I.I.^.^. X~ ~ u u ~ ~ ~ ~ ~ ~ ~ ~ u u u u u u u u u u u u u u u u u u u u u u u u u u u u >.H b A (.3 x <.q.& D D K ( * * o C C o o o o o C ( ( ( C ( &.&.,.W D ,.,.D e e e e e W W W e W W W W e e e e e e e e e e e F.>XK ( o q q o o o o o o s q q o C ( K K K [.C o s o o s s q q q s o o o o o o o o s s s s s s s s * * s s s s s s s o C w c * s s s 0.0.0.0.0.0.0.0.a.a.t t t t 0.0.s s o o s s s s s s q s o o o o o o s o o C C o o o q q o c * * * * * * o o o o o o o o o o o o o q * o o o o o o o o q q q s o o s s o o o o c C ( K W e e & & f f e f ,.&.&.K D K &.d.c * * q q q q q * o o o o * q c D r._ k.A f e & & e >XK &.6.L.y.y.y.y.`.L.L.F.L.r.r.DX_ (.(.y.y.`.DXOXL L F.F.F.F.F.A F.F.F.F.F.F.A L.y.` ` ` ` |.~.x _ r.vXvXvXvX5XC.,XN.n n n n n n n ",
"i *.i *.i *.i i *.i i i i i i i i i i i i i i i i i i *.i *.i *.i i i i i i i i i *.i i i i i i i i U.i U.i i i *.i *.i i U.*.U.U.U.:XjXjXjXkXjXkXkXkXcXlX5X< j.j.;.;.V V ;.;.;.H l l >.k 5XdXkXU.U.*.*.i *.*.i *.i i i *.i *.U.i i i i i i i U.kXGXyXl.hXhXhXhXhXx.#Xw.w.w.u.u.u.u.I.I.^.^. X~ ~ ~ ~  X~ ~ ~ ~ ~ ~ ~ u u u R u u u u u u u u u u u u u u u u u u u u u u u u >.l k N _ x 3 x <._ r.r.e K c * c C o o s s s s o o o o o C ( ( K ,.&.&.&.K W e W D D ,.K ,.W W D ,.,.,.D D W W e & & & e e >X>XK ( o q q o o o o o s s s s o o o C C C C o o s o s s s q q q s s o o o o C C C o o o o q q q q * * o s s s s s s o o c C o s s 0.0.0.a.a.a.V.a.V.a.V.V.}.}.a.a.0.0.s s o o o s s s q q s s o o o o s s q o o o o o o o o o o o o o o o o o o C o o o o o o o o o q q o o o C o o o o o o q q s o s s o o o * o c * c &.D e e & & f f e e D K &.&.&.( d.c * q * * * * q * o o o o o q q d.W r.k.A A & e & & e e K d.&.W (.y.y.`.L.L L L F.F.F.F.F.r.(.(.DX`.OXR.}.}.R.G F.F.vXF.F.F.F.F.F.F.F._ ~.` ` ` ` ` ~.x (._ r.r.r.r.P vXC.,Xn n 8.n n n n ",
"i i i i i i i i i i i i i i i i i i i i i i i i i i i i i i i i *.i *.i *.i i *.i i i i *.i i i i i i *.i *.i i i i U.U.U.U.:XjXjXpXMXMXdXdXMXMXuXuXuXdXmX5Xi.O.V $.V V ;.;.;.;.j.j.>.>.< ,XmXuXkXU.U.*.*.i *.i i i *.*.i i i *.i i i i i i i U.kXGXyXl.hXhXhXhXx.x.w.w.w.u.w.u.w.u.I.8XM.^. X~ ~ ~ ~  X X~  X~ ~  X~ ~ u u u u u u ~ ~ ~ ~ ~ u u u u u u u u u u u u u ~ ~ u R R   b & (.3 ~.3 x (.(._ e d.c.* c * q s s s s s s s s s o C C ( ( d.* c ( D >XK &.( ( ( &.D W D ,.K K K &.&.,.,.W e e e >XD K ( C o q q q o o o s s o o o o s s s s o o s s s s s s s o o o o s o o o o C C C C o o o * * * q * o o o s s s s s s o w C o o s 0.v.a.{.V.V.V.V.S.S.S.V.V.V.V.a.0.0.s s s o o o o s s s s s s s s o s q q o o o o q o o o o o o o o C o o * o o o o o s o o o o o s s o o o C C o o o o o o q q q q s o C o q * o * * ( D e e & & & e e & W ,.&.d.c c c c * * c C C o * o o o s o o q q ( e r.q.f & f f e e e e 6.d.d.&.r.y.NXNXOXR.R.G L F.L F.F.F.F.F.L.F.R.}.v.a.}.G F.G F.F.vXF.F.F.F.F.r.r.~.` |.-.-.-.~.~.x (.(.(.x J.tXr.vXN ,Xb n n n n n ",
"*.i *.i *.i i i i i i i i i i i i i i i i i i i i i i i i i *.i i i i i i i i i i i *.i i i i *.i *.i i i i i i i i U.U.:XkXjXMXdXmXmXrXrXrXrXrXmXmXmXtXP 5X%.%.%.E.I 4.Y V ;.;.;.H l l   k IXCXcXU.U.U.*.*.i i i i U.*.i i i i U.i i i i i i i kXGXyXl.hXhXhXx.x.#Xw.u.w.w.w.u.w.u.I.I.M.2.>.~ ~  X X X X X X~ ~ ~ ~ ~ ~ u u u u u ~ ~ ~ ~ ~ u u u u u u u u u u u u u u ~ u u u >.k %.r.(.3 y.] x x (.r.&.d.c.* * q * o o s s s s s s s o o C C * * * C K D &.d.c * c d.K D K ,.,.K &.d.d.d.d.&.,.D >XK K ( C o o q q q q o o o s s o o o o s s s o o o s s s s s o o o o o o o o o o C C C o o o c c c o q o o o o * * * s s s s o o o s 0.0.a.{.V.V.S.S.1.1.1.1.S.S.S.V.V.a.0.s s s s o o o o s s s s s q o o o s q o o o o o o o o o o o o o o o q q o o o o q q q o o o o o o o o o o o o o o o o o o q q q s o o o q q * * c ( D W W e & & e & & e D &.c * * c c o C ( K ( C o o o s s o o o c K & r.A f f & & e e e & D &.c d.W `.y.OXR.}.}.R.F.F.F.vXF.r.F.F.F.R.}.a.Y.v.}.R.F.F.e F.F.F.F.F.F.F.F.L.~.` -.-.-.-.e.e.~.~.~.~.~.~.!.tX_ r.vX9 N %.b b n ",
"i i i i i i i i i i i i i i i i i i i i i i i i i i i i i i i i *.i *.i i i *.i i i i *.U.U.U.i U.*.i i i U.U.U.U.U.U.U.jXuXdXCXmXrXrXG.G.G.G.b.G.G.G.G.P P P s.j j j j C.%.b I I w i.k < m 8.SXuXkXU.U.U.U.*.i i i U.*.i i i i i i i *.i *.*.U.kXGXyXQ hXhXhXhXx.#Xw.u.w.w.w.w.w.u.I.I.M.2.>.u ~  X X X X~ ~ ~  X~  X~ ~ ~ u u u u u ~ ~ ~ u u u u u u u u u u u u u ~ ~ ~ ~ u u u l i.K r.(.y.] x ] x _ W &.&.d.c * * * * * s s s s s s s o C C o * * c K K ( c * * * c ( ( K K D K K ( d.c c d.&.K D K ( c * q o o q q q s o o s s s o o o o o o o o o s s s s s o o o o o q q o o o o o o q q q o o o s s s s o * * * * s s s s s o s s 0.a.a.V.S.1.1.1.6 6 6 6 1.1.S.S.V.a.0.s s s s s s s s s s s s s q s o o s s o o o o o o o o o o q q o o q q o C C C C o o o o o o o o o o * * o o o o o o o o o o o o o o o * q * o C ( K K ,.,.W e & & & & e ,.&.c * * * * o C K >XK C o o o s q o o o C D & r.& W e & & & e e & W &.c c.=XL.`.OX}.{.{.}.G F.F.L.vXF.F.F.F.R.}.3.8X3.a.R.F.F.F.F.F.F.F.F.vXF.F._ ~.` -.-.e.e.e.-.~.~.~.~.~.~.~.~.y.(.(._ r.vX9 N %.",
"i *.i i i i i i i i i i i i i i i i i i i i i i i i i i i i *.i i i i i i i i i i i i i i *.i U.i U.i ! U.U.U.U.U.U.kXcXuXCXmXrXb.G.G.J J G.G.G.G.J J G.G.G.G.P G.P G.P b.s.j j j j 9 %.i.< m IXdXcXU.U.U.U.i i i i i U.i i i i U.i i i U.i i i kXGXsXQ hXhXhXhXx.x.u.u.u.u.w.w.w.w.I.I.M.2.>.>.~  X X X~  X X~ ~ ~ ~  X~ ~ ~ u u u u u ~ ~ u u u u u u u u u u u u u ~ ~ ~ ~ ~ ~ u >.< i.K r.(.y.] x (._ A f W ,.K d.c c * * q q s s s s o o o o o o * c ( K ( c * * * * c C ( &.K K K ( C c * c ( K >XK C * q q o o o q q s o o o s s s s o o o o o o s s s s s s s s s q q q o o o * * * * q q s 0.0.0.0.0.0.s s * * * * s s 0.0.s s s s 0.a.V.S.1.1.F 6 6 6 6 x.1.1.1.S.V.a.0.0.s s s s s s s s s s s s s s o o s o o C o o q o o o o o q q q q q o C ( ( ( C C o o o o o o o o o * * o o o o o o o o o o o o o o s q q * o C ( K K ( &.,.e & & e e W K d.c * * * * o C K >XD ( o * o o q o o C ( >X& & W W W e & e e e e ,.&.c.c.d.L L.OXV.I.I.a.R.F.F.F.r.F.F.F.F.R.V.3.KX3.a.G F.F.F.e F.F.F.F.F.F.F.L.y.|.-.-.-.e.-.-.-.-.e.~.e.3 e.~.~.~.~.J.y.(._ vXe ",
"i i i i i i i i i i i i i i i i i i i i i i i i i i i i i i i i i i i i i i i i i i U.U.i U.U.U.U.U.U.U.U.U.3XU.kXjXpXdXmXrXb.G.G.G.J J J J J J J J bXJ bXJ bXJ J J J G.G.J J G.G.G.G.P %.i.< 8.SXuXkXU.U.! *.i i i i *.i i i i i i i *.U.i i U.kXgXsX1.hXhXhXhX6 x.#Xu.u.w.w.w.w.u.u.I.M.2.>.>.~  X X~ ~  X~ ~ ~ ~  X~  X~ ~ u u u u u u u u u u u u u u u u u u u ~ ~ ~ ~ ~ ~ u u u >.  i.K F.(.(.x <._ k.k.k.r.& ,.&.d.* * * * * o o o o o o s s q q c ( K ( d.c c c * q q * q * * o o C * q * C K D ( c * * q o o o o s s o o o s s q s s o o o s s s s s s s s s q q q o o o o o * * * o s s 0.0.v.v.a.t t 0.s q * * * s 0.v.0.0.s s 0.0.a.V.S.1.6 6 6 6 6 x.6 6 1.1.1.1.V.a.0.s o s s s o o s s s s s s s o s s o C C C o q q o o o q q q o o o o ( K K K ( C o o o o o * q o o o o o o o o o o o o o o o o C o q q * * o C ( K ( c d.K W & & e W ,.&.c * * o o q q C K >XD ( o * * o o q o C ( >Xe W ,.,.D D >XD >Xe W ,.d.c c.).D L.OX@XI.I.{.R.G F.F.F.r.F.F.F.R.V.I.KX3.a.G F.F.F.F.F.F.F.F.F.r.F.r.y.|.-.-.e.e.-.-.-.-.3 3 3 3 e.-.-.~.-.~.~.~.x (._ ",
"i i i i i i i i i i i i i i i i i i i i i i i i i i i U.i U.i U.i i i i i i *.i i U.i i U.i i U.U.U.3XU.kXjXpXMXdXCXCXmXrXG.G.G.J J J J G.J J J J J J J J J G.J J J J J J J J J J J G.P 9 y < # IXlXcXkXU.U.U.*.i i i U.i i i i U.i i i U.i i i kXgXsX1.hXhXhXhXx.x.u.u.u.u.w.w.w.u.u.8X^.>.>.~ ~  X X~  X X X X~ ~ ~ ~ ~ ~ u u u u u u u u u u u ~ u u u u u u u u ~ ~ u u u ~ u u ~ ~ >.  7.K e r.(.x x <.(.(.(._ r.& D &.&.d.c c c c c * o o o o o * c &.K ( C * * c * q * * * * * s o o o * o C K K ( c c o o q q o o o o s o o o o o s s s s s s s s s s s o o s s q o C C ( ( C c c * * s 0.t a.V.V.}.t t 0.0.q * * * s 0.v.v.0.s s 0.t a.V.1.1.6 6 6 6 6 6 6 6 1.1.1.t.{.a.0.s o s s o o o s s s s s o o o o o C C ( ( C o q o o o q q q o o q o C ( K ( ( C * * * * * q * o o o o o o o o o o o o o o q o o o q q o o o C ( ( C c c K W & & e W ,.( * * q o o o q C K >XD ( c o * o o q o C K >X>X,.,.K K K &.&.K D D &.c c.c.).&.L OX@XI.u.{.}.R.G F.F.F.F.F.F.R.V.I.KX3.}.F.F.F.e F.F.F.vXF.F.F.F.L.(.~.-.-.-.-.-.-.-.~.3 3 3 e.e.-.-.-.-.-.-.-.3 (._ ",
"i i i i i i i i i i i i i i i i i i i i i i i i i i i i U.i U.i i i i i i *.i i i *.U.U.U.U.U.U.U.kXjXpXMXMXdXCXmXrXG.G.G.J G.J G.J J J J J J J J J J J J J J J J J J J J J J J J J G.P s.b k < 8.SXdXkXU.U.i U.i i i *.i U.i i i i i U.i i i ! kXgXsX1.hXhXhXhXx.#Xu.u.u.#Xw.w.w.u.u.Y.Y.9.  R >.u u u  X~ ~ ~ ~ ~ ~ ~ u u u u u u u u u u u u u u u u u u u u u u ~ ~ u u u u u ~ ~ ~ >.2.m.s C K e r.(.(.x x x (.(._ r.& W ,.&.&.c c * o c o * o o o c ( K ( C * * * * q * c c o * s s o o o o C ( K ( C C o o q q q o o s s s o o o o o s s s s o o o s s s o o o q o o C ( ( ( C c * c o o t a.V.V.S.V.V.a.a.0.s q * o s v.v.v.t 0.s 0.a.V.S.1.6 6 6 6 6 6 6 6 6 1.6 1.1.{.a.0.0.s s s o o * q s s s o o o o o o C ( K ( C o q o o o o q q o o q q o ( ( C C c * * * * * * o C ( ( ( C o o o o o s o o C C C o o q q C o o C C C C c c K W & & e D K d.* * q o o o q C ( >XD ( ( c o o o s o C ( >X>XK &.&.d.d.C C ( K K ( c y y ).d.6.F.R.{.u.I.V.R.G F.F.A F.F.F.R.V.I.KXv.}.F.F.F.F.F.e F.F.F.F.F.e L.(.~.-X-.-.-.-.-.-.~.3 x x 3 e.-.-.-.~.-.-.~.~.x <.",
"i i i i i i i i i i i i i i i i i i i i i i i i i i i U.i i *.U.i i i i U.i i U.i U.U.U.U.U.kXkXcXuXdXdXCXmXmXrXJ G.G.G.G.J J J J J J J J J J J J J J J J J J J J J J J J J J J J J J G.P N w k k ,XmXcXkXU.U.*.U.i i U.i i i i i i i i i U.i i kXgXsX1.hXhXhXhXx.#Xu.u.w.u.u.u.w.u.I.v.IXIXIX,X8.8.k < ~ ~ u R u ~ ~ u ~ u u u u u u u u u u u u u u u u u u u u ~ ~ ~ u u u ~ u u ~ ~ ~   m.m.m.P.* K & r.(.(.(.(.(.(.(.(.r.r.e D &.c c c c o q q o o * C ( ( ( c * * * * o o o o o o q * o o s o ( K ( C C o q q q o o o s s o o s s s s s o o o o C o q q o o o o q * o C C C C * * * c C o t }.V.V.S.S.S.V.a.v.0.q o o 0.v.a.a.t 0.s 0.a.V.1.1.6 6 6 6 F F 6 6 1.6 6 1.1.V.a.v.0.s s s o o * * * * * o o o q o C C K K C o o o o o o C o o q q q q o o o o c c * * * * * o C ( K K K C o o o o o q s o C ( C o q q s o C o o w C o * c K W & & e ,.( * * * * o o q q o C K D K ( C o s s s o C ( ,.D K ( c c c c o C C ( C c y y ).).&.G R.{.u.u.{.}.G F.F.F.F.F.F.R.a.8XKXa.R.F.F.F.F.F.F.F.F.F.vXF.F.F.L.y.~.-.e.-.-.-.-.-.x <.<.3 e.e.-.-.-.-.-.e.~.x <.",
"i i i i i i i i i i i i i i i i i i i i i i i i i i i i ! i i i i U.i i i ! i U.U.U.U.3XkXjXpXuXdXCXmXrXrXG.G.G.G.J J J J J J J J J J J J J J J J J J J J J J J J J J J J J J J G.G.G.G.P s.9 %.N.,XSXdXpXjXU.U.U.! U.U.U.i i U.i i i i i i i U.kXgXsX1.F hXhX6 x.#X#Xu.w.u.w.u.w.u.{.V.lXgXgXgXlXlXSX8.< ) ) ) R u u u ~ u u u u u u u u u u u u u u u u u u u u u ~ ~ u u u u u u ~ ~ >.9.# 9.2.>.  # c.( D vXr._ (.(.y.y.(.(.(.r.& D &.C o q q q s s * C ( ( ( c * * o o o o o o o o * q o s s o C ( ( C o o o o o o o o s o o o o o q o o o o o o C o q q q o o o q * o o o o o * * * * o s t a.V.V.S.@XS.S.S.a.v.0.C o 0.v.}.}.[.t t t a.V.1.6 6 1.6 F F 6 6 1.6 1.F 1.1.V.{.a.0.0.0.s o o * * * * * * o o s C ( ( K K C o o o o o C C C o o o s q o o o o o * * * * q o C ( K >XK ( o q q o C o q s s C C C o q s o o C o o * * o * c &.D W W ,.&.c * o o o o o o q o C ( K K ( C o s s s o C ( D D K ( * * * * o o o C c c y y I ).d./.R.V.I.u.I.V.R.F.L F.F.F.F.R.a.8X8Xa.G F.F.F.F.F.F.F.vXF.F.F.& L.L.(.~.~.e.-.-.e.-.e.x <.<.3 e.e.-.-.-.-.e.-.~.3 x ",
"i i i i i i i i i i i i i i i i i i i i i i i i i i i ! i i i i i U.U.! ! U.U.U.:X:XjXjXpXuXCXmXrXrXrXrXG.rXG.J G.J G.J G.G.G.J J J J J J J J J J J J J J J J J J J J J G.b.b.b.b.b.G.G.G.P b.P s.5Xb.mXdXMXpXjX:XU.U.U.U.U.i i i i i i i i i U.kXgXsX1.F hXhXx.x.#X#Xu.w.w.u.u.w.u.{.UXuXkXkXkXkXcXlXIXk   R R u u u u u u u u u u u u u u u u u u u u u u u u u u u u u u u u u u ~  X~ 2.< 9.  >.>.>.>.A.P.c K D e & r.r.r._ r.r.r.e D ( C C o q s q * C C C c * * o o o o s q o o o o q s s s s o C C o o o o o o o o o q o o o o o o o o o o o o o o o q q * * * * o o C o o o c * * * * q 0.t a.V.S.S.l.sXS.V.v.0./.t 0.a.V.}.}.[.[.[.a.S.1.6 6 6 1.6 F 6 1.6 6 6 F 6 1.S.V.V.a.0.0.0.s o * * * * * * o o o ( ( ( K ( C o o o o C C C C o o o o q o o o o o o q q q q o C K >X>XK C o q q o C o q q s o C o s s s o o o o o * o o c c &.D W ,.&.d.c * o o o o o o o o o ( K ( ( C o o o o o C &.D >XD ( c * * * o o C o c y y y I ).c /.R.V.{.8X8X{.R.F.L F.F.F.F.R.a.I.8X}.G F.G F.F.F.F.F.F.F.F.F.F.F.F.E ~.~.e.-.e.e.-.e.3 <.x 3 e.e.-.-.-.-.-.e.~.3 x ",
"i i i i i i i i i i i i i i ! i i i i i i i ! i i i i i i i i U.i U.U.U.kXjXjXjXpXMXdXdXCXmXrXrXG.rXG.G.G.J J G.G.G.b.b.s.s.b.b.G.J J J b.G.G.J J J J J J J J J J J G.b.s.s.s.s.s.s.b.G.P G.P b.G.G.G.rXmXmXCXdXMXjXU.U.U.U.i U.i i i i i i i U.kXgXsX1.6 hX6 x.x.x.#Xu.w.u.w.w.w.I.{.UXuXkX3XkXkXcXlX,X# R u u u u u R u u u u u u u u u u u u u u u u u u u u u u u u u u u u u u ~ ~ ~ 2.< # <   >.2.>.>.  A.# P.P.q c ( K K K K K K D D K K C q o o o c c * * * * o o o q q q * o o o q s s s s s o o s q o o o o o o q q o o o o o o o o o o o o o o o o o * * * * C ( ( C c c * * C d.C C /.[.}.V.S.S.S.l.Q S.V.a.[.[.[.V.V.R.R.p.p.}.V.S.1.6 1.6 6 6 F 6 6 6 1.F 6 6 1.1.S.V.a.a.0.0.s q * * * * * * o o o o C C C C o o o o o o C C c * * o o q s o o t o s s q o o C ( ( K K C o o o o o C o q q s o o s s s s s q * * * o C C C d.,.W W &.c c * * o o s s o o o q q o C C o o o o o o o C &.D e D ( c * * o o C C c * y y I I ).c.q }.}.{.8XKX3.}.R.F.L F.F.F.}.a.I.8X}.G F.F.F.F.F.F.F.F.vXF.F.F.F.L L.y.~.e.e.e.-.-.e.3 3 3 e.e.e.@ -.-.. -.e.e.3 x ",
"i i i i i i i i i i i i i i i i i i i i i i i i i i i i i ! i ! U.U.U.jXpXMXdXdXdXCXmXmXrXG.G.b.G.J J J J J G.b.b.s.s.s.j j s.s.b.b.b.b.b.b.b.b.b.b.b.b.b.G.J G.G.b.b.s.s.j j j j s.s.b.b.b.b.b.G.G.G.b.rXrXrXmXCXuXjXU.U.U.i i i *.i i U.i i ! jXgXsX1.6 hXhXx.x.x.#Xu.w.w.w.w.w.I.{.UXuXkX3XkXkXuXSX8.  >.u u u u u R u u u u u u u u u u u u u u u u u u u u u u u u u u u u u u u ~ ~ >.  < # # <   >.>.>.>.>.>.2.A.A.m.P.7.P.k P.* ,.vXF.>X( q q o o * * * q * o o o q o o q s o o o s s s s s s s s s s q o o o o o o o o o o o o o o o o o o o o o o o C c * q o ( K K ( c c c c &.K &.K K p.}.}.}.S.S.Q Q Q S.V.}.}.}.}.S.R.R.p.G R.V.S.1.6 6 1.F F F 6 6 6 6 6 6 6 6 1.1.S.V.a.a.0.0.s q * * * * o C o o o o C o o o o o o q o o o * * * * * q s s 0.0.0.0.0.s o o o C ( ( ( o o o o o C o q q s s o o s s o s s q q * * c c C d.&.W e ,.&.c * * * s s s s o o o q q o o o o * * * * * c C &.D >XD ( c o * o C C C w * y y I I ).c.q }.}.V.I.KXI.a.R.G F.F.F.G }.{.I.3.}.G F.F.F.F.F.F.vXF.F.F.F.F.F.L L.(.6X-.e.-.-.-.e.e.e.e.e.@ e.-.. -.e.-.-.~.~.x ",
"i i i i i i i i i i i i i i ! i i i i i i i i i i i ! i i ! ! ! U.U.jXMXCXmXmXrXrXb.b.b.G.G.G.G.G.G.G.J G.G.b.s.j j j j j j s.s.s.s.b.s.s.s.s.s.s.s.s.s.s.s.b.b.b.s.s.j j j j j j j j j s.s.s.s.s.b.G.G.G.b.b.5XrXmXuXkXU.i i U.i i i i i i i U.kXgXUX1.F hX6 x.x.x.#Xu.w.w.w.w.w.I.{.lXcXkXU.3XcXgX5Xk >.>.u u u u u u u u u u u u u u u u u u u u u u u u ~ ~ u u u u u u u u u u u ~ ~ ~ 2.  # k # < >.  >.>.2.      2.2.9.2.>.>.>.A.K _ (.F.K q q o o * * * q * o o o o o C o o o o s s s s s s s s s o o s q q o C C C o o o o o o o o o o o o o o o o C ( C c * c K D D ( c c c d.,.D W W >X>XG R.R.V.S.1.Q l.Q S.}.R.R.@XS.R.R.R.G R.S.S.1.F F B B F F 1.6 6 6 6 6 6 6 6 1.1.S.V.V.a.0.0.q q o o o o o o o o o C o q o C o q q q o * * * * * * q s 0.0.0.v.0.0.0.s o o o o o o o o C C o o q s s s o o o s o o o o q q q * * c c ( K e e ,.d.* * * o q s s q q o o o * o o C o o * * * * * c ( K D D &.C o q o C C C c y y I I I ).c.q /.}.V.I.KX8X{.}.R.F.F.F.G }.{.I.v.}.F.F.G F.F.F.F.F.F.vXF.F.F.F.L L `.6X-Xe.-.@ -.e.-.e.@ @ e.-.e.-.-.. -.e.-.~.3 ",
"i i i i i i i i i i i i ! i i i i i ! i i i i i i ! i i i ! U.U.jXMXCXmXrXrXrXG.b.b.G.b.b.b.b.s.s.s.s.b.s.s.s.j j j j j j s.j s.s.s.j s.j j j j j j j j j j s.s.s.j j j j j j j C.j j j j j s.s.s.s.s.s.s.j j 5X5XSXCXjX:XU.i U.i i i i i U.i ! kXgXUX1.F Q 6 x.x.x.t.u.w.#Xw.u.w.I.V.lXcXkX3XkXuXSX,Xk   >.u >.u ~ ~ ~ ~ u u u u u u u u u u u u u u u u u u u u u u u u u u u u u u u ~ ~ ~ u     < # k k # <   < <   2.2.m.m.    >.A.K _ (.r.K c o o * * * * * o o o o C ( ( C o o s s s s s s s s s s q o o o o C ( K K ( o o o o o o o o o o o o o o o C ( C c * C K >X>X&.d.d.d.&.D e e & e e L G G R.S.S.Q l.l.S.V.R.@X@XS.}.}.p.R.R.S.S.F F B B l.B B F F 6 6 6 6 6 6 6 6 1.1.S.V.a.a.0.q q o o o o s o C C ( ( C C C C C o q q o o * * * c q s 0.0.a.a.a.a.a.t 0.s q * * q o C C C C o q q s o s s s s s o o o o o * * * * * c d.,.e W &.d.* c c o s s s q q o C C C C C ( ( C c * * c * * c &.K K ( C o q q o C c y y y I I I y c.c./.}.}.{.8X8XI.V.R.F.F.OXG }.v.3.{.R.G F.F.F.F.F.F.F.F.F.F.F.F.F.F.L L.`.~.e.-.e.e.@ -.-.-.-.e.@ e.@ -.-.-.-.-.e.~.",
"i ! i ! i ! i ! i ! i i i i ! i i i i i i ! i ! i i i i i i ! U.jXdXmXrX5Xb.b.s.s.b.b.s.s.s.s.s.s.s.s.s.j j j j j C.j j j j j j j j j j j j j j j j j j j j j C.j j C.C.C.C.C.C.C.5Xj j s.s.s.s.s.s.s.s.j j j 5X5X5XmXpX:XU.i i ! i i i U.i i ! kXgXUX1.6 Q 6 x.x.x.#X#Xu.w.w.w.u.I.V.lXcXkXkXcXgXIX8.# R >.u u ~ u ~ u u u u u u u u u u u u u u u u u u u u u u u u u u u u u u ~ ~ ~ u ~ ~ ~ >.>.>.      ) >.>.  >.~  X>.m.m.    >.A.%.r._ & K c * * * * o * * o o o o C K K [.C o s s s s s s s o s s q o o o o C K K >XK ( C o o o o o o o o o o o o o C C c c c d.K >XW K &.&.,.,.W e e e & & e L G R.R.S.Q l.l.S.S.@X@X@XS.V.}.[.}.}.S.Q F B l.B B B l.B Q F 6 6 6 6 6 6 6 6 1.S.S.V.t 0.q q o o o s s o C C ( K ( ( ( ( C o o q o o * * * * q s 0.a.V.V.V.V.a.a.t s o c c * o ( ( ( C C q q s s s s s s s s o o o o o o C ( ( ( &.W e W &.c * c o o s s s q q o C C C C C ( ( C c c c c * * * C ( ( C c o o o c c c y y y I I I y c.c.q }.R.a.8XKXI.{.R.R.F.F.R.}.3.I.a.R.G F.F.F.F.F.F.vXF.vXF.F.F.F.L L F.`.~.-X-.e.e.-.-.-.-.e.@ -.e.-.-.@ -.e.-.~.~.",
"i ! i i ! i i i ! i i ! i i i i ! i i i ! i i i i ! i ! i U.! U.kXdXrX5X5XvXs.j j j s.s.j j j s.s.s.j j j j j j C.C.C.C.C.j j j j j j j j j j 9 C.j j j j C.C.C.C.C.N.C.N.C.N.C.C.C.j j s.j j j j j j j s.j j 9 5X5XmXpX:XU.i U.i i i i ! i i ! kXgXUXt.6 6 6 x.x.x.#X#X#Xw.w.w.w.I.V.lXcXkXkXuXSX,X# < R u u ~ u u u u u u u u u u u u u u u u u u u u u u u u u u u u u u u u u ~ ~ ~ u u ~ ~ ~ ~ ~ ~ >.~ ~ ~ ~ ~  X X X X9.< >.>.>.< b vX_ & &.* * * * o o o o q o o C ( K p.( C o s s s s s s o o o s s o s s o C K >X>X>XK C o o o o o o o o o o o o o o * * * c ( K W W ,.,.W W D W W W W e & & e e G R.@XS.Q l.l.l.l.S.S.S.a.a.a.a.V.S.Q B B 5 5 B B l.B F F 6 6 6 6 6 6 6 6 1.S.S.}.}./.C o o o s s s s o o C ( ( ( K ( C C o o o o * * * * q 0.v.a.V.S.S.V.V.a.t s o c c * o ( ( ( ( C o q s s s s s s s s s s s o o C ( K D K ,.e e ,.&.d.c * o s s s 0.q q q o o o o C C C C o c c c c * q o C C C o o o o c c w y y y I I y y c.c.q /.R.V.I.KX8X{.}.R.F.F.R.}.3.3.V.R.F.F.F.F.F.F.F.F.F.F.F.F.F.F.F.R.L L.y.~.e.-.e.e.-.-.-.e.-.e.-.e.-.-.@ -.e.-.e.",
"i ! i ! i ! i ! i ! i i ! i i i i i i ! i i ! i ! i ! i i U.i ! kXdXrX5X5Xs.5Xj j j j j j j j s.s.j j j j C.C.C.N.N.C.C.C.j j j j j j j C.C.C.N.,XC.C.5XC.C.N.N.N.n n n n n n N.N.C.C.j j j j j j j j s.s.s.j 9 5X5XlXcXkXU.i i ! i i i i U.i ! kXgXUXt.x.6 x.x.x.x.#XI.u.#Xu.u.u.I.V.lXcX+XcXlXIXQ.< m ) R u u u u u u u ~ ~ u u u u u u u u u u u u u u u u u u u u u u u u u ~ ~ ~ ~ u u u u >.~ >.~ ~ ~  X~  X~  X X X2.m.< R R R O.%.vX(.r.D d.c * * o o o o q o o C ( K K [.C o s s s s s s o C s o o o s s s o ( K K D K ( o o o o o o o o o o o o o q q q * c ( K W e W W & e W >XD ,.,.W e & & e G G R.S.Q l.l.l.l.l.S.S.{.v.v.a.V.S.l.B 5 5 l.B B l.B F 6 6 6 6 6 6 6 6 6 1.S.S.}.}.p.( d.c * s s s s s q q C ( K K ( C C o o o o * * * * q 0.v.a.V.S.S.S.V.V.a.0.q * c q q C ( K K ( C s q s s s o o s s q q q q * C K >Xe e e & & W ,.&.c * s s s s s s q q o q q q q s q s o o * c c * q q s o o o /.C C c c y y y ).y y y y c.c.q /.p.}.{.KX8XI.V.R.F.OXR.V.3.I.V.R.F.F.F.F.F.F.F.F.vXF.F.F.F.G F.G G L.y.~.~.e.-.-.-.-.-.e.-.-.e.-.-.e.-.e.-.~.-.",
"! i ! i i ! i i ! i i ! i i ! i ! i i i ! i ! i i i ! i i U.! U.U.MXmX5X5XC.C.C.C.C.j 9 C.j j j j j j C.C.C.C.N.N.n N.N.C.C.j C.j j C.C.C.N.,XN.N.,X,X,XC.,XN.n n n n n n n n N.N.N.N.N.C.C.C.j j j j j j 9 j N 5XSXCXjXU.U.i i i i i i ! ! i U.kXgXUXt.x.x.x.x.x.#X#X#Xu.w.w.u.w.I.V.gXxXxXgXSXQ.# < v m R u u u u u u u ~ u u u u u u u u u u u u u u ~ ~ ~ u u u R R R u u u ~ u ~ ~ u u u u u u u u ~ ~ ~  X~  X X~ 2.< 9.  R >.R < w e _ _ A &.c * * o o o o o o o o o ( ( C o s s s s q s o C C o s o s s s s o C C C ( ( C o o o o o o o o o o o o o o q q * c d.K W e e e & e >XD K K &.D e & & f L G R.}.S.Q B B B l.Q t.{.v.v.a.V.Q l.5 5 5 5 B 5 5 l.F 6 6 6 1.6 6 6 6 F 1.S.V.}.G >XD &.d.* q s s o o q o C ( K K ( C o o C o o o * * * q 0.a.V.S.S.1.1.S.V.a.7.q * c * q o C ( K ( C o s s s s s s s s s s o o * c ( D e e e e e e W K d.o o s s 0.s 0.s o o q q q q q q s o o * c c c o s s 0.o 0.C C C c c.y y b y y c.c.c.q c.c././.}.a.8XKX8XV.R.R.F.R.a.I.I.}.R.F.F.vXF.F.F.F.F.F.F.F.F.F.R.F.G G F.`.y.~.e.-.-.-.e.-.-.-.~.-.e.-.-.-.-.-.-.-.",
"i ! i i ! i ! i i ! i ! i ! i i i i i i i i ! i i ! i i i i i ! U.cXdXrXC.,XN.n N.%.C.C.C.C.C.C.C.j C.C.N.N.N.N.n n n N.N.C.C.C.C.C.C.N.,XN.n 8.8.8.n ,X,X,Xn 8.n n n N.n N.n n n N.n N.N.N.C.C.C.C.C.N.C.C.%.C.N SXZXkX3X! i ! i ! i i ! i i U.cXgXsX#Xx.x.x.x.x.#X#Xu.w.w.w.w.w.I.V.lXGXgXDX,X# < m v m R u u u ~ ~ u u u u u u u u u u u u u u u u ~ ~ ~ ~ ~ u R R R R u u u u u ~ ~ ~ ~ u ~ u u u u ~ ~ ~ ~  X X X>.  <   R R u R m i.%.r.(.r.,.d.* * o o o o o o o o o o t o s s s s s s s C C C s o o s s s s o o o o o o o q q o o o o o o o o o o o o o * * c &.,.e A & e e e D K K &.K D e & & & L G }.}.S.1.F F B 5 l.1.{.v.v.a.V.Q l.5 @.@.5 5 5 5 B F F 6 6 6 x.6 6 6 F 1.S.V.}.G >Xe ,.&.c * s o o o o o C ( K ( C o o o o o o c c c c o 0.a.V.S.Q 1.1.V.a.a.7.q c C c * o C C ( ( C o o o s s s s s s s o o o * * d.K >Xe e W e & & D &.C o s s s s s o o o q q q q q q o o o * c C C o o s o o o /.C c * c.c.y ).).).).c c d.d.c /./.R.V.8XKX8X{.}.R.sXR.a.3.{.}.G F.F.F.F.F.F.F.vXF.F.F.F.F.R.R.R.R.OX`.y.~.~.-.-.-.-.-.-.-.-.-.-.-.@ -.e.-.-.-.",
"i ! i ! i i i ! i ! i ! i ! i ! i ! i ! i ! i ! i ! ! i ! i ! ! 3XjXMXmX5X,Xn 8.n n n b N.N.N.N.N.N.N.N.N.N.N.n n n n n N.N.N.N.N.N.n n n 8.8.8.8.8.8.8.8.8.8.8.8.n n n n n n n n n n n n N.N.N.N.N.N.N.N.N.N.w ,X5XlXcX3X! ! i i i i i i ! U.U.cXgXS.#Xx.x.x.#Xx.x.#Xw.w.w.w.w.w.u.{.DXlXDXIX8.# m v v ) R u u u ~ ~ ~ u u u u u u ~ u u u u u u u u ~ ~ ~ ~ ~ u ) ) ) R u u u u ~ ~ ~ ~ ~ u u u u ~ ~ ~ ~  X X~ >.>.      R >.R R R l v w vX(.(.e &.c * * o o o s s s s s o o s s q q s o C C ( C C o s o s s s o o o s o o s s s q s o o o q o o o o o o o o o c d.,.e A r.A & e e D &.&.&.,.W e & e e >Xp./.a.V.S.1.F B 5 l.1.V.{.3.{.S.Q l.@.@.@.@.5 5 5 B F F F 6 6 6 6 6 F F 1.S.V.}.6.e & W K C o q * * o o o C C C C C c * o o o C d.d.&.&./.t V.S.Q F F 1.V.a.0.q o c c c * * c o o C C o * * s o o o s o s s q * * * c d.,.W e e e & & W K C o s s s 0.s o o o o o q q q o C ( C c c c c o o o o /.C /.C o * c.c.c.y &.&.K K D D >X6.p.p.R.V.I.KXKX8XV.R.R.V.a.3.a.R.G F.F.F.vXF.F.F.G F.F.G G R.R.@XR.R.G OX`.y.~.-.-.e.-.-.-.-.a -.-.@ -.@ -.-.a -.",
"! i ! i ! ! ! i ! i ! i ! i ! i U.i ! i ! i ! i ! U.i ! i ! ! ! ! U.jXMXCXSXIXn 8.8.n n n n n n n n ..n n n n n n n n n n n n N.n n n n 8.8.8.Q.Q.Q.8.Q.8.8.8.8.8.n n n n n n n n n n n n n n 8.8.8.8.n n n 8.i.i.,XSXuXkX3XU.i ! i i i i ! U.U.cXgXS.x.x.x.x.t.x.#X#Xw.w.w.w.w.u.u.{.sXF.>Xo i.k v v m ) R u u u ~ ~ ~ u u u u u u ~ u u u u u u u ~ ~ ~ >.>.>.>.) ) ) u u u u R ~ ~  X~ ~ u u u u u u u  X X X>.9.< 9.  R R R R R ) ) < i.N r.(.r.W &.c * o o o s s s s s s s s o q q o o C ( ( C o o q o q s o o o o o o o s s o s o o o s q s o o q * o q q o C &.W A r._ r.A e e W K &.,.W e e L e 6.K /.0.0.a.V.1.6 B 5 l.Q S.{.{.t.S.l.5 @.X.X.@.5 l.5 B F B B F 6 6 6 6 F F 1.1.V.}.6.e A e D ( c * * * * * o C C C o c c * * * * c &.,.,.K p.}.V.S.B F F S.V.a.0.o o c c * * * * q q s o o * * * s o s o s s s q * * * * b ,.W e e & & & e ,.( o q s s s s s o o o o * * c C ( K ( C c * * * c C C c c C o c * c.c.c.).&.D e L L L F.L L G R.V.I.8XKX8X{.S.@XV.a.3.a.R.G F.F.F.F.F.F.L L G R.R.R.@XR.@XR.R.R.OX`.y.~.~.e.-.-.-.-.-.-.. -.a . -.a -.-.-.",
"! ! ! i ! i i ! i ! i ! ! i ! i ! i ! U.i ! i ! i U.i ! ! ! i ! ! g.U.kXcXdXmX5X,X8.8.8.n n n n n n n n n n n N.N.N.n N.n n n n N.n N.n n 8.8.8.i.Q.Q.8.Q.8.8.8.8.n n n n n 8.n n n n i.n 8.i.n 8.n w n n n i.k < k ,XlXcXkXU.U.i i i i i ! ! U.cXgXS.x.x.x.x.#Xx.#X#Xw.w.w.w.w.u.I.I.V.[.Q.k k v k m m ) u u u ~ ~ ~ ~ u u u u u u u u u u u u u u ~ ~ 2.9.9.2.2.>.>.R u u u R u ~  X~ ~ u u u u u u u ~ ~ ~ 2.< k k <   >.u R ) R ) ) m k b W r._ r.e d.* o o o s o o s s s s s o o o o o C C C C o o s o q s s o s s o o o s o o o o o o q q q o o o o o * q o C K e r._ (.r.A e e e W >XW & e e >X6.K C q 7.0.v.{.t.1.Q l.5 l.Q S.t.t.Q l.@.X.X.@.@.5 5 B B B B B F F F F F F 1.1.1.V.}.6.& & W K ( C c c * * c o C C C c c c c c * c.c K W W >XG R.@Xl.B B 1.t.a.a.0.o o q * * o s s 0.0.0.s o q q q q s s s o s s s o o * * d.,.W & & & & & e D &.C o s s s s s q q o o * c ( K D D K ( c * * c d.d.c * q q c d.c c c.c.c.d.D & F.& F.A F.L F.R.}.{.8XKX8X{.V.@XS.{.3.a.R.R.OXF.L L L G R.R.R.R.@XR.@XR.@XR.R.L L `.6X~.e.e.-.-.-.-.-.-.-.-.-.-.-.-.-.. -.",
"! i ! i ! i ! i ! ! ! i ! ! ! i ! ! i ! ! i ! ! ! i ! i i i i i U.! ! U.kXkXpXdXmX5X,X8.8.8.8.n 8.n n n n n N.N.N.n n n n n n n n N.n n n 8.8.Q.Q.Q.Q.Q.Q.Q.8.8.8.n n n n n b n w w 8.w 8.i.8.8.b b b w 8.i.k   >.  i.IXdXcXU.U.! ! i ! i ! ! 3XcXgXsX6 6 x.x.x.x.#X#Xw.w.w.w.w.u.I.I.v.v.m.# # k v v m ) R u u ~ ~ ~ u u u u u u ~ u ~ u u u u u ~ ~ ~ 2.m.m.M.M.2.2.~ ~ ~ u u u ~ ~ ~ u u u u u u u u >.  < # # #   >.>.>.R ) ) R ) m m v i.b W _ (.& &.* o o o o s s s s s s s o o o o o o o C o o o o o s s s s s o o o o s o o o o o o s q s o C o o o o o o C &.e r.r._ r.& e e e e e e L >XD K &.C o q q 0.v.a.{.t.1.Q l.B Q Q 1.1.Q @.@.X.X.@.@.5 5 5 5 B B B B B B F F F F 1.1.V.}.6.e e ,.d.c o c c * * * o c c * c c d.d.&.&.d.d.,.e L G R.R.S.l.B F 1.V.a.0.s q q q o o s 0.0.0.0.0.0.0.q q * o s s s s s s s o o q * d.D e & & & & e e W K ( c q s s s s q o o o * c C K K K K d.c * * c d.d.c c.P.P.c.c.d.d.c c.c.c &.D F.A F.L.F.L.G R.}.{.8XKXKXI.V.S.V.{.I.{.@X@XR.R.R.R.R.R.@X@X@X@X}.@X}.R.R.R.L L L.E ] ~.e.-.-.~.-.-.e.e.-.-.-.-.e.-.e.-.-.",
"i ! i ! i ! i ! i ! i ! ! i ! ! i ! ! i ! i ! i ! ! i ! ! i i ! i U.U.! U.3XU.kXuXCXSXIX8.v 8.8.8.8.8.n n n n N.n n n 8.n n n N.n n n n 8.w 8.8.8.Q.Q.0.Q.Q.Q.Q.8.8.8.n w b b b w w w w w w w w w w 8.Y i.k < >.>.>.  8.SXuXkX3X! U.! ! i U.! g.cXgXsX6 F 6 x.x.x.#X#Xw.w.w.w.w.u.I.I.3.4 m.< v v v m m ) R u u u ~ ~ u u u u u u u ~ ~ u u u u u ~  X2.2.4 Y.M.M.M.2.>. X~ u u ~ ~ ~ u u u R u u u u     < # # <   R >.R R ) < ) R ) m v v H i.&.r._ & &.* * * o o o s s s s s s o o o o o o o o o o o o o o o s s o o o o o s o o s o o o o s o o C o o o o o o C &.e A r.r.A e e e F.e e >XD K &.( C o q q s 0.0.v.v.{.S.1.Q B l.l.Q Q l.5 @.@.@.X.@.5 5 @.5 5 5 B B 5 B B B F 6 1.1.V.a.p.W W &.c * * c c c * * * * * c c d.&.,.W ,.&.,.D e G G R.@Xl.l.Q 1.S.{.v.0.q q o o s s 0.v.v.a.a.a.0.0.s o o o q s s s s s s s s q o ( >Xe & & & & & e W D K d.* o o s q q o o o * * c ( ( &.d.c * * * c c c c.P.H O.P.c.c d.c * c.c.c &.e F.F.r.F.F.F.R.R.a.I.KXKXI.{.S.V.{.I.t.@X@X@XR.R.R.R.R.}.@X}.@X@X@XR.R.L L L.L.L.L.'.] e.-.-.~.~.~.~.~.e.~.-.e.-.~.e.~.-.",
"! ! ! ! ! ! ! ! ! ! ! ! ! ! ! ! ! ! i ! ! ! i ! U.! ! i i i ! i i i U.U.U.U.U.U.kXcXdXmXIX8.8.8.8.n n n n N.n n n n 8.n n n n n N.n n n 8.8.8.8.Q.Q.v.Q.v.Q.Q.Q.Q.Q.i.i.w b %.w w i.w w n i.y i.i.$.V ;.;.;.j.l >.>.>.2.IXlXcXkX3X! ! ! i U.! g.cXgXsXQ B 6 x.x.x.#Xw.w.w.w.w.u.u.I.I.3.4 m.# v k v v m ) R u u u ~ ~ u u u u u u u ~ ~ u u u u u ~ ~ >.M.M.M.Y.Y.Y.M.2.~ ~ ~ u u ~ u u u R R >.>.  < # m.#   >.R R R ) ) ) R ) ) ) ) m v v < H y A r.& &.c c * * * o o o o o o s o o o o o o o o o o o o o o o s s o o o o s s s s s s o o o s o o C o o o o o o c &.W & A A & W e L e >XD K ( C C o o q q s C o s 0.0.a.V.S.1.Q B 5 5 5 B 5 @.@.@.X.X.@.5 @.@.@.5 5 5 5 B F F F 1.1.1.V.a.[.W W ,.d.c c c d.d.C c c c c d.d.,.W A q.A W W W >XG R.@X@Xl.Q Q S.V.a.0.s q o C o 0.0.v.v.V.V.V.V.a.0.s s o q q s s s s s s s q q o ( >Xe & & & & e e e W ,.&.c o o o q q o o o * * * c d.c c * * c.c.c.c.c./ $.O.O.$.c.c.d.d.d.* c.c.d.K e F.r.L.F.L R.R.V.I.KXiX8X{.V.t.I.t.t.@X@X@XR.R.R.R.R.R.R.R.OXOXOXOXL.OXL.L.L.L L.E ] ~.-.-.~.J.~.J.~.~.~.-.~.~.~.~.~.-X",
"! ! ! ! i ! ! ! ! ! ! ! ! ! ! ! i ! ! ! ! U.! ! i ! i ! i i i ! i ! i ! i U.! g.! U.cXdXSX,X8.8.8.n n n n n n n 8.n 8.8.8.n n n n n n 8.n i.8.8.Q.Q.Q.v.v.v.v.v.Q.Q.Q.Q.7.q i.P.P.O.V Y Y Y > Y Y V ;.V > > ;.j.l l >.~ 8.SXgXcX3X! ! ! i ! ! 3XcXgXsXl.hXx.x.x.x.#Xw.w.w.w.u.w.KXu.Y.Y.m.# < m v v v m ) R R u u ~ ~ u u u u u u ~ u u u u u u ~ ~ ~ >.M.M.M.M.Y.Y.m.9.>.~ ~ u u u u ~ ~ ~ >.  < m.m.m.    >.R R ) ) ) R R ) ) ) ) ) ) m v m H c.A _ r.,.&.c * * * o o o o s o o q o o o o o o o o q q q s o o s s o o o o s o o o s o o o s s o o C o o o q q o c &.D e A A & e e e >X6.K C o o o q q s o C ( C o s 0.0.{.V.1.Q Q B 5 5 5 B B 5 @.X.X.@.@.@.X.@.5 5 5 5 B B B F F 1.S.t.v./.W & W K K &.&.K K K &.&.&.&.K ,.& r._ r.A f & e G R.R.@XQ l.Q S.V.a.a.0.o o o s 0.0.0.}.V.@X@XS.V.a.0.s o o o o o s s s s s s o o C ( D D W & & & f & & e W ,.&.( C o * q o o o * * * c d.d.c c.c.c.c.P.$./ / / / $.$./ c.c.d.d.c c.c.c d.D e & r.F.L G R.}.{.KXKX8XI.{.{.I.t.t.S.@XR.R.R.L L L L L.L.L.L.L.L.L.L.L.L.L.L.L q._ x ~.~.x x <.<._ tXtXtXtXx x x ~.~.",
"! ! ! ! ! ! ! ! i ! ! ! i ! ! ! ! ! ! i ! ! i U.! U.! ! ! i i i ! i ! i ! ! ! ! ! g.kXuXmXIX,X,XN.N.N.n n n 8.n i.8.8.8.8.8.n n n n n w 8.8.i.8.s Q.7.v.Q.3.v.3.v.3.v.7.7.4 4 m.A.H O.V V > > > Y > > > > > V j.j.l l >.  ,XSXuXkX3X! ! i ! U.3XGXgXsXl.hXx.x.#X#X#Xw.w.w.w.u.u.u.I.Y.Y.m.< < m v v v ) R R u u u ~ ~ u u u u u u u u u u u u u u >.>.2.M.M.M.8XM.Y.4 m.2.>.~ ~ u u u >.>.>.  m.m.m.m.  >.>.u R ) ) ) R R R ) R R ) ) m m m m H y r.(._ e =X&.d.d.c c c * * o o o q q q o o o o o * q q q o C o s q s o C o s o o o s s s s s s o C ( C C o * o o o d.D e & & & e e >XK ( C o q q q o o o C ( ( C o o o 0.v.{.{.1.Q B 5 5 5 B B 5 @.X.h X.@.@.X.@.5 5 5 B B B F F F 1.1.V.v./.W A & e >XD ,.D W W D D D D W & r._ <.k.A A & e G R.@XsXQ l.Q S.V.a.0.0.s s s 0.0.a.}.R.sX@XS.V.a.a.0.o o * o o o o s o o o * * * o C K K D e & A & & & & e W D K K ( C o o o o * * * c d.d.c c.c.P.c.P.$.$./ 1 1 / / / / c.c.* c c * c.c &.,.e F.r.F.L R.R.{.8XKXKXu.I.I.I.t.V.@XR.R.R.OXL.L.L.L.L.L.k.r.k.r.q.L.r.A L.A A A r._ (.tXtX_ k.P P P bXbXbXtXtXtXtXtX",
"! ! ! ! ! ! ! ! ! ! ! ! ! ! ! ! ! ! ! ! ! ! ! ! ! ! ! ! ! i U.i ! i ! i ! ! i U.! ! :XpXCXSXSX5X5Xb.5XC.,X,X,X,X,X,Xw 8.i.n i.n w n w n w 8.8.w 8.Q.0.v.v.v.v.3.v.3.3.3.3.3.Y.4 4 P.O.;.V V > > Y Y Y > > V ;.j.l l >.>.>.# IXgXcX3XU.U.U.! g.3XGXyXsXQ hXx.x.x.#X#Xw.w.w.#Xu.w.u.I.3.Y.9.< m m v v m ) R u u u ~ ~ ~ u u u u u u u u u u R u R u u  X2.M.4 M.M.8XM.M.m.9.2.~ ~ ~ ~ ~ >.2.9.m.m.m.m.2.2.>.>.R R R ) ) ) ) R R R R ) m ) m m m H y r.(.(.A W ,.,.K &.d.c * q * o o q q q o o o o o * q q s o C C o q s o o o s o o o s s s s s o C ( ( ( ( o o o o o d.D e & & & e e D &.C o o q q q o o o C ( ( C o * o s 0.v.{.V.S.Q l.5 5 5 5 @.@.X.h X.X.@.@.@.5 5 5 B B B B B F 1.1.V.a.[.>XA & e L e e e e e e e e e & A r._ _ q.& & & L G R.sXl.l.l.Q V.a.a.0.0.0.0.0.a.}.R.sXsXsXS.V.{.a.t [.C C * q o o o * o o * * * * * c ( &.,.W & A & & e & & e W >X>XD ( C C o o c * * y d.d.c.c.P.P.$.P.$.$./ 1 ' 1 1 / / P.P.P.* c c c.c.c d.,.e A F.F.R.R.{.8XKXKXKXu.8XI.{.}.R.R.OXL L.L.L.r.k.k.k.k.k.k.k.r.r.r.r.r.r.r.vXA r._ _ P bXP P bXG.bXG.P G.P G.P bX",
"! ! ! ! ! ! ! ! ! ! ! ! i ! i ! ! ! ! i ! i ! i ! i ! i ! ! ! i ! ! ! i ! i ! ! ! U.U.jXpXuXdXuXdXdXdXCXmXSXSXSXIX,X,Xb w w n w b b N.b n w w w w s s 0.0.v.v.v.3.3.3.3.3.3.3.3.7.7.k k H H ;.;.;.;.;.O.;.k H < >.>.>.>.>.2.m.SXuXkX3XU.! g.3X3XGXyXl.hX6 x.x.x.x.#Xw.w.#X#Xu.w.I.I.3.Y.9.< m v v m ) R u u u u ~ ~ u u u u u u u u u u u u R u u u >.2.9.4 M.8XM.^.M.4 m.2. X X~  X~ 2.m.Q.7.m.9.>.>.>.R R R R R R R ) ) ) R R R ) m m m m m k b r.(.<.k.A & e W ,.&.c * q * o o q q o o o o o o q q o C ( ( C o q s o o o s o o o s s s s s o C ( K K ( o o o o o d.W e & & & e W K c c o q q q o o o o C C C o * * * o 0.0.a.{.V.S.l.5 5 5 @.@.X.X.h h X.@.@.@.5 5 5 B B B F F F 1.1.S.a.[.D e e L L e e & & & & e e e & A r.k.r.A & & e G G @XsXl.l.Q 1.V.a.v.v.7.v.v.a.V.@XsXsXsXl.S.{.{.a.p.>XD &.C o q o o o C C * * * * * * c &.,.W e & & & & & e W D >X>X>XK ( C o * * * c.c.c c.c.P.O.P.$.$.$.$./ 1 1 ' 1 1 $.O.P.P.P.c c c * c.c d.,.e F.L.F.R.a.I.KXiXKXKX8X3.a.R.OXL.L.L.E r.r.k.k.k.k.P k.bXr.P _ P r.vXr.P r.P P P P G.P G.J G.G.G.J J J G.G.G.G.",
"! ! ! ! ! ! ! ! ! ! ! ! ! ! ! ! i ! ! ! ! ! ! ! ! ! U.! ! ! ! ! ! ! ! ! U.! ! ! ! ! g.! U.U.kXkXkXkXkXcXuXuXuXgXmX5X,Xb b N.b N.b N.b n w i.i.i.i.o o 0.0.v.v.3.v.3.3.Y.3.3.3.v.7.7.4 m.m.m.m.m.m.m.m.m.m.m.m.m.A.4 9.4 M.^.2.IXlXcX3Xg._._._.JXGXyXl.hXx.x.x.x.x.#Xw.w.w.#Xu.w.u.I.3.Y.9.< m m m m ) R u u u u u ~ u u u u u u u u u u u u u R u u u 2.m.4 M.M.8X^.M.4 4 2. X X>.2.9.m.Q.7.m.2.>. X>.>.R ) ) ) R u R R R R R R ) m m m m m m k %._ (.(._ q.A & e W ,.&.c * * o o o o o o o o o o q q o C K K ( C s s o o s s o o o s s s s s o C C ( ( C o o o o o d.W & & & & e W &.c * o q q o o q s o * * * q q * c c o 0.v.a.V.S.S.l.5 @.X.X.h h h h X.@.5 5 5 @.5 B B B B F F 6 1.S.a.[.K D W >X>XW W e & & & W W W W & A A A & L L >XG R.sXl.l.B Q 1.{.v.v.v.v.a.V.S.sXsX@.@.l.S.t.{.v.t p.e W K d.o q q o o C C * * * c c * c &.D W e e e & & & W ,.&.K K D K ( C o * * * c c.c.c./ O.H H O.O.O.$.$./ 1 1 1 / O.O.O.A.P.P.* c c * * c d.K e F.OXR.a.I.KXKXKXKXI.a.}.L L.L.E k.k.k.k.k.r.k.r.k.r.r.k.P k.P P P P r.P P P P G.G.J J J J J J J J J J J J J ",
"! i ! ! ! ! ! ! ! i ! ! i ! ! ! ! ! ! ! ! i ! ! ! ! i ! ! ! ! ! ! ! ! ! ! ! ! ! ! i ! ! U.U.U.U.3XkXkXkXkXkXkXcXgXSXb w b %.%.%.N.%.b y i.$.O.k i.i.* q s 7.v.v.v.3.3.3.4 4 4 7.7.7.4 4 4 3.v.v.3.v.v.v.3.3.v.v.a.}.a.a.3.8XM.7.SXGXJX:._.:.JXB.GXyXl.hXx.x.x.x.x.#Xw.w.#X#Xw.w.u.I.Y.M.9.< m m m ) R u u u u u u ~ u u u u u u u ~ u u u R u u R u >.2.m.4 M.8XM.M.M.4 M.2. X^.9.m.Q.Q.m.9.2.2.      ) < ) j.m j.m j.) ) R R R ) m ) m m m m $.N (.x x <.k.q.A & e W ,.&.c * * o o o o o o o o q q q o ( K >XK C o o o o s s o o o s s o o s q o o C o o o o o q o ( W & A A & & W K c * o o o o o q s o * * o o * * * o o 0.0.v.a.V.S.Q 5 @.@.X.h h h h h @.5 5 @.5 5 5 B B F F F 1.1.V.a.t ( K D >X>XD D W & & e W ,.,.W e & A & e L G 6.G sXsXl.l.B 1.t.{.v.v.a.V.@X@XsXl.l.5 l.l.S.V.{.v.0.C K &.( C o q s s o C C o q q * c * c K D D D ,.D W & e W &.c c C ( ( C o * * * * c.c.y c.$.O.H H H H H O.$.$.$.$.$.O.O.P.O.A.A.A.P.c.* c c c.c.d.D L F.R.V.I.KXKXKX8Xa.R.L L.L.L.q.k.k.k.k.r.r.r.r.r.P r.P P P k.P P P P P P G.G.G.G.J J J J J J J J J J J J J ",
"! i ! ! ! ! ! ! ! ! ! ! ! i ! ! ! ! ! ! ! ! ! ! ! ! ! ! ! ! ! ! ! ! ! i ! ! ! ! ! ! ! ! ! ! U.3XkXkXcXcXcX3X3XcXZX5XN.I ..E.E.U E...4.4.Y V ;.O.O.$.P.P.P.7.7.7.0.7.7.4 m.m.# m.m.4 4 4 3.3.v.3.3.3.v.3.v.3.3.v.a.V.V.S.V.a.v.3.R.gX+XW.B.D.D.0XPX@.Q 6 x.x.x.x.x.#Xw.w.u.u.w.w.u.I.3.Y.9.< m ) ) R R u u u u u u u u u u u u u u u ~ u u u u u u ~ >.2.4 Y.M.^.M.8XM.Y.M.^.2.m.7.Q.7.7.m.m.k i.i.8.8.n i.i.i.i.n 8.8.8.i.k ) ) ) m m m m m v i.N (.x x x <._ k.q.A & W &.* q * o o o o o o o q q q q o ( K >XK C o s o s s s o o o o o o o s s s o o o o o o o o c &.W & & A & e W 6.&.d.* * * o * q s o s * o o o q * o o s 0.0.v.a.V.S.l.@.X.X.h h h h X.@.5 5 @.5 5 5 5 B F 6 6 6 1.S.a.0.o ( &.K K K ,.W f & & f W W W e & & & e L G G R.sXsXl.5 Q 1.t.{.{.V.S.@X@Xl.l.l.B l.B Q S.S.V.a.t t t t t 0.0.0.0.0.s o o o s s o o o o ( ( ( &.&.&.,.W e D &.c * * c C c * * * * * c.c.c./ $.O.H H H H H O.O.O.O.O.O.O.O.O.H H A.A.P.P.P.* c c c.c &.6.G R.}.v.KXKX8X{.}.G L L.E q.q.q.k.r.r.P r.P r.P r.P q.P P P G.bXG.bXG.bXJ G.J J J J J J J J J J J J J J J ",
"! ! ! ! ! ! ! ! ! ! ! ! ! ! ! ! ! ! ! ! ! ! ! ! ! ! ! ! ! ! ! ! ! ! ! ! ! ! ! ! U.! ! ! ! U.3X3XcXuXgXdXuXkX3XcXZXC.E.......U ....4.4.Y Y V V V V $.$.O.P.P.P.q 7.i.P.k # H H k k # m.m.4 7.7.3.4 7.7.4 4 4 Y.Y.3.{.{.S.S.@XV.{.S.yXGX+X0X0XGXPXsXQ 6 x.x.x.x.x.#X#Xw.w.u.w.w.w.u.I.3.M.9.  ) ) R R u u u u u u u u u u u u u u u u ~ ~ ~ u u ~ ~  X~ 2.4 4 M.M.8X^.Y.Y.M.M.4 0.s s q q * b %.N j j C.C.C.C.N N 9 N N N C.,Xi.m ) m m m m m v i.N (.x x ] x x <._ q.A W &.* * c o * q q o o q q q q q q C ( K ( o s s o s s s o o o o o s s s s s o o o * q o o o C &.e & & A & e e >XD &.c * * * q q s s s s o o q q q o o o s o 0.a.a.S.l.@.X.X.h h h h X.@.5 5 @.5 B 5 5 B F 6 6 6 6 S.{.v.s o c d.&.K ,.f f & A A A & & & & & e e G G R.sXsXH.l.B F 6 1.1.S.S.sXl.l.S.S.S.1.S.1.S.S.@XR.}.}.}.a.a.a.a.t t t 0.0.s s s s s s q q o o o o o c d.&.,.D D K c * o o * * * * * * c.c./ / $.O.O.O.H H O.O.H O.H H O.O.H H H H H H A.A.A.P.P.* d.c.c.c d.p.p.}.v.KX8X3.}.R.L L.r.k.q.q.P P P P vXP P P P P P P P G.G.J J J J G.J G.J J J J J J J J J J J rXG.G.G.J ",
"U.g.! U.kXU.3X3XU.! ! ! ! ! ! ! ! ! ! ! ! ! ! ! ! ! ! ! ! ! ! ! ! ! ! ! ! ! ! ! ! ! ! ! ! U.3XcXdXSX5XSXlXcX3XcXlX,X4.................4.4.Y Y $.Y $.$.$.$.P.P.P.P.P.k H O.;.V V ;.O.k k k k P.m.m.m.9.9.A.2.2.2.^.Y.Y.{.{.V.V.S.S.sXyXyXyXh sXQ 1.x.#X#X#Xx.x.x.#Xw.w.w.u.w.w.w.u.I.Y.M.2.R R R u R u u u u u u u u u u ~ u u u u u ~ ~ ~ ~ ~ ~ ~  X~ 2.m.7.4 M.4 M.4 7.0.t C s q C K D vXP P G.G.G.G.G.G.P G.G.G.G.P P vX5X,Xi.m m m m m v v w 9 (.x x x x x (._ A & W K c c C C o q q s o q q o o o q o C ( C s q s o o o o s s s s s s s s o o o o q q * * * * C K e e e & & e e e D K d.* * q q q s s o o s q q q s o o o o s 0.0.a.S.sXX.X.X.h h h h X.@.5 5 5 5 B 5 5 B F 6 6 6 1.S.{.v.0.o o c &.K W e e W & r.r.r.A A A & W >XG F.sXsXH.@.5 B F F F Q Q l.Q Q S.S.S.V.V.V.{.V.V.V.S.S.@XS.S.S.V.}.}.}.[.t o s q q q q q q q q q o o * * * d.&.K K &.c o o * * * * * * * c./ $.c.$.$.O.O.H H H H H H H H H H H H H H H H A.A.A.A.P.P.c ).).).* c p.}.a.8XY.a.R.F.L.L.r.q.q.P P vXP P P G.P G.G.G.G.G.G.G.J J J G.b.b.s.s.s.b.G.J J J J J J J J J G.G.G.J ",
"g.3XcXdXdXdXcX3X3X! ! ! i ! i ! ! ! ! ! ! ! ! ! ! ! ! ! ! ! ! ! ! ! ! ! ! i ! ! ! ! ! ! 3X3XkXuXmX,X,X,X5XZXcXuXmXN...U U U ..........' ' ' 4.1 1 1 1 1 / $.$.O.O.O.O.;.V Y Y Y V ;.;.;.O.O.k k H <     l l >.>.>.^.M.Y.3.3.{.{.t.t.1.Q Q 1.t.x.#Xw.w.w.#X#Xx.x.#Xw.w.w.w.w.w.w.w.I.Y.^.>.>.u R u R u u u u u u u u u u ~ ~ u R R R u u u u u u >. X>.2.Q.C C [.[.( K K K K K N K 9 vXP P G.G.G.J J J J G.G.G.tXG.G.G.G.G.s.C.n k v v m ) ) v w N (.x x <.<.<._ r.e W ,.( c C ( ( C o * o o s s o o o s o o C o q q o o o o o s o o o o s s s o o o o * * * * c ( &.D e e e & e & A & e W K C o o o * o o o o s s s s s o C ( ( C q 0.t }.sXyXh h h h h yXX.@.5 5 5 5 B B 5 B F 6 6 6 1.S.{.a.0.t /.C ( K ,.D D W e & r.r.A e D ,.D [.}.sXsXsXl.5 5 B B B B l.l.Q S.S.S.@XV.a.a.v.v.v.a.a.a.}.V.}.V.}.}.}.R.R.G p.[.C C * * q q s s s q s o * * * c d.( ( ( c o o o * * * * * * c.P.$./ / $.O.O.H H H H H H H H H H H H H H H H A.A.A.A.A.q c ).).y c.c.C [.t v.a.}.G L.L.L.r.q.A P P P b.b.G.b.G.b.b.b.b.b.b.G.G.b.b.s.s.s.s.s.s.s.b.G.G.G.G.G.J J G.G.G.G.G.J ",
"3XkXdXSX5XrXdXcX3X3XU.! ! ! ! ! ! ! ! ! ! ! ! ! ! ! ! ! ! ! ! ! ! ! ! ! ! ! ! ! ! ! ! ! U.3XcXZX5Xw i.i.,XSXuXAXtXn ..U U U ..U ..........' ' 4.1 ' ' ' ' 1 4.Y V V V V > Y 4.Y V ;.;.;.V ;.V ;.j.l l l l l l l >.>.>.2.M.Y.Y.I.I.#X#X#X#X#Xu.u.w.w.w.w.w.#Xx.x.#Xw.w.w.w.w.w.w.w.I.8X^.~ ~ u u u u R u u u u u u u u u u u u ) ) R R u u u u >.>.>.  k C IX>XvXvXvXvXvX9 vXP vXP P P G.G.G.G.J J J J J J G.J J J G.G.G.G.G.s.C.N.n n v v m m i.N (.x x <._ k.q.& D ,.&.( c ( ( ( ( o o o o s s o o o s s o o s q q o o o o o s s o o o o s s s o o o c * * c ( &.K D D D W & e & r.A e e D d.c c o o * * s s s s o s s o C ( ( ( c o [.R.sXyXh yXh h h h h X.5 5 5 5 5 B B B B 6 6 6 1.1.{.a.a.t /./.( &.&.&.K D >XW e e e ,.&.d.( t }.sXsXH.B B 5 5 5 B B Q Q S.S.S.}.}.}.t 0.0.0.0.s 0.0.0.0.a.a.a.}.}.R.R.G G p.( C c * o s q 0.q s q o o * * * c C ( C c o o o * * * * c * c.P.$./ / $.O.O.O.O.H H H H H H H H H H H H H A.A.A.A.A.A.q d.y y y y y * o /.[.G L L.L.L.r.q.A P P P 5Xs.s.b.b.b.s.s.s.s.s.b.b.b.s.s.s.s.j j j s.s.s.s.b.b.b.b.b.b.b.b.b.b.b.G.",
"3XuXlXIX8.,XmXuXkX3X! ! ! ! ! ! ! ! ! ! ! ! ! ! ! ! ! ! ! ! ! ! ! ! ! ! ! ! g.! ! ! g.3X3XkXuXrXC.I 4.O.i.N lX} tXN...U U U U ......' ' ' ' ' 1 1 ' ' ' ' ' 4.Y Y V V > Y Y Y > V ;.;.;.;.;.;.j.j.l l j.j.j.j.l l >.>.>.>.2.M.8X8XI.u.u.w.w.u.w.u.w.w.w.w.#X#Xx.#Xw.w.w.u.w.w.w.u.8X8X~ ~ ~ ~ u u R u u u u u u u u u u u u R ) ) ) R u ~ ~ u >.  < i.,X5XvXvXP P G.G.P P P G.J J G.J G.G.J J J J J J J J J J J J J J G.J G.G.b.s.j C.N.n v k i.%._ x x _ k.q.& ,.K &.( C * ( ( K ( C o o o s s o o s s s o o o q o o o o o o s s s o o o s s s o o o c * * C K K K K &.&.,.& & A r.q.e e D ( C C ( C c * q q s o o s q q C ( ( ( d.( p.R.sXyXyXh h h h h h X.@.5 @.5 5 B B B F 6 6 6 1.S.V.a.a.t [.p.K &.&.d.d.&.K K K K &.&.c o q a.@XsXyXl.B B 5 5 5 B Q S.@X@XR.R.R.p.[.t s s s o C C o 0.0.0.0.t t }.R.R.R.p.[.C c * * o o o s s s s o o o * * * c c c o o o o * * * * c * c.P.$./ / $.O.O.O.H H H H H P.P.H A.H H H H A.A.A.A.A.P.P.* d.y I I I y c.* C p.L L.L.L.L.r.r.A vXvXs.s.j s.s.s.s.s.s.j s.s.s.s.s.s.j j j j j j s.j s.j j s.s.s.s.s.s.s.s.s.b.b.",
"kXgXSX,Xi.w 5XlXcXkX3X! ! ! ! ! ! ! ! ! ! ! ! ! ! ! ! ! ! ! ! ! ! ! ! ! g.! ! ! ! ! ! ! 3XkXdX5Xn ..4.V i.w SXdXmX%.....U U U U ........' ' 1 / / 1 ' ' ' ' ' Y Y V > > Y Y V V ;.;.;.;.;.;.;.j.l l j.l j.j.j.l l l l l A.l 2.2.M.8XI.u.u.u.I.u.u.u.u.w.w.w.#X#Xw.w.w.u.w.w.w.w.w.8X8X^.~ u ~ ~ u u R u u u u u u u u u u R ) ) ) R u ~  X~ >.# 8.,XC.5XP P G.G.G.J J J J J J J bXJ J J J J J J J J J J J J J J J J J J J J G.G.G.P s.j C.N.n b N k.x x <._ r.e ,.d.c c o o C ( ( ( C o o o s o o o s s s o o o o o o o q o o s s s o s o o C C ( ( C c c c &.D D ,.&.c d.,.& A q.k.r.& e D &.d.( K K ( C * q o o s q q q * c c c &.,.>XG sXsXyXh h h h h h X.@.5 @.@.@.5 B B B F 6 6 1.1.t.{.a.a.[.6.D ,.=X).).).d.d.).d.d.c o q 0.}.sXyXsXl.5 5 5 B B Q 1.S.R.R.G G >X6.( C q s s s o o 0.0.0.7.0.0.a.}.}.}.}.}.t s q q * o o o o s s s o o o o o o o o o q o o o * * * * c * c.P.$./ / $.O.O.O.H H H H P.P.P.P.P.P.O.H H H H P.P.P.c.q c d.y I E.E.I y c.* C 6.L L.L.L.r.r.r.9 9 N C.C.j j j s.s.j j j j j j j j j C.C.C.j j s.s.j j j 5Xj j j j j j j j s.s.",
"uXSX,Xw w b %.vXdXkX3X! ! ! ! ! g.! ! ! ! ! ! ! ! ! ! ! ! ! ! ! ! ! ! ! ! 3X! ! ! ! ! g.3XpXmXC.n ..4.Y ;.i.vXZXlXC.I ....U U ....' ' ' ' 1 / / / / 1 1 ' 1 Y Y V V V V > V ;.V ;.;.;.;.i.;.v ;.j.l j.j.l l l ) l l l l l l >.>.^.8XI.{.V.t.{.I.I.I.u.w.w.w.w.#Xw.u.w.w.w.u.w.w.u.8XM.>.~ u ~ ~ u u u u u u u u u ~ u u R R ) ) ) R u ~ >.  k 8.C.5XP P G.G.G.G.J J J J J J J J J J J J J J J J J J J J J J J J J J J J J J J G.G.G.G.P b.s.j 9 9 _ x x x (._ & ,.d.c o o o o C ( ( C o o o s s o o s s s o o o o o o o s o C o o o o o o C ( K D K K d.d.&.D >X>XD K d.&.,.A q.k._ r.& e ,.&.&.K D D ,.&.C * o * q * c c * * * c &.W >XG R.sXyXh h h h h X.X.@.@.@.X.@.5 B B B F F F 6 1.t.{.a.a./.6.D ,.=XE.I I ).).).y c * s t }.sXsXyXl.l.5 5 B Q Q S.S.S.R.G F.L >XD ( o q s 0.s 0.0.0.v.v.a.a.a.a.V.V.S.}.a.t 0.q q * o o o s q s s o o o o o o o o o q o o * * * * * c * c.P./ / / $.$.O.H H H H H P.c.c.c.c.P.c./ $.$.$.c.c.c.* * c ).y I I I I y y c.c.c 6.L.r.L.r.r.r.e N %.b N.N.C.C.j j j C.j j j j C.C.C.C.N.C.C.j s.s.s.5Xj 5Xj C.j j j j j j C.C.",
"lX5Xw y b b w C.mXcX3X3X! ! ! ! ! ! ! ! ! ! ! ! ! ! ! ! ! ! ! ! ! g.! ! g.! ! ! ! ! g.! kXuXrXN.....4.> ;.v 5XZXZXP I ..............' ' 1 1 1 c.1 c.1 1 1 1 $.Y V V V V V V V ;.;.;.;.;.> ;.;.j.j.j.j.j.l l l l l l l l l l >.>.2.M.v.}.sXV.{.I.{.#XI.w.w.w.w.w.w.w.w.u.w.w.w.w.w.8XM.>.u u ~ ~ ~ u u ~ ~ u u u ~ ~ ~ u R ) )   R u u >.< 8.,X5XP G.G.G.J J J J J J J J J J J J J J J J J J J J J J J J J J J J J J J J J J J J J G.G.G.G.G.b.P P bXtXx x (._ & ,.d.c * o o * o C C o * o s s s o o o s s o o o o o o o o C ( C o o o o o C ( K >XW D ,.,.,.W e e e W ,.,.W A A q.k.q.e W K &.&.D e e W ,.( c * q * c ( ( d.* * d.,.W e G R.sXyXh h h h h X.X.@.@.@.@.X.5 B B F B B F F 1.t.{.{.a.[.p.K =X4XI I I I y y c.q q t }.sXsXsXH.l.l.l.5 B Q Q Q S.S.R.R.G G >X6.[.t 0.0.t 0.a.a.a.a.V.V.V.V.S.}.S.}.V.}.t 0.s s o o o o s o o o o o o o o o o o o o o o q * * * * c c c./ / / 1 / $.O.H H H H P.P.* d.c c * y y c.y c.y y b c y y y y y y y y b c c.c.c 6.L.r.r.L.r.r.& N %.b w N.N.N.N.N.C.C.C.C.,XC.N.N.N.N.N.N.C.C.j j j j 5XC.C.C.C.C.C.C.C.C.C.C.",
"9 b y y ).).y b 5XdXkX3X! g.! g.! ! ! g.! ! g.! ! ! ! ! ! ! g.! ! ! ! g.! 3X! ! ! ! g.3XkXdXj N...U 4.> V v ,XlXZXlX%.I ' ' ..' ' ' ' ' 1 ' 1 ' c.1 c.1 / 1 $.$.V O.V V V V V Y V ;.> ;.;.;.;.;.j.j.j.j.l l l l l l j.l l l >.>.2.4 t R.R.V.3.8XI.{.u.u.w.w.w.w.w.u.u.w.w.w.u.u.w.I.M.>.u u ~ ~ ~ u u ~ ~ u u u ~ ~ ~ u u R R R u u R m 8.,X5XP G.G.J J J J J J J J J J J J J J J J J J J J J J rXJ J J J J J J J J J J J J J J G.J J J J J G.G.P bXbXtX<.(._ A D &.C o * o * o o o q q q s q q o o o o o o o o o o o o C ( ( C o s s o o C ( K D W e W W e & & e & & W W W f f A A & W ,.&.&.,.W e e e W &.d.c c.c ( K K d.d.d.&.D e e G R.sXyXh h h h h h X.@.@.@.@.X.5 5 B F B B B F 1.t.{.{.a.t [.( d.).y y y y y * q s 0.}.@XsXsX@.B 5 B 5 l.l.l.Q l.@X@X@XR.R.G G R.}.}.a.a.}.}.V.V.V.S.S.S.1.S.S.S.V.}.}.a.0.0.s s s o o o o o o o o o o o q o o o o o o q q * * * * c c c.c./ 1 1 1 $.O.H H H H H c.* d.c ).c ).y y y y y y c y y c.y c.c.c.* * c c c &.K W r.L.L.A A r.A e N b w w n n N.N.N.n N.n N.n N.N.n n n N.N.C.C.C.C.C.N.,X,X,Xn ,X,X,X,X,XN.N.",
"b b ).y y ).y w ,XmXuXkX3Xg.g.! g.! ! ! ! ! ! ! g.! g.! g.! ! ! g.! g.! ! ! ! ! ! ! ! 3XcXCXN.N.U U ..Y V ;.,XlX} ZXN y / 1 ' ' ' ' ' ' ' 1 ' ' ' ' 1 ' 1 1 Y $.V V V V V > > > > ;.> ;.> v ;.v ;.;.v j.j.l l l l l j.l l l >.9.7.[.p.G t 4 M.M.3.{.I.u.w.w.w.w.w.u.u.w.u.w.u.u.u.u.M.>.R u ~ ~ ~ ~ u ~ ~ u u u u ~ ~ u u R R u u R m 8.C.5XP G.G.G.J J J J J J J J J J J J J J J J J J J J J J J J J J J J J J J J J J J J J J J J J J J J J G.G.P P bX<.<._ A e ,.( c o o o o o o q q o o o o o o o o o o C o o o o C ( K K C o q q * * * c ( ,.W e & & A q.q.A A A & e e W W W W W ,.&.&.&.,.W e & & W ,.&.d.d.&.&.K &.&.&.K D W e & G R.sXyXh h h h h h X.@.@.5 @.@.@.5 B F B B B F 6 t.{.{.a.a././.* c.c.c.c.c.* C s t }.@XsXsX5 B B 5 5 5 5 5 l.sXl.sXsXsXsXsXsXsXsXR.S.S.S.V.S.S.S.S.S.S.Q S.1.S.V.V.a.a.0.0.7.q s s o o o o c o o * * o o o o o o o o * q * * * q * c c c c./ 1 1 1 $.O.O.H H A.H P.c.c c c c y c y y y y y y y y c.y c.* c o q q c &.L & A r.r.A A L.r.r.A e ,.%.b w n n n n n n 8.n n n n n n n n N.N.N.N.N.n n 8.8.8.8.8.8.,X,X8.n n ",
"E.N 4X).y ).y w w 5XdXcX3X3X! ! ! ! ! ! ! g.! g.! g.! g.! g.g.! ! g.! ! g.! ! ! ! ! g.kXpXmXN...U U ..4.> ;.8.SX} AXvX%.y / / 1 1 ' ' ' 1 ' ' ' ' ' c.' ' 1 1 $.Y V V V > V > > > ;.;.v j.;.j.;.j.j.j.m j.j.l j.j.l l l l >.A.C >XF.G t 7.9.2.^.Y.{.I.u.w.w.w.w.#Xu.u.w.w.u.#Xu.u.I.M.>.u u ~ ~  Xu u u ~ ~ ~ u u ~ ~ ~ u u u R R v n C.5XP G.G.G.J J J J J J J J J J J J J J J J J J J J J J J J J J J J J J J J J J J J J J J J J J J J J J J G.P P k._ <._ r.& D K ( C ( C o o * q * o o o o o o o o o o o o q o o C ( K K C s s o * o o C &.D e & f A k.<._ k.q.A e f e e e W W W D ,.,.,.& A A A & & & W W W W D ,.&.&.,.W e e e & G R.sXyXh h h h h h h X.@.5 @.@.@.5 B B B B B F F 1.t.{.3.a.t t o q q q q q s t [.R.sXsXsXl.5 B B B B B 5 5 l.l.l.sX@.sXyXsXsXsXsX@XS.Q S.S.S.S.S.@XV.R.V.V.V.V.a.0.0.0.0.0.s s o o s s q o o * * * * o o o o o * * * * * * o * q * c c c / / / 1 1 $.$.O.O.H H A.H P.c.c c y y y y y y y y y y y y c c ( /.0.7.0./.6.F.r.r.r.L.A r.r.r.r.r.F.vXW N %.b b n n n n n n n n N.n n n n n n N.n n n n 8.8.8.8.8.8.8.8.8.8.8.",
"9 9 4X).y ).y y w ,XSXuXkX3X3X! ! g.! ! ! g.! ! ! ! g.! g.! ! ! ! ! g.! g.! ! ! ! ! ! kXdXrX....U U ..4.> ;.i.5XZXxXZXvXd.c./ / / c.).' ' ' ' ' ' ' ' 1 1 1 1 1 Y Y V V > > > ;.;.;.j.j.j.j.j.j.j.m l j.j.l j.l l l l >.  m.t F.DXF.p.7.9.2.>.^.M.{.I.#Xw.w.w.w.u.#Xu.w.w.u.u.I.w.I.M.>.u u ~  X~ u u u u u u u u ~ ~ ~ ~ ~ R ) k ,XC.5XP b.b.b.b.J J J J J J J J J J b.G.G.G.J G.G.J J J J J J J J J J J J J J J J J J J J J J J J J J J J J J G.J G.P bX<.<._ A e >X,.K D K ( C c * C C o o o o c o o o C o o o o q o ( [.( o o * o o o C ( D W e & & A k.<._ q.A f W e e e L W D D W W e & r.r.r.A & & A q.A & e e D ,.,.W e & & e e G R.sXyXh h h h h h h X.@.@.@.X.@.5 B B B B B F F 1.1.{.{.a.a.a.a.0.t t t }.p.R.R.sXsXsX@.B 5 B B B B B B 5 5 l.l.l.sXl.@XsXsXsX@X@XS.S.S.S.S.R.S.}.R.}.}.}.a.t 0.0.s s s s s o o s s q q o q o * * q * o o o o q q q C ( C c * * * c c c c./ 1 1 1 / $.$.O.H H H H P.P.* c * c.c.y y y y y y y y ).&.K G p.0.Y.3.t G F.r.r.r.r.r.r.r.r.r.r.r.r.vXe N %.b w n 8.n n n n N.n n n n n n n n n n n n 8.8.Q.8.Q.Q.Q.Q.Q.8.8.",
"nX9 4XI y ).y y y w 5XlXkX3X3X! g.g.! ! ! g.! ! g.! g.! g.! ! ! ! ! ! g.! ! ! g.! U.U.jXCXj ....U U 4.4.> V ;.,XlXxXAXDX>X* P.P.c.c.' 1 ' ' ' ' ' ' c./ 1 1 1 1 / Y V V > > > ;.;.v j.j.l l j.l l l l l l l l l l l >.  k IXDXgXlXF.s 9.>.>.~  XM.I.I.#Xw.w.w.w.u.I.u.w.w.w.u.u.u.I.8X Xu u ~ ~ ~ u u R u u u u u ~ ~ ~ ~ ~ ) k ,X5X5XP b.b.s.b.s.b.J J J J J b.b.b.s.s.s.b.b.G.J G.G.J J J J J J J J J J J J J J J J J J J G.J J J J J J J J J J G.G.P bXtX<.k.A L.A e W e e D ( c c ( ( C o * o C o o C C o o o o q o C ( ( o * * o o C C K D >Xe e e A r.r.r.A & W W W e W W D D D W e A r.r.k.r.& e & q.r.q.& e e e e W e & & A & >XG R.sXX.X.h h h h h h X.@.X.X.X.@.5 5 B B B B F F Q Q S.V.V.V.}.V.}.V.@XR.sXsXsXsXsXl.B B B 5 5 B B B B B 5 B B Q S.S.S.S.S.}.@XR.@X}.}.}.R.R.R.R.}.R.}.p.t 0.0.q q o o o o s o o s q q o o o C C o q q o o o q q q o ( K ( C * * * c c c.c.1 1 1 1 1 / $.O.O.O.O.H H P.c.c.c.c.c.y y y ).y y y y %.D L F.G a.8X3.a.G L.r.k.r.r.q.r.r.r.r.r.r.r.r.r.vXN b w i.8.8.n n n n n n n n n n n n n n n 8.8.8.8.Q.Q.Q.Q.Q.8.8.8.",
"9 9 4XI I y y y y i.,XSXuX3Xg.g.g.! ! ! g.! g.! ! ! ! ! g.! g.! ! ! g.! g.! g.g.g.U.U.MXmXC...U U U ..Y > V ;.n SXuX+XAXDX( i.P.c.c./ 1 ' ' ' ' ' ' ' 1 / 1 1 4.1 Y V ;.> > > ;.j.j.j.j.j.l l l l l l j.l l l l l >.R k IXlXGXAXlX[.9.>. X X X XM.I.#X#Xw.w.w.w.u.u.u.w.w.w.w.w.w.I.8X^.>.u u ~ u R u u u u u u u ~ ~ ~ ~ u m 8.C.5X5X5Xj s.s.s.s.s.b.b.b.b.s.b.s.s.s.j j s.s.b.G.G.G.G.J J J J J J J J J J J J J J J J J J G.b.b.b.G.J J J J J J J G.P bXtX<.k.q.q.A e W e e >XK ( ( K K ( c o c C ( C C o q q q o o o C C o o o w C o C C ( K D e e L L & & e e e e W W W ,.,.,.,.D W e & A A A A e W & A q.A e e & A & e e W W & & 6.[.}.sXX.h h h h h X.h X.X.X.X.X.@.5 5 B B B B B B @.@.sXl.sXsXsXsXsXsXsXyXyXyXsXsXQ Q F B B 5 5 5 B B B B Q Q S.S.S.S.}.R.R.R.R.R.G R.G G R.G R.G R.G p.[.0.0.q q o o o o o s o o s s s o o o ( K ( C C o o o q o o C K D K c * * o C c c c./ / 1 1 1 / $.O.O.O.H H H H P.P.c.c c ).).y y y y y y &.>XF.F.R.a.3.v.}.G L.r.k.r.r.r.r.k.r.r.r.r.r.r.r.vXW %.b w i.8.8.8.8.n n n n 8.8.n n n n n n 8.8.Q.Q.i.Q.Q.Q.Q.Q.Q.8.",
"9 4XE.E.I I I I y y w 5XlXcX3Xg.! ! ! ! ! g.! g.! ! g.! ! g.! g.! ! ! ! ! g.! ! g.3XkXdXb.N.U U U U ..> V ;.;.i.,XlXkX0XuXlXSXK C c c.c.y ' ' ' 1 1 ' 1 1 1 ' 1 1 V ;.;.V > > ;.j.j.j.l l l l l l l >.l l l >.l   # ,XSXgXGX+XGXDXQ.>. X X X~  X^.I.I.#X#Xw.w.w.u.u.w.w.w.u.u.w.w.I.8X2.>.R u u u u u u u u u ~ ~ ~ ~ ~ ~ ~   8.,XC.j 9 j j j j j j s.s.s.s.s.s.s.s.s.s.s.s.s.s.b.b.b.b.G.J G.J G.G.J J J rXJ J J J J J J b.b.s.s.s.b.b.J J J J J G.G.P bXtXtX_ q.A A & e e e D K &.K D D K ( c C ( K K ( o q q q o C C o s q o o o s s o C C ( K 6.>XG G L L G >XD D D D W ,.,.,.,.9 ,.W e e e e e W W e & A A & A A r.A e e e & e W ( 0.a.@XyXh h h h X.X.X.X.X.h X.@.5 5 5 5 5 B 5 B 5 @.X.h X.yXyXyXyXyXh X.yXX.sX@.l.B F B B B B B B F Q S.@XS.S.S.@XR.R.R.G G G >X>XF.L >X>X>XL L G >XG p./.q q q q o o s s s s s o s s s o o o ( ( ( C o o o o o o o C K K ( c q * c C c c.c./ / 1 1 1 / $.$.O.O.H H H A.A.P.P.c.c d.c y * y y c y d.D F.L G }.a.a.}.L L.r.k.r.k.r.r._ _ r.k.r.r.r.r.r.e ,.( w w w 8.8.8.i.8.8.8.8.8.n 8.n n n n 8.8.Q.8.Q.Q.Q.0.Q.Q.Q.Q.",
"4XE.E.E.E.I I I y I w ,XSXdXkX3Xg.! ! ! g.! ! ! g.! ! g.g.! g.! ! ! ! g.! ! g.U.3Xg.cXmXC...U U U U 4.> V V ;.;.n 5XuXkX+XcXgXlXSXvXvXN %.%.&.).c.1 ' ' ' ' ' 1 1 V V ;.V > > ;.j.l l l l l l l >.l >.l >.l >.# 8.IXmXuXcX3X3XGXSXm. X X X~ ~  X^.Y.#X#X#X#Xw.w.u.w.w.w.w.u.u.u.u.I.Y.2.>.u u ~ u u u ~ ~ u u ~ ~ ~ ~ ~ ~ ~ R v 8.,XC.C.C.C.C.j j C.j j s.j s.j j j j s.s.s.s.s.s.s.s.b.b.b.b.b.b.b.b.G.G.J J J J J J b.b.b.s.s.j s.s.b.b.G.J G.G.b.b.P P bXtX<.k.q.A A & e W D K &.K >X>XK ( c C ( K D ( C o o o o o C o q q o o o s s o o o o C [.p.R.R.R.G G G 6.K K ,.N W N N N =XN ,.W W D D D ,.,.D W f A & A q.A & e e e e >X&.o 7.a.@XyXh h h X.@.X.X.h X.h h @.5 5 5 5 5 5 5 5 B @.X.h h h h h h f.X.X.@.@.@.5 B B B B B B F Q Q S.S.@X@XR.R.R.G R.G L L L e W e A e W ,.W e e e e >XK C q q o o o q s s s s s o o s o o o q o C o q q o o o o o o C ( K C o q * c c c c./ / / 1 1 1 / / $.$.O.H H H H A.A.P.P.c.c.* c c c * y y c ( G L G R.}.}.R.L L.r.k.r.r.E r.r.k.k.r.r.r.r.r.r.vXW K ( ( ( C C 8.w 8.8.i.8.i.i.8.n n n n 8.8.Q.Q.Q.7.Q.7.v.7.7.Q.",
"4XE.I E.I w I I y I y b ,XlXcX3Xg.g.! ! g.! g.! ! ! g.! g.g.! g.! ! ! ! ! g.! 3X3X3XMXrXN...U U U ..4.Y Y V V ;.v ,XlXcXkX3XkXcXuXgXZXlXSXSXvXK d.c.1 ' y ' y 1 1 Y V V V V > ;.j.l l l l l l >.l >.  < # k i.IXSXgXuXkX3X3X3XuXSXm. X X X~ ~  X^.I.{.x.x.#Xw.w.w.w.w.w.w.u.I.u.I.I.Y.2.>.u ~ ~ ~ ~ u u u u u ~ ~ ~  X X X~ u < 8.,X,XN.N.N.C.C.C.C.C.j j j j j j j j s.s.s.s.s.s.s.s.j s.s.s.s.s.s.b.b.b.b.b.b.b.b.b.b.s.s.j j j s.s.s.s.b.b.b.b.s.s.s.P P tXx <.k.q.q.A e e W ,.K ,.>XD ( C o c ( K D K C o o o q o o o o o C C o s q o o o q 0.t }.V.V.@XR.R.R.p.[.&.,.N 9 9 N N %.%.%.N ,.K &.&.&.&.K W & & e & A A & e >XD K ( * m.4 v.@XyXh h h h @.X.X.X.h h X.@.5 5 5 @.@.@.@.5 5 @.X.X.X.X.X.h X.X.X.@.@.5 5 5 5 B B F F 6 1.S.S.V.}.R.G G G 6.L W L e L.A & & & A e ,.,.,.e & e W D K C * * o o o q o o s s s s s q o o o q * o q q q o o o o q q q C C o q q o c * c.c./ $./ 1 1 1 / / / $.O.O.H H H A.A.A.A.P.P.c.* c w c * c c.q p.L L R.}.}.R.L.L._ k.r.r.r.r.k._ r.k.r._ r.r.r.A e D K K IX( ( ,X( ,XC w w 8.8.8.8.n n 8.8.8.Q.Q.Q.7.7.v.v.v.v.v.",
"E.E.E.N.I y y y y y y y b SXuXkX3Xg.! ! ! g.! ! ! ! g.! g.! ! ! ! ! ! ! g.! g.3X3XkXCXj N...U U U ..4.4.Y Y V ;.;.n 5XdXcX3XJXkXkXkXcXcXuXuXZXSXK c.c.c.' c.1 1 $.Y Y Y V V ;.;.j.l l l l l l >.>.< k 8.IXIXSXlXuXcX3Xg.g.3X3XGXSXQ. X X X X X X2.I.t.x.x.#X#Xw.w.w.w.w.w.u.#Xu.w.I.Y.^.~  X~ ~ ~ ~ u u u u u ~ ~ ~  X X X X>.# 8.w n w n n n N.C.C.j 5Xj C.j j j C.j j j j j s.s.j s.j j j j s.j j j s.s.s.b.s.b.s.s.s.s.j j j j j s.j j s.s.s.s.j s.j 9 P bX<.x <._ k.A f e e W D D D K C o q o C K K K ( c o * * * o ( ( ( K ( C s q * * o q 0.a.V.V.S.S.@X@XR.R.p.( K N 9 9 9 4X%.I b %.%.d.d.c c c d.,.e e e e e L e D K ( c i.# 9.M.v.@XyXh h h h @.X.X.X.h h h @.5 5 @.X.X.@.@.@.5 @.X.X.@.@.@.@.@.@.@.@.5 B B B 5 B Q F 1.1.S.S.S.}.R.G L e f f f f f L L.L.L.A A A f W ,.,.D e e W D K ( * * o o o o o o o s s s s q o o c * * o o o o o o o o q q q o o s s o C c * c.P.$./ 1 1 1 / / / / / $.O.H H H A.A.A.A.A.A.P.P.c.* c c c c.q /.6.L L R.R.L L.L.k.r.k.r.k.r._ k.k.k.r.r.r.r.F.& W D K K p.K IXK K K ,X( ( C C w w b b w w s s s s 0.7.v.3.v.v.v.",
"E.E.E.I y y y I y c.).c.c.N ZXcX3Xg.! ! ! g.g.! ! ! g.g.! g.! ! ! ! ! ! ! g.3X3XkXdXrXN...U U U ..4...4.Y V V V V > n rXuXkX3X3X3X3X3X3X3XkXcXZXF.c c.c.c.c./ / $.Y 4.4.Y > ;.;.j.l l l j.l l >.# 8.IXSXlXgXuXcXkX3Xg.g.g.g.3XcXlXQ.2. X X X X X^.I.t.x.x.#X#Xw.w.w.w.w.w.u.w.w.w.I.8X^. X X~ ~ ~ u u u u u u ~ ~  X X X X XR k 8.8.n 8.n n n n n C.j 5X5XC.5XC.C.C.C.C.C.j j j s.j s.j j j j j j j j j s.s.s.s.s.s.s.j j j j j j s.s.j j j s.j j j j 9 j 9 P _ x x x _ q.f & & e D K K C q q * o C ( K K K c * o c o C ( K >X>XK ( o q * * o 0.t V.S.1.1.1.Q @X@XR.}.p.K ,.9 9 9 9 4XI y y b b c c.c.c.c.( D >X>X>X>XD K ( o q m.< < 9.9.v.@XyXh h h X.X.X.X.h h h X.@.5 @.X.X.X.X.@.5 @.X.X.@.5 5 5 @.@.@.5 5 B B B B B Q Q 1.S.S.S.V.}.R.G W f f f nXf A & L L.L.r.L.A & & e W ,.,.W W D K K ( c q q o C C o o o s s s s o C C C c o C o o o o o o o q q o q q q s o C c * c.P.$./ / / / / / 1 c./ $.O.O.H H A.A.H A.A.A.A.A.P.P.c.c c * q o p.L L R.L OXL.L.r.k.r.L.r.k.k._ k._ r.r.A e e W ,.,.K D K K p.K K K D K K ( ,X( ( ,XC C ( ( ( C C t 0.v.v.v.{.{.",
"I I b I y y y ).).c.c.y c.b SXdXkX3Xg.! ! g.g.! ! ! ! g.g.! ! ! ! ! g.g.g.3X3XkXuXrXC.N...U U U U 4.4.Y > V V V V ;.;.%.mXuXkX3Xg.3X3Xg.3X3X3XxXlX>Xc c.c.c.1 $.$.4.4.4.Y > ;.j.j.l l j.l l >.< IXlXgXuXcXcXkX3X3X3Xg.g.g.g.3XkXgXIX9. X X X X X^.8X#Xx.x.x.#X#X#Xw.w.w.w.w.w.w.w.u.8XM.^.~ ~ u R u ~ ~ ~ ~ ~  X X X X X X XR i.8.8.w n n n n n N.N.C.C.C.C.N.C.N.C.N.N.N.C.C.j j j j j j j j j j j j j j j j j j s.j j j j j j j j j j s.j s.j j j j j 9 9 9 P _ <.x <._ r.A & D K ( C o q o C ( ( ( ( D K c * c c c C ( K ,.D D K C c c c c /.t V.S.1.1.F Q Q l.@XR.R.p.D ,.N 9 N %.b w w b b w y i.P.P.P.s ( ( ( C o q m.m.9.  A.  9.9.v.@XyXh h h X.X.X.X.h h h X.@.@.X.h h X.@.5 5 5 X.@.5 B 5 5 B 5 5 B B B F F 6 1.1.S.S.S.V.a.a.t p.>Xe f nXnXf nXq.A L L F.L & & f A f f W W >X6.K ( ( ( o q q o o o s s s s s s o o C ( ( C o o o q q q q o o o o o o q s s o o * c./ $.O.$.$.$.$./ / 1 / 1 / $.O.H H H H A.H H A.A.A.A.P.P.P.c.* o /./.6.L L OXL.L.L.r.r.r.k.r._ k._ k.r.r.A e W W D ,.K ,.K D K K D D D K K K K K ( ( C C C t ( ( ( ( C t 0.a.v.{.{.",
"I I I y y y y ).y c.c.w w w 5XlXcX3Xg.g.g.! ! g.! g.g.g.g.! g.! g.g.g.3X3X3XkXuXmXC.N...U U U U ..4.4.> > > Y Y Y V ;.i.C.lXcX3X3X3X! 3Xg.g.3XkXuXDX&.c.c.y 1 $.Y 4.4.4.Y V ;.j.j.l j.l l l u 8.mXuXkXkX3X3XJXg.g.g.! ! ! g.g.3XuXSXQ. XfX X X XfX8X#Xx.x.x.#X#X#X#Xw.w.w.w.w.w.w.I.8XM.^.~ u R R u ~  X X X X X X X X X X Xu k 8.8.n i.8.n n n n N.N.N.N.N.N.N.N.N.n N.N.N.C.C.C.C.C.j j j j j j C.C.C.C.C.j j j j s.j j 5Xj j j j j j j j s.j j j C.9 C.N N 9 & r._ (.x (.r.e &.d.* * q q ( K K K &.K D D c * c c c * c ( &.K D 6.K &.&.&.&.[.p.}.S.S.1.1.F Q Q l.@X@XR.p.6.K K &.d.w w b b b w i.k H < 9.m.7.7.7.7.m.9.9.        < 9.M.a.sXyXh h h X.X.X.h h h h X.@.X.X.h X.@.5 5 5 @.@.@.5 B 5 B B B B B F F F 6 1.1.S.S.V.V.a.0.0.o K W f A nXf f f A L L G p.6.6.e A A nX& & e e D &.C ( C C o s o o s s s o s s o o o C ( ( C o q q o o o o o o o o o o o s s q * q c./ O.O.O.O.$.$./ / / 1 1 / $.O.H H H H H H H A.H A.A.H H P.P.c.c C /./.L L OXL.L.r.r.r.r._ _ k.k.k.k.q.& W D ,.D ,.,.N ,.D K K D D D K K K K K [.K ( C o s o C ( ( C C t 0.0.v.v.3.",
"I I I y y y y y y P.w w w 8.IXmXuX3Xg.g.g.! g.g.g.g.g.! g.! g.g.g.g.3X3XkXcXuXmX9 E.4...U U ..U ..4.4.4.Y Y 4.4.Y Y V ;.i.,XlXcXkX3X3X3Xg.g.3X3XcXZXD y c.1 1 $.Y 4.4.Y > ;.j.j.j.l l l l l ) ,XdXkX3XJX3X3X3Xg.g.! ! g.! g.g.3XcXlXQ.^. X X X X^.I.t.x.x.x.x.x.x.#X#Xw.w.u.w.w.u.I.8XM.^. X>.>.>.>. X XfX X X X X X X X X XR m 8.8.8.i.i.8.8.8.8.n n N.N.N.n N.n n n n N.N.N.,X,X,XC.,XC.C.C.C.C.C.C.C.C.C.C.C.j j j j j j 5XC.C.C.C.C.j j j j C.C.C.C.,X,Xb %.%.N e _ x y._ e &.c * q q o K >X>XD ,.D D D d.c * * * * * c d.&.D e >XD ,.,.D >XG R.R.S.1.1.6 6 Q l.l.sXsXR.R.p.[.C o * * w w b w i.k <     9.9.2.2.9.9.          < < 9.4 a.sXh X.h X.X.X.h h h h h X.X.X.X.X.@.5 5 5 5 5 5 5 5 l.5 B F F F F 6 F F 1.1.S.V.}.}.t 0.q * * &.,.f q.nXf f f L L R.}.t /.&.W q.q.A f A A e D K ( ( ( ( C o o q q q s o o o o o o C C C C o o o o C o o o o o q q o o q q q q c./ $.O.O.O.O.$.$./ / / 1 1 / $.O.H H H H H H H H H H H H A.A.A.P.q q q /.6.L L L L.r.r.r.r._ r.r.q.q.q.f ,.&.&.&.K ,.,.,.,.K ,.K K D ,.K K K K K ( ( C o s s s s s s s s s 0.0.v.v.3.",
"I I I I n y y y y b %.5XSXSXlXdXcX3Xg.g.! ! ! g.g.g.g.g.! ! g.g.g.3X3XkXGXlXSXN E.......U U U ..4.Y 4.Y > > Y Y Y Y $.k k i.IXmXuXkX3Xg.g.! g.3XkXZXvXy / 1 1 Y Y 4.4.Y V V ;.j.j.l l l l l v IXuX3XJX3X3Xg.g.! ! ! g.! ! g.3XJXkXgXSX9. X X XBX^.I.#Xx.x.#Xx.x.x.#X#Xw.w.u.w.w.w.u.I.8X^.^.^.2.M.^.^.fXfXfX XfX X X X X X X~ R < k Q.Q.Q.Q.Q.Q.8.Q.8.8.,Xn 8.n n n i.n w 8.w 8.,X,X,Xn N.n N.N.N.N.N.N.n n N.N.C.C.j j C.C.C.C.N.N.N.C.C.C.N.N.,X%.,Xw k # k k i.c.).N r.(.(.A D &.d.c c C K >Xe W W W W D K ( d.c c d.( &.,.D W L e e e e e e L G R.V.S.1.1.F F B l.H.sXsXsXF.p.t 0.o o * w w w i.k < <   9.2.2.2.            <     2.Y.V.sXh X.X.X.X.h h h h h h h h h X.@.B B 5 5 5 5 5 B B 5 B F 6 6 6 6 6 6 6 1.V.V.a.t 0.q q * y y y d.=Xf A f W L L L R.}.a.0./.W k.k.q.f f & e e W D >XD K C * o o o o o C C C o o q o o o q q o o o o o o o o o o o o o o o q q P.P.O.O.O.O.O.$./ / / 1 1 1 1 / O.H H H H H H H H H H H H H H A.A.A.P.q c p.L L.OXL.r.r.r._ r.r.q.A f f ,.&.c c d.&.,.,.,.,.,.K K K K K ,.K K K K ( C * * i.q s s i.s i.o s s Q.0.7.4 ",
"I I I I y y y b b vXtXZXdXuXcXcX3Xg.g.! g.! g.g.g.g.g.! g.! g.g.3X3XkXGXlXF.( w ......U U U ....4.Y Y > > V > Y 4.4.Y ;.;.k 8.IXmXdXkX3X3X! g.3XcXZX9 y $.Y 4.Y Y Y Y V V ;.;.j.j.j.l l l j.v IXuXkX3X3Xg.! g.g.! ! ! g.! ! g._.3XcXlXQ.M. X X X^.I.#Xx.#Xx.#Xx.x.x.#Xw.w.u.w.w.w.u.u.8XKXKX8X8X8X8X8XKX8X^.^.^.^.^. X X X~ ~ ~     < < 9.9.9.  9.# Q.8.8.8.Q.s s s s 8.s s 8.o Q.8.8.8.8.8.n n n n N.n n n n N.N.N.C.N.C.N.N.N.n n n N.,XN.,XN.n n 8.k < m < < # # k b W _ (._ & W ,.K &.&.D e e e e e e W W ,.&.c d.&.,.D W e L e L e & & A & e G p.}.V.V.1.1.F F B 5 @.yXyXsXsX}.}.t 0.s s w w i.k < < < <       2.        < <     2.3.V.sXX.X.X.X.@.h h h h h h h h h X.5 B 5 5 5 5 5 5 l.B Q F 6 6 6 6 6 6 6 S.S.V.a.0.s q c.c.y y y I ).4X9 f f f L L R.}.a.v.v./.e _ _ q.f f f & e e e W D ( C o o o o o C ( ( ( C o q s o s q s o o o o o * * o o o o o * c c * c.P.O.O.O.O.O.$.$./ 1 1 y 1 1 1 / $.H H H H H H H H H H H H H H H A.A.A.A.q /.6.L L L.r.r.r.r.r.A A f W =X=Xd.c.c.c &.,.D ,.K K K K K K K K K K ( ( C o * * q s s s s s o 8.o 8.Q.m.m.m.",
"I I I b y y y b %.SX} xXkX3X3X3X3Xg.g.g.g.! g.g.g.g.! g.! ! g.g.3XkXuXlXF.( w I ..U U U U ....4.4.> Y > > V V V Y Y Y Y V ;.;.8.,XSXdXkX3Xg.3X3XcXmX%.y Y Y Y V V > > > ;.;.;.j.j.j.l l l l m ,XZXcX3Xg.g.g.! g.! ! ! ! ! ! ! 3X3XkXuXUXQ.M. XfX^.I.#Xx.x.#X#Xx.x.#X#Xw.w.u.u.w.w.w.w.w.w.I.u.I.I.I.8X8X8XI.8X8XY.Y.M.^. X X~ ~ >.u >.>.>.2.>.^.>.2.m.Q.s Q.7.7.Q.7.0.s Q.s s t Q.s Q.8.8.8.8.8.n n n n n n n n n n n n n n n 8.n w 8.w 8.8.8.8.8.k v v m m m m m < < i.( & _ _ r.A & W ,.,.W e & & f e e e e W ,.d.&.,.W W e & e e & A & A A e W 6.[./.t a.V.S.1.F F B 5 @.yXyXsXsX@X}.a.0.s o s i.k # < m < < <   2.)     m < m < 2.2.v.S.sXX.@.X.X.X.X.X.h h h h h X.X.@.5 5 5 5 5 5 5 5 5 B F 6 1.6 6 6 6 6 1.S.V.a.0.s q * y w y y y I I ).4X=Xf & L L R.a.a.3.v./.e k.<.k.q.f A & e e e >XK d.c * * s s C ( >X>XK ( C s s s o o o o s o o * * * c o o o * * c c c.c.P.O.O.O.$.$.$.$./ 1 1 1 1 ' 1 / $.O.H H H H H H H H H H H H H H A.A.A.A.A.P.o /.6.L L.r.r.L.r.& e W ,.=X%.).y c.c d.K >XD K ( K 6.K p.K K ( ( C C o q q q q s o s s s s s s Q.# < < m ",
"I I I I I y y y %.vXZXxXJXJXJX_.g.g.g._.g.g.g.g._.g.g.! g.! g.3X3XcXgXSX( c.y ....U U U U ..4.4.> > > > > V V V V > Y Y 4.4.;.v v n SXuXkX3X3XkXuXSXb y 4.Y Y V V V > V ;.;.;.;.j.l l l l l R 8.SXuX3X3Xg.g.! ! g.! g.! ! ! ! g._.3XcXgXUXIXM. X^.I.t.x.x.x.#Xx.#X#X#Xw.w.u.w.w.w.w.w.w.w.w.u.I.I.I.I.I.I.I.I.I.I.I.I.Y.^.^. X~ ~ ~ ~ ~ >.  2.>.^.>.9.4 4 M.4 4 4 7.v.v.v.v.v.0.Q.0.s s 8.8.8.8.8.8.n 8.n 8.n 8.n n n 8.n w n w 8.8.8.8.i.k v k v v v v v < m m m v ) < i.%.A _ _ _ q.f W W e W W W f & & & e e W &.,.W W e e e W e & & & & & W K ( C C t a.a.V.1.1.F F B 5 @.X.yXyXyXsXR.}.t 0.s 7.k # < < m     )     m   )   < < 9.2.v.@XsX@.@.X.X.@.X.X.X.h h X.X.@.@.@.@.5 5 5 5 5 5 l.5 B F 6 1.1.6 6 1.1.V.V.a.0.s q * * y y y y y ).I ).d.4X=Xe L OXR.a.v.3.0.p.& q.k.k.A f f e e W vX>X&.c * * * * o ( K >X>X>X( o s o o C C o o s q q * * * o o o c o c c c c./ $.O.O.O.$.$.$.$./ 1 ' 1 1 1 1 / $.O.H H H H H H H H H H H H H H A.A.A.A.A.A.P.q c K e L.L.r.r.A W ,.N N %.).y y * c ( D K ( /.p.K [.[.( /.C c c q q q q q q q o o o q s s Q.#   >.R ) ",
"I I I I I I y y w %.vXZXcX3X3X_.g.g.g.g._.g.g.g.g.g.g.g.g.! g.3X3XuXSX,Xi./ 4...U U U U ..4.4.> > > > > V V ;.;.;.V V Y 4.4.> ;.v v w mXuX3X3XkXdXvXb 4.4.Y Y V V > > V V ;.;.;.j.j.l l l l l R ,XmXcXkXg.g.g.! g.! ! ! g.g.g.g.3X3X3XkXuXlXIXM.M.I.t.x.x.x.x.x.#X#X#Xw.w.u.u.w.w.w.w.w.w.w.u.I.I.8XM.8X8X8XY.I.8XI.I.I.Y.8X^. X>.>.>.>.9.Q.4 M.^.^.M.4 Y.M.M.M.Y.3.v.v.Y.Y.Y.3.7.0.s Q.i.i.8.8.8.8.i.8.w 8.w 8.w 8.w 8.w n 8.8.8.i.k k # m m v m v ;.v v m m m v v m ) < i.%.vX_ (._ q.A f f f f & A r.r.A e & e ,.D W e & & e e & A A & & W ,.&.c * * o 0.0.a.{.V.1.1.F B l.@.@.h yXyXsXR.}.a.0.0.m.9.< < <   R     < <         9.9.M.V.sX@.@.@.h X.X.@.X.X.h h X.@.@.5 5 5 5 5 B 5 B B B B B F 6 1.1.1.6 1.V.a.a.0.s * * y y y y y y y I I ).).).&.,.L F.R.a.3.v./.6.& f k.q.f f f f e e W K ( c * * * o C ( K >XD K C o o o C ( K ( ( C o o o o o o o o o c c c c.c./ / / O.$.$.$.$./ / 1 1 1 1 1 1 / $.O.O.H H H H H H H H H H H H H H A.A.A.A.A.A.A.P.* &.6.L L.L.A W ,.9 N %.E.I y c.* d.K &./.c /././.&./.&./././.d./././.c /.c C C c o C s m.2.>.~ u u ",
"I E.b I I y y y w b %.vXZXcXkX3X_.g.g.g.g.g.g.g.! g.g.g.g.g.g.3XkXZX5Xw 1 ' ..U U U U ..4.4.> > > > V ;.;.;.;.j.;.;.j.V Y 4.> ;.;.< k IXlXcX3XcXZX5XI 4.4.Y > > > > > V V ;.;.;.V j.l l j.l l >.m IXlXcX3Xg.g.g.! ! g.g.g.! g.g.g._.3X3XkXcXgXSXV.{.t.x.x.x.#Xx.x.#Xw.w.w.u.u.u.w.w.w.w.w.I.8XY.M.^. X X X^.^.^.^.8XY.I.Y.8XM.M.2.^.2.M.4 a.v.Y.8X8XY.3.Y.8X8X8XY.Y.v.v.Y.KX8XY.7.0.Q.m.< # k i.8.8.8.8.8.,X8.n w n 8.n 8.8.8.8.k k # < < m < m m v v v v v m m v v m m m ;.w %.A _ (._ k.q.A A A r._ _ _ q.f & W ,.,.W e & A & & A r.r.A e ,.&.d.w w w w * o 0.a.a.V.S.S.Q F B @.@.X.yXsXsX@XV.V.a.v.4 9.9.    2.    < <     2.9.9.4 v.S.sX@.@.X.X.X.X.@.@.X.X.X.X.@.5 5 5 5 5 5 B B B B F F F 6 6 1.1.S.1.V.V.a.0.q q y y y w y ).y y y y y y y ' ).&.D L R.a.v.3./.G & f q.nXf nXf f & e D &.d.c c c * o o C C ( ( C o o o C ( K D >X>XK C o o o o o * o q c c * c./ / / 1 $.$./ / / / 1 1 1 1 1 1 1 1 / $.O.H H H H H H H H H H H H A.H A.H A.P.A.A.A.A.P.q /.6.L L e W W 9 N E.I I y c.c.d.&.&.d././.&.K 6.6.W L W W L L W 6.6.6.6.6.&./.&.K C m.>. X X~ ~ ",
"I b b b I y y y y y w ,XSXZXcX3X_.g.g.g.g.g.g.g.g.g.g.g.g.g._.3XkXmX%.I 4...U U U U ..4.> > > > V > ;.;.j.j.j.j.j.j.l j.V V V ;.;.l   8.SXuX3XuXmXN ....4.Y V > > > > > > V V V ;.;.j.j.j.j.l l ) k IXdXcX3Xg.g.g.g.g.g.g.g.g.! 3Xg.g._.3X3XcXuXDXsX1.x.x.x.x.x.x.#Xw.w.u.u.u.u.u.w.w.w.u.KX^.^.2. X X X X X XfXfX^.M.Y.Y.Y.Y.Y.8XY.Y.Y.3.V.{.{.I.I.{.{.3.8X8X8XY.3.v.{.8X8X8XY.v.7.m.  >.  < # # # k i.8.i.8.8.8.8.i.i.i.k k k m m m m m m m v v ;.v v v v v v m m m m m v v i.N A _ (.(._ k.q.q.k._ _ _ q.f e W ,.,.,.W & A A A q.r.r.A W K d.b b w w w w b o 0.t a.V.V.S.1.Q l.l.@.@.H.l.sXl.S.V.a.3.Y.M.M.9.2.9.        2.2.M.Y.v.V.sXyXX.X.X.X.X.X.@.X.X.X.@.@.@.5 5 5 5 5 B B B B Q F F 6 6 6 1.S.S.V.a.a.0.q c.y y I y y y y y y y y y w y y y ).&.6.R.}.v.v./.6.f f f nXf nXf A A & W K d.d.c c * o o o o C C o o o o o C ( K >XK K C o o q o o o o o c c c./ / / 1 ' / / / / / 1 1 1 ' 1 1 1 1 1 / $.O.O.H H H H H H H H H H H H H H H H O.H H A.A.A.A.P./.6.6.W W =X=X4XE.I I y c.c &.,.W 6.W L L L.L.E E E E E E E E E L.L.L.L.L.L L.F.K 7.>. X X X~ ",
"I I I I y y ).).y y i.i.w SXZXcX3X3Xg._.g.g.g.g.g.g.g.g.g.g.3X3XcXrXN.I ....U U U ..4.> ;.;.V V V V ;.;.j.j.l l l l l l j.;.;.j.j.l >.< IXgXkXuXP E.....4.Y V > > > > ;.> > V > V ;.j.j.j.l l l l ) # SXdXkX_._.g.g.g.g.g.g.g.! g.g.g.g.3X_.3X+XGXyX1.x.t.x.x.x.x.#X#Xw.u.u.u.u.u.u.u.I.8X^.fX X X X X X X X X X X^.2.M.M.Y.Y.Y.I.Y.I.I.I.{.{.{.t.t.t.V.{.I.8XI.I.{.{.{.I.Y.Y.v.7.4 2.>.>.>.R ) R     # k k k k k v k v v v m m m < m m m v v v v v v v v v v v m m v v v m m v i.%.vX_ (.(.<._ k.k.k.k.q.A f W ,.&.&.,.W e & A A r.r.r.e ,.&.b b b b w w b b b o s t t a.V.{.S.Q B 5 5 5 l.5 l.sXl.S.V.{.v.Y.Y.M.M.2.2.2.2.2.M.Y.v.V.sXyXh X.X.X.X.@.X.@.X.X.@.@.@.5 5 5 5 5 B 5 B B B B 6 6 6 6 F 1.S.S.V.a.0.q * y y I I I y y y * y y y y w y y I ).d./.p.}.0.0./.6.f f f nXf nXf f A q.A W ,.&.( C c o C o o o o o * o o o o C ( ( ( ( C o q q q q o o o c * c./ / 1 ' ' 1 / / 1 1 1 1 1 ' 1 1 1 1 1 1 / $.O.O.H H H H H H H H H H H A.H H H O.O.O.H A.A.A.A.P.c K ,.,.=X).E.).I ).).).&.=XA E E E '.'.(.] y.y.] y.6Xy.6Xy.] ] ] ] '.'.(.(.(.L C A. X X X X",
"I y y y y y ).y y y y w w b 5XZXcX3X3X3Xg._.g.g.g.g.g.g.g.g.g.kXuXSXN.E.U U U U U 4.> ;.j.j.;.;.;.;.;.;.j.j.l l j.l l l j.j.j.j.< >.>.  IXlXcXdX5X........Y V > > ;.;.V V ;.> > > ;.;.j.j.l j.l l R R k SXuX3X_._.g.g.g.g._.g.! g.g.g.g.! g.JXJX0XyXB x.x.x.x.x.x.x.#Xw.u.w.w.w.u.I.I.I.^.^. X X X X X~  X X2.>. X X X^.M.M.Y.Y.Y.Y.8XY.I.8XI.I.I.{.S.S.S.1.t.t.t.t.I.I.I.3.v.v.m.2.>.>.R R R R u u R ) m m m m v v m m m < m m m v v m v m v v v j.m m m v v v v m v v m m m m k i.b 9 P _ x x <._ q.q.A A A A W ,.,.W e e e & A A r.& D ( c * w b b w w b b b w w o t t a.{.{.S.l.5 5 B 5 @.@.@.@.l.Q Q S.S.{.Y.8XM.M.M.M.M.Y.{.S.sXyXh h X.@.@.@.@.5 @.X.@.5 5 @.5 5 5 5 B B B 5 B B B 6 6 x.6 F Q S.V.a.0.q * b I I I I y y y y y y y y y y w I I I c.c./././.a./.6.f f nXf nXf f f A k.r.A e D K &.C * * * o o o * o C * * q q o q q o C o q q q q o c c * c.c./ / 1 ' ' 1 1 1 / 1 1 1 ' ' 1 1 1 1 1 1 1 / $.O.O.O.O.O.O.O.O.O.O.O.H H H H H H H H H H A.A.A.4 P.c &.&.d.).).).4X=X=Xf A k.<.] ] ] '.] '.] ] ] ] ] ] ] ] ] ] '.] '.] 6Xy.`.(.r.e d.A.>. X X",
"I I I y y y y y y y y w y w b 5XlXuXkX3Xg.g.g.g.g.g.g.g.g.g._.kXuXrXN.n ........4.> j.j.j.j.j.j.j.;.;.j.j.j.l l l l l l l l l m k 8.8.IXSXuXcXZXj ......4.Y V > > > > ;.> > > > > > > ;.j.l l l l l >.) ,XSXuXkX3X_.g.3Xg.g.g.g.! g.! ! g.g.3XJX0XgXl.6 x.x.x.x.x.#X#Xw.w.w.w.w.w.u.I.8X^.fX X X X~ 2.m.Q.t t Q.9.>.~ >.2.9.m.m.M.M.M.^.^.^.^.^.8XY.I.{.t.t.t.#X#XI.I.I.Y.Y.4 m.2.>.>.R ) ) ) R R R R ) m m m m m v v m m m m m v v v v v v v v v m m m m v v v v v v m m m m v v v k w %.9 r.<.<._ k.q.A q.r.r.& W W e & & e & & e e D &.C * * w w w n b b %.b w w w s s 0.v.{.V.Q 5 5 5 5 5 @.@.@.@.5 5 l.l.l.S.S.V.V.a.{.{.V.@XsXyXh h X.X.@.@.5 5 5 @.@.5 5 5 5 @.5 5 5 B Q B B B B B F 6 6 F F Q S.V.a.0.q * y I I I I I y y y y y I y w y y I I I y c.o /././.6.D f f f nXf nXnXA q.k._ r.& e W D &.C C c o * * * * o o * * o o * * o C o o q q o c c c.c.c.c./ 1 ' ' ' 1 1 1 1 1 1 1 1 1 1 1 1 1 1 1 1 1 / / $.$.$.O.O.O.O.O.O.O.H H O.H O.H H H H H A.A.A.A.A.P.c.d.d.).).=XW A k.E <.<.] 3 ] ] ] ] ] ] ] ] ] ] ] ] ] ] '.] ] ] ] ] '.] ] (.(.r.D c i.P.",
"E.%.%.b b y y y y y y y y y y b 5XlXuXkX3X3X_._.g.g.g.g.g.g.g.3XcXmX5XN.n ..n n Y ;.l l l j.l j.j.;.;.j.j.l l l l >.< < m k 8.,X5XSXmXlXuXcXcXmXC...U ..4.Y > > > ;.> > > > > > ;.> > ;.;.j.l l l R u R m ,XmXuXkX3Xg._.g.g.g.g.g.! ! g.g.g.3XJX0XgXl.6 6 x.x.x.x.x.#Xw.u.w.w.w.w.w.I.8X^.^.M.m.Q.Q.IXSXDXDXSX[.m.      < < # # < 2.>.>. X X X^.^.^.M.8XI.I.I.I.u.I.I.3.M.M.9.2.~ ~ u R ) ) ) ) ) ) )   m m m v v v v v v v m m v v v v v ;.v ;.v m j.m m m v v v v m m m m m v m v v v ;.y %.vXP r.q.A A A r.r.A e e & A e e e e W D &.C c * w w w b b b %.%.%.b b w * s 0.v.{.V.Q B B B 5 5 5 @.5 5 5 5 5 5 sXX.yXsXsXsXsXsXsXyXh h h @.@.@.@.@.5 5 5 5 5 5 5 B 5 5 5 5 5 B B B B F B B 6 6 6 F F Q S.a.0.q * y y y I I y y w y y y y I I y y y I E.E.I c.q c /.6.6.W f f nXnXnXf f f q.r.r.r.e e & e D K &.( ( C * * * * * * * o C o o o o o q o c C c c c.c./ / 1 1 ' ' ' 1 1 1 1 1 1 1 1 1 1 1 / / 1 1 1 1 1 1 / / $.$.$.$.O.O.O.O.H H H H O.H H H H H H A.A.A.A.A.P.d.&.d.=Xf q.<.] ].<.].] ] 3 ] ] ] ] ] XXe.3 ] XX] ].] ] ].] ] ] '.] ] (.] y.(._ & D K ",
"E.N N N b I y y I y y y y y b ).b K SXuXkX3X3X_._._.g.g.g.g.g.3XkXdXmX5XC.C.,X,Xn k l l l j.j.j.j.;.j.j.l l l u >.  8.8.IXSXmXCXuXcXkXkXkXkXdXrXN...U U 4.Y Y Y > > > > > > > ;.V > > > ;.j.j.l l l l >.l m ,XmXuXkX3X_.g.g.g.g.g.g.! g.g.g.3XJXGXyX@.Q 6 x.x.x.#X#X#Xw.w.w.w.w.w.u.I.3.3.Q.IXIXUXlXgXxXxXgXSXt m.# m v v v m m ) R u u ~ ~  X>. X>.^.^.8X8XI.8X8XY.v.v.9.2.  >.>.R R R ) ) ) ) ) ) ) m m v v v m m m m m m m m m v v v v v v v v v m m m v v v v m m v v v m m v v v m j.j.;.y %.N 9 W e & & A & e W e L e D D D ,.K ( c * w C w b b %.%.,X%.%.( b C o 0.a.a.{.1.Q B B B F F B B 5 B B B B B @.@.X.h yXh yXyXh h X.X.X.@.5 @.@.@.5 5 @.5 B B 5 5 B 5 5 l.5 B l.B B B F B 6 6 6 F Q 1.V.a.0.* y y y y y y y b y w y y y I I I y y I E.E.I y c.* &.,.W f f $Xf nXf nXf 9 f A r.A & e & A & e W D K &.d.c * q * q q * o o o q q q q c C d.c c.c./ / 1 ' ' ' ' 1 / 1 1 1 1 1 1 1 1 / / / / / / 1 1 1 1 1 1 / / $.$.$.O.O.O.H H H H H H O.O.H H H H A.  A.A.P./.&.6.L.E ] ] ] ] ].] ] ] e.3 ] ] XX3 ] XX3 3 3 3 ] ] ].<.].] ] ] ] ] ] ] ] ] (.(.r.L.",
"E.N 9 N b y I I y y y y b y y y y w ,XSXdXcX3X3X_.g.g.g.g.g.g.3X3XkXuXdXZXCXlXlXSXIXk l l l l j.j.j.j.j.l l l l ) 8.SXlXgXuXcXkXkX3X3X3X3XkXmXj ..U U ..4.Y Y > > > > > > > > > > > > ;.;.;.j.l l u l u >.l < ,XlXcX3X_.g.g.g.g.g.! g.g.g.g.3XJXGXyXl.Q F x.x.#X#X#X#X#Xw.w.w.w.w.I.{.sXDXlXgXuXGXcXkX+XxXlXIXQ.# v v v v v m ) ) u ~ ~ ~ u u ~  X~ ^.^.8X8X8X8XY.3.3.4 2.>.>.u R R R R R ) ) ) ) ) m m v v m v m v v m v m v m m v v v v ;.v v v v v m v v v v v v j.v v v v m v v v v m m v ;.;.y b %.N N ,.W W e W e e W D K &.d.d.b w w w w b b %.%.%.%.( b b C C o t V.V.S.Q B 5 5 F 6 6 6 F B B B B B B 5 @.X.h h h h X.X.X.@.@.@.5 5 @.@.@.@.@.5 5 B 5 5 5 5 5 5 5 5 5 5 B F F F F 6 6 1.Q 1.1.V.a.0.c y c.y y y y w y y y I y I I I I I I I E.E.I y c.c d.&.W f f nXnXf nXf 9 =X=Xf A & & & r.r.r.r.vXe W ,.&.c * * * * * * * * q q q o /././.c c.c./ / 1 ' ' ' ' ' 1 / / 1 ' 1 1 1 1 / / / / $./ / / 1 1 1 1 1 / / $.$.O.O.O.O.H H H H H H H H H H H H H A.A.2.7./.L L.'.] ] ] ] ] ] ] ] ] ] ] XX3 ] ] 3 ] 3 XX3 XX] 3 ] ] ] ] x ] ] ] 3 ] x ] ] '.E L.",
"E.4XN %.b y I y y y I y y y y ).y y c ,XSXlXuXkX3Xg.g.g.g.g.g.g.g.3X3XkXkXcXcXcXuXlXIXm l l l l j.l j.j.j.l l l   ,XlXxXkX3X3X3X3X3X_.3XkXuXrXN...U U ..4.Y Y > > > > > > > > V > > > ;.> ;.j.l l l l l l R ) k IXgXkX3Xg.g.g.g.g.g.g._.g.g.g.JXGXyXl.hXhXx.x.#X#X#X#X#Xw.w.w.w.u.I.V.DXGXcXkXkX3X3X+XcXgXSXQ.m.# # v v v v m ) R u ~ ~ ~ u u ~  X~ ^.M.8X^.8XM.3.4 4 2.>.~ >.R R R R R ) ) ) ) ) l m v v m v v v m m v v v v v v m v v v v v ;.v v m m v m v v v v v v v v v v m m m v v v v v H v Y y b %.%.N ,.D W W 6.D K &.d.w b b w w w w w b b ,Xb %.b b C C t }.V.S.S.Q B l.B B F 6 6 F F B B B B B 5 5 @.@.X.X.X.X.@.@.@.@.@.5 5 5 5 5 5 5 @.5 5 5 5 5 5 B 5 5 B 5 5 5 B F F F F 6 6 1.1.1.V.a.a.C c y y y y y y y y y y w I I I I I I I I E.E.I y y c.c.&.W f f nXf nXnXf $X=X$X=XW W W & r._ _ r.r.& e W ,.&.d.c c c o c C o o q o C ( &.d.c c./ c./ 1 ' 1 1 1 1 1 / / 1 ' ' 1 1 1 / / $.$.$.$./ / / 1 1 1 1 / $.$.O.O.O.H H H H H H H H H H H H O.k H A.A.A.q 6.L.'.] ] ] 3 ] ] ] ] ] ] ] ] ] ] e.] XX] ] ] ] 3 ] 3 ] x ] ] ] ] 3 ] 3 ] ] ] ] '.E E ",
"I E.%.4Xb y y y y y y y I y y y ).y y b %.5XlXuXkX3Xg.g._.g.g.g._._.g.3X3X3X3X3XkXcXSX8.l l l j.j.l j.j.j.l l l l ,XZXcX3X3X_._.g.g.g.3XcXdXj N...U U ..4.Y V V > > > > > > > V > > > > V ;.;.j.l l l l l l l ) 8.SXuXkX3Xg.g.g.g.g.g.g.g.g.3XJXGXyXl.hXhXx.x.#X#X#X#X#Xw.w.w.w.u.I.V.gXcXkX3XJX3XJXcXgXSX,Xk # v v v v v m m R u u ~ ~ u u u ~  X X^.M.8X8XY.Y.4 4 2.>.~ >.u R ) ) R R ) ) ) l ) j.m v v v v m m m v v v v v v m v v v > v > v v m m m m m m v v v v v v v v v v m v v v v H m j.v ;.4.n b b b &.K ,.6.,.K &.d.).y b I b b w b C w C b b b b * o t V.S.S.Q l.B Q F Q F 1.1.1.1.1.Q F F F B B 5 5 5 5 @.@.X.@.@.@.@.l.5 l.5 5 5 5 5 5 5 5 5 5 5 5 5 B B 5 5 5 l.B B F B F 6 6 1.S.S.V.a.t c ).y y y y y y y y y y y I y I I I I I E.I I ).).c.c c &.=Xf nXf nXf f $XW =X=X=X=X,.,.D e r.r.r.r.& & & e D &.&.( ( /.( ( C C * q c d.&.d.).c./ / / 1 1 1 1 1 1 1 1 1 1 1 1 1 1 1 / $.$.O.$.$./ 1 / 1 1 1 1 / $.O.O.H H H A.A.A.A.H H O.H H H H H H A.A.P.q /.L E ] ] ] ] ] ] ] '.] <.'.'.] ] ] 3 ] ] ] ] ] ] ] ] ] ] ] XX] ] XX] ] 3 ] e.] ] '.E E ",
"I E.E.E.I y y y y y y y ).y ' y y ).y y w * 5XlXuX3X_._.g.g.g._.g.g.g.g._._.g._.3X3XdXIXm l l l l j.j.j.j.j.l l l 8.lXcX3X3Xg._.g.g.g.3XuXmXC.....U U ..4.> V V V ;.> > > > V V Y Y Y Y V V ;.j.j.l l j.) l l l   8.SXuX3X_.g.g.g.g.g.g.g.g.g.JXGXyXl.hXhXx.x.x.#Xx.x.#Xw.w.w.u.u.I.S.GXkX3X3Xg.3XcXgXSX,Xk # v k v k v ) ) ) u u u u ~ ~ u u ~  X^.^.M.Y.Y.3.4 M.2.>.>.>.R R ) ) ) ) ) ) ) l ) m m v v v v m m m v v v v v v v v v v v > v ;.v m < m m m m v v v v m m v v v v v m v v v v v j.m v ;.> n n n w b d.&.K K &.d.d.y y y I b b b w w w w w w I y q 0.a.S.l.l.Q B Q Q Q S.S.S.V.V.V.V.1.1.6 F F F B B 5 5 5 5 @.@.@.@.5 l.5 5 5 5 B 5 5 5 5 5 5 @.5 5 5 5 5 B 5 5 5 B B B F 6 6 F 1.S.V.a.a.s * y I y y y y w y y y y y y y I ).).).).I ).).).c c c d.=Xf f nXf nX$Xf nXf 9 =X=X=X&.=X6.&.D e A A & A r.& e D D D D 6.K K C o c.c.c.).).).' 1 / / 1 1 ' ' 1 1 1 1 1 1 1 1 1 1 1 1 / $.O.O.$.$./ 1 1 1 1 1 1 / $.O.O.H H A.A.A.A.A.H H H H H O.H H O.P.P.c.c 6.L.`.] ] '.'.] '.'.'.<.'.<.<.'.] ] 3 XXXXXXXX] ] ].] ] XX] ] ] XX3 XX] ] ] ] ] ].'.E E ",
"I I I I I I y y y y y y y y y / ).).y y y b ,X5XlXcXg._.g.g.g._.g._.g.g.g.g.g.3X3X_.uXSXv l l l j.j.;.;.j.j.l l l k SXuX3X3Xg.g.g._.3XkXdXs.N.....U ..4.> V V V ;.V > > > > V Y Y Y Y V V V ;.;.j.j.l j.j.j.l l   < ,XmXcX3Xg.g.g.g.g.! g._._.JXGXyXl.hXhXhXx.x.x.x.x.#Xw.w.w.u.w.I.UXGXkX3X3X3XkXuXSX,X# < m v k v v m R R u u u u ~ ~ ~ R u >. X^.M.Y.v.v.7.m.2.>. X>.) ) ) ) m ) ) ) ) ) ) m j.m v m v m j.m m j.v v v v v v m v v v v v i.v < < # # m m m v v m m m v v v v v v m v v v m < m j.;.;.n 4.n y w b ( K K K ( c * y y b I b b w b ,Xw w w w w q 0.a.V.S.S.S.S.1.S.S.V.V.{.{.{.I.{.{.{.t.1.1.1.B B B B B B B 5 5 5 5 5 B 5 5 l.5 B 5 5 5 5 5 @.5 5 5 5 5 5 5 5 l.B B F 6 6 6 6 1.S.V.a.0.q c.I I I y y I b b y y y ).y y y ).).).).).c c c c /./.6.W A A f f $Xf nXf nXf W =X,.=X&.d.c d.&.,.W & r.r.r.e >Xe e e >XD ( * P.P.P.$./ I I ' ' 1 1 1 ' ' ' ' 1 1 1 1 1 1 1 1 1 1 1 / $.O.O.O.$./ 1 1 1 1 1 / $.$.O.O.H H A.A.A.A.P.H H H O.O.$.O.O.c.c.* c /.6.L.`.] ] '.E E E E E E E E E <.] ] ] 3 XX] ] ] ].x ] ] ] ] XX] ] XX] ] ] ] ] ] '.'.E E ",
"E.E.I I I I I y y y y y y y b y y y y y w w 8.IXmXcX3Xg.g.g.g.g._.g.g.g.g._.g.g.3X_.cXSX8.l l j.j.j.;.;.;.j.l >.l < IXgXkX3Xg.g.g.g.3XuXmXC.E.........4.> V V V V ;.> > > > Y Y Y Y Y V V V ;.;.;.j.j.j.j.j.l l l >.< ,XdXkX3Xg.g.g.g.g.g.g.g.JXGXyXl.hXhXhXx.6 x.x.x.#Xw.w.u.w.w.w.UXGXkX3X3XcXgXSXIXi.# # v 8.v v m ) u u u u R u u ~ ~ u u ~  X2.M.7.v.4 9.2.>.>.>.R ) ) ) ) ) ) ) ) ) m ) m m m m j.m j.m v m v j.v v v v v v v v v v v k k # m.m.k # m m m m m m m v v v v v v m v v m v j.m m v v > n n n w w d.K K ( ( o * * b b b I b b w w w w b w * q 7.v.a.a.V.{.{.{.{.v.3.3.Y.Y.M.M.Y.Y.3.{.{.V.S.1.F F F B 5 5 5 5 B 5 5 B B B 5 5 5 5 B 5 5 5 @.5 5 5 5 5 5 5 5 5 5 B F 6 6 6 F S.S.V.0.q * ).%.4XE.I I I ).).y c.c.y c.c.c.c.c.c.c &.&.6.6.p././.p.6.W f f f nXf nXnXnXf f W W ,.=X&.d.c c c &.D e r.e e e e >X,.&.y P.P.O.H H O.$.1 ' ' ' 1 ' 1 ' I ).' 1 1 1 1 1 1 1 1 1 1 1 / $.O.O.O.$./ 1 1 1 1 1 / $.$.O.H H A.P.P.P.A.P.P.P.$.$.$.c.c.y y c c d.&.L L.'.'.'.E E E k.E E k.E k.E E <.'.] ] ] 3 XX] ] ].] XX] XX] XX] XX] e.] ] ] '.'.E k.A ",
"4XE.E.I I y b y y I y y y y y y y y y w ,X,X5XSXdXcX3Xg.g.g.g.g.g._._.g.g.g._.g.3XJXuXSX8.l j.j.;.;.;.;.;.j.l l l l i.lXcX3Xg.g.g.3XkXZXP E...U ..U ..> > V Y Y > V V > > Y Y 4.4.4.Y V V V V V ;.;.;.j.j.l l l l l >.# SXdXkX3Xg.g.g.g.g.g._.JXGXyXl.hXhXhXx.6 x.x.x.#Xw.w.u.w.w.#XUXGX+XkXcXgXSX,XQ.# < k v v v m ) R u u l u u u ~ ~ ~ u ~  X X2.m.Q.7.9.2.>.>.R R ) ) ) ) ) ) ) ) ) ) ) m m m m v m v m m j.m v v v v j.v v v v v v m # k Q.7.Q.Q.Q.# < m m m m m m v m v v v v m m v v m m m m v v n n n > n i.b ( ( K C o q * w b b b N.b b w w w b b w P.m.m.4 v.3.3.3.3.Y.4 M.M.9.2.M.2.M.M.Y.Y.3.{.{.V.1.1.F F B B B 5 5 5 5 B B 5 5 5 5 5 5 5 B 5 5 5 5 5 5 5 5 5 5 5 B B F 6 6 6 6 S.V.a.t c b %.9 9 4XE.I y ).).y c.c.y c.c.c.c d.&.6.L L L F.OXG p.6.L W W f f nXf nXf nXf nXf $Xf =X=Xd.c c.q c d.&.,.,.K K K ( c c.P.H H H H H O.$.$.1 1 ' ' ' 1 ' I ).' 1 1 1 1 1 1 1 1 1 1 ' 1 / $.O.O.$./ 1 1 1 1 1 / $.O.O.H H P.P.q q q q c.c d.d.).).).).).d.&.&.6.L L.E _ E E k.E qX_ E E E E k.E E qX<.'.] XX] ] ] ] ] ] 3 ] XX] ] XX] ] ] ] (.<._ k.A W ",
"9 4XE.I I I I y y y y y w y y w y w w ,XvXSXlXdXcX3Xg._.g._.g.g._.g._.g.g.g._._.JXkXuXSXi.j.j.;.V V ;.V ;.j.j.l l >.< 5XgXkX3X_.3X3XuXrX%.......U ..4.Y Y Y Y 4.Y V V > > Y Y 4.4.4.Y V V V V > V V ;.j.j.l l l l l l ) 8.SXuXkX3X_.g.g.g.g.3XJXGXyXl.hXhXhX6 x.6 x.x.#X#Xw.u.w.w.#XUXGX+XcXgXSX8.# < # k v v v m ) R u u R R u u u ~ ~ u ~  X X2.m.7.7.9.2.>.>.R ) ) ) ) ) ) ) ) ) ) ) ) m m m m m m m m j.m m j.v m v v v v v v v m m   # Q.Q.Q.4 Q.Q.m.# < m v v m m m m m v v v m m m v v m m v v v v v n n n i.w b ( ( ( o o * w w b b I b n b ,Xw b w w k < < 9.m.9.9.9.  9.2.9.9.2.  2.2.2.2.2.M.M.Y.3.{.{.V.1.1.1.F B 5 @.@.5 5 B B 5 5 5 B 5 5 5 5 5 5 5 5 5 5 5 5 5 5 5 B F 6 6 6 1.S.V.[./.&.N 9 9 9 4XE.I y ).d.).).).d.d.d.&.&.D & L._ (.`.`.L.OXL.L.L.L.f f f f nXnXnXf nXf nXf f 9 =X=Xd.c * q q q q c c * c.P.P.O.H O.H H H O.O.$.$.$.1 ' ' ' 1 1 ' ).' 1 1 1 1 1 1 1 1 1 1 ' 1 / $.O.$.$./ 1 1 1 1 1 / $.O.H H H P.q C o o c d.,.W W =Xd.).).d.&.,.6.L L.L.E E q.k.E E _ E E E k.E E E k.E qX<.] 3 ] 3 XX3 ] XX] ] ] ] ].] ] ] y.] ] (._ q.,.%.",
"nX9 4XE.I I y y y y y y y y b b b b 5XmXuXcXkXkX3X_._.g._._.g.g.g._.g.g.g.g.g.JX3XcXlX5Xi.j.j.V V V ;.V V ;.j.j.l l >.8.SXuXkXJX3XcXZX9 E.U ........4.Y Y Y 4.4.4.Y V > > Y Y 4.I 4.Y V V V V > V V > ;.j.j.l l l l l     8.SXuX3X_._.g.g.g._.JXGXyXl.hXhX6 x.x.x.x.x.x.#X#Xu.w.w.#XUX0X+XgXSX,Xk # < # v k v m ) R u u ~ R R u u u u u u ~  X>.m.Q.m.9.2.>.>.R ) ) ) ) ) ) R ) ) ) m m m m m v m v v v v v m m v m v v v v v v v m m   < m.7.7.v.v.3.Q.m.# < m v v v v m m m v v v m m m v v m m m v v > v n > n > i.w w ( ( C o * * w w w b b b b n w w 8.i.k < A.< < < < < <   A.  < < < <     2.2.2.2.2.M.Y.Y.3.{.{.S.S.Q l.5 @.@.@.5 5 5 5 B B B 5 5 5 5 B B 5 5 5 5 5 B 5 5 B F F 6 6 1.S.V.[.K N 9 nX9 9 4XE.' y d.=X=X&.&.&.&.=XW q._ (.y.~.y.~.y.y.y.y.y.(.'.k.q.A f nXf nXnXf nXf nXnX9 9 =X&.d.d.c P.P.A.A.A.P.P.P.P.P.H H H H O.O.O.O.$.1 1 ' ' ' 1 1 ).).' 1 / 1 1 1 1 1 1 1 1 1 1 1 / $.$./ / 1 1 1 1 1 / $.O.H H H P.q C C q P.q ( D D &.).).d.=XW A L.L.L.E E E L.E k.E E E E E E E E E E E '.] ] ] 3 ] ] ] ] ] ] ] ].'.'.] ] ] ] (.(._ A ,.b i.",
"nX9 4XE.I y y y y y y y I b y b N SXZXuXkX3X3X_._._.g.g.g.g.g.g._.g.g._.g.g._.3XkXuXSX,X$.;.;.V > > V V V ;.j.j.l l >.# ,XlXxX+XkXuXSX%...U U ......4.Y 4.4.' ' 4.Y V > > Y Y 4.4.4.Y Y V V > > V > > ;.;.j.j.l l l l l R # ,XlXcX3X_._.g.g._.JXGXyXl.hXhXhXx.x.6 x.x.x.x.#Xu.w.#Xx.UXGXgXSX,Xk # # v k v v v m ) R u ~ ~ u u u u u u R u ~ >.  Q.m.9.2.>.>.R R R R R ) ) ) R ) ) m m m v v v v m m m v v m v m m v v v v v v v v m m < # m.4 7.v.3.3.v.m.#   m v v v v m m m v v m m m v v v v v v v v v > v 8.> i.> i.w b b C C C w w w w w b w w i.i.i.k k # < < < H < < < < <             < <         2.9.9.M.M.Y.3.{.{.V.S.Q @.@.@.@.5 B B B B B 5 5 5 5 B B 5 5 5 5 B 5 B 5 B F F 6 6 1.S.}.p.D 9 nX9 9 4X4XE.).).W q.r.r.r.r.k._ <.x ~.~.e.~.e.~.e.~.6X~.6X~.x x <.k.q.q.A q.nXnXnXnX$X9 $X=X=X4Xd.d.d.c c.P.P.P.A.A.A.P.A.A.A.H H H H H O.O.$./ 1 ' ' 1 1 ' ' ' 1 / 1 1 1 1 1 1 1 1 ' 1 1 / / $./ 1 1 1 1 1 1 / $.O.H H H A.P.q C C o q c &.&.=Xd.d.&.f L.L.L.L.L.L._ E E k.E q.L.E E E E E E k.E E <.] ] 3 ] ] e.] e.] ] ] ] ] '.] (.] (._ r.W %.w i.k ",
"nX9 4XI y y y y y y y y y y y b vXAXcX3X3X_._._.g._.g._.g.g.g.g._.g.g._._._.3X3XcXlX5Xb 4.Y Y V Y > > > > V ;.j.j.j.l l k IXlXxXAXlX%.E.U U U U ..4.4.Y 4.' ' ..4.Y > > Y Y Y 4.4.4.4.Y V V V V > > > ;.;.j.j.l l l l l >.  k IXlXcX3X_.3Xg._.JXGXyXl.hXhX6 x.x.x.x.x.x.x.#Xu.w.#X#XsXlXSXIXi.# < # v v v v m ) ) R u ~ ~ u u u u R ) ) R ~ >.m.Q.# 2.>.>.>.R R R R R ) ) ) R ) m m m v v v v m m m m m v m m m m v v v v v v v v m m # k m.4 4 3.Y.3.Q.m.#   m m v v v v m m v v m m v v v v m v v v v v v > > n ;.> i.i.w b b b %.C w * w w w w i.k k # # # < < < < <     < <                 < < < < < <   9.2.2.M.M.Y.3.{.{.V.l.@.X.@.5 5 B B B 5 5 5 5 5 B B 5 5 5 5 5 5 B 5 B F F 6 6 1.S.}.p.D 9 9 9 4XE.E.E.4X=Xq.(.x x y.x x ~.~.~.~.~.e.e.e.e.-.-.e.~.~.~.e.e.3 x <.k.q.q.q.nXf nX$X$X=X9 =X&.d.&.&.d.d.c * q P.m.A.4 A.A.A.A.H H H H H O.$./ 1 1 1 1 1 ' ' 1 1 / 1 1 1 1 1 1 1 1 1 1 1 / / / / 1 1 1 1 1 1 / $.O.O.H H A.A.P.q C ( c * c &.=X=X=X=XL.L.E L.L.E _ L.E k.E E L.q.L.L.E E E k.E E E <.] ] ] ] ] ] ] ] ] ] ] ] '.x (.] (._ & ,.c i.k k v ",
"9 4XE.I y y y y y y y y I y b %.tX;X3XJX_._.g.g.g._._._._._.g.g._.g.g.g._._.3XkXuXvX%.I 4.4.Y Y Y 4.Y Y > > > ;.;.;.j.l l # vXZXlXvX4...U U U U ..4.4.4.' ..I ' 4.Y > > Y Y Y 4.4.4.Y Y V V V > > V V > ;.j.j.j.j.l l l >.l   k 5XgXkXJX3X3X3XJXGXyXl.hXhXx.x.x.x.x.x.x.x.#Xu.u.u.#XV.R.t i.k m m v v v v v ) R u u ~ ~ u u u u R ) ) m ) u >.< Q.  >.>.R R R R R ) ) ) ) ) ) ) ) m m m v v m m m m m m v v m m m v v v v v v v v m m k Q.Q.4 4 Y.3.3.4 Q.#   m m v v v v m m v m m v v v v m v v v v ;.v ;.v > v n > n 4.n w b b ,Xb w o o * i.i.k <                                             < < < < < < <   2.2.2.2.M.Y.3.{.V.l.yXX.@.5 5 5 B B 5 5 5 5 5 B 5 5 5 5 B B B 5 B F 6 6 6 1.S.}.p.N N $X4XE.E.4X%.=X=Xr.(.x (.x x 3 ~.~.~.~.-.e.-.-.-.-.-.-.e.e.e.e.~.e.e.3 x <.k.q.q.nXf $X4X4X=X=X=X4Xd.d.&.d.&./././.0.7.4 7.4 4 A.H H H H H O.O.$./ / / / / 1 ' 1 / / 1 1 1 1 1 1 ' 1 1 1 1 / / / / 1 1 1 1 1 1 / $.$.O.O.H H A.A.P.q c c c c d.&.W f L.E L.L.L.E L.L.E q.E E q.E E q.E L.L.E L.q.E E E <.'.<.'.] ] ] 3 ] ] ] ] ] ] y.(.r.e &.c.P.k k k v ",
"4X4XE.I y y y I y y I y y I I %.SXAXkXJX_.g._.g._.g._._.g.g._._._.g.g._._._.3XuXlX%.w I ' 4.Y 4.4.4.> Y > > > > ;.;.< j.l >.w vX9 %.4...U U U U ..4.Y 4.' ..' 4.4.Y > > > > Y Y 4.4.Y Y V V V > > V V Y V ;.;.;.j.l l l l >.l >.8.SXuXkX3X3XJXJXGXyXl.hXhX6 x.x.x.x.x.x.x.#Xu.u.u.I.{.v.m.# v v m v v v v v m R u ~ ~ ~ u ~ u R ) ) m m ) >.>.  k   >.) R R R ) ) ) ) ) ) ) ) m m m m m m m m m m m m v v v m m m m v v v m v v v m m k Q.Q.4 4 3.4 3.7.Q.k < m v v v v v m m m m m v v v v v v m v v v ;.v ;.v > > n n n n ..n I b b C C o s i.# <                     2.      2.  9.              < < < < < <         2.2.M.M.Y.{.S.sXyX@.@.5 5 5 5 5 B 5 5 5 5 5 5 5 5 B 5 B B B F 6 1.1.1.S.V.[.%.E.E.E.I I E.%.=X,.k.(.<.<._ <.x 3 ~.~.~.-.-.e.-.. -.-.-.e.3 3 3 e.e.~.~.~.x <.k.q.q.A =X4X4X=X4X=Xd.d.&.d.&.&./.p.p.p.0.7.7.0.0.P.O.O.H H O.O.$./ / / / / 1 1 1 / / 1 1 1 1 1 1 ' ' ' 1 1 1 / / / / / 1 1 1 1 1 1 / $.O.O.O.H A.A.A.m.P.q c c c d.D A E E L.L.E E E E k.E k.E E E L.E E E E L.q.E E E E E E E <.<.'.] ] '.(.'.x y.] (.r.W d.c.H # k v v v ",
"4XE.E.I I y I I I y y y I I y w %.SXuXkX3X_._._.g.g._.g.g._._.g.g._._.g._.3XcXZX5Xb I E...4.Y 4.4.4.> > > > > ;.> ;.;.H H   i.b b y 4...U U U U ..4.Y 4.4...4.4.Y Y > > Y > Y Y Y Y Y Y > V V V > V V Y Y 4.Y V j.j.l >.l >.l >.< ,XlXGXkX3XJXJXGXyXH.hXhXx.x.#Xx.x.x.x.x.#Xu.u.u.I.3.4 # k v v v v v v 8.v m ) u ~  X~ ~ ~ u R ) m ) )   u >.2.# <   R R R ) ) ) ) ) ) m m ) m ) m m m m m v v v v v v m v v m v m m m m m m v v m m m Q.Q.4 4 3.3.3.7.Q.k < m v v v v m m m m m v v v v v m m m v v v j.m v v v v n n 4.n n 4.n n w w C o s k <           <                   2.  2.    2.          < <         < < <   2.2.2.M.3.V.sXyXX.@.@.@.5 5 5 B 5 @.5 5 5 5 5 5 B B B l.B F 6 6 6 1.S.V.t y I I I I I ).).&.,.r.<._ E _ _ <.x x ~.~.-.e.e.-.-.-.-.e.e.3 x x 3 ~.~.e.~.~.x <.k.k.k.f =X).d.&.&.&.4X).&.&.&.&.p.G p.t 0.t }.}.c / $.O.O.O.$./ / / / / / / 1 1 / / / 1 1 1 1 1 1 ' ' 1 1 1 / / / / 1 1 1 1 1 1 1 1 / $.O.O.O.H A.A.A.A.P.* c * c =XA E E E E E `.E r.E E E E E E E '.E E E E E E E E E E k.E E E E _ E _ '.<.(.(._ & K c P.H k k k v m v ",
"E.I I I I y y y y y y y y y y y w N lXcX3X_._._.g.g._.g.g._._._.g.g._._.3XkXdXSX%.I ......4.Y 4.4.Y > V > > > > > > V O.;.O.y b I I ....U U U ..4.Y Y Y 4.4.4.Y Y > > > > V > Y Y 4.Y Y 4.4.> V V V V $.4.1 1 $.O.j.l l l l l >.  k IXlXGX+XJXJXGXyXH.hXhXhXx.#Xx.x.x.x.x.#Xu.u.u.I.3.m.# v v v 8.v 8.v v v v ) R u u u ~ u R ) ) ) R R u ~ ~ >.#     >.R R R ) ) ) ) m m m m m m m v v m v v v v v m v v v m v v v v m m v m m m m m # k Q.7.3.3.Y.3.v.Q.k < m v v v v m m m m v v v v v v v v v m j.v m m v v v > v > n > n n n 4.8.w b C s i.#     9.                                                          < < <       2.9.M.v.V.sXX.X.@.@.@.5 5 5 5 5 5 5 5 5 5 5 5 B B B B F F 6 6 1.V.a.t * y I I I y y y d.W r._ E _ _ E _ <.x ~.~.-.-.e.-.e.-.e.e.3 x x x 3 ~.-.-.~.~.~.3 x <.<.q.W &.4X&.=X4X&.d.&.&.&.&./.6.p././.p.R.6.d.c./ $.$./ / / / / 1 / 1 / / / / / / / / 1 / / 1 1 ' 1 1 1 1 1 1 1 1 1 1 1 1 1 1 1 / $.O.O.H H A.A.A.A.P.P.c.d.&.e L.E '.E E E E E E _ _ <.<.'.(.'.(.'._ E L.E q.E E E E E E E E _ E E E E _ r.A W ( i.k k k v ;.v v v v ",
"I I I I y y y y y y y y y y y y i.,XvXZXkXJX_.g.g.g._.g.g._.g._._.g._.JXkXuXrXC...........4.4.4.4.Y > V V > > > > V V O.$.y b b I ......U U U ..Y Y > Y Y Y Y > > > > > > V > Y Y Y Y 4...4.Y V V V V Y 4.1 ' 1 O.j.l l l l l l l >.m.IXlXGXJXJX0XgXsXl.hXhXx.x.x.#Xx.x.x.x.w.u.u.I.3.m.k ;.;.v v v v v v v v m R u u u u u ) ) ) R u u ~ ~ >.2.< <     >.R R ) ) ) ) ) m m m ) m m v v v v v v v v v v v m v v m v m m m m m m m v v m # m.7.3.3.Y.3.v.Q.#   m v v v v m m m m v v v v v ;.v v v v v m v m v v v v v v v n n n n n n n ,Xb w s k # 9.9.    2.        <       < <                 <   <                   < < < < 9.Y.{.sXyXX.X.X.@.@.5 5 5 5 5 5 5 5 5 5 5 l.5 B B F F 6 1.1.V.a.0.* y y I I y y / d.W r.r._ E _ <._ _ <.3 e.-.e.-.-.-.@ -.e.e.3 3 3 e.e.~.-.~.~.~.~.e.e.x k.f =X&.).&.&.&.).&.&.&.&.d.d.&.p.6.G G G &.c.c.P./ / / 1 1 1 1 / / / / / / $.$.$./ / / / 1 1 1 1 1 1 1 1 1 1 1 1 1 1 1 1 ' 1 1 / $.O.H H H H H H H P.c.d.D L.'.'.'.`.E E E _ '.<.<.'.] ] ] ] (.'.E E E E E E E E E <.E E E E E q.E r.r.e K C i.# < v v v v k v v m ",
"I b I y I y y y y y y y y y y i.c.b ( SXuX3X_.g._._.g._.g.g.g._._._.3X3XuXmX5XN.4.......4.4.4.4.4.Y Y > > > > > > V ;.O./ %.%.I I ....U U U ..4.Y > > > > > > V V > > > > > > > Y > Y ..E...Y V > V V Y 4.1 ' 1 V H j.l l l l l   >.>.Q.F.gXcXJX+XgXyXl.hXhXhXx.x.x.x.x.x.x.#Xu.u.I.3.m.k ;.i.v 8.v n v v v v ) R u u R u R )   R u ~ u u u u >.  # #   2.>.>.R R ) ) ) ) m ) ) ) ) m m v v v v v v v v m v m m v m m m m m m m m v m # # m.7.3.3.Y.3.v.Q.m.  m v v v v m m m v v v v v n v ;.v v v m m m v m m v v v v > v > n > n n 8.n w w 8.s i.m.9.2.    2.      m   <   <                     <                     < < < < 2.M.Y.V.sXX.X.X.@.@.5 B 5 5 5 5 5 5 5 5 5 B B l.B F F 6 1.1.V.a.0.* y y I I I I 1 ).W q.r._ _ <._ k.<.<.x ~.-.-.-.e.-.e.-.-.-.e.e.e.e.~.e.e.e.~.-.-.-.-.e.x k.W =X&.).&.4X&.&.4Xd.&.d.d./.d.&.6.6.6.&.).c./ / / 1 1 1 1 1 / / / / / / $.$.$.$./ / 1 1 1 1 1 1 1 1 1 1 1 1 1 1 1 1 1 1 1 1 1 $.O.O.H H H O.A.H A.P.c.,.L.(.] '.'.E E E '.] ] ] 3 ] ] y.'.'.E E q.E q.E q.E E E E E E E q.E E E r.& K * P.# < < m m v v v v m ) ",
"I I b I y y y y y y y w c.c.y c.c.c.w N lXcX3X3X_.g.g.g._.g.g._.g._.3XcXCX5XN.........4...4.4.4.4.V V > > > > > > V ;.$.I %.E.I ....U U U U 4.Y > > > > > > > V V V V V V > > > Y Y ..4X4X..Y > Y > V Y Y 4.1 1 V ;.j.j.l l l l l l >.  Q.SXgXcX0XGXyXl.hXhXhX6 x.x.x.x.x.#X#Xu.u.I.3.m.k v > v v v v 8.v v m ) R u u R u R ) ) R ~ ~ u u u ~ >.>.< m.m.9.2.>.>.>.R R ) ) ) R ) ) ) ) ) ) v v m m v v v m m m m m m m m m m m m v v m m < m.7.3.3.3.3.v.Q.m.< m v v j.v v m v v v v v v v n v ;.v m m m v v v m m v v v v v v v v n 8.4.8.n 8.w 8.s i.m.9.  2.      <   < < < < <                 <                           <   2.2.M.{.sXyXh X.X.@.5 5 5 5 5 5 5 5 5 5 5 B 5 B B F F F 1.1.V.a.0.* y y I I E.E.I %.W q._ _ _ <._ _ _ <.x ~.-.-.-.-.e.-.-.-.-.-.-.-.-.-.-.~.-.-.-.~.-X-.e.~.(.k.f W =X&.&.d.d.d.d.&.&.d.&.&./.&.6.=Xd.)./ / / / 1 1 1 c.1 1 1 / / / $.O.O.O.O.$./ 1 1 1 1 1 1 1 1 1 1 1 1 1 1 1 1 / 1 1 1 1 / $.O.O.H H H O.H H H P.c ,.A E '.E E E '.'.] ] 3 ] ] '.] '.<.E E E E E E E E E '._ qXk.E E E _ '.r.e C m.>.2.>.>.R R ) ) ) R R R ",
"I b I I y I y y y y y y c.c.c.c c.c.c.( 5XZXcX3X_._._.g.g._._._.g.3XcXCXb.N.......U ..4.4.Y Y Y Y ;.V > > > > > Y V V y b %.E.....U U U U U > > > > > > > V V V V V V V > > > > Y 4.U 4X4X4.V > Y > V V Y 4.4.4.Y ;.j.j.j.l l l l >.l >.  Q.SXgXGXAXyXl.hXhXhX6 x.x.x.x.x.#X#Xw.u.I.3.m.k v v v v 8.v v v m ) R u u u u u R ) ) R u u u u u ~ ~ >.9.m.7.m.9.2.2.2.>.>.R R ) R R R ) ) ) ) m m m m m v v m m m m m m m m m m m v v j.v m < # 7.3.3.3.Y.3.v.m.< m v v v m v v v m v v v v 8.v v v v v m m v v v v m m v v v v v v ;.v > v > ;.i.i.8.i.Q.m.m.9.        < <   <   < <                   <                               2.^.3.S.sXh X.h X.@.5 5 5 5 5 5 5 B 5 5 5 B B B F F F 1.S.V.a.s * y y I E.4X4X4X9 A r._ _ _ <._ _ _ <.x ~.~.-.~.-.e.-.-.-.-.-.-.-.-.-.-.-.-.-.-.-.e.-.-.~.~.x _ r.A W ,.=X&.=X&.&.&.d.&.&.=X&.=X&.d.).1 / / 1 1 1 1 1 1 / / / / $.$.O.H H O.$./ 1 1 1 1 1 1 1 1 1 1 1 1 1 1 1 1 1 1 1 1 1 1 $.$.O.O.H H O.O.H H H P.c &.e L.E _ '.'.] ] ] e.] ] '.] '.<.E E E E '.'.'.'.<.'.'.<.<.E E '.'.'._ & ( P.2.>.>.~ ~ ~ u u u u u >.",
"I I I I y y y y y y y y y y y y ).).y y b vXZXcX3X_._._._._._._.3XcXCX5XN.....E.U ..4.4.Y Y V V ;.;.V > > > > > V Y $.y b E.I ..U U U U U U > > V > > > > ;.> > V > > > > > > > 4...4X$XU Y V > V V V V Y Y Y $.Y ;.;.j.j.j.l l l l l >.>.  8.IXlXgXyXl.l.hXhXhXx.x.x.x.x.#X#Xw.u.I.3.m.# v v v v v v v m ) ) R u u u u ~ u R R R u u u ~ ~ ~ ~  X9.m.7.7.7.4 M.2.2.>.>.u R R u u R R ) R ) ) ) ) m m m m m m m m m m m m m m v v v v m < # Q.7.3.3.3.3.Q.7.# < m v m m m v v v v v v v v v v v v m m v v v v v v m m v v m m v v v v v v v v v k k i.Q.m.9.        < < < <                   <   <                                 9.^.Y.V.sXyXh h X.@.5 5 5 5 5 5 5 B 5 5 5 5 B B F F F F S.V.a.s * y y I E.4X9 9 f q.k.k._ _ <._ <._ _ x ~.~.-.e.-.-.~.-.-.e.-.-.-.-.-.-.-.-.-.-.-.e.-.-.~.~.~.~.x (._ r.A W =X&.&.d.d.&.=X=X=X=X=X).).1 / / 1 1 1 1 1 1 1 1 / / $.O.O.H H O.$./ 1 1 1 1 1 1 1 1 1 1 1 1 1 1 1 1 1 1 1 1 1 1 1 $.$.O.H H H O.O.H A.A.P.c.&.D L._ (.] ] ] ] XX] ] ] ] x '.<.'.<.'.] x ] ] '.x ] '.'.] '.] ] ] (._ L ( m.2. X X X X~ ~ ~ ~ u u ",
"I I w I y I y y y y y y y y y y y ).y c.w b SXgXkXJX_.JX3XJXJX3XcXCX5XN.............4.Y > V V V ;.;.;.> > > > V V Y y I I ' ....U U U U U ..4.> V > > > ;.> ;.V > ;.> > > > ;.> 4.E.9 4X..Y V Y V V V V V $.Y Y Y V ;.j.v j.l j.j.l l l l R R # IXF.sXl.l.hXhX6 x.x.x.x.x.#X#Xu.u.I.Y.9.< v v v m v v v m ) R u u u u ~ ~ u u u u R R u ~ ~ ~ >.^.9.4 4 Y.Y.3.v.v.4 9.2.2.>.>.~ ~ >.u u u u R R ) ) m ) m m m m m m m m m m m v v v v v m # Q.4 3.3.Y.3.v.m.m.< m m m m m v v v v v v v v v v v v v v v v v v v v m v v m m m m m v v ;.v j.j.l   < # 7.m.9.<         < < <             < 9.<       <                                 2.M.v.@XyXh h X.X.5 5 B 5 5 5 5 5 B 5 5 5 B B F F B Q S.V.a.s * y y I 4X$X9 nXq.k.k._ _ _ <.<.k.<.<.x ~.-.~.-.-.-.-.~.-.~.-.-.~.-.~.-.-.-.-.-.-.-.e.e.~.~.x ~.y.~.y.y.(._ A ,.&.d.d.=X=X=X=X=X4X).' 1 1 1 1 1 1 1 1 1 1 1 1 / $.O.O.H H O.$./ 1 1 1 1 1 1 1 1 1 1 1 1 1 1 1 1 1 1 1 1 ' 1 1 1 $.$.O.H H H H H H A.A.A.P.c D L.(.] ] ] ] ] ] ] ] ] ] x ] ] ] 3 ] ] ] ] ] ] ] 3 3 ] ] ] ] ] 6X(._ F.6.q   >. X X X~ ~ u u u ",
"y I I I y I y y y y y y I I y y I y y y y * ,XSXgXkXJXJXJXkXcXdXmX5XN.....U ......4.> > > V ;.;.;.;.V V > > V ;.V $.I I I ....U U U U U U 4.4.> > ;.> > > > > > ;.> > > > > > > 4.U 9 4X4.Y Y Y V V V V V V V Y V V ;.;.;.j.j.j.l l l l l l u R m.t @X@Xl.hXhXhXx.x.x.x.x.#X#Xu.u.I.Y.9.< v v m m v v m ) R u u u u u ~ ~ u u u u u u u ~ ~ u >.2.M.Y.M.M.M.Y.3.v.3.4 4 m.9.2.2.2.2.>.>.>.>.>.u R R ) m ) ) ) ) ) m m m m m m m v ;.v v m # Q.4 3.3.3.3.3.7.m.< m m m m m v v v v v v v m m m v v v m m m m m m m m m m m m m m v v v v m j.l l >.>.  m.m.A.  A.      < < <         <   <     <   <         < <                       9.M.3.V.sXh h X.@.5 B 5 5 5 5 5 B 5 5 B 5 B B F F F Q S.V.t o * y I I 4X9 nXnXP k.k._ _ _ _ _ <.<.<.3 ~.-.-.~.-.-.-.e.~.~.-.-.-.-.e.-.-.-.-.-.e.-.-.e.3 x x x x 3 ~.~.~.y.'.L.W =X&.&.=X=X=X=X4X4X' ' 1 1 1 1 1 1 ' ' 1 1 1 / $.O.O.H O.O.$./ 1 1 1 1 1 1 1 1 1 1 1 1 1 1 1 1 1 1 1 1 1 ' 1 1 / $.O.H H H H H H A.A.A.H P.c ,.A _ '.'.'.'.] ] ] x ] ] ] ] ] ] ] 3 ] ] ] ] ] ] ] ] ] ] ] ] ] y.(.(.r.>X( i.  >. X X~ ~ u ~ ",
"I y I y y b y I w I w I I I I I I y y y c.c.w K SXgX0X3XkXuXlX5XC.N.N...U U ..4.4.> > > V V ;.;.;.;.V V V V V O.$.y E.E.I ..U U U U U U 4.Y > > > > > ;.> ;.> ;.> > > > > > > > ....$XU 4.Y 4.4.Y V V V V V V V V V ;.;.;.j.j.l l j.j.j.l l l u >.4 a.S.Q hXhX6 x.x.x.x.x.#X#Xu.u.I.Y.2.< m v v m v v m R u R u u ~ u ~ ~ u u ~ ~ ~ u u ~ ~ ~ ~ ^.M.Y.M.8X8XM.8XM.Y.3.v.v.7.4 4 4 m.9.9.9.2.2.>.>.>.R ) ) ) ) ) ) ) ) ) m ) m m v v v v m # Q.7.3.Y.Y.3.3.7.m.< m m m m v v v v v v m m m m m m v m m m m m m m m m m m m m m m v v v v ) ) l R >.>.2.m.m.9.          < < < <           9.<     <     <     < <                       9.2.Y.V.sXh X.X.@.5 B 5 5 5 5 5 5 B 5 5 B B B F F B Q S.V.t o * y I E.$X9 nXA q.k.k._ _ _ _ <.k.<.x 3 ~.-.~.~.-.~.~.~.~.e.~.~.-.~.-.-.-.-.-.-.@ -.e.~.e.3 x <.<.(.x ~.~.6Xy.'.E f =X=X=X=X$X$X$X4X' ' 1 1 1 1 1 1 ' ' 1 1 1 / $.O.O.O.O.$./ / 1 1 1 1 1 1 1 1 1 1 1 1 1 1 1 1 1 1 1 1 1 1 1 1 / $.O.H H H H H H H H H A.A.P.c.&.& L.E '.'.'.] ] ] ] x ] 3 ] 3 ] ] ] ] x ] ] ] ] ] ] ] ] ] ] '.(.(.(.(.F.D o m.2.>.>.>.>.>.",
"y I y I I y I y y y y y y I I I y y y y y y c.w ( SXAXAXdXtX9 N.n 4...U U U ..4.> > > > V V V ;.;.;.V V V V V V / y %.E.E...U U U U U U 4.> > > > ;.> > > > > > > > > > > > > > 4...U ..Y Y 4.4.Y V V V V V V V V V > ;.;.;.j.j.l j.j.l l l l l >.9.3.V.Q l.hX6 x.x.x.x.#Xt.#Xu.u.I.Y.9.< v v v m v m ) R u u ~ u u u ~ ~ ~ u >.~ ~ ^.~ ~ >. X~ 2.M.Y.8X8X^.8X^.8X8XY.v.v.v.v.7.v.7.7.4 m.m.m.<   >.u R R ) ) R ) ) ) ) ) m m m v v v v m # Q.7.3.Y.Y.3.3.7.m.# m m m m m m v v v m m m m m m m m m m m m m m v m m m ) m m ) m m v v m ) l ) ) >.>.  m.m.9.          < < # < < <   <   <     <     <       < <                       9.2.Y.{.sXh X.X.@.5 B 5 5 5 5 5 B 5 5 B 5 B B B F F 1.S.V.t o * y I E.N nXf nXq.k.k._ _ _ _ k.<.<.<.3 ~.~.~.~.~.~.3 x x x 3 ~.~.-.-.-.-.-.-.-.-.e.-.-.-.~.3 x x <.x 3 ~.~.6Xy.'.L.W =X=X=X$X$X$X4X' ' 1 1 1 1 1 1 ' ' 1 1 1 / $.O.O.O.O.$./ 1 1 1 1 1 1 1 1 1 1 1 1 1 1 1 1 1 1 1 1 1 1 1 1 1 / $.O.H H H H A.H H H H H H A.P.c.&.W L.E '.'.] ] ] ] ] ] ] ] ] ] ] ].] ].<.] ].] ].] ] ] ] ] '.'.'.(.(.(.r.e K C q P.m.# 9.",
"I I I y I w y I w y y y y I I y y I w y y c.y y c.,.(.tXvXb E.E...4.4.......Y > > > > ;.> V V V ;.;.> Y Y V O.$.y b E.E...U U U U U U 4.4.> > > > > > > ;.> > > > > > > > > > > Y 4...4.Y Y 4.4.4.Y > V V V V V V > > > V ;.;.j.j.j.l l l l l l >.A.4 a.@XhXhXx.x.x.x.x.x.#X#Xu.u.I.Y.9.m v v v < m ) R u u u ~ ~ u ~ ~ ~ ~ >.>.~  X X~ >. X X>.2.M.Y.8XM.8X8X8X^.8XY.3.v.v.v.3.v.v.7.4 4 m.m.m.< >.>.R R R R R l ) ) ) m m m m m v j.m m # Q.7.3.3.Y.Y.3.7.m.# m m m m m v v m ) m ) m ) ) ) m m m m m m m m v m m m ) ) ) m ) ) m ) ) ) R ) ) >.>.  m.m.<         < < # k k # # <       <     <     <     < < <                     2.2.Y.a.sXh h X.@.5 5 5 5 5 5 5 5 5 B 5 B 5 B F F F 1.S.V.t o c.y I E.$XnXf nXq.k._ _ _ _ k._ <._ <.x x x x x (.x <.<.<.(.x x 3 ~.~.-.~.-.e.-.e.-.-.-.-.-.-.~.3 x x 3 ~.6X~.6Xy.E f =X=X4X$X$X$X' ' 1 1 1 1 1 / 1 1 1 1 1 1 $.$.O.O.O.$./ / 1 1 1 1 1 1 1 1 1 1 1 1 1 1 1 1 1 1 1 1 1 1 1 1 / / $.O.H H H H H A.H A.H A.H A.A.P.c.d.6.L.E '.] ] ~.] 3 ] ] <.'.].<.] ] ] ] ].x ] ] ] ~.] ] ] '.<.'.'.'._ _ r.L.L >XK ( C s ",
"y I b I y I y y y y y y ).y y y w w y y y y ).).).d.N N %.I E.U ..U U ....4.Y > > > > > ;.V Y > V V Y 4.Y V O.y b %.I I ....U U U U ..4.Y > > > > > > > > > > > > > > > > > > > Y 4.4.Y V > Y Y 4.4.V V V > > > > > > > > > ;.j.l j.j.l l l j.l l A.4 V.@XQ hXx.x.6 x.x.x.#X#Xu.u.I.Y.m.# v v v ) ) R R u u ~ ~ ~ ~ ~ >. X~ >.>.2.>.^.>.>.>.~ >.9.Y.Y.M.8XM.8X^.8X8X3.v.a.a.3.Y.Y.4 M.2.^.2.9.m.k < R R ) ) ) ) ) ) ) m m m m m v v m m m # Q.Q.v.3.Y.Y.3.7.7.# m m v m m v v m ) ) ) ) ) ) ) ) ) m m m m m v v m m m ) ) ) ) ) ) ) ) ) R R R R >.>.9.m.m.9.      < < # k k k k # <     < 9.  <     <       < < <                 <   2.2.4 V.sXh h h X.@.@.5 5 5 5 5 5 5 5 B B 5 B F F F 1.S.V.t q c.).I E.$X9 f A k._ _ _ _ _ k._ <.k.k.<.<.x (.<.<._ _ _ _ <.<.x x x 3 3 3 3 e.e.-.-.e.~.e.e.e.-.e.e.e.~.~.~.y.] '.A =X=X=X$X$X$X4XE.' 1 1 / 1 / / 1 1 1 1 1 1 $.$.O.O.O.$./ 1 1 1 1 1 1 1 1 1 1 1 1 1 1 1 1 1 1 1 1 1 / 1 1 1 / / $.O.H H H H H H H H H H H H A.A.A.P./.6.L.E ] ] ] ] ] ] ] ].<.'.] ] 3 ] ] ] ] ] 3 ] ] ] ] ] ] ] ] x '.E E E r.L.L.L.F.F.F.",
"y y y I w y y y y y y y ).y c.y y y y / y ).).I ).).I E.E.......U ......4.Y > > > > > ;.> V Y Y V V Y 4.Y V / ).%.%.I ......U U U U 4.> > > > > > > > > > > > > > > > > > > > > > > > > V V > Y Y Y V V > > V V > > > > > V ;.j.j.j.l l l l l l H P.0.}.@XQ hXx.x.x.x.x.x.#X#Xw.u.I.3.m.# v v m ) R u u u u u ~ ~ >.>.>.    m.7.s Q.7.m.9.2.>.2.M.4 Y.8X8X8X^.8X8X8X3.a.a.a.v.v.v.v.7.M.^. X2.Q.m.  ) ) R R R ) ) ) ) ) m m m m m v m m m # m.Q.v.3.3.3.3.7.m.# m m m m v m v m m ) ) ) ) ) R ) ) ) ) m m m m m m m ) ) ) ) R ) R ) ) R ) R >.>.>.9.m.m.#         < # # k k # # <         <     <     <         < < < < <               2.4 a.sXyXh h X.X.@.5 5 5 5 5 5 5 B 5 B B B F 6 6 1.S.V.0.o c ).).I 4X=Xf q.k._ r._ E _ _ <.k.k.k._ _ <._ <.<._ _ _ _ _ _ <.<.<.<.<.x x 3 3 e.e.-.-.e.-.-.e.e.-.~.~.e.~.] E A =X=X=X$X$X$X$XU ' ' $.$.Y $.$.1 / / 1 1 ' ' 1 $.$.$.$.$./ / 1 1 1 / 1 1 1 1 1 1 1 1 1 1 1 / / 1 1 1 1 1 1 1 / / / O.P.H H H A.l A.H H H H H A.A.A.A.P.c 6.L E '.] ] ] ] ] ] ] ] ] ] ] ] ] ] ] ] ] 3 ] ] ] ] ] ] ] (.E E E L.E L.L.L.r.r.r.",
"y y y y y y y y I y y y y y y y y y i.c.y I E.E.E.I I ....U ....U ....4.Y Y > > > > > > > > V > V ;.Y Y Y $.y d.%.b I ....U U U ....Y > > > > > > > > > > > > > V V V > > Y > > > > > > > > V > > V V > > > > > > > > > V ;.;.j.j.l l l j.j.l l j.P.o }.@XQ hXx.x.x.x.x.x.x.w.w.u.I.3.m.< m m ) R u u u >.>.>.>.>.2.9.m.7.s C [.p.K [.( s 7.4 9.4 4 4 M.8XM.8X8X8X3.a.a.}.}.a.}.}.}.t 7.9.2.9.Q.m.>.R R R R R ) ) ) ) ) ) m m m m v m m m k m.7.v.3.3.3.3.4 m.# < m m v v m v v m ) ) ) ) ) R R R R ) ) m m m m m ) m ) ) l R R ) R R R ) >.>.>.  m.k m.9.        < # # # # < <         <     <     <           < < < < <               2.4 a.sXyXh h h h X.@.5 5 B 5 5 5 5 B 5 B F F F F 1.S.V.0.* c ).y ).4X=Xf q.r._ r._ _ _ _ _ _ _ _ k._ _ _ _ _ _ _ _ _ _ _ _ _ _ _ _ _ <.<.<.x e.e.-.-.@ -.e.e.e.-.-.~.] E q.=X=X=X$X$X$X$X4XE.' 1 $.$.$.$./ / / / 1 ).).I ' 1 / 1 1 1 / / 1 1 / / / / / 1 1 1 / / / 1 1 / / / 1 1 1 1 1 1 / / / $.O.O.H H H H H H H H H H H H A.A.A.P.q 6.L E '.] ] '.] ] ] ] ] '.] <.] ] ] 3 ] e.] ] ] (.] ] '.'.E E E E q.E E E E L.r.",
"I y y y y y y I b I I I I y y y c.c.y y ).y I E.E.E.....U U ........> > > > > > > > > > > ;.V V V ;.;.V $.y ).%.).I ....U U U U ..4.Y V V > > V > > > ;.> V > Y Y > > > > > > > > > > > > > > > > > V > > > > > > > > V ;.;.j.j.j.l l j.j.l l l l H 0.}.@XQ hXx.x.x.x.x.x.x.#Xw.u.I.Y.2.R R R R R u >.>.>.>.>.A.m.q o ( K 6.>XG G >XG >X6.p.[.t t 0.7.Y.M.Y.3.3.v.a.}.R.R.R.R.R.R.p.R.p.t 0.7.7.m.>.u R R R R ) ) ) ) ) ) m m m m m m m m # # 7.7.3.3.3.3.4 4 m.< m m m m m v m ) ) ) ) ) ) R R u u R R ) ) ) m ) ) ) ) ) ) ) ) R R ) ) R >.>.  m.Q.Q.m.            < < # < # <           <     <   <   <   <   < < < < <   <           2.4 a.sXyXh X.h h X.@.5 5 5 5 5 5 5 5 B B B 6 6 F 1.S.V.0.q c.y y ).=XW q.k._ _ _ r._ _ _ _ _ <._ _ E k._ _ <._ _ _ _ _ _ _ _ _ k._ k._ _ <.<.x ~.e.-.e.e.e.~.~.~.~.3 E q.f =X=X$X$X$X$X4X4XE.' 1 $.$.$.$./ / / 1 ).).4X).' 1 1 1 1 1 1 1 1 / / / / $.$./ / / / / / 1 1 / / 1 1 1 1 1 1 1 1 1 / $.O.P.O.O.H H H H H H H H H H A.A.A.A.A.q &.L '.'.] '.] ] ] ] ] <.'.'.] ] ] ] 3 ] ] ] '.'.'.E _ E E q.L.q.E E E E _ L.L.",
"I I I I ' y y y I I b I y I I y y y c.y y b E.E.E.......U U U ....4.Y > V > V > V > > > > ;.> > ;.V ;.O.$.y %.E.I ....U U U U ..4.Y Y V V Y Y Y V > > V V Y Y 4.Y Y > > > > > > > > > > > > > > > > V > > > > > > > > V V ;.j.j.l l l l j.j.l l l A.7.}.@XQ 6 x.x.x.x.x.x.#X#Xw.I.3.Y.2.>.R u u u ~ >.2.9.m.q C ( p.>X>XG G G G F.F.L G F.G G p.p.[.t 0.a.a.a.}.}.}.R.R.R.R.R.L R.R.G G p.[.Q.m.  >.R R R R ) ) ) ) ) ) ) m m m m v v v m < # 7.7.3.3.3.3.3.7.m.< ) m m m m m m m ) ) ) m ) ) R R R R R ) R ) ) ) m m m m ) ) R R ) ) ) >.>.  # k m.m.9.              < < < <         <     <     <       <       < < <           < <   2.M.a.sXyXh X.X.h X.@.5 5 5 5 5 5 5 5 5 B B F F F F S.V.0.q c.c.).&.W q.k._ _ _ r._ E _ <.E _ _ _ _ _ k._ _ _ _ _ _ _ _ _ _ _ _ _ _ _ _ _ _ <.x 3 ~.~.~.e.~.-.~.~.] E A f =X$X$X$X$X$X$X4XE.' 1 / $.$.$.$./ 1 1 ' E.=X4X4X' 1 1 1 1 1 1 1 1 / / / / $.$.$.$./ / / / / / 1 1 1 1 1 1 1 1 1 1 / / O.O.O.O.O.O.H H H H H H H H H H A.A.A.A.P.* &.L L.'.`.'.'.'.'.'.'.E _ '.'.] ] ] ] x '.<.E E E E E E L.E L.E L.E L.L.A e ",
"I I I I I y I y y I I I I I b y y y c.c.y ).4X4XU U ..U U U ..U ..4.Y Y Y Y Y Y Y Y Y Y > > > > > V O.O.y b %.I ....U U U U ....4.Y Y Y Y Y Y Y Y Y > V V Y 4.4.4.Y Y > > > > > > > > > > > > > > V V > > > > > > > > > V ;.j.l l R l l l l ) l l A.7.a.S.Q 6 x.x.x.x.#Xx.#X#Xu.u.I.Y.^.>.>.>.>.>.>.9.7.s C p.6.G L L G G L G L L G L F.G L G G R.G R.p.p.p.p.R.p.R.p.G G G L R.L G G G p.t m.9.>.>.R R R R R ) ) ) ) ) ) ) m m m v v ;.< < # 7.7.3.3.3.3.Y.4 m.# ) m m m m v m ) m m m m m m ) ) R R R R R R R ) ) m m ) ) ) R R R ) >.  < k i.k #                                     <     <     <   <     <           <       < <   2.Y.{.sXh h h X.X.X.@.5 5 5 5 5 5 5 5 5 B F F F F 1.S.V.0.q q * d.D A r._ _ _ _ _ _ _ _ _ _ _ _ _ _ E _ _ _ _ _ _ _ _ _ _ _ _ _ _ _ _ k._ _ _ <.x ~.~.-.~.-.~.e.] E f =X$X$X$X$X$X$X$X$XE.' 1 1 $.$.V $.1 1 1 ' I 4X=X4XE.' 1 1 1 ' 1 1 1 1 / / / / $.$.$.$./ / / / / / 1 1 1 1 1 1 1 1 / / / / O.O.$.$.$.O.O.H H H H H H H H H H H A.A.A.P.c.&.L L.E '.E '.E <.E E E E '.'.] '.'.'.<.qXE E k.E E L.E L.L.L.L.L.L.L.W ,.",
"I I I E.I I I I I I I I I I I y y y y y y I E.E.U U U U U U U ....4.1 1 1 1 1 1 1 ' 4.4.Y Y > > V ;.$.i.w d.b I ..U U U U U ..4.Y Y Y 4.1 4.1 4.4.Y Y V V Y 4.' 4.4.Y > > > > > > > > > > > > > > > ;.V V V ;.V > > > > V ;.j.l l l l l l R l l l l 4 a.S.Q 6 x.x.x.x.#X#X#Xw.w.u.8X8X^.^.2.2.< # 7.o [.p.6.G G G G G G L L L G L L G G G G G G G L G R.G R.G G G 6.R.6.G G L L R.G G 6.[.7.9.>.>.R R R R R R R R R R ) ) ) m m m v v v v < # 7.7.3.3.3.3.3.Q.7.# R m m m v v m m v m m m m m m ) ) R R R R R R R R R R ) ) ) ) R >.>.>.< k i.i.m.9.2.                        < <     <     <   < 9.  <     <       <   <   <       9.9.M.Y.{.sXh h h X.X.X.@.5 5 B 5 5 5 5 5 5 B F 6 6 F 1.S.V.v.0.q d.K e r._ _ _ _ _ r._ _ _ _ _ E _ _ _ _ _ _ _ _ _ r.r._ _ _ _ _ _ _ <._ <._ _ _ _ x ~.~.~.e.~.3 '.E f =X$X$X$X$X$X$X$X$X4X' 1 $.$.$.$.$.$./ 1 1 ' I 4X$X4XI ' 1 1 1 ' 1 1 1 1 / / / $.$.O.O.O.$./ / / / / 1 1 1 1 1 1 1 / / / / $.O.O.$.$.$.$.O.O.H H H H H H O.H H H H H A.A.P.q &.L L.L.E E E E E q.q.E '.] '.'.<.E E qXE E E E E _ L.L.L.L.L.L.L.L K d.",
"I I I E.E.%.4XE.I I I I I y y y y y c.).%.9 4XE.U U U U U U U U ' ' 1 ' 1 1 1 1 ' ' ' 1 4.Y Y > V V 4.y b b I ....U U U U ....Y Y Y 4.1 1 1 1 1 ' 4.Y Y Y $.1 ' 4.4.Y > > > > > > > > > > > > > > ;.> ;.;.j.;.;.;.> > ;.;.;.j.l l ) l l l l R l j.l 9.a.S.Q 6 x.x.x.x.#Xw.w.w.w.u.I.8X^.M.m.7.o [.p.>XG F.G G G G L G L L L G G G G G G G G G G F.L F.L G L L G G L G G G L L L L G G p.q #   >.R R R R R ) ) R R R R ) ) m m m m v ;.v j.< < m.7.3.Y.3.Y.3.4 Q.# R m m v v v v v v m m v v v m m ) R R R u u u u R R R R >.>.>.>.>.>.< k i.s k #     < <                               <       <   <     <     <   <           9.2.2.M.Y.I.t.l.h h X.h X.X.@.5 5 5 5 B 5 5 5 5 B F 6 6 6 1.S.V.v.0.C K L L._ _ _ _ r.L._ _ _ E _ _ _ _ _ _ _ _ _ _ _ q.A q.A q.r.r._ _ _ _ _ _ _ _ _ <.(.x ~.~.e.3 <.q.f =X=X$X$X$X$X$X$X$X4XE.' 1 / 1 / $.$.1 1 1 1 ' ' E.4XE.' 1 1 1 ' ' 1 1 1 1 1 / / $.O.O.O.O.$./ / / / / 1 1 1 1 1 1 1 / / / / $.$.$.$./ / $.$.O.O.O.O.H O.O.O.O.O.O.H H A.A.A.P./.L L.L.L.L.E k.E k.E E <.'.'.'.E E k.E <.E E E `.E L.L.L.OXL.L L K C i.",
"E.E.E.E.4XN %.4XE.I I y I y y y ).y y b 9 tXP 4X..U U U U U E.....' 1 ' 1 1 ' ' ' ' ' 4.1 Y Y V V > 4.I b I I ....U U U U ....4.4.1 ' ' ' ' ' ' ' y 1 Y $.$.' ' ' 4.Y > > > > > > > > > > > > > > ;.;.;.j.j.j.j.;.;.;.;.;.j.j.l R l l l l l ) l l >.M.v.S.Q 6 x.x.x.x.#X#Xw.w.u.u.I.{.v.t [.p.6.G G F.G F.G G G F.L F.L L G L G G G G G L L L L F.L L L F.L L F.L L L L L L L L G G p.C 9.  R R R ) ) ) R ) R R R R R ) ) m m m m v v v ;.< # 7.7.3.Y.Y.Y.3.7.Q.# ) m m v v v v v v v v v v v j.m j.m m R >.>.>.>.>.>.>.>.R >.    < # k i.s i.#     <                               <     <   <       <     <   <       <   <   < 9.M.v.a.V.1.l.X.X.X.h h X.@.5 5 5 B 5 5 5 5 B B F 6 6 6 1.S.V.v.0./.6.F.L.r._ r.r.E r.r.E _ _ _ _ _ _ _ <._ <._ _ r.A e e W e & q.r._ _ _ _ _ _ <._ E <.x 3 e.3 <.q.=X=X$X=X$X$X$X$X$X4X4XE.' ' 1 / / / / 1 / 1 1 1 ' ' ' ).' 1 1 1 1 ' 1 1 1 1 1 1 1 / $.O.O.O.O.$./ / / / / 1 1 1 1 1 1 / / / / / / $.$./ / / / / $.$.$.O.O.O.O.O.$.O.H H H A.A.A.P./.L L.E E L.q.E E k.E k.E '.'.E E q.E E E E E L.E L.L.L.L.L.L 6.[.o i.k ",
"E.4X4XN 9 9 4XE.I y I I y ).I y y y y ).9 J.tX9 E...4.......' ' ' 1 1 1 y 1 1 1 ' ' ' 1 4.Y V V V > 4.I I I ......U ..U U ....' 4.' 1 ' ' 1 1 ' ' ' 4.$.Y 1 1 ' 4.Y Y > > > > > > > > > > > > ;.> ;.;.j.j.j.j.j.j.;.j.j.j.j.j.l l l l l l ) l R l >.2.3.S.Q hXx.x.x.x.x.#X#Xw.w.u.{.V.}.R.G G G G G G G G G >XG G G F.G F.L L G L G G L L L F.L F.L G L G L L L L L L L L L L G G 6.t m.>.>.R R ) m ) R ) R ) R R R R ) ) m m m m v v v v H # 7.7.3.Y.3.Y.3.7.Q.#   m m v v v v v v v v v v v v ;.v k i.k <   >.>.>.>.>.    < # k i.i.s s i.k       #                                 <     <     <     < 9.          9.    < < < m.v.V.@Xl.l.l.5 @.X.X.X.X.@.5 5 5 5 B B 5 5 5 B F 6 6 6 1.1.{.v.7./.6.L L A L.A L.r.r.r._ _ _ _ <.E _ E _ _ _ _ r.A e W W ,.W e A r._ _ _ _ _ _ _ _ _ _ <.<.<.k.A =X$X$X$X$X$X$X$X4X4X' ' ' 1 1 1 / 1 1 1 / 1 1 1 1 1 ' ' ' 1 1 1 1 ' ' ' 1 1 1 1 ' 1 / $.$.O.O.$.$./ 1 1 1 / 1 1 1 1 1 1 / / / / / / / / / / / / / / / / $.$.$.$.$.O.O.H H H A.A.4 P.&.L L.L.L.E E E E E k.q.E E E E E L.E L.k.L.L.E L.L.L.L.F.L 6./.q k # # ",
"4X4X9 9 nX9 %.E.I y I I ).%.%.I y y I ).%._ _ f 4X1 1 4.' ' ..' ' 1 1 / 1 1 c.1 1 ' 1 1 Y Y V V V Y 4.I I ....U U ......U ....' ' ' ' y ' 1 1 ' ' ' 1 1 $.1 1 ' 4.Y > > > > > > > > > > > > ;.> ;.;.j.j.j.l l j.j.j.j.j.j.j.l j.l l l l j.l R u l >.9.v.S.Q hXx.x.x.x.x.#X#X#Xw.u.{.V.R.R.G L L L G G G G G F.L G L G G L L L L L L G L L L L L L L G L L L L L L L L L L L G G >X[.7.9.>.R R ) ) ) ) R R ) R R R R ) ) m m v m m v v ;.v k k Q.7.3.Y.Y.Y.3.7.Q.#   m m v v v v j.v v v v n n n i.i.8.w 8.i.k m.# # # # # # k Q.i.i.Q.i.i.k #     < <                               <     <   9.<   <     <   < 9.            < < m.a.R.sXsXl.5 5 @.@.@.X.X.@.5 5 5 5 5 5 5 5 B B F 6 6 6 1.1.{.3.4 7.C p.6.W e & A q.r._ _ _ _ <._ _ _ _ _ _ _ k.r.A f W W W W e A r._ _ _ _ _ _ <._ _ _ _ E A f =X$X$X=X$X$X$X$X4XE.' ' ' 1 / / / 1 1 1 1 1 1 1 1 1 ' 1 ' 1 1 1 1 ' ' ' ' 1 1 1 ' / 1 / / $.$.$.$.$./ 1 1 1 / 1 1 1 1 1 1 / / 1 1 1 1 / / / / / / / / / / / $.O.$.O.O.H H H P.A.A.P.c 6.L L.L.L.L.L.E E E q.E q.E L.E E L.E L.L.r.L.L.q.L.L L >XK C q k < < < ",
"9 9 nXnX9 9 4XI I y I I %.4X%.E.' 1 I ).y &.e & ,.y / / / 1 1 1 ' ' 1 1 / 1 1 1 1 1 ' 4./ Y V V V i.4.I E...U U U U ..U E.....' ' ' ' ' 1 ' ' ' ' ' 4.1 Y 1 ' 1 4.Y V > > > V V > > > > > ;.;.;.;.j.j.l l l l l j.l l l l l l j.l l l l l l l >.  # 4 a.S.Q 6 x.x.x.x.#Xx.x.#Xu.u.I.V.R.R.L L L L G G G F.L L F.L F.G G L L L L L L L L L L G G L >XL L L L e L L L L L L L L G [.0.9.2.>.R R ) ) ) ) R R R R R R R ) m m v v m m m v v ;.k i.s 0.3.3.Y.Y.3.7.7.# < m m m v v v v v v v n n n > n n b ,X( C s s 7.7.Q.Q.Q.Q.Q.i.k m.m.# # # <     < < < < < <                         <     <         <     <             <   < < m.a.R.sXsX@.5 B @.@.5 X.@.@.5 5 5 5 B B 5 5 B B F 6 6 6 6 t.{.Y.M.9.P.q &.D e & A r._ <.(.<.(.<.(.<.<._ _ E _ k.r.A & & & & & A r.r._ _ _ _ _ _ _ _ _ E q.f =X=X4X=X$X$X$X4X4X4X' ' ' 1 1 1 / 1 1 1 1 1 1 1 1 1 1 1 1 1 1 1 1 1 1 ' ' ' ' 1 1 1 1 1 / / / / / $.$./ / 1 1 1 1 1 1 1 1 1 / / / / 1 1 1 / / / / / $.$.$.$.$.$.$.O.O.O.O.H H A.P.A.P.q 6.L L.L.L.L.L.E L.E L.L.L.E q.E E _ E L.L.L.E L.L.& e D K C i.k # # # m m ",
"9 nXs.9 9 4XE.E.E.I I I E.4XN 4XE.' I ).).d.&.,.D &.).y 1 1 1 1 y ' ' 1 1 1 1 1 1 ' ' 1 1 Y Y V V V 4.I E.U U U U U U U U E...' ' 1 1 1 ' ).' ' ' ' 1 1 1 4.' 4.Y V V > Y V V V V > > > V ;.;.;.j.j.l l l j.l j.l l l l l l l j.j.l j.j.l l l ) i.o [.}.S.Q 6 x.x.x.#X#Xx.#X#Xu.u.I.V.R.R.G L L L L F.L L G L G L L F.L L L L L L L L L L F.L L L L >XG L L L L e L L L L G p.[.7.2.2.>.>.R ) ) ) ) ) ) R R ) R R ) ) m m v v m m m m v v k i.Q.0.3.Y.Y.Y.3.7.7.# <   m j.m v v v m v v v v n n i.w w b C C s m.m.9.m.m.9.A.9.9.9.A.m.< A.  A.< < < <   < < < < < <                 <     <   <   < 9.  <   <       9.  <     < < 9.4 a.S.l.l.B 5 5 5 @.X.@.@.5 5 5 5 5 5 B 5 5 B F 6 6 6 1.t.{.Y.M.9.A.P./.W A r._ _ (.x (.x x x x x (.x <.<._ _ k.r.q.A r.r.r.r.r._ _ _ _ _ _ _ _ _ r.A W =X&.).).).4X4X4X4X4XE.' 1 1 / 1 1 1 1 ' ' ' 1 ' ' 1 1 1 1 1 1 1 1 1 1 1 1 ' ' ' 1 1 1 1 1 / / / / / $.$.$./ 1 1 1 1 1 1 1 / / / / / / / / / / / / / $.$.$.O.$.O.O.O.O.;.H O.H A.A.A.A.q &.L.`.`.`.L.L.L.L.L.L.A L.q.L.E E L.E L.L.L.L.L.L.& D &.c q i.k # m m v v v ",
"9 9 4X4X4X%.4X%.E.E.I I I %.4X4X%.I I y ).c d.&.D e D &.d.c.c./ c./ c./ c./ ' 1 1 1 ' ' 1 1 Y V O.O.1 I ..U U U U U U ......' ' ' 1 1 c.' ' ' ' ' 4.4.Y 4.4.' 4.Y Y V > > V V V V > > > V ;.;.j.j.l j.l l l l l l l l l l l l l l l l l l >.< i.C [.p.R.S.Q 6 x.x.x.#Xx.x.#X#X#Xu.{.V.R.G G L L L L L G L L L L L L L L L L L L F.L L L L L L L F.G 6.6.6.G >XG G G G G G p.t 7.2.>.>.~ u R ) ) ) ) ) ) ) ) R R ) ) m m m v v m m m v j.v ;.k Q.Q.3.Y.Y.Y.Y.7.7.k < < m m m m v v m m v v v > i.n i.w w w C q m.9.9.9.9.9.2.      < < A.9.  < < < <     < < < < <             <   <   <             < < < <     <       < <       2.M.3.a.S.Q B 5 @.@.@.X.@.@.5 5 5 5 5 5 B B B B F 6 6 6 6 1.{.Y.9.A.P.d.D A _ (.(._ _ _ _ _ _ _ _ (.x x x (.<.<._ _ r.r._ _ r._ _ _ _ _ _ _ _ k._ _ A ,.d.c.c./ / 1 1 ' ' ' ' 1 1 / / / / 1 1 1 ' ' ' ' 1 1 1 1 1 1 1 1 1 ' 1 1 1 1 ' ' ' 1 1 1 1 1 / / / 1 1 1 / / 1 1 1 1 1 1 1 1 / / / / / / / / 1 / / $.$.O.O.O.O.O.O.O.H H H A.A.A.A.P.P./.6.L.6X-X6X6X6X`.L.L.L L L.L.L.E E L.q.L.L.L.L.F.L D &.c i.k k k # m # m m m m ",
"N 4XE.E.E.E.%.4XE.E.I I I E.E.4XE.I y y y y * c K e r.r.e K ( d.d.* c.c.c.c.c.1 1 1 ' ' ' ' 4.$.O.O.4.I U U U U U U ..U ..E...' 1 1 1 1 ' 1 ' ' ' 1 Y Y Y 4.4.4.Y Y V > > > V > > V V > V V j.j.j.l l l l l l l R l R l l l l l l >.>.>.2.m.7.[.p.p.}.V.S.1.6 x.x.x.#Xx.x.#X#X#Xu.{.V.R.G G L L L G L G L L L e L L >XL L L L L L L F.G L G L G G 6.p.p.p.p.p.p.G G G G p.[.7.9.>.~ >.R R R ) ) R R R ) ) ) R R ) ) m m v v v v v v v v v k # Q.Q.3.Y.Y.Y.Y.4 7.m.< < m m m m m m m m m v v v ;.i.n w w w w * P.m.9.2.9.9.9.    < < < < <     <       <                   <     <           <       <   <       < < < < < <     2.2.2.M.v.V.S.B 5 l.5 5 X.X.@.5 5 5 5 5 5 5 B 5 F F 6 6 6 6 1.{.Y.9.P.d.W r._ (.(.(._ r.A q.q.q.q.k._ x x y.x (.<._ _ _ r._ _ _ _ r._ _ _ _ _ _ k._ r.e &.c.P.O.O.O.O.$.$.$.$.$.$.$.$./ / / / 1 1 ' ' ' ' 1 1 1 1 1 1 1 / 1 1 1 1 1 1 ' ' ' 1 1 1 1 1 1 1 1 1 1 1 1 1 1 1 1 / / / / / / / / / / / / / / / O.O.H O.H H H H H H A.A.A.A.A.P.P.c &.f '.6X-Xz.z.HX-X6X`.L.L L L L L.E L.L.L.L.L.F.L.e K C q k # # # # v v m m ) ) R ",
"%.E.I I I I E.E.I I I I E.E.E.E.E.I I y y y c.c c K (.|.|.!.DXr.F.>XK K ( * c./ ' ' ' ' ' 1 Y V O.O.4.E.E.U ..U ..U U ......' ' ' ' ).' ' ' ' ' ' 4.Y Y Y 4.4.4.Y > V > > Y Y Y > V V V V ;.;.j.j.l l j.l l u l l l l u l >.>.l   2.2.9.4 0.[.p.[.t v.v.{.1.6 x.x.x.x.x.#Xx.#Xw.u.I.V.R.G L L L L L G G L L e L F.L L L L L L L F.L L L >XG >X6.p.p././././.[.p.p.}.p.p.p.0.9.2.>.>.R R R R ) ) R R R ) ) ) ) ) ) m m v v v v v v v v v ;.m # 7.Q.3.Y.Y.Y.Y.4 7.m.# < m m m m m m m m m m v v v > n n w n i.b w k 9.2.2.9.9.    < < < <               <   <                 <       <   < < < <   <     <       <   < < <       2.2.2.M.4 {.S.B 5 5 @.5 X.@.5 5 B 5 5 5 5 5 5 B B F 6 6 F F 1.{.Y.4 o W r._ _ _ (._ r.A & A A f f A k._ x x x <._ k.k.r.r.r._ _ _ _ _ _ _ <._ k._ _ r.D c P.H H H H O.O.O.O.O.O.O.O.O.$.$.$./ 1 ' ' ' ' ' 1 1 1 1 1 1 / / / / 1 1 1 ' ' ' ' 1 1 1 1 1 1 / 1 1 1 1 1 1 1 1 / / / / / $.$.$.$.$.$.$.$.$.$.O.O.O.H A.A.A.H A.A.A.A.P.P.P.c.c &.e E ] -Xz.z.z.z.z.z.-X6X`.`.L R.6.L L.L.L.r.L.r.L D &.* P.A.< # # v # m ) ) R R R u ",
"E.I I I I I I I I I I I E.E.E.E.E.I I I y y y c.c.C F.!.AXxXxXAXAXgXgXlXDXvXw c.c.1 ' ' ' 1 Y V V V 4.E.4XU U U U U U U ....' ' ' ' ' ' ' ' ' ' ' 4.Y V Y Y Y Y Y > > > > Y Y Y > V V V V ;.;.j.j.l l l l l l l l u l ~ l l >.A.m.4 7.v.v.a.a.0.4 4 M.8X{.t.6 x.x.x.x.x.x.#X#Xw.u.I.V.R.G L L L L L G G L L L L e L L L L L L G L L F.G 6.p.p.p.[././.t t t /./.[.t [.[.t m.2.>.>.>.R R R ) ) ) R R R ) ) ) ) ) m m m v v v v v v v v j.v m < m.Q.3.3.Y.Y.Y.4 7.m.# < < m m m m m m m m m v v v v i.n n 4.w b b i.k   2.  < <     <                                   <   <                                       < < < < <     2.2.2.2.M.v.S.B 5 5 5 @.X.@.5 B B 5 5 5 5 5 5 5 F F 6 6 F F 1.{.Y.7.( r.(._ r.r.r.r.& e e & e W W e A r._ (.(._ k.q.q.q.A A r.r._ (._ _ _ _ _ _ _ _ r.,.c P.A.H H H H O.O.H ;.H O.O.O.O.$./ ' ' I E.E.E.I ' 1 1 1 1 1 / / / / 1 1 ' ' ' ' ' 1 1 1 1 1 1 1 1 1 1 1 1 1 1 1 / / / / $.$.O.O.O.O.O.O.O.O.O.O.H H H A.A.A.P.P.P.P.q d.&.6.W L.E ] -X-Xz.z.z.+.+.+.+.z.-X-X`.OXR.}.R.R.L L.L.L >XK c i.P.# < < k k k k k < < < ) >.>.",
"I I I I I I I I I I I I E.E.E.4X4XE.I I I I y y c.* ( vXlXxX+X+X+X+X+XcXGXgXSX( c./ ' I ' 1 Y $.Y $.4.E.E.E.......U E.....' ' ' ' ' ' ' ' ' ' ' ' 4.Y V V Y Y > > > > > > Y Y Y Y V ;.V V ;.j.j.j.l l l l l j.j.l l l >.>.< k s [.R.F.sXV.a.3.M.^.fXfX^.I.t.x.x.x.x.x.x.x.#X#Xw.u.I.{.R.R.G L L L L L G G G L >XL L F.L L L >XG L G G 6.p.p.[././.t t t /.t t a./.t t s m.2.>.>.R ) ) ) ) ) ) R ) ) R R R R ) ) m m v v v v v v v v v v v j.< m.Q.3.3.Y.Y.Y.4 7.7.m.< < m m m m v v v m v v v v ;.;.n i.n n n n w i.k <   9.                                            <   <                             <       < < < < <     2.  9.2.M.3.V.l.5 5 @.@.X.X.@.B B 5 B 5 5 5 5 5 B F 6 6 F F 1.{.Y.7.K r.(.r.A A e W D D W W ,.K &.,.W A k._ _ k.q.q.r.q.A f & A r._ _ _ _ k._ _ _ _ L.D c P.A.A.H H H H j.O.O.H H O.O.O.$.y ).4X).4X4X).I ' / / $.$.$./ / / 1 1 1 1 ' ' ' ' ' 1 1 1 1 1 / 1 1 1 1 1 1 1 1 1 / / $.$.O.O.O.O.O.O.H H H H H O.P.P.c.c.).d.&.=XD W L.E '.] 6X-X-Xz.z.z.+.+.+.$ +.+.+.z.-X6X`.OXL p.p.6.G 6.[.C q P.k k k k i.i.i.8.i.w i.y i.i.k < ",
"I I E.I I I I I I I I I I E.E.N 4XE.I I I I y y y y w ( vXlXxX+XJXJXJXJXJXcXgXSXb y I I 1 $.Y Y Y $.4.I E.E.E.....I ....' ' ' E.' ' ' ' ' ' ' ' ' 4.Y V V V V V V > > > > Y 4.Y Y V ;.V ;.;.j.j.j.l l l l l j.l l l >.l # Q.IXSXlXgXgXgXUXV.v.M.^.fXBX^.I.t.x.x.x.x.x.x.x.#X#Xw.u.I.{.}.R.G L L e L L G G 6.6.>XL L L F.G L L G G G G p.[././.t C /./.t t t t t t t 0.m.2.>.>.R R ) ) ) ) ) R ) R R R R R R ) m m m v v v v v v m v v v v m < # Q.v.3.3.3.Y.4 7.7.m.  < m m m v v v v v v v v v v v > n n N.n n n w i.k # <                                           <       <                     <   <           < < < <             2.Y.V.l.@.5 @.X.h X.@.5 B 5 B 5 5 5 5 5 B F 6 6 6 6 1.{.Y.7.K vXr.& W ,.,.,.&.&.K K &.d.d.d.K W A r.r.r.q.q.k.q.f f W e A r._ _ _ _ _ _ _ _ r.>XC P.A.A.H O.H H H H O.H H H H O./ ).4X4X4XE.E.I y / $.O.O.O.O.O.$.$./ 1 1 1 1 1 ' ' ' 1 1 1 1 1 1 1 1 1 1 1 1 1 1 1 1 / $.$.O.H H H H H H O.H H O.c.d.=XW f L.E '.'.] ] 6X6X-X-Xz.z.z.z.+.+.+.+.+.+.+.+.+.z.z.-X-X6X`.L 6.p.[.t 7.m.k k k i.i.w b ,X%.%.%.%.%.%.%.%.b w ",
"I I I I E.E.E.E.%.E.I I I E.4XN 9 4XE.I I I I I I y y w C K lXxX+XJXJX:.JXJXcXlXK y ' ' Y V Y 4.4.V $.1 I E.E.I ' 1 ' ' ' ' I ' ' ' ' ' 1 ' ' ' ' 4.Y V V V V V > > > > > Y Y 4.> V V V ;.;.j.j.l l l l l l l l l l   # 8.SXlXGXxX0X+X0XgXlXUXIXY.^.fX^.I.{.t.#Xx.x.x.x.x.#X#Xw.u.I.{.}.R.G L e L L L G 6.G 6.>XL >XL G L G G F.G G p.p.[./.t t /./.t /.t t t t [.0.m.2.>.>.R R ) ) ) ) ) ) R R R R R R R ) ) m m m m v v v v v m v v v ;.m < # 7.v.3.I.3.3.Y.4 7.m.    < m m v v v v 8.v v v v v ;.n n N...n 4.n b w i.k # <   9.  2.      < <                         <   <   < < <                 < < < <         < <             < 2.4 V.l.@.@.@.X.h X.@.5 5 5 5 5 5 5 5 5 B F F 6 6 6 1.V.3.7.( e vXD K &.d.d.d.d.( ( d.c * c d.&.D & A A q.r.k.q.f f W W e A r._ _ _ _ _ (._ L.F.K q A.A.A.H H H H O.H H H O.H O.$.).).).).1 1 / $.O.O.H H H H O.O.O.$./ / 1 1 1 1 ' ' 1 1 1 1 1 1 1 1 1 ' ' 1 1 1 1 1 / $.$.O.H H H H O.H H H H P.d.e E '.] 6X-Xz.z.z.z.z.z.z.z.z.z.z.z.z.+.+.+.+.+.+.+.+.z.z.z.z.-X6XE L [.0.m.2.< k i.w b %.%.K N 9 9 9 N 9 D 9 D K K ",
"I I I E.E.E.4XN N 4XE.I E.E.E.4X9 N E.I I I I I I I I ).w i.>XlXcXJXJXJX:.JXkXlXN y 1 1 Y V Y 4.Y O.O.$.y %.%.d.).y y / / 1 ' ' ' ' ' ' ' ' ' ' ' 4.Y V V V V V V > > V > > Y Y Y V V > > ;.;.j.l l l l l l l l l >.  8.SXgX+XJXJXJXJXJXJX+XGXgXUXM.fX^.8X{.t.x.x.x.x.x.x.#X#X#X#X#X{.}.R.G L L L L L G G G L L L L L L L G G G G G p.[.[.t /.t [.[.t t 0.0.t t t 7.9.>.>.R R ) ) ) ) ) ) R ) R R R R ) ) ) m m m m m m v v v v m m v v v v < # 7.v.3.3.3.3.3.3.7.7.9.    m m v v 8.v v v n v v v v v n n N.n n n n n i.i.i.k 9.9.                                  <     <       <               <         <         < <           < < 9.4 V.sX@.@.X.h h X.@.5 5 5 5 5 5 5 5 5 B F F 6 x.1.1.V.3.7.C D >XK d.c * c * * c c C c * * c d.&.W & A A r.q.A f e W W W e A r._ _ <._ _ _ _ L.G c P.A.A.H H H H H H H H O.H O.$.y ).y / O.O.O.H H H H O.H H H H O.O.$./ / / 1 1 1 ' 1 1 1 1 1 1 1 1 1 ' ' ' 1 1 1 1 1 / $.O.H H H H H H H H H c.6.(.6X6X6X-X+.+.z.z.+.+.+.+.z.z.+.-X: z.+.+.#.+.+.+.+.+.+.+.+.+.z.-Xe.E /.m.2.>.# w ,XN ,XN K N 9 9 9 N N N N N ,.N K ",
"I I I I E.4X9 9 9 9 4XE.E.I I E.%.%.E.I I I I I E.E.I I y d.( vXgX+XJXJXJXJXuXSXb / Y Y Y Y Y Y V ;.O.O.$.c.c d.d.d.c c./ c.1 1 / 1 c.c./ c.' ' ' 4.Y V V > > > > > V V V V V Y > > > > > ;.j.j.l l l l l j.j.l l   8.SXuX+XJXJXJX_.JX_.JXJX3X+XlXIXM.^.Y.{.t.x.x.x.#Xx.x.#X#X#X#XI.{.}.R.G L e L L L L L L L e L L L G G >XG 6.p.p.[.[.t /.t t /.t t 0.0.t t 0.7.9.>.>.R R R R ) ) ) ) ) ) ) ) ) ) ) ) m m m m m m m v v v v v m m v v v v < # 7.v.3.3.3.3.4 4 7.7.9.  < m v v v v v 8.v 8.v ;.v ;.> n n ..n ..n I n w w 8.i.i.k # < <                               <     < 9.<           < # # # # < < < <         < <           < # 9.4 V.sX@.X.X.h X.@.5 5 5 5 5 @.@.5 5 5 B F F 6 6 1.1.V.3.4 s ( K ( c * o C o * * c C c c c c d.K W & & & & e W D W W >XD W A r._ _ _ _ _ `.r.L.L 6.c P.A.A.H H H H H H H O.H H O./ c./ $.O.H H H H H H H H H H H O.$.$./ / / / 1 1 1 1 1 1 1 1 1 1 1 1 1 1 1 1 1 1 1 1 / $.O.H H H H H H H H H P./.L.6X6X-X-Xz.+.z.z +.+.+.+.+.+.z.: 2X2 z.+.z.+.+.+.+.+.+.+.+.z.z.z.-XE c A.>.  i.%.N N N K N N D N N 9 9 =X9 W N ,.N ",
"I I I E.4X9 9 nXP 9 4XE.I I I E.E.E.I E.I I I I I E.' y y d.w ( SXAXJXJXJXkXZX5Xw 4.4.Y Y Y V V V V ;.O.O.O.P.c.c C d.c c ).c.c.c.c.c.c.c.c.1 ' ' 4.Y V > > > ;.> > V V V V V > > > > > > ;.;.j.j.l l l l l l l l i.5XgXkXJXJXJX_._._._._._._.JXGXDXt 3.I.{.t.x.x.#X#X#Xx.x.#X#X#X#X{.}.R.G L L L L L G L L L L L G G G p.p.p.[.[.[.[.t [.t [.t t t t q t [.0.7.9.>.>.>.R R R R ) ) R ) ) ) ) ) m ) ) ) m m m m m m v v v v v v m m v v v v < # 7.v.3.3.3.3.3.3.7.Q.m.< < m v v v v v v v 8.v v v v v n n N.N.n n n n n w w w 8.i.k k # # # < <                 <   <     <             < < # k k k k # # < <                         # 9.4 V.sX@.X.X.h X.@.5 B 5 5 5 5 @.5 5 5 5 F F 6 6 1.1.{.3.4 7.s C C o o o C C o * o C C C c C ( K >Xe e e D ,.K &.D D D ,.D & r._ _ _ _ _ E L.L.L.A 6.d.c.P.H H H H H H H H H H H P.P.P.O.H H H H H H H H H H H O.O.$./ / / / / 1 1 1 1 1 1 1 1 1 1 1 1 1 1 1 1 1 1 1 1 $.$.O.H H H H H H H H A.P.c L (.6X-Xz.z.z.+.+.+.+.+.+.+.+.z.: XX2X: z.z.+.+.- +.$ $ +.z.+.z.z.-X'.c A.>.k b N 9 N N N N N N N 9 W 9 9 W 9 9 N N ",
"y y I I 4X9 nXP nX9 4XE.I I I I I y y I I b y y y I y I ).y y w ( lXxXJXJX0XmXC.b I 4.Y > V V V > > Y V ;.H A.A.P.P.c /.&.&.).).c.c.c q q c.c.' ..4.Y V > > > ;.> > ;.> V V V ;.> > > > > > ;.j.j.l j.l ) j.l >.< ,XlX+XJXJX_._._._._._._._.:.JXkXGXDXR.V.V.t.x.#X#X#Xx.x.#X#X#X#XI.{.}.R.G L L e L L G L L L >XG 6.p.p.p.p.[./.t /.t t t t t t t t 0.0.t [.7.9.>.>.>.R R R R R ) R R ) ) ) m m m m m m m m m m v v v v v v v v v v v v v m < # 7.0.3.Y.Y.3.3.4 7.Q.m.# < m v v v v v v v 8.v ;.v v > > n n ..n ..4.n n n 8.,X,Xw w s i.i.P.m.# < <                   <     <           # # k k Q.i.Q.k k # <                 <       < 9.4 V.sXX.X.h h X.@.5 B B 5 5 @.@.5 5 5 B F 6 6 6 1.1.V.3.Y.4 4 q s o 0.o /.C o q * C C C C C ( K >Xe >XD K &.d.d.K K K K ,.e r._ _ E _ `.L.L.L.L.L.L.W &.c.P.H H H H H H H A.A.H H H H H H H A.A.A.A.A.A.H H H O.$./ / / / / / 1 1 1 1 1 1 1 1 1 1 1 1 1 1 1 1 1 1 1 / $.O.O.H H H H H H H H A.A.P.d.L.] -Xz.z.+.+.+.+.+.+.z.+.+.z.: XXXX2X-Xz.+.+.- +.+.+.+.z.z.z.HX-X'.&.P.A.w %.N N N %.N N N N N 9 9 9 9 N N 9 9 9 ",
"I I I E.4X9 nXP nX9 4XE.E.I I I I I y y y y y y y y ).y y ).).c.* vXgX0X+XuX5Xb I ..4.Y > > > V V > V V ;.v H <   A.P.q &.&.&.d.d./.p././.c c.' ..4.Y V V > > ;.;.> > V V V V V > > > > > ;.;.j.j.j.j.l l l >.l # IXlX+XJX_.:._._._._._._._._._.JX+XGXgXsXS.t.x.#X#X#Xx.x.x.#X#X#Xu.{.V.R.G L L L L L G G G >X6.p.p.[././././././.t t t t t t t t t /./.t s m.>.>.>.R R R R R R ) R R R ) m m v v v v v v m m m m m v v v v v v v v v v v m   # 7.0.3.Y.Y.3.3.3.7.0.m.# < m m v v m m v v v i.v v v v v n n n n n 4.n n n n n 8.,X( C C o s q P.# <   )         <   <     <               < # # # # # # # < <     9.      <   <     9.  2.4 V.sXX.h h h X.@.5 B 5 5 5 5 5 5 B 5 5 F 6 6 1.1.1.V.{.Y.M.M.7.0.0.0.0.o o s q * C C C C C C ( K D D K ( C c C ( K ( ( K e r.r.r._ L.E L.L.L.L.E L.L.f =Xc.P.H H H H H H H A.A.A.A.A.A.A.A.A.A.A.H A.H H O.O.$.$./ / / / / / 1 1 1 1 1 / / / / 1 1 1 1 1 1 1 1 1 1 / $.O.O.H H H H H H H H P.A.P.P.&.L.6X-Xz.+.+.+.+.+.+.z.+.+.z.z.-XXX2X: +.+.+.+.+.+.+.+.z.z.z.z.z.~.e c c.K N K %.%.%.N N N N N N 9 9 N N N N N 9 ",
"I I I E.4X9 nXP nX9 4XE.I I I I I y y I y y y b w y y y ).).y c.* ( DXAXxXZXC.n ....4.Y > V V V > > > V ;.;.;.H <   A.A.P.y y c.c C [.p.p.c c.1 4.Y V V > > > > > ;.> > ;.V ;.V V V > > > > ;.j.j.j.l l l ) l >.k ,XlX+XJX_._._._._._._._._._._._.JXD.0XgXsXt.x.x.x.x.x.x.x.#X#X#Xu.I.V.R.G G L L L L G G 6.p.p.[./.t t t t t t /.t [.t [.t t t t 0.t [.0.m.2.>.>.R R R R R R R ) R ) ) j.m v v v v v v m m m m m m v v v v v v v v v v v < < m.7.v.3.4 Y.3.3.4 v.0.Q.# < m m v v m m m v v v v v ;.v > > n n > > > 4.n 4.n n n w b ( ( C C s q i.# < < <                   <   <         <   # < # <                       m       9.  2.4 V.sXh h h h X.@.5 B B 5 5 5 5 5 B 5 B B 6 6 6 1.1.S.{.Y.8X3.a.a.a.0.0.0.0.q q q o o C c o C C ( ( ( C C C C C ( ( C C ( D A r._ E L.L.L.L.L.E `.E E L.f &.).P.H A.H H A.A.A.A.A.A.A.A.A.A.A.A.H H H O.O.O.$./ / / 1 / / / / / 1 1 1 1 1 1 1 1 1 $.1 1 1 1 1 1 1 1 / O.O.O.H H H H H H H A.H H A.A.c.=XE e.z.+.+.+.+.+.z.+.+.+.+.+.z.: -Xz.+.+.+.+.+.z.+.z.z.z.-X-X~.x & K d.,.N %.b %.%.N 9 9 N N N N %.%.%.%.%.%.N ",
"I I I I 4X9 9 9 9 4XE.E.I I I y I y y y y y y I w y y y I ).).y * o vXZXZXtX%.......4.Y V ;.;.V > > > > V V ;.;.;.j.l   l H H H O.P.o p.p.c c.1 4.Y V V > > > ;.> ;.> > > V ;.V V V > > > > ;.;.j.j.l l l l l l < w SXcXJXJX_.:._.:._._._._._.:._._.JXD.GXsXt.t.x.x.x.x.x.t.x.#X#Xu.I.a.}.R.G G L L L G p.[.[.[./.t t /.t /.t t t [.t t t t t t t t t t 7.9.>.>.R R R R ) ) R R ) ) ) m m m v v v v v m m m m m m m v v v v v m v m m m < < 9.m.4 7.4 3.4 3.3.Y.3.7.Q.m.< m m v v m m v v v v v v v v v v n > n n n > n n n n n n w b ( ( C o s s i.< < <       <           <                 <   <                                     9.4 V.sXh h h h X.@.5 B B 5 5 5 5 B B 5 B B F 6 6 6 1.1.{.I.{.V.@X}.V.a.a.a.0.7.s s o o o * o o o C o o o C C C C C C C C ( 6.e r.E L.L.L.L.L.E E E E E E L.f =Xd.c.P.P.P.A.A.A.A.A.A.A.A.A.P.P.P.O.O.O.O.O.$.$./ / 1 / / / $.$.$./ / / / 1 1 1 1 1 1 1 1 $.1 1 1 1 1 $.$.O.O.H H O.H H H H H H A.A.A.A.c.,.'.-Xz.+.+.+.+.+.+.+.+.+.+.+.z.+.z.+.+.+.z.z.z.z.-X-Xe.] '.E q.e D ,.N %.%.E.%.N N 9 9 N N %.%.%.b b b b %.%.",
"I I I I E.4XN 9 9 4XE.I I I y I I y y y y y y y y y y I y ).y c c * >Xy.tXj E.......> V V ;.;.> > > > > > > V V ;.;.j.l l l l l l A.P././.c./ 1 4.V ;.V V > > ;.> > > ;.> > V V V Y Y Y Y > > ;.;.j.j.l l l l l l i.5XgX+XJX:.:._._._.:._._.:._._.:.JXD.GXyXt.t.x.x.x.x.x.t.#X#Xu.u.I.a.}.R.G G G G >Xp.[.[./.t t t t t t t t t t t t t t t t t t t t Q.m.2.>.R ) R R R ) ) ) ) ) ) m m m m v v v v v m m m m m m m v v v v v v m m m <     9.9.4 4 3.Y.Y.3.Y.Y.3.7.Q.m.< m m v v m m m m v v v v j.v v ;.> n > n n n > n n n n n w w b ( ,XC o w i.# < <                 <     <                 <   <                       <         2.4 V.sXh h h h @.@.5 B B 5 5 5 5 B 5 5 B B F 6 6 6 1.1.t.t.S.sXsX@XS.V.V.a.v.0.0.s o o o C o s s s s o o C C C o o o o C ( 6.L L.L.L L.L L.E E E E E E E E L.A D &.d.c c.P.P.P.P.P.P.P.P.c.c c c.c./ / 1 1 1 / / / / / $.O.O.O.O.$.$./ / / 1 1 1 1 1 Y 1 1 1 1 ' 1 1 / $.O.O.H H H O.H H H A.H A.A.A.A.P.d.A ] -Xz.+.z.z.+.z.+.+.+.+.z.+.z.+.z.+.+.z.z.-X6X] '.E q.A f W W W D N N N %.N N 9 9 9 N %.%.b b b b b b I b ",
"y I I I I E.E.4X4XE.E.I I I I y I y y y y y y y y y y y y y y w c ( vXSXvX%.......4.> V > > V V > > > > > > > V V ;.;.j.l j.j.l l   A.c.c.c./ Y Y V ;.V ;.> ;.> > ;.> > V V V Y Y Y 4.Y Y Y > V ;.;.j.l l l l l l < ,XlXcXJX:.:.:._.:.:._._._.:.:.JXJXD.GXyX1.t.x.x.x.x.x.x.#X#X#Xu.I.a.}.G L L G G 6.[.[./.t [.t t /.t [.t t t t 0.0.t t t t [.t [.s m.2.>.>.) ) R R R ) ) ) ) ) ) m m m v v v v v v m m m ) m m m v v v v v m m v # # < 9.9.4 4 3.3.Y.Y.Y.Y.3.3.3.Q.m.< ) m v v m m v < m m m v v v v v v v n n n n n n n N...n n w w b ( ( C o i.k <       <   <   <     <                   <   < < <                     < <       2.4 V.sXh h h X.@.5 5 5 B B 5 5 5 5 B 5 B B B F 6 6 6 F F l.@.@.l.Q S.S.V.{.v.v.0.0.s o C C o s s s 0.o o o * * * o o C ( K 6.6.L L L L.L.L.E L.E E E E E E E L.L.A e ,.&.&.d.c c c d.d.&.=X,.=X&.).).).E.E.I ' / / $.$.O.O.H H H O.$.$./ / / ' I ' 1 1 1 1 1 1 1 1 1 / $.$.O.O.H O.H H H H H H A.H A.A.P.c.&.q.] -Xz.z.z.z.+.z.+.z.+.+.+.+.+.+.+.+.z.-X] '.L.f W ,.=X=X=X,.,.9 9 N 9 N 9 N 9 N N %.%.b w w b b b b b b ",
"y y y I I I I E.E.I I I I y I I I y y y y y y w y y w b b b C ( K SXDXvXN ........4.> > > Y > > > > Y > Y > > > > V ;.;.j.j.l l l A.P.c.y 1 / Y V V ;.;.;.;.> > > > > > V V V Y 4.4.4.4.Y Y > > V ;.;.j.l l l l l l k IXgX+XJXJX:.:.:.:._._.:.:.JXJXD.0XgXsXt.t.x.x.x.x.x.#X#Xu.u.u.I.a.}.G F.L G 6.p.[././.[.[.[.[.t [.t t t t t t t t t t t t t C s 9.>.>.R ) ) R R R ) m ) ) ) m m m m v v v v m v m m m ) m m m v v v v v m m # k Q.Q.7.4 v.v.v.3.Y.Y.Y.3.Y.3.7.7.m.  ) m v v m m m m m v v v v v m m v ;.> n > n > n ..n N.n n n n w b b C C i.# <                 <           2.    <   < # # < <                             <   2.4 V.sXh h h X.@.@.5 5 B 5 5 5 B 5 5 l.B B F F 6 6 1.B 5 @.@.l.5 Q 1.1.{.I.3.v.v.0.0.q q o o s s q s s o o q * o C C ( K p.6.6.6.L L.L.L.E E E E E E E E L.E E E L.E L.L.A f e L f L A A L.A f =X=X4X4X4X4X).' 1 / $.$.P.O.H H O.O.$./ / 1 1 ).).I 1 1 1 1 1 1 1 1 1 1 / $.O.O.O.H H H H H H H H H H H A.P.c.&.L.] -Xz.z.+.z.+.+.+.+.+.+.+.+.+.z.z.e.] k.A W ,.,.=X,.,.9 N N 9 9 9 9 9 9 9 9 N N %.b w w w b b w w w w ",
"y y I I I I I I I I I I I I I y I y y y y y w w y y y w ( >XSXlXZXZXtX9 E...U U U 4.> > > > Y > > V > > Y Y Y Y > > V ;.;.j.l l l H y I I ' Y V ;.;.> ;.;.> ;.> > > > V V V Y Y 4.1 ' 4.4.Y > > > V ;.j.l l l l l >.  k SXgX+XJXJX:.:._.:._.:.JX+X0XGXgXDX@Xt.1.x.x.x.x.x.#X#X#Xu.u.I.{.}.G L L 6.6.[.[.t [.[.[.[.[.t t t t t t t t t [.t t 0.t [.o i.  >.>.R ) ) ) R R ) ) ) ) ) ) m m m m v m v v v v m m ) m m m v v v m v m < # Q.Q.0.7.3.v.v.v.3.3.Y.Y.3.3.3.3.Q.m.< m m v v m m m m m m v v m v m m m v v v v > n n N...n n ..n n n 8.w ,Xw i.# <           <   < 9.            # # # # # # k # <                           < <   2.4 V.sXh yXh h @.@.@.5 B B 5 5 5 B 5 5 B F F F F 1.B @.@.@.@.5 B B F 1.t.{.{.a.a.0.0.q q C o s 7.q s o C C c c C ( K p.p.6.6.6.L L L.E E E E E E E E E E E E E E E E E E L.L.L.L.L.E E L.L.f =X=X$X$X4X4XE.' 1 1 / $.$.O.H H H O.$./ / 1 1 ' ).4XE.' 1 ' ' 1 1 1 1 1 1 / / $.O.O.O.H H H H H H H H H H A.A.A.c.&.L.] -Xz.+.+.z.z.+.z.+.+.+.+.z.z.-.] k.f W ,.,.,.,.N N 9 9 9 9 9 9 9 9 9 9 9 N N %.b b w b w w w w i.i.",
"y y I I I I I y y y y y I I y I I y y y y y w w y w K >XSXlXAXxX0X} SX%...U U U ..4.> V V V > > V V V Y Y Y 4.Y > > V V ;.j.j.< H $.E.E.E.4.Y ;.;.;.;.> ;.;.;.> > > > V V Y Y Y 1 ' ' ' 4.Y V > > > ;.j.j.l l l l l >.>.,XDXGX+XJX:._.JX_.JXJX+XGXgXDXF.R.V.S.1.x.x.x.x.x.#X#Xw.u.u.I.{.}.R.G 6.6.p./.t /.t [.[.[.t t t t t t t t t }.[.t a.t t C s #   >.R R ) ) R ) ) ) R R R ) m m m m m m v v v v v v m ) m m v v v m m v m < # k Q.0.v.3.v.v.v.3.3.Y.3.3.3.3.3.7.m.< m m m m m m m m m m v v m m m m m m v v v > n n n N.n N.N.N.n n n w w w s k <             9.<           < # # # # # # k # # #                     < < < < < < 2.3.V.sXh h h h X.X.@.5 B 5 5 5 5 5 l.B B F F F Q B 5 @.@.@.5 B B B F 1.1.S.V.V.}.a.0.s o C C s s s o C ( ( ( ( K K p.p.6.6.6.6.L L.L.E `.E E E E E E E E '.E `.E L.E L.E E E L.E E E E L.f =X=X$X$X=X4XE.' 1 1 / / / O.H H H O.$./ / 1 1 ' ' E.4X4X' ' ' ' 1 1 / 1 1 1 / / / $.O.O.O.H H H H H H H H H A.A.A.A.P.&.L.] -X-X-X-X: -Xz.z.z.z.z.-X@ 3 k.f ,.,.,.9 N N N N 9 9 9 9 9 9 9 9 9 9 9 N N ,Xb b w w 8.i.i.i.i.k ",
").y y y I I I y ' y I I I I I y I I y y y y w y * K DXAX0X+X.XT.xXSX,Xw ..U U ..4.> V V ;.V V V V V V Y Y 4.4.4.Y > V > ;.;.j.H O.y E.E...4.Y ;.k ;.> ;.;.;.;.;.V V > > V Y Y Y 4.' ' 1 1 Y Y > Y > ;.;.j.l l l l l l >.  ,XDXGXJXJX:.:.JX+XGXlXDXF.G R.R.@XS.t.x.x.x.x.#X#Xw.w.u.u.I.{.a.}.p.p.[./.t t t t t [.t t t t t t t t 0.t t t t t [.t C i.< >.>.R R R ) R ) ) ) R R ) ) m m m m m v v v v v v v m m m m v v v m m m m < # k m.7.7.4 3.v.3.3.3.Y.3.3.Y.3.3.Q.m.< m m m m ) m m < m m m m m m m m m m m v v v > n n ..n N.N.n n n n n 8.w 8.i.#                     2.      < < <       < < <       <             < < < < < < < 9.3.V.sXX.h yXh h X.@.5 B B 5 5 5 5 5 B l.F 6 F B @.X.@.@.5 5 B B B Q Q S.S.S.@X}.t t t C C C o C t [.K K K K K D >X6.6.6.6.G L L L.L.E E E E E E E E E '.E '.E E E E E E E `.E L.E L.L.f =X=X$X$X$X$X4X' 1 $.$./ / / O.H H H O.$.1 1 1 1 ' ' 4X$X4XE.' ' ' 1 1 / / / 1 / 1 / $.$.O.O.H H H H H H H H H A.A.A.A.A.P.&.L.E <.<.<.'.] ] e.-.-X-.e.3 k.A W =XN N D %.%.%.N 9 9 9 9 9 9 9 9 9 9 N N K b w b ,Xw i.i.k k # # ",
"I I I E.I I I I y y y I y I I I I y I y y y y * * >XZX0X.XJX.XcXlXN w I ..U U ..Y V V V Y Y Y V V V V V Y 4.4.4.Y Y V V V ;.;.O.$.y I ....4.4.;.;.;.;.;.;.V ;.> V V V V Y Y Y Y 1 ' ' ' 4.Y Y > > > V ;.j.l l l l l >.l >.# IXlXGXD.B.JX+XGXlXF.F.G G R.R.S.S.t.x.x.x.x.x.#X#Xw.w.u.I.{.a.a.[.[././.t t t t t t t t t t t t t t t 0.t t a.t t t Q.m.  >.>.R R ) R R R R R R R ) ) ) m ) m m m m v v v v v m m m m v v v m m m m < < < < m.7.4 7.v.3.3.Y.Y.3.Y.Y.Y.3.7.m.< ) ) ) ) ) ) m m m m m ) ) ) ) ) m m m m m v v v n n n n n n n N.n w 8.w w s #     2.    9.                < < < <       < 9.                        < < < <   2.3.S.sXX.yXh h h X.@.5 5 B 5 5 5 5 l.5 B F F F @.X.X.5 5 B B F F 1.1.V.V.{.V.}.}.}.p.[.( ( C ( [.[.p.K D >XD D D D 6.6.6.G G L L.L.L.E L.E E E E E <.E _ E E E E '.E E `.E L.E E L.A f =X=X=X$X$X4X4XE.' 1 / $.$./ / O.O.H O.O.$./ 1 1 1 1 ' 4X$X4XE.' ' ' ' 1 1 1 / 1 / 1 / / $.O.O.H H H H H H H H H A.A.A.P.P.c.d.W f f f f f f q.k.k._ k.k.q.f W =XN N N N %.%.%.%.N N N N N 9 9 9 9 9 N N %.b w w w w i.k < < < < ",
"I E.4X4X4XE.E.I y y y y I I I y I I I I y y y y w K !.xX.XT.0XZXvXb I ........4.Y Y Y Y 4.4.Y Y V V V V 4.4.y 4.Y V V V V O.V 4.y I ........4.> ;.;.;.;.V V V V V V V V V V Y Y 4.1 ' ' 4.4.Y > > > V ;.j.l l l l l l l >.>.m.IXlXxX+X+XGXlXF.G G L G G R.@XS.t.x.x.x.x.x.x.#Xw.u.#XI.{.a.a.t t C t /.t t t t t t t t t t t t 0.t t t t t 0.0.0.s m.  >.>.R R ) R R R R R ) ) ) ) ) ) ) ) ) ) m v v v v v v m m v v v v m m v m m ) >.>.  m.m.7.v.3.3.Y.Y.Y.Y.Y.3.4 7.m.  ) ) R R ) ) ) ) ) ) ) ) ) ) ) ) ) ) ) ) ) ) m m v v ;.n > n n n n n n w 8.o k <               9.            < < <     < < <                             <     9.v.S.sXX.X.h h h X.X.5 B B 5 5 5 5 5 l.B B B 5 @.X.@.5 B F 6 1.1.{.{.{.{.3.a.}.}.p.p.6.K K K [.K K K p.>XK D D D D 6.p.6.6.G L.L.E E E E E E E k.qXE E qX_ E E E E '.E L.E E E E L.f =X=X$X$X$X$X4XE.' ' ' 1 / / $.$.O.O.O.O.O.$./ / / / / / ).4X4XE.' ' ' 1 1 1 1 1 1 1 1 1 / / $.O.O.O.H H H H H H H A.A.P.* d.d.&.,.W W =XW =X=XW W f f f W =X=X=XN ,.9 N N N N %.%.%.E.%.%.%.%.N 9 9 N K %.%.b b w w i.i.# <     < ",
"I 4X4X9 N 4X4XE.I I y y y I I I I I I I y y y * c.* vX} ;X0XZXvX,Xn ........4.4.4.Y 4.4.I 4.4.Y V Y V Y Y 4.4.4.Y V V V V V y I I ..........n Y V ;.V V V V > > > V V V V V V V Y 4.' ' 4.4.Y > > > V ;.j.j.l l l l l l l >.  Q.>XlXGXxXlXDXG R.G G 6.p.}.}.S.t.x.x.x.#X#Xx.#X#Xw.#X#X{.{.a.t t t t [.t t t /.t [.t t t t t t t t t a.t 0.v.7.7.7.7.m.>.>.>.R R ) ) ) R R ) ) R R ) ) ) ) ) m m m v v v v v v v v v v m m m v m m ) >.~ >.2.2.4 7.3.3.3.Y.3.3.Y.Y.4 7.m.  R R R R R R ) ) ) ) ) R R R R R R ) ) ) ) ) ) ) ) v v v v n > n n n n w w 8.i.#                     9.            < < < <     2.    < < <                     M.v.@XyXX.yXX.h h X.X.5 5 5 5 5 5 5 5 5 B B 5 @.X.@.@.5 5 F 1.{.{.3.Y.Y.M.Y.v.t [.[.p.6.>XD K D p.K p.K K D D D D D 6.6.6.6.L L.L.`.E E E E qXqXqXE E k.E E E E E E E E E E L.L.q.f =X=X$X$X$X$X4X4XE.' ' ' 1 / / / $.$.O.O.H H O.P.P.P.P.P.P.).4X4X' ' ' ' ' 1 1 1 1 1 1 1 1 1 / $.O.O.O.O.H H H H H H H P.c.&.,.,.,.9 9 9 9 9 9 ,.N 9 W 9 W ,.9 N 9 9 9 9 N N N N %.b b w b b b %.%.%.N N %.%.b b w b w i.k <     < < ",
"E.4X9 9 9 4XE.I I I y y y y I I I I I I y y y y * c.C r.ZXZXvX,Xy ..U U U ..4.Y 4.4.4.y 4.4.Y V V > > V Y 4.4.4.$.V V V $.4.I E.....U ......4.Y Y V ;.V Y Y Y Y Y V V ;.V V V V V Y 4...4.4.Y V V V V ;.j.j.j.l l l l l l >.>.  Q.p.DX!.DXF.G G L L 6.p.}.}.S.t.x.x.x.#X#Xx.#X#Xw.#X#XI.{.a.t t t t t t t t t t t t t t t t t t 0.0.0.0.7.7.4 4 m.7.m.2.>.>.R R R ) ) ) R R R R ) R R ) ) ) m m m m m m m m v v v v m m v v v m m ) R u >.>.2.9.4 3.Y.4 Y.4 3.3.3.3.7.m.  R R R R R R R R R R R R R R R R R R R ) ) ) R R ) ) ) m m v v ;.n n 8.i.8.w i.#         9.    9.                    < <           < # # # < <                 M.v.sXyXX.X.h h h X.X.5 5 B 5 5 5 5 5 l.5 5 @.X.h @.5 5 5 S.{.v.Y.M.M.M.M.M.7.t [.[.p.6.>X6.>XK K p.K K >XD D D D >X6.6.6.G L L.L.E E E E '.] ] '.qXE E E E k.E E E E E E E L.f W =X=X$X$X$X$X$X$X4X4XE.' 1 $./ / / $.O.O.H H H P.P.c.q 7.7.7.c &.).).' ' 1 ' ' ' ' ' 1 1 1 ' ' 1 / $.O.O.O.O.H H H A.H P.c &.=X,.9 9 9 D 9 W 9 W 9 9 N 9 W 9 9 =X9 N N N 9 9 9 N N %.b y w w b w b b b %.%.%.b w b b b w i.k <     < < ",
"4X$XnXnX9 4XI I I I I y y y I I I I I y y y y ).c * * K vXvX%.y 4...U U U ..4.Y Y 4.4.4.4.V V V V > > > Y Y Y Y Y Y O.Y 4.I E.E...U U U ....4.4.Y V V Y Y Y 4.Y > > V V V V ;.;.V Y 4.4.4.4.Y > V V > V ;.j.j.j.l l l l l l >.>.A.7.[.F.G G L L L L 6.p.R.}.S.t.x.x.x.x.#Xx.#X#Xw.u.u.I.{.a.a.t t t t t t t t t /.t t [.t t 0.0.0.7.7.4 4 4 4 4 4 7.7.9.>.>.>.R ) ) ) ) R u R R ) ) R ) ) ) m m m v m m m v v v v m v v v m m m ) ) ) R >.>.2.9.4 Y.Y.Y.Y.3.3.4 3.4 7.m.  R R R R R R R R R ) ) R R R R R R R R ) R ) ) R R R R ) ) ) m v v ;.k i.i.w i.# <                         <                       < # # k k # <       <       M.v.sXyXh yXh h X.X.X.5 5 5 5 5 5 5 5 5 5 5 @.X.X.5 B F Q S.a.4 9.9.9.2.9.9.m.0.t [.K K K D K K K K >XD >XD D D D D 6.6.G L L.L.E E E E '.] e.e.] '.E E E E E _ E E E E E L.q.W =X4X$X$X$X$X$X$X4X4X4X' ' 1 $./ / $.P.O.O.H H H P.q q 7.v.v.v.0.d.).c.1 1 1 1 1 ' ' ' 1 1 1 1 ' 1 / $.$.O.O.O.O.H H A.P.c &.,.N N N N 9 9 9 9 W 9 9 ,.N N 9 9 9 9 N N N 9 N 9 9 N %.%.b w w b w w w w b b b b b w b b b w i.k # <   < < ",
"$XnX9 nX$X4XE.I I I I I y I I I I I y y y c.y y y c ).%.%.%.I ......U U U ..4.Y Y Y Y Y Y V V V V > V Y Y Y V Y 4.4.4.4.I E.E...U U U U U U 4.4.Y Y Y Y Y Y i.Y V V V V V V ;.;.V V Y Y 4.4.Y > > > > > ;.;.j.j.j.l l l l l l l >.2.7.[.p.L L L G 6.6.G R.R.S.t.x.x.x.#Xx.#X#Xw.w.w.u.I.{.a.a.t t t t t t t t t t t t t t 0.0.7.7.7.4 4 4 4 4 4 4 7.7.m.9.>.>.R ) ) ) ) ) R R R R ) ) ) ) ) ) m m m m m v m v m v v v m m m m ) ) ) ) ) ) >.>.9.4 Y.Y.Y.Y.4 3.3.4 3.7.m.2.  R R R R ) ) ) ) ) R ) R R R R R R R ) R ) R R ) ) ) ) ) ) ) l < m < k i.s k # < < < <     <     < < < < < < <                   < # k k Q.k #             2.M.v.sXyXh h X.X.X.h X.@.5 5 5 5 5 5 5 5 5 5 @.@.5 F F 1.S.V.v.m.9.< <       9.m.7.q s C &.,.D >X6.>XK D D D D D >XD 6.6.6.L L.L.E E E '.] -Xz.-X] '.E E E _ E E E E E E q.f f $X$X$X$X$X$X$X$X$X4X4X' ' 1 1 1 / / $.O.H H H H P.P.7.v.3.3.3.I.v.t c c./ 1 1 1 1 1 ' ' 1 1 1 1 1 1 1 / $.$.O.O.O.O.O.P.* &.K N N 9 N N 9 9 9 9 9 9 N N N 4X%.N N 9 9 N N N N 9 9 N N %.b b w w b w w w w w w b b b b b b w i.k # <   < < ",
"nXnXnXnX9 4XE.E.I I I I I y I I I I y y y ).y y ).).b E.E.........U U U ..4.> > Y Y Y V V V V > > > > > > Y Y Y ..E.I I E.4XE.U U U U U U ....4.Y Y Y Y i.Y > V ;.;.V V V V ;.;.V V V Y Y Y > > > > > > V ;.j.j.j.l l l l l l l >.>.9.7.p.G L L G 6.6.G R.R.V.t.x.x.x.x.#X#X#Xw.w.w.u.I.{.v.a.t t t t t t t t t t t t t 0.0.7.4 4 4 4 4 4 4 4 4 4 4 4 Q.m.2.>.>.) ) ) ) R u R R R ) ) ) ) ) m m m m m m v m m m m m m m m m ) ) ) ) ) ) )   >.9.4 3.Y.Y.Y.3.3.4 3.4 7.9.2.>.R ) R ) ) ) ) ) ) R R ) R ) R ) ) R ) R R R R R ) ) ) ) ) l ) R   < k i.i.# <           < < < <   <   <   < <                     < # k k i.k # <         2.M.v.sXyXh h X.X.X.h X.@.5 5 5 5 5 5 B 5 5 5 5 5 B F 6 1.S.a.4 9.  < < <       9.9.9.m.P.c &.K D K >X>X>XD D N >XD >X6.6.6.L.L.E E E E '.e.z.z.-X] '.E E E E E E E L.L.q.f =X$X$X$X$X$X$X$X$X$X4X4X' ' 1 1 1 1 / $.O.O.H H H H P.7.0.3.I.u.u.I.3.v.0.c./ 1 1 1 1 1 1 ' ' 1 1 1 1 1 1 1 / / $.$.$.P.P.c.&.K ,.N N 9 N 9 9 9 9 9 9 9 N %.%.%.%.%.%.N 9 N 9 N 9 D 9 N N %.b b b b b b b w w b b b b b b b b w i.k # < <   < ",
"nXnXnXnXnX$X4XE.I I I y I I I I I y y y ).).).).).%.b E.E.....U U U U ....> > 4.> Y Y V V V V > > > > V V Y 4...4X9 E.E.E.E.E.U U U U U U ....4.Y Y Y Y Y Y V V V ;.V V V V V ;.V V V > > > > > > > > V ;.;.j.j.l l l l l l l l l >.2.7./.G G L L G G G R.}.V.t.x.x.x.x.x.#X#Xw.w.w.w.I.I.v.a.t [.t t t t t t t t t t t 0.7.4 4 4 4 4 4 9.4 4 4 4 4 4 4 7.m.2.>.  m R u u R R R ) ) ) ) ) ) ) m m m v m m m m m m m m ) m ) m m ) ) ) ) R >.2.m.7.3.Y.Y.Y.4 3.3.3.3.v.M.2.>.>.R ) ) ) ) R R ) ) ) R R R ) ) ) ) R R R u R u R ) ) ) ) R )   < # k k m.A.              < < <       < < <                 < <         # k k k # <       2.M.v.sXyXh h X.X.X.h X.@.5 5 5 5 5 5 5 5 5 5 5 5 B F 6 1.S.{.Y.2.2.  < <       9.2.2.2.A.q ( K D 6.D K D D D >XD D D 6.6.6.L.L.E E E E '.e.z.z.e.] E '.E E E (.E E L.f f =X$X$X$X$X$X$X$X$X$X$X4XE.' ' 1 1 1 / $.O.O.H H H H P.P.7.v.3.u.u.u.u.I.3.7.q / 1 ' 1 1 1 1 1 ' 1 1 1 1 1 1 1 / / / / $./ y d.K ,.K N N 9 9 9 9 9 9 9 9 N N %.E.b E.%.N N N 9 N N N 9 >XN %.%.b w b b b w w b b b b b w w w b w w i.k # <     < ",
"nXnXnXnX9 $X4XE.I I I I I I I I I y y y y ).y ).%.%.E.E.....U U U U ..4.> > > > > > > V V V V > > Y > > > > 4.E.4X9 4XE.E.E.U U U U U U U U ..4.Y Y Y Y V V V ;.V V V V V > ;.V V V V > > > > > > > > V ;.;.j.l j.l l l l l R l l >.l P./.R.G L L G G p.}.a.V.t.t.x.x.x.x.#X#Xw.w.w.u.I.I.v.v.t t t [.t t t t t t t t 0.0.7.4 4 4 4 4 4 4 4 4 4 Y.4 4 7.Q.m.9.  >.R >.) R R R ) ) ) ) ) ) ) m m m m m ) m ) ) ) ) ) ) ) ) ) m ) ) ) ) ) R >.  m.7.3.Y.Y.Y.3.3.4 3.7.v.4 2.>.>.>.R R R ) ) ) ) ) R R ) ) ) ) R R R u R R R R R u R ) R >.>.  < # # k k # # <           < < < < < < <         < <       < < <           < # # # <       2.M.{.sXyXh h X.@.X.X.X.@.5 5 5 5 5 5 5 B 5 5 B B B F 6 1.S.{.Y.M.2.    <     9.9.9.A.A.q ( K D 6.K >X>X>XD >X9 >XD D 6.6.L L.E E E E E ].e.z.-X] '.E E E E E E E L.f f =X$X=X$X$X$X$X$X$X$X$X$X' ' ' ' 1 1 / $.O.O.H H O.O.O.P.P.0.3.I.u.u.u.u.8X3.v.q c./ ' ' 1 / 1 ' ' ' ' ' ' 1 1 1 1 1 1 / / c.).,.D D ,.N N N 9 9 N N 9 9 9 9 N N %.%.%.N 9 9 9 9 N 9 >X9 N N %.%.b y b b w w w w b b b w w w w w w w i.k #       < ",
"nXnXnXnXnX9 4XE.I I I I I I I I I y y c.c.y ).b %.E.E.......U U U ....4.> ;.> > > > > > > > > > > Y > > > V 4.E.4X4XE.E.I ..U U U U U U U ....4.Y Y V V V V V V ;.V V V ;.> > > > > > > > > > > > > > V ;.j.j.j.l l l l ) l R l l l A.4 [.R.R.G G G 6.p.t a.{.t.x.x.x.x.x.#X#Xw.w.w.u.u.I.3.v.0.t t t t t t t t t t 0.0.7.4 4 4 4 4 4 4 4 4 4 4 4 4 3.4 7.7.7.m.  >.>.R R R R R ) ) ) R ) ) ) ) ) ) ) m ) ) ) ) ) ) ) ) ) ) m ) ) R R ) >.>.  7.0.3.Y.Y.Y.3.3.3.Y.3.v.7.4 9.  >.R R ) l ) ) ) R R R ) ) ) ) R R R u R R R R R R R >.>.>.  < # # # # # # # # # # < <     < < < < < <         < <       < < <   < < <       <           9.M.{.sXyXh h X.@.X.X.X.@.5 5 5 5 5 5 B B B B B B B F 1.1.S.{.Y.M.2.    < <   9.9.9.7.q C K D 6.K 6.6.K D D D D D D 6.6.6.W L.E E E E E '.e.z.-X'.E E E L.E L.L.q.f f =X$X$X$X$X$X$X$X$X$X$X$X4X' ' ' ' ' 1 / $.O.O.O.O.O.$.$.P.7.v.3.I.u.u.u.u.u.I.v.0.P./ / ' / / / 1 ' ' ' ' ' 1 1 1 / 1 1 1 / y d.,.W D N N N N 9 9 9 9 9 9 9 9 9 N N N N 9 9 9 N 9 N 5XN N N %.%.b w w b b b b b b w w w w w w w w w 8.i.k <     < < ",
"nXnXs.nXs.$X4XI I E.I I y I y y y ).y c.c.y ).%.E.E.......U U U U ..4.> > ;.> ;.> > > > > > > > > > > > > V Y E.4XE.E.I I ..U U U U U U U ....4.Y > V V V V ;.;.V V V V > > > > > > > > > > > > > ;.> > ;.;.j.j.j.l j.l l l R l l l l P.[.R.R.G G 6.p./.t a.{.t.t.x.x.x.x.#X#Xw.w.w.w.u.I.3.v.0.t t t t t t [.t t 0.0.0.7.4 4 4 4 7.4 m.4 4 4 4 4 3.4 4 4 7.7.Q.m.2.>.>.R R R R ) ) ) ) ) R ) ) ) ) ) ) ) ) ) ) R R ) ) ) ) ) ) ) R R R >.>.9.7.0.3.Y.Y.Y.3.3.3.4 3.v.v.Q.m.9.  >.R ) ) ) ) ) R R R R ) ) ) ) R R R u >.>.2.~ 2.>.2.>.  # k k # # < # # # k k # < <                         < <       < < <   < < <             < <   9.M.a.sXyXh h X.X.X.h X.@.@.@.5 5 5 B 5 B B B B B F F F 1.S.{.Y.M.2.2.  < < 9.9.9.7.s /.K p.6.D 6.>XK >X>XD D D D D 6.6.6.L L.E E E E E '.] -Xe.'.E E L.E L.L.f f =X=X$X$X$X$X$X$X$X$XnX$X$X4XE.' ' ' ' ' 1 / $.$.O.O.O.$.$.$.P.7.3.3.u.u.u.u.u.u.8X3.v.P.P./ 1 / $./ 1 1 1 1 ' 1 1 1 1 1 1 1 / / y d.,.W ,.N N N 9 9 9 9 9 9 9 9 9 9 9 9 9 9 9 9 9 N 9 N 9 N K ,X%.b b w b b %.%.%.b b w w w w b b w w w i.k # <     < < ",
"$X$X9 nX9 $XE.I I E.I I I y y y y * * * * ).b %.E.......U U U U ..4.Y > > ;.> > > > > > > > > > > > > > V V 4.E.E.E.I I ....U U U U U U U U U 4.Y > > V V V V V V V V > > > > > > > > > > > > > ;.> > > ;.;.;.j.j.j.l l l R l j.l l A.P.[.R.R.G G 6.[./.t a.a.V.t.x.x.x.x.#Xw.w.w.w.u.u.I.3.v.0.t t t t [.t t t 0.0.v.7.7.4 4 7.4 4 4 4 4 4 4 4 4 4 7.4 3.4 7.0.Q.m.>.>.  >.>.R R ) ) ) ) ) R R R R ) ) ) ) R R R ) R ) R ) ) ) ) R R R >.>.9.Q.0.4 Y.3.Y.3.v.3.3.Y.v.v.0.7.m.<   >.>.R >.R ) ) ) ) ) ) R R ) ) ) R R >.~ ~ >.>.2.  9.m.m.k m.# <   <   < # # # # < < <         2.2.2.2.              < < <       <             < <   9.Y.a.sXyXh h X.X.h h X.X.@.@.5 5 5 5 B B B B B B F F 1.1.S.{.Y.M.2.2.    # 9.9.m.0.[.6.p.K K 6.6.D 6.D K D D D D D D 6.6.f L.E E E qXE '.] 6X] '.E E E L.L.f W =X=X$X$X$X$X$X$X$X$X$X$X$X$X4X' ' ' ' ' 1 1 / $.$.$.$.$.$./ P.c.7.3.I.u.u.u.u.u.u.u.I.3.4 P.P.c./ $./ / 1 1 1 1 1 1 1 1 1 1 1 1 / 1 ).=X,.N D 9 9 9 9 9 9 9 9 9 N N 4XN 9 9 9 9 9 N N N 9 N N %.b b b w w b %.%.K %.%.b b w w w w w b w w i.k <     < < < ",
"4X$X$X9 $X4XE.I I E.I y y y y y c.c.* c d.b %.E.E.......U U U ..4.Y > > V ;.V > > > > Y > > > > > > > V V V 4.E.E.E.......U U U U U U U U U ..4.> Y > > > V V V V V > > V > > > > > > > > > > V > V > > > ;.;.;.j.j.j.l l l l l l l H q p.R.G G G p././.t a.a.t.t.x.x.x.x.#Xw.w.w.w.w.u.I.3.v.a.t t t t t t t 0.0.7.7.7.4 4 4 4 4 4 4 4 4 4 4 4 7.4 3.4 4 4 4 7.0.7.9.2.>.>.>.u R R ) ) ) ) R R R R ) R ) R R R R R R R R R u R R R R >.>.2.9.7.0.4 Y.Y.Y.3.3.4 3.3.v.v.Q.4 m.9.9.    R   R R R ) ) ) ) ) R ) ) R R >.>.>.    < # m.m.# m.m.9.      <     < m < m < < <     2.2.2.2.2.2.9.9.  <   < < < < <           < <       < <   9.Y.V.sXyXh h X.@.h h X.X.@.@.5 5 5 5 5 B B B B F B F 1.1.S.{.Y.M.2.2.    < 2.9.7.t p.6.6.K K D D D D 6.D D D D D D 6.6.6.L L.E E E E E E '.'.'.E E E L.L.f =X=X$X$X$X$X$X$X$X$X$X$X$X$X4X4X' ' ' ' ' 1 1 / $.$.$.$.$./ / $.P.P.7.3.I.u.u.u.u.u.u.u.I.3.4 4 P.c.c./ P./ / 1 1 1 1 1 ' ' 1 1 1 1 1 / y d.&.,.N 9 9 9 9 nX9 9 N N 4X%.4X%.9 9 9 9 N N N N N N N %.b b w w b b b %.%.%.( b b w w w w w b w w i.k <     < <   ",
"E.4X4XN 4X4XI I I ).I y y y y y q c.* c &.%.b E...U U U U U ....Y > V V V V V > > > > > > Y > V > > V V V V 4.E.E.E.E.....U U U U U U U U U ..4.> > > > > V V V V > > > > > ;.V V V > > > Y > V V > ;.> > > > ;.;.;.j.j.l >.l >.l H P.C 6.G G G >Xp./.t t a.{.V.t.t.x.x.x.#Xw.w.w.w.u.u.I.{.a.a.t t t t t 0.0.0.7.7.4 4 4 4 7.4 4 4 4 m.4 4 4 4 4 4 4 4 3.4 4 Y.7.v.4 9.2.>.>.>.R R R R ) R R u R R R ) ) ) ) R R R R u R u R R R >.>.>.>.2.m.7.v.Y.Y.3.Y.3.3.Y.3.3.3.v.4 9.9.m.m.# < <   R R R R R R ) ) ) R R >.>.    # # k k m.m.m.9.9.2.2.2.  < <     < < < < < <     9.2.2.2.2.2.9.9.9.9.< < < < < < <         < < < <   < <     9.3.V.sXh h X.X.@.h X.@.X.@.@.5 5 5 5 5 5 B B B B B F F 1.S.{.3.M.2.2.        9.7.[.6.6.6.K D D D 6.D K D D ,.D D D 6.6.6.L L.E E qXE qXE E E E E E E L.f =X=X$X=X$X$X$X$X$X$X$X$X4X4XE.E.' ' ' 1 1 1 1 / $.$.$.$./ / / / $.c.P.0.3.I.u.u.u.u.u.u.u.u.I.3.4 7.c c.c./ / / 1 1 1 1 1 ' ' 1 1 1 1 1 / / y d.&.N N N 9 9 9 9 N %.4X%.4X%.4XN 9 9 N N %.%.N N N K %.b w w w b b w b b b ,Xb w b b b w w w w i.k # <     <     ",
"I E.E.4XE.E.I I I I y y y y y y c.c.c d.%.%.E...U U U U U ..4.4.Y V V V V V V V V > > Y Y Y Y V V V V V Y Y 4.E.E.........U U U U U U U U ....4.> Y > > > > V > > > > > > V V > V V V > Y Y Y Y V V V > > > > ;.> ;.;.H j.l l >.A.P.c K G G G F.p.[./.t t a.a.t.t.t.x.x.x.#Xw.w.w.w.u.u.I.{.a.a.t t t 0.0.0.7.7.4 4 4 4 4 4 4 4 4 4 4 4 4 4 4 4 4 4 4 4 4 Y.4 Y.4 3.7.4 9.2.2.>.>.>.R R R R u R u R R R R ) R R R R u u u R R )     >.    9.4 7.v.Y.3.3.Y.Y.Y.3.4 3.v.4 4 M.9.9.m.m.k # # <   >.>.>.>.R R >.>.>.  < # k k k # # # 9.9.2.2.  2.    < <     < <         9.2.2.^.^.^.^.2.9.9.m.9.< < < < < < < < < <         < < < <     2.3.V.sXh h X.X.@.X.X.@.X.@.5 5 5 5 5 5 5 5 5 5 B B F F 1.S.{.3.M.2.        9.m.s [.6.K K ,.D D D D D D ,.D D D D D 6.6.6.L L.E E E '.E E E E E E E E f =X=X$X$X$X$X$X$X$X$X$X$X4X4X' ' ' ' 1 1 1 1 1 / / $.$.$./ / / / $.$.P.q 0.3.I.u.u.u.u.u.u.u.u.{.3.3.7.o q c.P./ / / / / / 1 1 1 1 1 1 1 1 / / c.d.&.N N %.N 9 9 9 4X%.4X%.4X%.N 9 9 9 N N %.N N N N ( b b w b b b b w b b C w w w w b C w w 8.i.k # < <           ",
"I I I I I I I I y y y y y y y y c.c d.d.b E.....U U U ....4.4.Y Y Y V O.V $.Y Y V V Y Y 4.4.Y Y V V V V / 4.I E...........U U U U U U U U ....4.> > > > > > > > > > > > > > ;.V V V V Y Y Y Y Y Y V > > > > ;.> ;.;.;.O.H H A.A.c.( K G G G G G 6.[.t t t a.a.{.t.t.x.x.#X#X#Xw.w.w.w.u.I.{.{.a.t 0.0.0.7.7.4 4 4 4 4 4 4 4 4 4 3.4 Y.4 4 m.4 m.4 4 4 4 4 Y.4 Y.Y.Y.Y.4 4 m.m.9.  >.>.>.R u R R u R R R R R R R R u u u >.R   < # # # < m.m.7.7.3.Y.3.3.3.Y.4 4 3.3.v.v.4 M.2.9.m.# k k k # # 9.        >.>.    # m.m.Q.m.m.9.9.  2.2.          9.                  9.9.2.^.^.fXfXfX^.M.m.m.9.  < < < <     < < <         < # # # < 2.2.v.V.sXh h X.@.@.X.X.@.X.@.5 5 5 5 5 5 5 5 B 5 5 5 F F 1.S.a.3.M.9.  <     # s ( K >XD D D D D D D D D D D D D D 6.6.6.6.L L.E E E E E E E E L.E L.L.=X=X$X=X$X$X$X$X$X$X$X$X4X4X' ' 1 / / / / / 1 / / / $.$.$./ / / $./ / P.q 0.3.I.u.u.u.u.u.w.u.u.u.I.3.3.0.q c.P.P./ / / $.$./ 1 1 / $.$./ / / / c.d.&.N %.%.N 9 9 N %.%.%.N N 9 N 9 9 9 N N N N N N N %.b b b b b b w w w b b w i.i.i.i.8.w i.i.k # < < < <         ",
"I I I y y I ).).y y y y I y y y d.d.d.b y I ..U U U ....4.4.Y Y Y $.Y $.$.$.Y Y Y Y Y 4.4.4.4.Y V ;.V Y 1 I E.I ....U U U U U U U U U U ....4.4.> > > > > > > > > > > > > > V V V V V Y Y 4.4.4.Y Y > > ;.> ;.> ;.> ;.O.O.O.P.* ( 6.L L 6.6.6.6.p.[./.t t a.a.V.t.t.t.#X#X#Xu.u.w.w.u.u.I.I.v.v.v.v.7.4 4 4 4 4 4 4 4 4 4 4 4 3.4 Y.4 M.4 4 4 4 4 4 4 4 4 4 Y.4 3.Y.M.M.Q.t s 7.# <     R   R R >.R R R R R ) R >.>.>.>.>.  < k i.Q.k m.m.7.7.v.3.Y.Y.Y.3.4 3.4 3.v.v.v.v.4 2.2.9.  < < # m.m.m.m.m.m.m.# # # m.m.m.m.9.9.2.2.9.        < <   2.  2.            2.9.9.M.M.^.fXBXBXfX^.2.9.9.9.    < < <     < < <         # k k # < 2.2.v.S.sXh h X.@.@.X.@.@.@.@.5 5 5 5 5 5 5 5 5 5 5 B F F 1.S.a.v.4 9.        k o K >X>Xe & e W D W ,.D D D D D D D 6.6.p.6.L L.E E E E E E E E E E L.f =X=X$X$X$X$X$X$X$X$X4X4XE.' 1 / $.$.$.$.$.$.$./ / / $.$.$.$.$.$.$.$./ P.7.v.3.I.u.u.u.u.w.w.u.u.u.3.3.3.7.7.P.P.c./ / / $.$.$.$.$.$.O.O.$.$./ c.c.&.K N %.%.N 9 9 9 N N 9 9 9 9 9 9 9 9 9 N 9 N N N %.%.b w w b b b w w b b w i.i.k k k k k k k # < < <   < <       ",
"I I I I y y y y y y I y I I y ).d.%.).I I ..U U U U ....4.4.1 1 1 1 1 1 / 1 1 1 Y Y Y 4.4.4.4.V ;.H V 1 I E.E.....U U U U U U U U U U U U 4.4.> > > > > > > > > > Y > > > > > V V V V Y Y 4.1 4.Y Y > > > > ;.> ;.;.;.H / c ( K 6.G L L G 6.p.p.[.[.t t t t t a.a.V.{.{.{.I.{.I.I.u.u.I.I.3.v.3.3.4 4 4 4 4 4 4 4 4 4 7.4 4 Y.4 3.4 M.M.M.Y.Y.Y.Y.4 4 M.Y.Y.4 3.v.4 4 0.[.K K ( w * i.i.k # <         >.>.>.          < # # m.# m.< # # 9.m.4 7.v.Y.Y.3.Y.3.4 3.v.v.v.a.0.4 2.2.9.  2.    < 9.m.m.m.m.m.m.m.m.m.m.9.9.2.2.2.2.9.    < 9.< <                         9.^.^.fXBXLXBX^.2.9.9.9.      < < <               R   # # k <   2.2.v.@XsXX.X.X.@.@.@.@.@.@.@.5 @.5 5 5 5 B 5 5 5 5 B F 6 1.S.{.3.M.9.      9.m.s [.>XF.L.F.e >XD D D D D D D D D D K 6.6.6.L L.E E E E E E E E E L.q.f =X$X=X$X4X$X4X4XE.I ' 1 1 / $.$.O.O.O.H O.O.O.O.$.$.$.O.O.O.O.O.O.O.O.O.7.v.3.I.u.u.u.w.u.u.u.u.I.3.Y.4 4 P.P.P./ / 1 / $.O.$.$.$.$.O.O.O.O.P.c.d.=XN ,.N %.N 9 9 9 9 9 N 9 9 9 9 9 9 9 N N N N N %.%.b b w w b b b b b w w w i.k < < < < # # < A.< <   < < <       ",
"E.E.I I y I y b y y y y I I y ).b ).b I ......U U U ..4.1 1 1 1 ' 1 / / 1 1 1 1 1 Y 4.1 4.1 4.O.H ;.$.I E.E.E.....U U U U U U U U U U U ..4.Y > Y > > > > > > > > 4.> > > > > > V > V Y Y 4.4.4.Y Y > > > ;.> > ;.;.O.O.y &.6.6.6.G L L G 6.&././.[./././.[.[.[.[.}.a.a.a.{.{.{.{.I.3.{.v.3.3.4 4 Y.4 Y.4 4 4 4 4 4 4 7.4 4 Y.Y.Y.Y.M.^.fX^.8XY.Y.Y.Y.Y.Y.4 3.v.0.0.t [.K D N N K K %.b w i.i.k k # # < < < # < # # # # # # # 9.      9.9.9.4 3.3.3.Y.Y.Y.4 4 v.v.a.a.a.a.4 2.9.2.        9.9.9.9.m.m.k m.# # 9.9.9.2.2.  2.        < < < <           <           9.M.^.fXBXLXBXfX^.M.9.9.        < < <                   < # # <   2.2.v.sXsXX.X.@.X.@.5 5 5 5 @.5 5 5 5 5 5 B 5 B B B B F 6 1.S.{.3.M.2.      9.m.q C p.L F.F.L 6.6.6.6.6.6.6.D D D D 6.6.6.6.L L.E L.E E E E `.E E E f W =X=X$X4X4X4X' ' 1 / $.$.O.O.O.O.O.H H H H H O.O.O.O.O.O.O.H H H H H P.A.7.3.3.u.u.u.w.u.u.u.u.I.3.3.4 4 A.A.P.$./ / 1 1 $.O.$.$.$.$.O.O.O.O.P.c.&.,.N N N N 9 9 9 9 9 9 9 N N N 9 9 N N N N N %.%.b b b b w w w b b b b b w 8.k #       < < < <   <                 ",
"4XE.E.I y y b y y y b y I I y I ).).I I ....U U U U ..' 1 1 1 1 1 1 / / / 1 1 1 1 $.4.4.4.1 1 $.O.H / I E.E.....U U U U U U U U U U U ....4.Y Y > > V > > > > > > > > > > > > > > > V Y Y 4.' 4.Y Y > > > > > ;.;.;.O.c.&.D L G G G 6.G 6.K &./.( ( ( K ( K K K K p.[.[.[.[.[.a.a.a.a.a.a.v.v.4 4 4 4 4 4 4 4 4 4 4 4 Y.4 4 4 4 4 M.^.fXBXBXfXKX8XY.Y.3.Y.Y.3.0.[.[.K K K N N 9 9 N N K ( ( C o s s s 8.s Q.i.k k # # 9.9.9.      2.  9.9.2.4 4 3.3.Y.Y.3.4 3.7.v.a.v.a.a.4 2.2.9.< # # # # < 9.9.9.        9.  2.2.2.2.            < < <           < <       2.9.9.M.fXBXLXBXfX^.M.9.9.9.< < <           <             < 9.< <     9.^.a.sXyXX.X.@.@.@.5 5 @.5 5 5 5 5 B 5 B B B B B B F F 6 1.S.V.3.4 9.        9.m.q C K 6.6.6.6.6.6.K p.K K K K K K 6.6.6.G L L.L.E E E E E E E E L.q.W =X=X=X).).' / $.$.$.O.O.O.H H H H H H H H H O.H O.O.H H H H H P.H H A.A.4 3.3.u.u.u.u.u.u.u.u.u.3.4 9.A.A.A.H $.$./ 1 1 1 $.$.$.$.$.O.O.H O.P.c.&.N 9 9 N N 9 9 9 9 9 9 N 9 9 9 N 9 N N N %.%.%.b b w y w w w w w w b b b w i.k < <   < < <   < <   < <   <         ",
"9 %.E.I y b y y w y y y b y I ).).I I ....U U U U U ..' ' 1 1 1 1 1 / / / 1 1 1 Y $.1 ' 1 / $.$.O.O.y E.4XI ....U U U U U U U U U U U ..4.4.Y Y Y V > > > > V > > > 4.> > > > > > > > Y Y ' ' 4.Y Y > > > > ;.;.;.O.c.d.,.L L >X6.6.6.6.6.&.&.&.K K K ,.,.N K N K N K >XK K p.p.[.[.t [.t 0.0.7.4 7.4 4 4 4 4 4 4 4 4 4 4 4 4 M.4 M.M.^.fXBXBXBXiXKXKXKX8XM.7.t K K K K N N N 9 9 N N %.b b o o o s Q.s k k m.# <           2.        < 9.9.4 4 v.Y.Y.3.Y.Y.Y.v.v.0.v.a.a.4 9.2.9.< # k k k # 9.9.            2.                              l     <       2.9.m.M.^.BXLXBXfX^.M.m.9.9.m.# # # <       < <         9.2.            9.^.a.sXyXX.X.@.@.@.5 5 5 5 5 5 5 5 5 5 B B B F F F F F F 1.S.V.v.4 2.  2.    9.9.m.7.q o C /./.[.p.[.p.p.p.6.>X6.6.6.6.6.G L L.L.E E E E E E E E E E f &.).)./ / $.O.O.O.O.O.H H O.H H H H H H H H H H H H H H A.A.A.A.A.A.A.A.4 3.3.u.u.u.u.u.u.u.u.3.3.4 A.A.H H O.O.$.$.1 1 1 $.1 1 / $.$.O.O.O.P.).&.,.9 W 9 9 9 9 9 N 9 9 9 N N N N N %.%.%.b b b w w y w w w w w w b w b w i.i.k < < < < <         <         <       ",
"9 9 %.I y y w y y y w y y y y b ).I I ....U U U U ....' ' 1 1 1 ' 1 ' y 1 1 1 1 $.Y 4.' 1 $.$.O.O./ ).%.E.......U U U U U U U U U U U ..4.4.Y Y Y Y > Y > V > > > > > > > > > > > > > Y Y 4.' 4.Y Y Y > > > V ;.H P.* &.>XL L G 6.6.p.K &.K K K ,.N N N N N 9 N 9 9 N 9 N N N K K K [.K [.( C s 7.7.4 4 4 4 4 4 4 4 M.4 4 4 4 4 4 4 Y.Y.KXiXBXLXBXBXBXfX^.Y.0.( D D N %.N N 9 9 9 N N %.b w * w * s s P.k # < <     2.  2.    9.      < 9.9.M.4 v.3.Y.3.Y.Y.Y.7.v.a.v.a.a.7.M.2.9.9.# # m.# # # <                                       <         <       2.2.9.M.^.fXLXBXfX^.M.4 m.m.m.m.k k k # <                     2.2.  9.  9.2.^.{.sXyXh X.@.@.@.@.@.5 5 5 5 5 5 5 5 B B F F 6 F F F F F S.V.v.4 2.2.          A.9.m.m.7.7.7.s s o C /.[.K K >X6.6.p.p.G L L.L.E E E _ E E E '.] ] E =Xd.c.O.O.O.H H O.O.H O.O.H H O.H H H H H H H H H H A.A.A.A.A.A.A.P.A.4 4 v.3.I.u.u.u.u.u.u.u.I.3.4 A.A.H H H O.O.$./ 1 1 1 1 1 / / $.$.$.P.c.).,.9 9 9 9 9 9 9 9 N N 9 N N N %.%.%.%.b b y w b w w w w b b b b w w w w i.i.k # < < < < <       <     <   <         ",
"P 9 %.I y y y y w c.w y y y y b ).I I ....U U U U ..' ' ' 1 ' 1 / ' c.' ' ' 1 $.V V Y 4.4.$.O.O.$.y %.4XE.....U U U U U U U U U U U ..' ..1 4.1 Y Y Y > > V > > > > > > > > > > > > > Y Y 4.4.4.Y Y Y > V V V ;.H i.d.6.L L L G 6.6.&.K 6.&.,.,.9 9 9 9 9 9 9 9 9 9 9 9 9 9 N N N K K K K K ( C s q 7.4 4 4 4 4 4 4 4 4 4 4 4 4 4 Y.Y.Y.I.iXiXBXBXiXBXBX^.7.[.K 9 9 9 N 9 9 9 9 9 N N %.b w w w * * q P.# A.<   A.  <       <         9.  9.9.7.v.3.Y.Y.3.Y.Y.v.v.a.v.a.0.v.4 9.2.      < < <   9.<                       < < < <               <         2.9.M.M.fXBXLXfX^.Y.4 4 m.m.P.P.i.i.P.k # A.# # k # # A.A.A.9.A.9.9.9.9.9.2.^.{.sXyXh X.@.5 @.@.5 5 5 5 5 5 5 5 5 B B F 6 6 6 F F F 1.S.V.v.4 2.2.            2.9.A.9.A.9.9.m.m.7.7.s C ( K 6.6.p.6.6.L L.L.E E '.E E L.E ] -X-X] q.=Xc.O.H H H H O.H O.H O.H O.H O.H H H A.A.A.H A.A.A.A.A.A.A.P.P.c.q q 0.a.a.{.I.u.u.u.u.u.u.I.3.4 A.A.H H H O.O.$.$./ 1 1 $./ / / $.$.P.$.c.).=X9 W 9 9 9 9 9 9 N N N N %.%.%.b b b b w y w y w b b w b w b w w 8.i.i.k # < < < < <             <     <   <       ",
"nX9 %.I y w y w y y y y w y y ).b E.I I ....U U ..' ..' ' ' 1 1 1 1 ' ' 1 ' 1 Y V V Y 4.Y O.O.O./ d.%.4XE.U U U U U U U U U U U U ' ..4.' ' 1 1 1 Y Y > V > > > > > > > > > > > Y > > Y Y 4.' 4.Y Y Y > V V ;.;.O.c.( 6.G L L G 6.K K &.K ,.,.N 9 9 9 9 9 9 9 9 9 9 9 9 9 9 N 9 9 N N N N N N K ( o s 7.4 4 4 4 4 4 4 4 4 4 4 7.4 4 Y.Y.Y.8XiXiXBXiXfXfXM.0.K W 9 9 9 9 9 9 9 9 9 9 4X%.b y w w w w i.i.# <                               9.9.4 v.Y.3.Y.Y.Y.Y.v.v.a.a.a.a.v.4 9.2.2.2.                      <         < < < < < < < <       <           2.M.M.Y.^.BXLXLXfXM.M.4 m.m.P.P.* c c * c.i.q * ( ( ( C * q i.P.P.i.m.m.9.2.M.^.{.sXh h X.@.5 @.5 5 5 @.5 @.5 5 5 5 5 B F 6 6 6 F F F F S.V.v.4 2.    < <                 9.2.2.9.9.9.m.7.s C K 6.6.6.G L L.L.E E E E E E '.e.z.z.-X'.f &.c.H A.A.H H O.O.O.H O.H H H H H H H A.A.A.A.A.A.A.A.P.q c C &.&./.p.}.}.V.{.I.u.u.u.u.u.u.3.4 4 A.H H H H O.O.$.$.$.$.$.$.$.$./ $./ P.P.c.&.N 9 9 9 9 9 9 9 9 %.%.%.%.b b b w w b b b w w b b b b w w b w i.i.k # < <       <         <   <     <   < <       ",
"9 9 %.I y y y y i.y w y * y c.y ).%.E.I I ....' ..' ' ' ' 1 1 1 ' 1 1 ' 1 1 4.Y V V V Y V V $./ ).&.%.E.U U U 4XU U U U U U U ..' ..' ' ' ' ' ' 4.Y Y > V V > > > > > > > > > > > Y > Y Y 4.4.4.Y Y > V V V ;.O.P.c K G G G G 6.6.K ,.,.,.,.N N 9 9 9 9 9 9 9 9 9 9 9 N N N N 4X9 9 N 9 N 9 >XN K ( C s 7.4 m.9.4 4 4 4 4 4 4 4 4 4 Y.Y.Y.I.8XiXiXBXiX^.4 [.D 9 9 nX9 9 9 9 9 N 9 9 N %.b I w b b b w i.k # <     <         )             9.9.7.v.Y.Y.Y.3.Y.Y.v.v.a.v.a.a.0.7.9.2.2.      )                             < < < < < <     < < < <         2.M.Y.M.fXLXLXLXfXM.4 m.7.q c &.,.W W D K K ,.e vXr.r.vXe D ,.K K K K C 7.m.M.^.{.sXh h @.@.5 5 5 5 5 @.@.@.5 5 5 5 5 B F 6 6 6 F F F 1.1.V.{.Y.2.9.< < < < < <             2.  2.2.  9.A.m.7.o [.6.p.6.L L.L.E E E qXE E qXe.z.9Xz.] E W d.c.P.A.A.A.H O.O.H H H H O.H H H H A.A.A.A.A.P.P.q o ( 6.>X>X>XL G G R.R.}.V.{.u.u.u.u.u.I.3.4 P.A.H H H H O.O.O.O.$.O.O.O.$.$.P.O.P.O.c.d.N 9 N 9 9 9 9 9 N %.b b I b b y w b b b b b w b b b b w w w w i.k < <                       <   <     <         < ",
"9 %.b y y y y y y y y y w y y y ).%.%.4XE.I I I ' ' ' ' 1 1 / / / 1 1 1 1 1 4.4.Y V V V V V / y ).%.E.E.U U U U U ............' ..' ' ' ' ' ' ' 1 Y Y Y V V > > > > > > > > > > > > > > Y 4.' 4.Y Y > V V V ;.O.P.C 6.G G G 6.6.,.,.N N N N N N 9 9 9 9 9 9 9 9 9 9 9 N N N N N 9 9 9 9 9 9 9 9 N K K C o 7.7.m.4 4 4 4 4 4 4 Y.7.4 4 Y.Y.Y.Y.8XfXBXfX^.7.[.,.9 9 9 9 9 9 N N N 9 9 N %.b b I b b b b y i.k k # < < < < <   <             9.9.4 v.Y.Y.3.3.Y.Y.v.v.v.a.a.a.a.v.4 9.2.  < <             < < <               < < < <       < < <       2.  9.M.Y.^.BXLXLXfXM.7.C K W vXr._ tXtXtX_ _ r._ tXtXJ.tXtXtXtXtX_ tXtX_ r.>XC 4 ^.a.sXh X.X.X.@.B 5 5 @.5 @.@.5 B 5 5 5 B F 6 6 6 F 6 6 1.1.V.{.Y.2.9.  < <       <   <               9.A.9.A.A.7./.p.6.6.L L.L.E E E E E qX'.] -X-X-X] _ L.W &.* P.A.A.H H H H O.H H H H H A.P.P.P.P.7.q o C /.K 6.G L L e L L L G R.R.}.a.I.u.u.u.u.3.v.7.P.P.P.P.A.H H O.O.H O.O.O.O.O.O.O.O.O.H P.d.N N 9 9 9 9 9 N %.b I w b I b b b b b b b b w b %.b b w w w i.i.<                                   <           < ",
"%.E.I y y y y w y y b y y y y y ).%.4X&.%.).).y c./ / 1 / / / c.c./ / 1 1 / 1 4.Y V > V V $.I b %.E.E...U U U U U ......' ' ' ..' ' ' ' ' ' ' 1 1 Y Y V V V > > > > > > > > > > > > > V Y Y 4.4.Y V > ;.;.;.;.H P.C 6.G L R.6.6.,.N N 9 9 N 9 N 9 9 9 N N N 9 9 9 W 9 N N N %.N 9 N 9 9 9 N 9 9 N N N K ( o q 7.P.4 m.4 4 4 4 4 4 7.4 4 Y.3.Y.8XiXBXBX^.7.K ,.N 9 9 9 9 9 9 N 9 N N N %.%.b w b b b n w w i.i.k # < < <   < < < < < < < A.9.9.7.v.3.3.3.3.3.3.v.v.v.a.v.a.a.7.4 2.2.  < < <     2.    < < < <                 <           < <         9.9.M.^.fXBXBXfXM.C D vX_ tXtXtXJ.J.J.J.J.J.J.J.J.J.J.J.J.J.J.J.J.J.J.y.tX_ >Xo 4 V.sXX.X.X.X.@.5 @.@.@.@.@.5 5 5 5 5 B B F 6 6 6 6 6 6 6 1.V.{.Y.2.9.            <                   2.    9.9.7.t p.p.6.G L.L.E E E qXE qXqX] e.e.] '.E E L.W &.c q P.P.A.A.A.H H H A.A.A.P.P.o /././.6.6.6.6.G L L L & L L L G G L G R.}.a.{.I.u.I.a.a./././.C q P.A.A.H A.H H H H O.O.O.H H H P.c.d.N N 9 9 9 9 9 N %.b w w I b y b w b b b b w w b b b b w w w i.k <                           <   <     <         < ",
"E.I I y y y y y y y I b I y I I ).).).d.d.d.d.d.c c.c.c.c.c.c.c.c.c.c./ 1 1 1 4.Y V V V V 4.E.%.%.I E.U U U U U U ..I ....4.' ' ' ' ' 1 ' ' 1 1 1 Y Y V V V V > > > > > > > > > > > > V V Y 4.Y V V > > ;.;.;.j.O.c 6.G G G 6.6.,.N 9 9 9 9 9 9 9 9 N N N N N N N 9 9 9 9 N N N 9 9 9 9 N 9 9 9 9 9 N K K ( C q 7.7.7.4 4 4 M.4 3.7.7.4 4 3.3.Y.KXBXBX^.v.p.,.N 9 nXj 9 N 9 9 N 9 N N %.b w y w w w w w w w i.i.k < <             < < < < < 9.4 7.3.3.3.v.3.3.v.v.v.a.{.a.t v.4 2.2.2.                  < < < < <                                 2.9.9.M.M.fXBXBXfXM.[.vX_ J.J.a J.J.a J.a a J.J.J.a J.a J.J.a a a a a J.J.J.J.J.r.>Xt R.sXyXX.h X.X.@.@.@.@.@.@.5 5 5 5 5 B F 6 6 x.6 6 6 6 1.1.V.{.Y.2.2.9.                    2.  >.  2.A.2.9.A.m.s /.p.p.p.G L L.E E E E E E E '.] ] '.E E L.L.L >X6./.o P.P.P.P.P.A.A.A.A.P.7.C p.6.G L L L L L L L L L L L L G G G L L L R.}.}.V.t.V.}.R.G G L G K q P.A.A.A.A.H H O.H H H H H O.P.c.&.N 9 9 9 9 9 N %.b w I w b b b I b w w b b b w b b b b b w w i.k <       < <                   <     <           < ",
"I I I y y y y y y y y I I I I I I ).c.c.c d.d.d././.d.d.d.c c c c c c.c.1 y 1 Y Y V V V Y I %.%.).' E.U U U U U U E.I I I 1 1 ' ' ' ' 1 1 1 1 ' 4.Y Y V V V V > > > > > > > > > > > > > V Y Y Y V ;.;.> ;.;.j.j.H * K G G G 6.D ,.9 9 9 9 9 N N N 9 9 N N N N N N 9 9 9 9 9 9 9 9 N N 9 9 9 9 9 9 9 9 N N K ( C q 7.7.4 4 4 4 4 4 7.7.7.7.4 Y.Y.8XiXBXfXv.p.K ,.9 9 9 9 9 9 N 9 N 9 N N %.b w w w w w w w b w i.k # < <   <         < < A.< 9.4 7.Y.3.3.v.3.v.v.v.3.{.a.v.a.0.4 9.2.              9.  9.                                        2.2.9.9.m.M.fXBXfXM.0.r.tXJ.J.a J.a a a a a J.a a J.a a a a a a a a a a a a a J.J.tX(.F.OXyXyXX.h X.X.X.@.@.@.@.5 5 5 5 5 5 B F 6 6 6 6 6 6 6 6 1.V.{.Y.2.2.2.2.2.            9.        <   2.2.9.m.s t p.p.}.p.R.L L.L.E E qX<.qXE E E E E L.L.L.L 6.6.6.p././.c * q P.P.A.A.4 7./.6.G G L L L L L L L L L L e L L L G G G L L L G R.R.@XR.R.G G G L L 6./.q P.A.A.A.A.H H O.O.H H H P.c.d.N 9 9 9 9 9 9 9 %.y w b b b y w w w b b b b b w w w w b b b i.i.# <         <           <           <   <         < ",
"I I y y I I y y I y y I I I I I ).y y y c.c c c c d.d.c d.c d./.d.d.).c.1 1 / Y Y > V V Y y %.b I ....U U U U U ..E.E.E.E.' ' ' ' ' ' ' 1 1 1 / $.Y V V V > > ;.> > > > > > > 4.> > > > V > > > V ;.;.> ;.;.j.l H i.( G L G 6.D W 9 9 9 9 9 N N N N N %.%.%.%.%.N N 9 9 9 9 9 9 9 N 9 9 9 9 9 9 9 9 9 9 N 9 K K ( o q 7.7.4 4 7.7.7.7.7.4 Y.3.Y.8XiXBXfXY.[.K ,.9 nX9 9 9 9 N 9 N N %.%.b b w w w b b w b ,Xw w i.k < <           < < < < 9.9.4 7.3.3.3.3.3.3.3.v.v.a.a.a.a.v.7.4 9.2.2.2.  < < <       2.        < < < < < < < <                 9.9.m.9.^.fX Xm.[.F.y.J.J.a a a a a a a a a a J.J.tXtXJ.a a a a a a a a a a a a J.(.DXDXyXyXX.h h X.X.X.X.@.@.5 5 5 5 5 B B F F 6 6 6 6 6 6 6 1.S.{.Y.2.2.      2.2.2.9.< # # # k # # # <   2.9.7.C [.p.p.p.p.6.L L.L.E E E E E E E E _ E L.e 6.&.&.&././.C /./.C /././.o q q /.p.G L G L L L L L L L L L L L L L L G G G L L L L G G R.R.R.G G L L L G p./.q P.P.A.A.A.H H H H P.$.c.%.N 9 W 9 9 9 9 9 N %.y b I b b b I b b w b b b b w w w b b b w w k # <       < <                                       ",
"y y I y I I I I I I I I I I y y y y y c.y c.c.c.c.c.c c.c c d.d.&.d.).y / / Y Y > > V V Y y b I I ......U U ....I E.E.E.E.' 1 1 1 ' ' 1 ' ' c./ / $.V V V > > > > > > > > > > > > > > > > > > > > > ;.> ;.j.j.l j.k C >XG G 6.,.,.9 9 9 N N %.%.%.%.%.%.b b %.%.%.N N 9 9 9 N N 9 9 9 9 9 9 9 9 9 9 9 N 9 9 N N K ( C s q 7.q 7.7.7.q 7.4 4 Y.Y.8XiXBXBX8Xt p.D 9 9 9 9 9 9 N N N %.%.b b b w w w b b b w b w i.i.# < <           < < <   9.9.4 7.3.Y.3.3.3.3.3.v.v.a.v.a.a.a.7.4 9.9.9.9.            2.2.2.    < < < < < < < < <       < <     < 9.m.7.7.m.m.s K r.y.J.J.J.J.a a a a a a a a a J.bXbXbXJ.a a a a a a a a a a a a J.J.DXNXyXX.X.h h X.h X.X.@.5 5 @.5 5 5 B B B F F 6 6 6 6 6 6 6 1.{.Y.9.        2.  2.  # k k i.i.k k #       m.s [.p.p.p.p.6.6.L L.L.L.E E qXE E E E L.L.& ,.&.d.c /.c c /.c c /./.6.6.p././.p.G L L L L L L L L L L G L L L L L L L L G L L L F.L G G G 6.G G G G L G G 6.[.C * c.P.P.P.P.A.H P.y %.N N N N 9 N 9 N N N %.E.b b b I b b b w b b b w w w w w b b b w i.k < <                                                 ",
"y I I I I y I y b I b I I I I I I ).I ).y w y w y y c.c.c.c.c d.d.).y / $.$.V V Y 4.> V Y y E.I I ....E.......4.' ' ' I ' ' 1 / 1 1 ' ' ' ' 1 1 / 4.Y V > > > > > > > > > > > > > > > > > > > > > ;.;.> ;.j.j.l l H q K G G p.&.&.%.%.%.%.%.%.b E.b I b I b I b %.%.N 9 N N 9 9 9 9 9 9 9 9 9 9 9 9 9 9 9 9 D 9 N K &.( C C s 7.7.q 7.7.4 4 Y.Y.8XiXBXBX8Xt [.D N 9 $X9 9 9 N N %.%.b b w w w b b b b w w w i.i.k < <           < < <       9.4 7.3.3.3.3.3.Y.v.v.v.a.a.a.a.a.v.4 4 4 4 9.2.>.    <   <           < < < < < <           < # < < < k i.( K >XvXr.(.tXJ.J.J.J.a a a a a a a a a a J.bXbXbXbXa a a a a a a a a a a a J.J.DXDXyXX.X.@.X.X.X.X.X.X.5 5 @.5 5 5 5 B B B F 6 6 6 6 6 6 1.1.{.3.9.  < <         < # k i.Q.i.i.m.<   2.9.m.s [.p.p.p.p.p.6.L L.L.E E E E E E E L.L.& ,.&.d.c c c q /.c /.c o /././.p.p.p.6.L G L G L L L L L L L L L L L L L L G L L L L G L G F.G G G G G G G G G L G >X6.K K &.d.d.c.P.c.c %.N N %.%.N N N 9 N 9 N N %.b b y w b b b b w b b w w w w w b b w b i.k # < <               < <                         <   ",
"I E.%.%.E.I I I I I I I I I I I I I I I I I y y ).y y c.c.c ).d.).y y / $.O.V > > Y > V Y I E.I 4...I U ....' ' ' ' ' ' ' ' 1 / 1 1 ' ' ' ' ' 1 1 ' 4.Y > > > > > > > > > > > > > > > > > > > > ;.> ;.> ;.j.j.l l l k C p.p./.C d.b %.E.b b w b b b b b b b y b b %.N 9 9 9 9 N 9 9 9 9 9 9 9 9 9 9 9 9 9 9 9 9 D N K K K ( ( C C C C o s 7.v.3.8XfXBXBXM.0.[.K N 9 9 9 9 9 N %.b %.b b w w w w w w w i.i.i.k k <               < < <       9.4 7.v.3.3.Y.Y.3.v.v.v.a.v.a.a.a.a.v.v.v.0.7.9.2.  < <     < < < <     l         <         <     < i.b N vX_ tXJ.ZXJ.J.J.J.a a a a a a a a a a a a J.tXtXtXJ.a a a a a a a a a a a a a y.DXNXyXX.@.@.@.@.@.X.X.X.5 5 @.5 @.5 5 B 5 B F 6 6 6 6 6 6 F 1.{.3.9.9.< <       < # # k k i.m.m.9.9.2.9.m.7.C [.p.p.p.p.6.6.L L.L.E E E qXE E E L.f ,.&.d.c c c c c c /.c c o o /./.p.6.G L L G L L G L L L L L L G L L L L L L L L L L L L G G G G G G G G G G L G >XL G G >XL e >X,.&.c c &.N 9 %.4X%.4XN N 9 9 9 9 N %.%.b b w b b b b b b w b b b %.b b b b w w k # < <               < < <                           ",
"I %.N N %.I I y I I b I y y I I I E.E.E.E.I I I I y y c.y ).).).).y 1 / Y V V > > Y V V / I I ' 1 ' ..E...' ..' ' ' ' ' ' ' 1 1 1 ' ' ' ' 1 ' ' 4.' 4.Y > > > > > > > > > > > > > > > > > > > > > ;.;.V ;.j.j.l l l A.7./.[./.o * w b %.b b w b b b I b b b b w b %.N 9 9 N 9 9 9 9 9 9 9 9 9 9 9 9 9 9 9 9 9 9 9 9 N N N N K K K K K K ( C t v.Y.fXBXBXM.0.( K N 9 9 9 N N %.b b b b b w w w w w i.i.k k k # < <               < < <     9.9.4 7.v.3.3.3.Y.3.v.v.a.v.a.a.a.a.a.a.t v.t 7.9.9.9.9.< < < < < < <                             A.i.%.vX_ tXJ.J.J.ZXJ.J.a a a a a a a a a a a a a a a a a a a a a a a a a a a a a a a J.J.DXyXyXyX@.5 @.@.@.X.X.X.@.5 @.5 5 5 5 B B B F 6 6 6 6 6 6 F 1.{.v.4 9.< <       < < # # # m.m.9.9.9.9.m.s C [.p.p.6.p.6.p.6.G L.L.E E E E E _ E A 6.&.c c c c /.c 0.c q /.o c 0.c /.p.6.G L L G L L L L L L L L L L L F.L L L L L L L L L G L L G G G L G L L L L G G G >X6.G L F.e >X,.&.&.&.,.N N %.%.N N N 9 9 9 9 9 9 %.%.b I b %.b b w b b b %.%.%.%.b b w w w i.# <       < < < < <                                 ",
"E.4XN N E.I I I I I I I I I I I E.E.E.E.E.I I y y y y y ).).E.E.I I 4.4.Y Y > > V V V $./ I E.' 1 ' ' I ' ' ' 1 1 / / 1 / c.1 / 1 ' ' ' ' ' ' ' ' ' 4.Y Y > > > > > > 4.> > > > > > > > > > > ;.;.> ;.> ;.j.j.j.l l >.A.q t t q q * b %.b b b b b w b b b b I b b %.N 9 9 9 9 9 9 9 9 9 9 9 9 9 9 9 9 9 9 9 9 9 9 9 9 9 D N N 9 N N N N K K ( t 7.M.fXfXM.t K ,.9 9 9 N %.%.b b w b b w w 8.i.i.i.k k < < < < <                 < < < < < 9.9.4 7.v.3.3.Y.Y.3.v.v.a.a.{.v.a.a.a.a.a.v.a.v.M.M.9.9.# # k # # < <         2.        2.9.9.    k ( vXtXJ.J.J.J.a a a a a a a a a a a a a a a a a a a a a a a a a a a a a a a a a a a a y.DXyXyXh @.@.@.X.@.X.X.X.@.5 @.5 5 5 B B B B F 6 6 6 1.6 6 6 1.{.v.4 9.  < <         < 9.9.9.9.9.4 m.7.s [.[.p.6.6.p.K 6.6.6.G L L.E E E E k.E r.e K c * c c /.c c c q /.q /././././.6.6.G L L L G L L L L L L L L G L L L L L L L L L L L L G G G G G G L G L L L G G 6.6.6.6.L L L e >XD K ,.,.N N N N N N 9 9 9 N 9 9 N N %.b b b b %.b b b b ( %.%.%.%.b b b w w i.# <       < < < <                                   ",
"E.4XN %.E.I I I y I I I I I I I I E.E.I I y y y y y y ).).I E.E.E.....4.4.Y > > V V O.$./ ).).).1 1 ' ' ' ' 1 1 / c.1 c./ ' c.1 c.1 ' ' ' ' ' ' ..' 4.Y Y Y > > > > > > > Y > Y > Y > > > > > > V V V > ;.j.l j.j.l >.  m.s 0.q P.i.w b b b b b b w w b %.b b b %.%.N 9 9 N 9 9 9 9 9 9 9 9 9 9 9 9 9 9 9 9 9 9 9 9 9 9 9 N 9 N 9 N 9 N N N K K C 7.4 9.7.C K D 9 9 9 %.%.b b w w w w i.i.i.k k # < H <   < < < <               < # # # # # 9.4 7.v.3.3.3.Y.Y.v.v.v.a.v.{.a.{.a.v.{.v.v.3.M.M.M.m.Q.m.k # < < <     2.            9.9.2.9.# C vXtXJ.a J.a a a a a a a a a a a a a a a a a a a a a a a a a a a a a a a a a a a a a J.y.DXyXyXh X.@.X.X.X.X.X.@.@.5 @.5 5 5 B 5 B B F 6 1.6 6 1.6 6 1.t.{.Y.9.  < < < <       A.9.m.4 7.0.0.t [.p.p.6.p.>X6.6.6.6.6.L L L.E E E E E k.L.W &.c * c C /.c /.c c q o q c /./.p.6.G L L L L L L L L L L L L L L G L L F.L L L L L L L L L G G G G L G G G F.L G G G G 6.G G L L L L >XD ,.,.N 9 9 N N 9 9 9 N 9 N 9 9 N %.b b b b b b w b b ,X%.K %.%.b b w w w i.# <       < < < <           <                       ",
"E.4X4XE.I y I I I y I I I I I I I I I I y y c.c.c.c.).b I E.E...U U ....4.Y > > V V O.O./ y ).).y / / 1 1 1 / / c.1 c.c.' c./ y ' y 1 1 ' ' ' ' ' 4.4.Y Y Y Y > > > > > Y > > > > > > > > > > V V V > > ;.j.l l j.l >.>.A.7.t 7.m.k i.w w b b b w w w w b b b b b N N 9 N N 9 9 9 9 9 9 9 9 9 9 9 9 9 9 9 9 9 9 9 9 9 9 9 9 9 N 9 9 9 9 9 N N N K K C s s ( K 9 e 9 N %.b b w w w i.i.k k k # <     <       < < < <           < < # k k k m.9.4 7.v.v.3.3.Y.Y.3.v.a.a.v.a.v.v.v.3.3.3.v.Y.M.Y.Y.4 Q.m.9.  <             2.    9.9.2.2.2.# q D tXJ.J.a a a a a a a a a a a a a a a a a a a a a a a a a a a a a a a a a a a a a a a a y.DXyXyXh X.X.h h X.h X.X.5 5 @.5 @.5 B 5 5 B F 6 6 1.6 6 6 6 1.1.{.3.M.9.< < < < < A.A.m.7.s 0.t [.p.6.>Xp.>XK 6.>X6.6.6.6.6.6.L L.L.E E q.E k.A ,.&.c c /.c C o o o o c o /./.0./.6.L L L L L L L L L L L L L L G G L L L L L G L L L L L G G 6.G G L F.G G G G L L G G G G G G L L L L >X>XD ,.N 9 9 N N 9 9 N N N 9 9 9 9 N %.b w b b w w w b b %.b b b w w w w w i.k < <                                               ",
"4X4X4XE.E.I I I I y I I I I I I I I I y y y c.c.y ).b b E.E.....U U U U 4.> Y > > V $.O.$.c.).).c./ / / c.1 c.c.c.).).).).' c.).c.).y 1 1 ' ' 1 1 4.4.V V V > > > Y Y Y Y Y > Y > Y > > > > > V V V V V V j.j.j.j.l l >.A.q t s m.m.k i.w w w b w w w b w w w b %.N 9 9 9 N 9 9 9 9 9 9 9 9 9 9 9 9 9 9 9 9 9 9 9 9 9 9 9 9 9 9 9 9 9 $X9 9 9 9 >XN K ( ( K N D 9 N N %.b w w i.i.k k # # < <       < <   < < < <               < < # # # m.9.9.4 a.v.3.Y.Y.Y.3.v.a.a.a.v.{.v.v.3.3.3.Y.M.^.^.^.^.M.M.9.9.9.9.    2.            9.9.A.m.q &.vXJ.J.J.a a a a a a a a a a a a a a a a a a a a a a a a a a a a a a a a a a a a a a a J.y.DXyXh h h h h h h h X.X.@.5 @.5 5 5 5 5 5 5 F 6 1.6 1.6 6 6 6 S.{.3.M.9.9.    9.# m.7.s C [.K K 6.6.>X6.K p.6.D >X>XD 6.6.6.6.L L.L.E E E E E e &.d.c c c /.o o C c C c c q q /./.G L F.OXL L L L L L L L L L G G >XG >XG G G L G L G G G 6.p.p.p.G G L G G G G G G G L L L G G L L L L G >XD ,.N N N 9 N N N 9 N 9 9 9 9 N N %.b b b w w w w b b b b w w w w w w w i.k < < <         < # # # < <                         ",
"9 9 $X4XE.I I y I y y I I I I I y y y y y y c.y ).b b E.E.....U U U U U 4.> Y Y Y Y $.O.O./ c.c ).).).).).).).).).d.).).).c.c.c.y ).).1 c.1 1 1 4.I 4.V V V V V Y Y Y 4.4.Y > > Y > > > V > > V V V ;.V ;.;.j.j.j.l l >.k s [.0.7.m.k i.w w w w w w w b b b w b %.N N 9 9 9 9 9 9 9 9 9 9 9 9 9 9 9 N N N N 9 9 9 9 9 9 9 9 9 9 9 9 9 9 9 9 9 9 9 N N K N N N N N %.%.b b w i.k # < < < < < <       <   < < < <             <       < # # 9.9.9.4 v.v.3.3.Y.Y.3.v.a.v.a.a.v.a.v.3.Y.Y.M.M.^.^.fXfXfX^.M.M.2.2.2.              A.  k * ( ,.vXtXJ.J.a a a a a a a a a a a a a a a a a a a a a a a a a a a a a a a a a a a a a a a a J.y.DXyXh h h h h h h h X.X.5 5 5 @.5 5 B B 5 B F 6 6 1.6 6 6 6 6 1.V.v.M.9.9.9.9.m.7.s C ( K K D 6.>XK 6.K 6.D D >X>XD ,.D 6.6.6.6.L L.L.E E r.L.W &.c /.c c q o o o /.C c o 0././.p.G G G L L L L L L G G G G G >XG G G G L >XG G G G G 6.p.p.[./.[.p.p.G G G G 6.G G L G F.G G G G G G G G >XD ,.,.N 9 N N 9 N N N N 9 9 N N %.%.b b b b w w w b b b b w b w w w w w i.k < < < <     < # k k # # <   < <                   ",
"nXnX9 $X4XE.I I y y y y y y y y y ).y y y y y y b E.E.E.E...U U U U U U ..4.Y > > Y V O.O.O./ c.y ).).%.).).d.).d.).).y y c./ c.c.y ).c./ / / 1 I I I Y V V V V Y 4.4.4.4.4.Y Y > > > > > > > V V V V ;.V ;.;.j.j.j.l l P.o [.t 7.m.m.i.w b b b b b b b b w w w b %.N N 9 N 9 9 9 9 9 9 9 9 9 9 N N N N N 9 N 9 9 9 9 9 9 9 N 9 9 9 9 9 9 nX9 9 9 N N N D 5XD N %.%.b b w i.i.# < < < < < < < < <     < < <                           <     2.9.4 0.v.3.Y.Y.Y.4 v.a.a.0.a.v.a.0.3.Y.M.9.M.M.^.fXfXfXfX^.M.M.2.2.        < < A.A.k * D r._ tXJ.J.a a a a a a a a a a a a a a a a a a a a a a a a a a a a a a a a a a a a a J.a a J.J.y.DXyXh h h h h h h h h X.@.5 5 5 5 5 5 5 5 B F 6 1.F 1.6 6 6 6 1.V.v.M.M.9.4 4 7.0.[.K K D >XD D D D K D D 6.D D D D D D 6.6.6.6.L L.L.L.L.E L.D d.c c /.o o q /.o o o c c q c 0.p.6.G 6.G G L L G L G L G L G G G 6.G >XG G G L G 6.6.p.[./././././.[.p.p.6.G p.G G G G G G G G G G G G G L >X,.,.9 9 9 N N N N N 9 9 9 N N %.%.b b b b w b b b w w w w w b w w b w i.k <   < <   < # k k k # # <   < < <                 ",
"nXnXnX9 4XE.I y y b I y w I y y y y c y ).y y I I E.I ......U U U U U U ..4.> V ;.V ;.;.H O.O.$.$.$./ / / / / / P.P.O.O.O.O.A.H P.c.y c.c./ / y I %.E.4.Y V V V Y 4.4.' 4.4.Y > > > > V V V V > V V V ;.V > > ;.;.j.j.l P.s t 0.7.m.m.i.w b b b 8.b b b b b w w b %.%.N N 9 9 9 9 9 9 9 9 9 9 N 9 N N N N N 9 9 9 9 N N N 9 N N 9 9 9 9 9 9 9 9 9 9 9 N N 9 N N b b b w w i.k <   < <           < <     <                                   2.9.4 a.v.3.Y.3.Y.3.v.a.0.a.t a.0.a.v.4 2.2.9.M.M.M.^.fXBXfX^.M.M.2.9.  < < < A.A.A.i.K _ tXJ.J.J.a a a a a a a a a a a a a a a a a a a a a a a a a a a a a a a a a a a a a J.J.a a a J.(.DXyXh h h h h h h h h X.5 B 5 5 B 5 B 5 5 B F 6 6 1.6 6 6 6 6 1.V.v.M.M.4 7.0.[.p.p.6.p.D D D D D ,.D D D D >XD D ,.D D 6.6.6.6.L L.L.L.E L.A 6.d.c C c o c /.o c o c c t o 0./.[.p.p.p.G L L G L L L L L L L G G G G L L G L G >XG p.[././././.t /./.[.[.p.p.p.G G F.G G G p.p.p.p./.p.G G >XD ,.N 9 9 N N %.%.%.N 9 9 N %.%.b w b b b b b b b w w w b b b w w b w i.k <       < < # k k # <         < < <               ",
"nXnXnX9 4XI I y y y y y y y y w c.y y y b I I I E.E.........U U U U U U ..4.> V ;.V V ;.;.;.;.V V O.;.O.O.;.O.O.;.O.;.;.;.O.H H O.P.c.).y / / y y I ..4.Y V V V Y 4.' 4.4.Y Y > V V V > > > > > > > V V V > > > ;.;.;.H P.q t s 7.m.m.i.w w b b w b b b b b y w b b %.%.N 9 9 9 9 9 9 9 9 9 9 9 9 N 9 9 9 9 9 9 9 9 9 9 9 W 9 9 9 9 9 9 9 9 9 9 9 9 9 N 9 9 9 %.b b w w i.k # < < <             <                                         9.2.9.4 t v.3.3.Y.Y.3.v.a.a.v.a.0.a.t 0.4 2.2.2.9.M.M.^.^.fXBXBXfX^.M.M.2.  < A.A.P.* ,.r.tXJ.J.J.a a a a a a a a a a a a a a a a a a a a a a a a a a a a a a a a a a a a a a a a J.a J.x DXyXyXX.h h h h h h h h X.@.5 5 B B 5 5 5 5 B F 6 1.6 6 6 6 6 6 1.V.{.Y.4 7.t [.p.6.>X6.6.D D D W D D D D D D D D D D W D D 6.6.6.6.L L.E L.L.L.,.d.c d.c /.c c C /.c c c c /.c 0./.p.p.6.G L L L L L G L L L G L G G L L F.G L G G 6.p././.t t /./.t t t t [.[.[.p.p.p.p.p.[.p.[./.t t [.p.6.>XD ,.N 9 9 N %.4X%.%.N 9 N N %.b b I y b b b b w b w w w w w w w w b w i.k <       < < # # # < <         < < < <             ",
"nXnXnX9 4XI I y y y y y w w w w y y y I E.E.b E.......U U U U U ..U U ....4.> > V > > V V V > > V V V V ;.V ;.V ;.Y V V V V ;.;.O.O.w d.d.c.y / / Y Y V Y V V Y 4.4.' 4.4.Y > > V V V V > > > > > > > V V > > > V V ;.O.P.q t s 7.m.k i.w w b b b b b b b b w b w w b %.N N 9 N 9 9 9 9 9 9 9 9 9 9 9 9 9 9 9 9 9 9 9 9 9 9 9 9 9 9 9 9 9 9 9 9 9 9 9 9 9 >X9 N b b w w i.# < < <             < < <                                         9.2.4 t v.3.3.Y.3.3.v.v.a.v.v.a.t t 7.m.2.2.9.9.2.2.M.M.^.fXBXBX^.M.M.^.9.A.P.c.d.W r.tXJ.a a a a a a a a a a a a a a a a a a a a a a a a a a a a a a a a a a a a a a a a a a a a a J.(.DXyXyXh h h h h h h h h X.@.5 5 B B 5 5 5 5 B F 6 6 1.6 6 6 6 6 1.S.{.3.0./.p.6.6.>Xp.D 6.D D D D D D W D D D 6.D D W D D D D 6.6.6.L L.L.L.L.f ,.d.c c d.d.c C C c c /.c /.q o 0./.p.G G G G L L L L G L L G L >XG L F.L G >XG G 6.p.[.t t t t t t t t t t t t t [.[.[.t t [./.t 0.0.t t [.K K D ,.N 9 9 N %.%.%.N 9 N N %.%.b I b b b b b b b w w w w b w b w b b w i.k <         < < < < <         < < < < <             ",
"nXnXnX$XE.I I I y y y I w I w w y y y b 4XE.E.E.....U U U U U U U U U ....4.> > ;.> > ;.> > > > > V ;.V V V V V V > Y Y > > V ;.O.O.w K K b y 1 $.V V V V $.V $.4.' ' 4.Y Y > > V V > Y > > > > > > > > ;.> > > > V ;.O.O.i.C s 7.m.P.i.w b b b b b b b b b b w b w b b %.N 9 9 9 9 9 9 9 9 9 9 N N 9 9 9 9 9 9 9 9 9 9 9 9 9 9 vX9 9 9 9 9 9 9 9 9 9 9 N 9 9 %.%.b b w P.<   < <       < < < # # # # <   <                               A.2.2.4 t v.3.3.3.3.3.v.a.a.a.v.a.t t 7.9.2.2.2.9.9.2.M.M.M.fXLXLXBXfX^.M.9.m.* ,.A _ tXJ.J.a -.a a a a a a a a a a a a a a a a a a a a a a a a a a a a a a a a a a a a a a a a a a a J.(.DXyXyXh h h h h h h h h X.@.@.@.5 B 5 5 B 5 B F 6 6 6 6 6 6 6 6 1.S.V.a.t p.6.6.>XD 6.6.D D D D W D D ,.D D 6.D D D D D >XD 6.6.6.6.6.L L.L.L.L.6.d.c c d.d.c c c /.c q c c /.o 0./.p.G R.G G L L L G G G L F.L G L G L G G 6.p.p.p.[.t t t t o t /.t /.t t t t t t t t t t t t C 0.0.s t /.( K K ,.N 9 9 N %.4X%.N 9 9 N N %.b b y b b b b w b w w b b w w w b b b w i.k <         < < < < < <   < < < < < < <             ",
"nXnXnX4XE.I I y y y y y b y y y c y ).E.4X4XE.....U U U U U U U U ......4.Y > > V > ;.> > > > > Y Y V V V V Y V V Y 4.4.Y > > ;.O.O.b D W %.y / $.V V O.V V Y 4.4.4.4.Y Y Y V > > Y Y 4.4.Y > > > > > > > > > > > V ;.H H P.o s 7.m.P.* b b b w b b b w b b b b w w b b %.%.N 9 9 9 9 9 9 9 N 9 9 9 9 9 9 9 9 9 9 9 9 9 9 9 9 9 9 9 9 9 9 9 9 9 9 9 9 N N N N N %.b b w k < A.  <   )   < < < # k k # # < < <           <             < <   2.2.4 t v.3.3.3.3.3.v.v.a.a.a.0.t t 7.9.2.2.  < <   2.M.M.fXBXLXBXfX^.M.4 * ,.k.J.J.J.J.a -.a a a a a a a a a a a a a a a a a a a a a a a a a a a a a a a a a a a a a a a a a a a a J.(.DXyXyXh h h h h h h h h X.X.X.@.@.5 5 B B 5 B F 6 6 6 6 F 6 x.6 1.S.V.}.p.6.6.>X>XD D D D 6.D D D D D D 6.,.D 6.D D D D D D D 6.6.6.6.L L.L.L.L 6.&.c c /.c C c /.c c c /.0./.0./.[.G G G G G L L G >X6.6.G L L G G >X6.6.p.[.[.[.t t t t t t 0.0.t t t t t t t [.t t t t o t t t 0.0.0.t t ( K K ,.N N 9 N N N N N 9 9 N N %.b b b b b b b b b w w w b b w w b b w w i.k <       < < < < < < < < < < < < < <               ",
"nXnX$X4XE.I I y y y y y y y c.c.c.).).E.E.E.....U U U U U U U U U ....4.4.> > > > > > > > > 4.> > Y > > > Y V V Y Y 4.4.4.> > V O.$.b W W %.y $.V V V V V Y Y 1 4.' 4.$.Y V V > Y Y 4.4.4.Y V V > > > > > > > > > V ;.H H k s s k k i.* b b w w w b b w b b b b w w w w b %.%.N N 9 N 9 N 9 9 9 9 9 N 9 9 9 9 9 9 9 9 9 9 9 9 9 9 9 9 9 N 9 N N 9 9 N 9 9 N N N %.%.b w i.k < < <       < < < < # # # < < < < < < <           < <     < <   9.9.4 t v.3.3.3.Y.3.v.a.v.a.v.a.t 0.7.9.2.  < < <   2.9.M.^.BXLXBXBXfXM.s >Xr.tXJ.J.a J.a a a a a a a a a a a a a a a a a a a a a a a a a a a a a a a a a a a a a a a a a a a a a a J.y.DXyXh h h h h h h h h h X.X.X.X.@.5 5 B B B B F 6 6 6 6 6 6 6 6 1.S.V.}.p.6.6.>X>XD D 6.D D D D D ,.,.6.D W 6.D W D 6.D D 6.D 6.p.6.6.6.L L.L.L.G &.c c c /.c c c c o o c o c 0./.p.G G G G L L L G 6.6.6.6.G G G 6.p.[././././.t t t t t t t 0.0.0.o t t t t t t t t t t t t t t 0.0.0.t C ( K K ,.N N 9 N 9 9 N N 9 9 N %.%.b b b w w b b b w w w w w w w w b b w w i.k <   < < < < < <           < < < < <               ",
"nXnX4X4XE.I y y y y y y y c.c.c c d.).E.E...U U U U U U U U U U U ..4.4.Y > > > > > ;.> > 4.> > > > > > > > V > Y 4.4.4.4.Y Y V O./ %.9 9 %.y V V V V V O.V / 4.4.4.4.Y Y V V V > Y 4.4.4.4.> V > > > > > > > > > > ;.j.l A.i.P.k P.k i.b b w w w w b b b b b b b w w w w b b %.%.%.N N N 9 N 9 9 9 N N N N N 9 9 9 9 9 9 9 9 9 9 9 9 9 9 N 9 9 9 9 9 N N N N N N %.b w i.i.k # <               < < < < < <   <   <   < < < < < #           2.9.7.t v.3.3.3.3.3.3.v.a.v.a.0.a.0.7.9.9.9.A.< <   2.M.M.^.BXLXBXBXBXM.[.r.tXJ.J.a a a a a a a a a a a a a a a a a a a a J.a a a a a a a a a a a a a a a a J.a a a a a a a a a a J.~.(.DXyXh h h h h h h h X.h h X.X.X.@.5 5 B B B F 6 F 6 6 6 6 6 6 6 1.S.V.}.p.6.6.D D D D D D >XD D D 6.,.D 6.D >XD 6.D D ,.D D 6.6.6.6.6.6.L L L L.G &.c c /.c o o C c o /././././.p.p.G G G L L L L L G 6.G G G G p.p.[./././.t /.t /.t t t t t o 0.0.t 0.t t t t t t t t t [.t t t t t C /./.( K K ,.N 9 N 9 9 9 9 9 9 N N %.b b b w w w b b b w w w i.i.i.i.w w w w i.k k < < < < < < < <                                   ",
"nX$X4XE.I I y y y y y y c.c.* c d.d.b I ....U 4XU U U U U U U ......4.Y Y > > > > > > > > > 4.> > > > > > > V V Y 4.4...4.Y V O.O.y %.N N %.4.V O.V V V V V Y 4.1 4.Y V Y V > V > Y 4...4.4.> V > > V > > > > > > V ;.j.l A.# k # k k i.w b w w w w b b b b b b b b b w w w b b b %.%.N N N N N %.N N N N N %.N N 9 9 9 9 9 9 9 9 9 9 N 9 9 9 N 9 N 5X9 9 N 9 N N %.b w w i.i.k <                     < <           <   < < # # <         2.2.9.7.t v.3.3.Y.3.3.v.v.a.a.v.a.t 0.7.4 9.9.      9.2.M.M.iXBXLXLXLXBXM.p.(.J.J.J.a a J.a a a a a a a a a a a a a a a J.J.J.a a a a a a a a a a a a a a a a J.a a a a a a a a a a a y.DXNXyXh h h h h h h h h h X.X.@.X.@.5 5 5 5 B F 6 6 6 6 6 6 6 6 6 1.S.V.}.p.6.D D D D D D D >XD D ,.D D D ,.6.D 6.,.D D W D D D D 6.6.6.6.6.L L L.L p./.c /.o c o /.o o o /././.p.6.G G L G L L L L L G G G G G 6.p.[././.t t /.t t t t t t t t t t t t t t t t t t t t t [.[.[.t t t t /.[.( K K ,.,.N N N N 9 9 9 9 9 N %.b b b b w w w w w w w i.i.k k k i.i.i.i.i.k k # < < < < < < <           <                         ",
"nX4XE.I I I y y y b y y c.c.c d.( d.b I ....U U U U U U U U U ....4.4.Y Y V > > > > V > > 4.> > > > V V > V V V Y 4.4.I ' 4.V O.O.y %.%.%.I Y ;.V V Y ;.V V $.4.Y Y V Y V Y > V V Y 4.4.4.4.> V > > > > > > > > > > ;.j.l l A.k k P.k i.w b b w w w b b w w w w b b b b b b w w b b %.%.%.%.%.%.%.%.%.%.%.%.%.%.N 9 9 9 9 9 9 9 9 9 9 9 9 9 9 9 9 9 9 N N 9 N 9 N N %.b w w w k <     < <             < <             <   < # # <   < < 9.2.2.M.4 t v.3.3.Y.Y.3.v.v.a.a.a.0.a.a.v.4 M.9.2.2.9.M.M.M.8XiXBXLXLXLXBXM.>Xy.J.J.a a a a a a a a a a a a a a a a a a a tXbXbXtXJ.a a a a a a a a a a a a a a a J.a a a a a a a a a J.y.DXNXyXh h h h h h h h h h X.X.X.X.@.5 5 5 5 B F 6 F 6 6 x.6 6 x.6 1.S.V.}.p.6.D D D D D D D D D ,.D D D K ,.,.,.K K ,.,.D D D D D D 6.6.6.6.L L L L p././.c 0./.q 0.c 0././.p.6.G L L G G L L L L L >XL L L L G p.[./././.t /.[.[.t t t 0.t t t t [.t t t t t t t t t t [.[.[.[.t t t /.[.( K K ,.,.N 9 9 N N 9 9 9 9 N N %.w w w b w w w w w w i.i.k # < < # k k k k # < < < < < < < <                                       ",
"$X4XI I y y y y y y y y y b d.d.b b I ....U U U U U U U U ........4.4.4.Y Y Y > > > V > > Y Y > V > V V > V V V Y 4.' 4.1 $.O.O.$.y b b I Y V ;.V V V V V V Y Y Y Y V V V > > > V V Y 4.4.4.> V > > > > > > > > > > ;.j.l l < k k k k i.w w b w w i.w i.i.i.i.i.w w w w w b w w w b b b b b b b b b b %.b b E.%.%.N 9 9 9 9 9 9 9 9 9 9 9 9 9 N 9 N N N N 9 N 9 N N %.b w w 8.i.# <         2.2.2.    2.              >.        9.  9.9.2.2.2.M.4 0.v.Y.Y.Y.Y.3.v.v.v.a.v.a.a.0.3.M.M.M.M.2.M.M.M.fXBXLXLXLXLXLXfX0.F.y.J.J.a a a a a a a a a a a a a a a a a a tXbXbXbXbXJ.a a a a a a a a a a J.J.J.J.a a a a a a a a a a J.J.y.DXyXyXh h h h h h h h h h X.X.@.X.@.@.5 B B B F F F F 6 6 x.6 6 6 1.S.V.}.p.6.6.D D D D D D D D K D ,.D D >XW >XD D ,.,.,.D W D D D ,.=X6.,.6.G L G p./.0././.0.q /.0././.p.6.G G L G G G G L F.L L G G L L G p.[././.[./.t /.t t t t 0.t t t t t t t 0.t t t t t t t t t t t t t t t [.[.K K ,.K N K 9 9 N N 9 9 9 9 N N %.w w w w w w w w w w i.k < < A.< A.< H < < < < < < < < < <                                         ",
"4XI I y y y y y y ).y y ).d.%.%.b I ....U U U U U U U U ......' ' ..' 4.4.Y Y Y V V V > > > Y > > V V V > V V V Y Y 4.1 4.$.O.O.y y I I 4.Y > V V V V V V V Y Y Y V V V V > > > V V Y 4.4.4.Y V > > > > > Y > > > > ;.j.l < # k k k k k i.i.w w i.i.i.i.k k k i.i.i.w w w w w w w w w b b b b b b b b b b b b %.%.N 9 9 9 9 9 9 9 9 9 9 9 9 N 9 N N N N N 9 N 9 9 N %.b w w w i.k # <   9.2.2.  2.2.2.2.  2.2.        2.2.    9.9.9.2.9.9.M.M.4 3.v.3.Y.Y.Y.3.3.v.v.a.v.a.a.a.v.3.Y.M.M.M.^.^.^.fXBXLXLXLXLXLXBX^.[.r.J.J.J.a J.a J.a a a a a a a a a a a a a a bXbXbXbXJ.J.a a a a a a a a a tXtXbXtXJ.J.a a a a a a a a a a J.(.DXyXyXh h h h h h h h h h h @.@.X.@.@.B B 5 B F F B F 6 6 6 x.6 6 1.S.V.}.p.6.6.D D D W D D D D D D D D D e & & & e W D ,.,.D W D D D D ,.6.6.D >X6.p./.t o 0./.o t /././.6.G G G L G 6.6.G L L L G G G G G 6.p.[.t /./.[.t t /.t t t t t t [.t t 0.0.0.0.0.t t t t t t t t t t t t [.[.K K D ,.N %.N 9 9 9 9 9 9 9 9 N %.b w w w w w w w w w 8.i.k     < < < <               < < <                                           ",
"I I y y y y * w y ).y ).4X%.4X%.E.....U C.U U U U U U ......' ..' ' ' ' 1 1 Y Y V > V V V > > > > > V V > > V V V Y 4.4.1 $.$./ y I I ....4.4.> > V V > V V > V V V V V > > > > > V Y 4.4.4.Y V > > > Y > > > > > > ;.;.j.< k k k k k k i.i.i.i.i.i.k k k k k k k i.i.i.8.w w w w w w w w w w w b b b b b b b %.%.N 9 9 9 9 9 9 9 9 9 9 9 9 9 N N N N N N 9 N 9 9 N %.b b w w i.i.# <     9.2.2.9.9.9.  9.  2.9.9.9.9.  9.9.m.m.m.m.4 9.M.4 4 4 3.v.3.Y.Y.3.3.v.v.v.a.a.a.v.a.a.v.Y.M.M.^.fXfXfXBXBXLXLXLXLXLXBXM.>X(.J.J.a a J.J.tXa a a a a a a a a a a a a a a J.a a J.a a a a a a a a a a J.bXbXbXbXJ.J.a a a a a a a a J.y.y.DXyXyXh h h h h h h h h h X.@.@.@.@.@.B 5 5 B F F F F 1.6 6 6 6 6 1.S.V.}.p.p.6.D D W D D D D D D D D D W e r.r.r.r.& W W ,.,.D D D D D K ,.6.6.6.6.p./.t /./.0.o 0././.6.G L G 6.G G 6.G G G G G G 6.G p.p.p.[./.t t [.[.t t t t t t t t t t t 0.0.0.0.0.0.t t t t t t t C t t t t [.[.K K ,.N N N N N 9 9 9 9 9 9 N %.%.b w w w w w w w w w w i.k     < < < <                                                               ",
"I I y y y y y y c ).).).4X4X4XE.E...U U U U U U U ......E.' ..' ' ' ' ' y 4.Y Y V > > V V V > > > > V V > > > V V Y Y 4.$.$.i.y b I 4.U U ..4.Y > V V > > > > V V V > > > > > > > > > Y 4.Y > V > > > > > > > > > > ;.;.v k i.k # # # k k k i.k k k k k # # # k k k k i.i.8.w w w w w w w w b b w b w b b b %.%.N N 9 9 9 9 9 N 9 9 9 9 9 9 9 9 N N N N 9 9 N N 9 N %.b b w w i.i.#     9.9.9.9.m.m.m.m.m.9.9.2.2.2.9.9.P.s C [.[.t 0.0.0.0.v.v.3.3.Y.Y.3.v.v.v.0.a.a.v.a.a.a.a.3.M.^.^.^.^.^.fXfXfXfXfXiXfXfX^.P.vXtXJ.a a J.tXbXbXtXa a a a a a a a a a a a a a a a a a a a a a a a a a a a J.tXbXbXtXJ.a a a a a a a a J.J.J.(.DXyXyXh h h h h h h h h h X.@.5 5 @.5 B 5 5 B F 6 F F F 1.6 6 6 6 6 S.V.}.p.p.6.D D D D D D >XD W W D D W e r.r.(.r.r.& W D ,.,.,.D D D D ,.K K 6.p.p.[.t t 0.0.0./././.6.L L G 6.G G G G L G G 6.p.p.[.[.t /.t t t /.t t /.t /.t t t t t t t t t t 0.t t t t 0.t t t t t t t t t /.[.K K ,.N 9 N N N 9 9 9 9 9 9 9 N %.b w w w w w w b w b b w i.k <   < < < < <               9.    2.                                      ",
"I y y y * y * y y b ).%.4X4XE.E.U U U U U U U U U ....' ..' ' ' 1 1 1 1 1 1 $.V V Y > V V V > > > > V V > > > V V Y Y $.$.$./ b E.I 4...U U ..4.> > > > > > V V V > > > > > > > > > > Y Y Y > V > > > > > > V V > > Y ;.;.k k k # # # k k k v k k k k k k v # k k k k k i.i.i.w w w w w w w w b w b b b %.%.%.N N N 9 9 9 9 9 9 9 9 9 9 9 9 9 9 9 N 9 N 9 9 N 9 9 N %.b b w i.i.k < < < m.m.7.s s C t C o s 7.m.9.m.m.q C [.6.G G G G p.p.[.t 0.v.3.Y.3.v.v.v.a.0.a.0.a.a.a.a.a.3.M.^.^.M.M.M.M.M.M.M.M.M.M.^.2.o r.J.J.a a a bXbXbXtXa a a a a a a a a a a a a a a a a a a a a a a a a a a a a a J.tXJ.J.a a a a J.J.J.J.J.J.(.DXDXyXyXh h h h h h h h h h X.@.5 5 5 5 B 5 5 B F 6 6 6 1.6 6 6 6 6 1.1.S.}.}.p.6.D D D D D D D D D D D D D e & r._ _ r.r.& W ,.,.D D D >X6.6.p.p.6.p.p.p./././././.0././.6.L L G 6.G G G L L G p.p.[.[.t t 0.t t t t t [.t t t t [.t [.t t t t t t t /.t t t t t t t t t C t t t t [.[.K K ,.N 9 9 9 9 9 9 9 9 9 9 N %.b w w w b b b b b b w b b 8.i.# <     < <   <           2.                    <                         ",
"y y y y y y y y ).).%.%.E.E.E...U U U U U U U U ..' ' 1 ' ' ' 1 1 1 / 1 1 / $.V V > > V V V V V V V V V V V > > > V $.$.$.i.y E.E.......U U ..4.4.> > > > V V V V > > > > > > > > > V V V V > > > > > > > > > V > Y Y i.;.k k k k # k k k k k k # v # # # # # k # k k k k k i.w w w b b b b w w w w b %.%.N N N 9 9 9 9 9 9 9 9 9 9 9 9 9 9 9 9 9 9 9 9 N 9 9 9 9 N %.b w i.i.k # 9.m.7.o C [.K p.>X>X>Xp.p.[.t q q /./.p.G G L G G G G G p.p./.t 0.v.v.0.a.0.a.0.a.0.a.a.a.a.v.v.Y.^.M.M.9.9.2.M.M.9.M.M.M.2.9.d._ J.J.a a J.tXtXJ.a a a a a a a a a a a a a a a a a a a a a a a a a a a a a a a a a a a J.J.J.J.tXtXtXtXtXtX_ F.DXyXh h h h h h h h h h h X.@.5 5 5 5 B 5 B B F F 6 6 6 1.6 6 6 6 1.1.S.V.}.p.K ,.D D D D D D D D D D D D D e A r.r._ r.A e D D D D D D 6.p.p.p.6.6.p.p.p./.[./././././.G L L G 6.G L L L G p.[.[.t t t t t t o t t /.t /.t t t t [.[.[.[.t t t t [.t t t t t t t t t t 0.t t t t [.[.K ,.,.N 9 N 9 9 9 9 9 9 9 9 %.b w w b w b %.%.%.b w w n w w i.k <     < <     9.      2.    2.          <     < <                       ",
"y y y y y w y y w ).d.).I I ....U U U U U U U E.E.' ' 1 1 ' ' 1 1 / 1 1 1 1 $.V V > > > V > > ;.;.V ;.;.V V > > V V ;.O.$.y b E.........U U 4.....4.4.Y > V ;.V > > > > > > > > > V V V V V V > > > > > > > > > Y Y i.Y k k k k k k # k # # # k # # # k # # # < # # k k k k i.i.w w b b w b b w b w b %.N N N 9 9 9 9 9 N 9 9 9 9 9 9 9 9 9 9 9 9 9 9 9 N N 9 9 9 N %.w i.P.k # m.7.s ( K 6.>X>XG F.F.L G G 6.6.p.p.6.G G L L L L L L G G G G R.p.[.t t }.t t a.t a.a.0.a.v.a.a.v.Y.M.M.9.9.9.9.  9.9.2.2.9.9.# %._ J.J.a a a J.J.J.a a a a a a a a a a a a a a a a a a a a a a a a a a a a a a a a a J.a J.J.tXbXbXP G.bXbXP F.F.sXyXh h h h h h h h h h h X.@.@.@.5 B B 5 B B B F 6 1.6 6 6 6 6 6 1.S.S.V.}.p.K ,.,.D D D D D D D D D D D D W e A r._ r.r.& W D D D D >X6.}.}.}.p.p.p.p.p.p.6.6.p././.p.G L L G 6.G G G G p.[.[.t t t t t t t t t t t [.t t t t t t [.t [.t t t t t t [.t [.t t t 0.0.0.0.0.t t t [.K K ,.N 9 N 9 9 9 9 9 9 9 5XN %.b w b b b b ( %.%.b w w w w w 8.i.k < < < < < < <                       <                                 ",
"y y y y y y y y y ).).).I ' ' ..U U U U ..' I E.I ' ' 1 1 1 1 1 1 1 1 c.1 1 Y V V V > > > > > V ;.V ;.;.V > > V V ;.O.O.i.b %.E.....U U U U ....U ..4...> > V V > > > > > > > > > V V V V V > > > > > > > > > > Y 4.4.i.i.k k k # # k # # k # # # k k # # # # k # # k k k k k i.i.w b b b w w w w b b %.N N N N 9 N 9 N 9 N 9 9 9 9 9 9 9 9 9 9 9 9 9 9 9 N N 9 9 D ( q # 9.A.m.q C K >XG F.F.L G G G L L L L G L L L L L L L L L L L L G G L G G R.R.p.p.}.}.}.t t a.a.v.a.a.v.v.4 2.2.9.  9.    9.  2.9.9.9.# b r.J.J.a a a a a a a a a a a a a a a a a a a a a a a a a a a a a a a a a a a a a a a J.J.tXbXbXP P P P P P vXF.F.sXyXh h h h h h h h h h h h X.@.@.5 5 B 5 B B 5 B F 6 6 1.6 6 6 6 1.1.S.V.}.p.K ,.,.D D D D ,.D D D K ,.,.,.D W & r.r.r.r.vXW D D ,.D 6.G }.a.a.}.p.p.p.6.6.6.p.p.p.p.p.6.L L G G L G 6.p.[.t t t t t t [.t t t t t t t [.t t t t t [.t t t t t t t t t t t t 0.0.7.7.7.0.0.t t t [.K K ,.N N 9 N 9 9 9 9 N 9 N N %.b b b b b b %.( %.b w w w b w w i.i.k # <   < < <         <         < <     <       < <                   ",
"y I y y y b y y c ).).).' ' ' ..' E...' ' 1 ' ' ' 1 / / / / / / / c.1 1 1 1 / V V ;.> > > > > > > ;.;.;.V > > V V ;.O./ y %.4X......U U U U ..U U U U ..4.> > V V V V > > > > > V V V V V V V > > > > > > V V Y Y 4.i.i.$.k k # # # # k # # k # # # # k # # # # # # # # # k k k i.w w b b w w b w b %.N 9 9 9 9 N 9 9 9 9 9 9 9 9 9 9 9 9 9 9 9 9 9 9 9 9 N N N N N C q 9.9.m.q /.6.G L L L L L G G G G L L L L L L L L L L L L L G L G G G G G G L R.G R.G R.p.}.}.t a.a.v.a.a.v.4 2.2.          < <         # b P J.J.a a J.a a a a a a a a a a a a a a a a a a a a a a a a a a a a a a a a a a a a a a tXbXP P P P P P P vXF.F.sXyXh h h h h h h h h h h h X.X.@.@.5 B 5 5 5 5 B F 6 1.6 6 6 6 6 1.1.S.V.}.p.p.D ,.,.D D D W D D D D D D D ,.D W e & A r.& W D D ,.K p.p.a.v.v.a.}.p.6.6.6.6.p.6.p.p.6.G L L G 6.6.p.[./.t t [.t t [.t t t t t t t C t t t t [.t t t t 0.0.0.0.0.0.0.0.7.0.7.7.7.4 4 4 4 0.0.t /.[.K ,.N 9 N 9 9 9 9 9 9 N N N %.%.b b b b w b b b b b b w w b b b w w i.k < < < < < <           2.  9.  <   <                               ",
"y y I b y y y y ).).d.).y 1 ' ' ' ' ' 1 / / 1 1 1 1 / / / / c./ / 1 / 1 1 1 $.Y V V > > > > > > V ;.;.V > > V V V V / I E.E.E.....U U U U U U U U U U ....4.> V V V V > > > > > > ;.> V V V > > > > > > > V V V $.$.i.$.k k # # # # # # # k # # k # # # # # # # # # # # # # k k i.i.w w w w w w b b %.N 9 9 N N N N N 9 9 9 9 9 9 9 9 9 9 9 9 9 9 9 9 9 9 9 N 9 >XK C q m.4 7./.6.L L G G G G G G G G G L L L L L L G G G G L G G G L L L L G L G G G G G G G R.p.p.}.t a.a.a.a.0.4 2.2.    <   < < < < <     A.%.r.J.J.a J.a J.a a a a a a a a a a a a a a a a a a a a a a a a a a a a a a a a a a a J.J.tXP P P P P P P P vXF.F.yXyXh h h h h h h h h h h h X.X.@.@.5 B 5 5 B 5 B F 6 6 F 6 6 x.6 1.1.S.V.}.p.p.D D D D W e W W D ,.D D D D D D D W e e e W D D D D K p.}.v.Y.I.a.}.p.6.6.6.6.6.6.p.p.p.G L L G p.[././.t t [.[.t t t t t t t t t t t t t t [.t t t v.0.v.7.7.4 7.4 7.4 4 7.4 7.4 4 4 4 7.7.0.0./.( K ,.9 9 9 N N N N N N %.%.%.b b b b b w b w b b b b b w b b b w w w i.i.k # < < < < < <                     <     <                       ",
"I y y y I y ).y ).).d.d.c.c.y c.y y c./ c.c.c.).).' 1 ).).c.c./ / / / 1 1 1 4.Y V V > > > > > > V ;.V > > V V ;.V 4.I %.4XE.....U U U U U U U ..U U U U ..4.> > > V V > > > > > ;.> ;.V > > > > > > > > V V ;.V $.i.$.P.k k # # # # # # # # # k # # # # k # # # # # # # # k # k i.i.w w w w b w b b %.N 9 9 N %.%.%.%.N 9 9 9 9 9 9 9 9 9 9 9 9 9 9 9 9 9 9 9 9 9 K ( q 7.0./.p.G L L G G 6.G G L L G G G G G 6.G G 6.6.6.G G G G L F.L L L L L L G G G G R.G G G G 6.}.t a.v.a.0.4 2.  < < < < < < < <     >.k %._ J.a a a J.a a a a a a a a a a a a a a a a a a a a a a a a a a a a a a a a a a a a a tXbXP P P P P P P P vXF.sXyXyXh h h h h h h h h h h h X.X.X.@.5 5 5 5 5 B B F 6 F F F 6 6 6 6 1.S.V.}.p.p.D D D L e & & e D D D D D D D D ,.D D D D D K D D D K p.}.3.8X8Xv.}.p.6.p.6.6.6.p.p.p.6.G L L 6.p././.t t t t t t t t t t t t t t t t t t t t t 0.0.0.7.7.7.4 4 4 4 4 m.4 4 4 4 7.4 4 4 7.7.0.o /.( ,.N 9 9 9 N N %.%.%.%.%.b b w w b b b w w w w w b b b b w w w w w w w w i.i.k # < < < < <                 <     < < <                     ",
"y I I y I I I y ).).d.d.c c c.).c.).c ).).).).).).).).).d.).).c./ $./ 1 1 1 ' 4.> V > > > > > Y Y V > > V V V V 1 I E.4X4X....U U U U U ..U U U U U U U ..4.> > > ;.V > > > > > > > > ;.> > > > > > > V ;.;.;.O.k O.P.k # A.# # # # # # k # # # # # # # # # # # # # # # # # # H k i.w w w w w w b b %.N N N N %.%.%.N N N 9 9 9 9 9 9 9 9 9 9 9 9 9 9 N 9 9 9 9 N ,.&././.[.6.G L G G G G G G L L L L G 6.p.p.p.p.p.p.p.p.G G G L L L L G G G L L L G G G G G G G G G R.}.t a.v.v.4 2.9.< < # < < <       2.2.P.N tXJ.a J.a a a a a a a a a a a a a a a a a a a a a a a a a a a a a a a a a a a a a J.J.bXP P P P P P P P vXvXF.sXyXh h h h h h h h h h h h h h X.X.@.@.5 5 5 B B B F 6 F B F F 6 6 6 1.S.S.V.}.p.D D >Xe r.r.r.F.e D D D D D D D D D D D ,.,.K 6.6.6.6.p.}.3.8X8Xv.}.p.6.K 6.6.p.p.p.p.R.G L 6.p././.t /.t t t t t t t t t t t t t t t 0.t t 0.0.7.7.4 4 4 4 4 4 4 4 4 7.4 7.4 7.4 7.7.7.7.7.q C ( K ,.9 9 9 $X%.4X%.b d.b b b y y w b b b b b b w w b b w w w w w w b w w b b w i.k # < < < < <           <         < < < < < < < < < <       ",
"y w y I I I I y y ).).c c c c c d.d.d.d.d.d.).d.4Xd.).d.d.c ).c.c./ / 1 ' I I 4.Y V V > Y Y Y 4.4.Y Y Y V V V Y I E.4XE.E.......U U U U ..U U ..U U U U ..4.> > ;.> V V > > > > > ;.> > > > > > > V V ;.;.;.k ;.k P.P.k # # # # # # # # # k # k # # # # k # # # # # # # # # # k k i.w w w w w w b b b N N 9 N N %.N N N 9 9 9 9 9 9 9 9 9 9 9 9 9 9 9 9 9 vX9 9 N ,.D 6.6.G L L L G L L L G G G L G 6.p.p.p.[./././.t /.[.p.p.G G G G 6.G 6.G G L L L L L G G G G L G G p.}.a.a.v.4 2.2.  < <           2.9.A.c vXtXJ.a a a a a a a a a a a a a a a a a a a a a a a a a a a a a a a a a a a a a a a J.tXbXP P P P P P P P vXe F.sXyXh h h h h h h h h h h h h h h X.X.@.5 B B B 5 B F F F B B F 6 6 6 1.1.S.V.}.p.K D W e r.r.r.r.F.e D D D D D D D D D D ,.D 6.K 6.D 6.6.p.v.Y.8Xv.}.p.6.6.6.p./.t }.p.G G G 6.[././.t [.t t t t t [.t t t t t t t t t t 0.t v.7.4 4 4 4 4 4 4 4 4 4 7.7.4 4 4 4 3.7.4 4 7.7.q ( K K N 9 9 9 9 N %.%.%.b b b y y w w b b b b b b b b w w w b w b b b b %.%.b b b w i.i.# < < <         9.<                 < <                 ",
"y y y I I I b I y y c.c c c c d.d.d.c d.d.).).).).).).).d.c c d.).y / / I I I 4.Y V V V Y Y 4.4.4.4.Y Y V V Y 4.I E.E.U U U U ..U U U U U U U U U U U U ..4.> > > > ;.> > > > > > > > > ;.> > > > ;.;.;.;.k ;.k O.k k k # k # # # # # k # # # # # # # # # # # # < # # # # k # k i.i.w w w w w w b b %.%.N 9 9 N N N 9 9 9 9 9 9 9 9 9 9 9 9 9 9 9 9 N 9 9 9 9 9 9 9 W >XL G L L F.G G L L G 6.p.p.p.p.[.[./.t /.t t t t t [.[.p.p.p.6.G 6.G G G L L L L L G G G L L G G R.}.a.a.0.4 M.2.2.        9.9.9.A.m.q K r.tXJ.a a a a a a a a a a a a a a a a a a a a a a a a a a a a a a a a a a a a J.a J.J.bXP P P P P P P P P vXvXF.sXyXh h h h h h h h h h h h h h h X.X.@.5 B B B 5 B F 6 F B F F 6 6 6 1.1.S.V.}.p.K D D e A r.r._ r.F.>XD D D D D D D D D D K D 6.D D D 6.p.a.3.8Xv.}.p.6.p.6.p.t 0.}.p.G G G p.[./.t /.[.t t t t t t 0.0.t 0.t 0.t t t t t Q.7.4 4 4 4 4 4 4 4 7.7.7.7.7.4 4 4 4 4 4 4 7.7.q C &.K ,.N 9 9 9 9 N N N N %.b w w w b b b b b b b b b b b w w b b b %.%.K %.%.%.b w w w i.i.# <       2.      <   <                               ",
"y y y y I I I I y y c.c.c.c.c c ).c ).).c y ).).).).c.y c c c d.&.d.y y y I 4.4.Y V V V Y 4.4.4.1 4.Y V V Y 4.I E.E.....U U U U U U U U U U U U U U U U ..> > > > > V > > > > > > > > > > > ;.V V ;.;.;.i.;.k k k k P.k A.k A.k # # # # k # # # # # # # k # # # # # # # # # k k i.i.w w w w w w b b b %.N N N N 9 9 9 N 9 9 9 9 N 9 N 9 9 9 9 9 9 9 9 9 9 9 9 9 9 W W e e L L L L G G G 6.p.[.[.[.[.t t t t t t t /.t [.[.t t t [.[.p.G G G G L L L L L L L L L G L L G G }.t a.a.3.M.2.2.  < < < m.m.m.P.q ( vXtXJ.a a a a a a a a a a a a a a a a a a a a a a a a J.a a a a a a a a a a a a a J.tXtXbXP P P P P P vXP P vXF.F.sXyXh h h h h h h h h h h h h h h X.X.@.@.5 B B B F F F F B F F 6 6 6 1.1.S.V.}.p.K D D >Xe & r.r.r.F.>X>XD D D D D D D D D D >XD D D 6.6.p.a.3.8X3.}.p.6.p.p./.t 0.}.R.G G G p.[.t t t [.t t t t t t 0.0.0.t 0.0.t t t t 0.0.7.4 4 4 4 4 4 4 4 4 4 4 7.7.4 4 Y.4 3.4 4 7.0.C ( K ,.N N 9 9 9 9 9 9 9 N %.b b b %.b b b w b b b w b b b b w b b %.%.N %.N %.b b w w w w i.k #               <                                   ",
"y w y y I I I I y y y c.c.c.y y y y y c.y c.y y y y y c.* c.c &.,.K ).y y 4.Y Y V V V V Y 4.' 4.4.Y V V V 4.4.I I ....U U U U U U U U U U U U U U U U ..4.> > > ;.> > > > > > > > > > > > ;.> V ;.;.;.k i.k k k k # # # # # k k # # # # # # # # # # k k # # # # # # # # # # k k i.i.w w w b w w b b b b %.N N N N N 9 9 N 9 9 9 9 9 9 9 9 9 9 9 9 9 9 N 9 9 9 9 9 9 W W e e L G G 6.p.[.[.[.[.t t t t t t /.t /.t [.[.[.[.[.t t t /.[.p.p.G G L L L L L L L L L L L G G G p.}.a.a.v.M.9.9.m.k k P.7.q q q ( e (.J.J.a a a a a a J.a a a a a a a a a a a a a J.a a J.J.J.J.a a a a a a a a a a J.J.tXbXP P P P P s.P P P P vXvXF.sXyXh h h h h h h h h h h h h h X.@.X.@.@.5 B B F F F F F B F 6 6 6 6 1.1.S.V.}.p.6.D D D D D W & F.e >X>XD D D D D D D D D D D D D D D 6.}.a.I.8XI.a.p.p.p.G }.}.a.}.R.G G 6.p.[.t /.t /.t t t t t 0.t 0.t t t t 0.t t t 0.7.4 4 4 4 4 4 4 4 4 4 7.4 4 4 4 4 4 Y.Y.Y.4 7.0.[.K D N N N N N 9 9 9 9 9 N %.b b b %.%.%.b w w b w w b b b b w b b %.%.%.K %.%.b b w b w C 8.i.# <                 < < < # # # # < < <             ",
"y y y y I I I y y y c y y y y y I I y y y y b y y y y c.* * C K W ,.d.y / Y V V ;.V V Y 4.4.' 1 Y V V V Y 4...I ....U U U U U U U U U U U U U U U U U U 4.> > ;.> > > > > > > > > > > > ;.V ;.;.;.;.k ;.i.k i.k # # A.# # # # k k k k k # # # # # # k k # k # # # # m # # k k i.i.w w w w w w w b b b b %.%.N N N 9 9 9 N 9 9 N 5X9 9 N 9 9 9 9 9 9 9 9 9 9 9 9 9 9 9 D W W >X6.p.p.[.t 0.t t t t t t /.t t t t t t [.[.p.[.[./.t t t t [.p.p.G L L L L L L L L L L L G G R.}.}.a.v.4 4 7.s s s s s o o ( D _ J.~.J.a a a a a bXbXtXa a a a a a a a a a a a J.J.J.J.bXtXtXJ.J.a a a a J.a J.J.J.tXbXP P P P P P P P P P P vXF.F.sXyXh h h h h h h h h h h h h X.X.@.@.@.@.@.B B 6 6 6 F F F F 6 6 6 6 1.1.S.V.}.p.6.D D ,.K ,.,.W L >X>XD D ,.,.D D D D D D D D D D D D 6.}.a.{.8XI.V.p.p.p.6.R.R.}.R.R.G p.p.[.[.t t t t t t t t t t t t t t t t t t t t 0.7.4 4 4 4 4 4 4 4 4 4 4 4 4 4 Y.4 Y.Y.Y.M.4 7.s K >XN 9 N N 9 N 9 9 9 9 N N %.b w b %.%.,Xb w b b w w b b b b w w b b ( %.b b w b b b b 8.w i.i.k <                   < # # k k # # # < <           ",
").).y ).).).).).).).).).).).).I I ).).).).).).).y y y y * c ( K D N b / $.V V V V V Y 4.4.4.4.$.Y V V Y 4...E.........U U U U U U U U U U U U U U U ..4.> > > > > > > Y Y > > > > ;.> ;.> ;.;.;.;.k k k k k k # # # # # # # # # # # k k k k # # # # k k k k # # k k # # k k k i.w 8.w b b b b b b b b y b %.%.%.N N N 9 9 5X9 9 N N 9 N 9 9 9 9 9 9 N 9 9 9 9 9 9 9 9 9 W ,.,.K [.[.[.t t t [.[.[.t t t t t /.t t t t [.t t t t [.t t t t [.p.6.G L L L L L L L L L L G G R.}.}.a.a.v.7.0.s Q.s s s o C K & (.J.J.a a a a a a bXbXJ.a a a a a a a a a a J.tXtXbXbXbXbXbXbXbXJ.J.J.a J.J.J.tXtXtXP P P P P P P P P P P P P vXF.sXyXyXh h h h h h h h h h h h h X.@.5 @.@.@.5 5 B F 6 6 6 6 F F 6 6 6 6 1.1.S.V.}.p.6.D 6.D ,.,.D D 6.6.D D ,.,.D >X6.6.6.6.D D D D W W D 6.p.}.{.8XI.a.p.p.p.6.G R.R.G G G p.[.[.t /.t t /.t t t t t 0.t t [.t t t t t t Q.7.7.4 4 4 4 4 4 7.7.4 4 4 4 4 4 4 Y.Y.Y.M.Y.4 7.o ( ,.N N N N 9 9 9 9 9 9 N N %.b b b ,Xb b w w w w w b b b b b w w w b b w b b w ).w c w w w 8.i.k <     9.          < < < < < # # #                 ",
"c.).d.&.=X=X=X=X=X4X&.&.&.&.4X).).4X).).).).).).).).).c.* c ( &.%.%.y $.V V V V V > Y 4.4.1 Y $.$.V Y 4...E.E.......U U U U U U U U U U U U U U ....4.> > > > > > V Y Y Y Y > > > > > > ;.;.;.;.k i.k k k k # # # A.# # k k k # # k k k k k # # # k # k k k k # k k k k k k i.i.w w w w w b b b b b b b b b %.%.%.N N N 9 N 9 N 9 N 5X9 N 9 9 9 9 9 9 9 N 9 9 9 9 9 9 9 9 N K &././.t t t [.[.[.[./.t t t 0.t t /.t t t t t t t [.t t t t t [.p.6.G L L L L L L G L L G G G }.}.}.a.0.0.0.s s Q.s s s o D r.J.~.J.a a a a a a J.tXJ.a a a a a a a a a a a tXbXJ bXbXG.P P bXtXtXtXJ.J.tXtXtXP P P P P P P P P P P P P P P vXF.sXyXh h h h h h h h h h h h h h X.5 5 5 @.@.5 5 B F F 6 F 6 6 F 6 x.6 6 F 1.1.S.}.p.6.D D 6.D D W D D 6.K D ,.D >X6.p.p.p.6.6.D D ,.N W D 6.p.}.v.8X3.a.p.p.6.6.G G R.G G p.p.[.t t t t t t t t t t t t t t t t t t t 0.0.7.7.4 4 4 4 4 4 7.4 4 4 4 4 4 4 Y.4 3.M.M.8X4 4 7.C K ,.9 9 9 9 9 N N N N N %.%.b b b b w b 8.w w w w w w w w w w w w w w w w w w c w w w b w w o i.k <               < < < <     < < <                 ",
").&.W A k._ _ k.q.q.f f f f f f $X=X=X=Xf =X=X=X=Xd.).).).d.%.%.b y $.V V ;.V > > V > Y Y Y Y V V Y 4...E.E.U ......U U U U U U U U U U U U U ..4.Y > > > > > > > > Y Y 4.4.4.> > > > ;.;.;.;.i.;.k k k k k # # # # # # k k k k k k k Q.k k k k k k # k k k k # k k k k k i.i.w w w w w w b b b %.%.%.b b b b b %.%.%.N N N N N N N N N 9 9 9 9 9 N 9 9 9 9 9 9 9 9 N W N N ,.&.( [.[.t [.[.[.[.p.[.t t 0.t t t t t [.t t t t t t [.t t /.t t [.p.6.G L L L L G 6.G L L G R.}.}.a.a.0.7.0.s s s 7.s s /.>X_ J.J.a a a a a a a a J.a a a a a a a a a a a tXbXP P P P nXnXP G.bXbXbXbXbXbXP P P vXvXP vXP P P P P P P G.bXP vXF.sXyXh h h h h h h h h h h h h h @.5 5 5 @.@.5 B B F F F 6 6 6 6 6 6 6 6 1.1.1.V.}.p.6.D D D D D D D 6.6.6.D K D p.p.[.p.p.p.p.6.D ,.,.D D 6.}.}.a.Y.3.a.[.p.6.6.G G G p.p.p.[.t t t t t t t t t t t t t t [.t t t 0.0.0.7.7.4 4 4 4 4 7.4 4 4 4 4 4 4 4 4 4 4 Y.^.^.M.4 4 q ( ,.W W 9 W 9 N %.%.%.%.%.%.b b b w w 8.8.8.i.i.i.i.i.k i.i.w w w w w w w w w w w w w b w w w 8.i.k <         <   <   < < <     <                     ",
"q.E ] e.-.` 9X` ` ` ` +.` z.-.e.3 3 e.@ e.e.3 ] <.q.A W ,.%.%.I I 4.Y Y V V > > > > > > > V V O.V $.4.E.E.U E.....U U U U U U U U U U U U U ..4.> V ;.j.;.> > > V Y Y 4.4.4.4.Y > > > > ;.;.V k k k k k k k # # # # # # k k k # # k k k k k # # # # # k k k k k k k k k k i.w w w w w w w w b b b b %.b %.b b b b b b b %.%.%.%.%.%.N N 9 9 9 9 9 9 9 9 9 9 9 9 9 9 9 9 W 9 N K ( ( [.[.[.[.[.[.[.[.t t t 0.t t t t t t t t t t t t t t t t t /.[.p.G L L G L G G G L L G G p.}.}.a.0.0.s o s s s 0.o /.>X_ J.a a a a a a a a a a J.a a a a a a a a a a J.bXP P nXP P b.nXP P G.P G.P P P P vXP P P P P P P b.P P P tXtXtXvXF.sXyXh h h h h h h h X.X.h h h X.@.5 5 5 @.@.5 B B B F F 6 1.6 6 6 6 6 6 6 1.1.S.}.p.6.D D D D W D D 6.D 6.K 6.p.[.t 0.}.p.p.p.6.D ,.D D D 6.p.}.a.Y.3.a.[.p.6.W L L 6.p.p.[./.t t t t t t [.t [.t t t t t t t t 0.0.7.7.4 4 4 4 7.7.4 4 4 4 4 4 4 4 Y.4 Y.3.Y.M.fX^.M.4 7.o ( K ,.,.9 ,.=X&.d.).b d.d.b w w w i.i.k k k k k k k # # # k k i.i.i.w * w w w w w w w b w w w 8.i.k <       9.                                  <     ",
"e.e.-Xz.9X9X<X1X=.1X=.1X=.=.9X+.^ +.9X9X<X9X9X` z.~.x _ f 4XE.I ..4.4.Y > > > > > > > > V V V V V Y ..E...........U U U U U U U U U U U U ..4.> ;.j.j.j.j.;.;.V V V Y 4.1 ' 4.Y V > > V ;.;.i.i.k k k k k # # # # # # # # # # # # # # k # # # # # # k k k k k H k H k O.i.i.w w w w w w w w b b d.%.b b b b b b b b b b b b w b b %.N N N 9 9 9 9 9 N 9 9 9 9 9 9 9 9 N 9 N ,.K K ( ( /.t [.[.[.[.t t t t t t t t t t t t t t t t t t [.t /.t t /.p.G G L L G L L G L L L R.R.}.}.t 0.0.s s s s 7.0.0./.e (.J.a a a a a a a a a a a a a a a a a a a a J.tXbXP P P P P P P P bXP P P P P P P P vXP vXP P P P P P P G.tXtXG.r.F.sXyXh h h h h h h X.X.X.h h h X.X.@.5 @.5 @.5 B B B F F 6 6 6 6 6 6 6 6 1.1.1.S.}.p.6.D D 6.D D D D D p.K 6.p.[.t 3.3.a.}.}.p.p.6.D D D D p.p.}.a.Y.3.v./.p.6.>XL G p.p.[.[.t t t t t t t t [.t t t t t 0.0.0.v.7.7.4 4 4 4 4 4 4 4 4 4 4 4 4 4 4 4 4 Y.4 3.Y.^.fX^.Y.7.t p.G L e e e W ,.K &.d.d.c w w w w i.k k # < < < < < < < < A.< < A.k i.i.w 8.o w * w w w w w w i.i.k # <       <                                         ",
"z.z.+.+.9X=.=.5.1X=.1X=.=.o.#.#.- #.=.5.5.1X1X1X<X<X-.<.f 4XI ......4.4.> > > > > > > > > V ;.V $.4.I ..........U U U U U U U U U U U U ..4.> ;.j.j.l l j.;.;.;.V V Y 4.' ' 1 V V V > V ;.V i.k k k k k # # # # # # k # # # # # # # # # # # # < k k < k k k k k k k k i.i.i.w w w b b b b b w b b w b c b w b b b b b b b w w w b b %.%.N 9 9 9 9 9 9 9 9 9 9 9 9 9 9 9 9 9 N N K K ( ( C C t t t t 0.t t t t t t t t t t t t t t t t t [.[./.t /.[.p.G G G L G L G G L G G G p.}.t 0.0.s q Q.s s s s /.F.(.J.a a a a a a a a a a a a a a a a a a a a J.tXP P P P P P P P P P P P P P P P P P vXP P P P P P P P P P G.tXP vXF.sXyXh h h h h h X.X.@.X.h h h X.X.X.@.5 5 5 5 5 B B F F 6 6 1.6 6 6 6 6 6 1.1.S.}.p.6.D D D D D D D >XK 6.>Xp.[.v.Y.8X3.a.}.}.p.6.D D D 6.p.p.}.a.8X3.v.t p.6.L L G p.[.[./.t t 0.t t t t t t t t 0.0.7.7.7.7.4 4 4 4 4 4 4 4 4 4 4 4 4 4 M.4 4 4 Y.4 4 Y.Y.Y.^.fXM.v.[.F.DXy.!.!.y.y.(.r.F.>XK ( * * * w i.k # < <       < < <   <       < < k k i.s i.8.w w w w w i.i.i.k # <                               <                   ",
"#.#.#.o.=.5.5. . .5.5.=.#.- #.#.#.#.#.=.5. .| | 1X<X3 q.4XI ....U ....4.4.4.4.4.> > > > > V ;.V Y I ..........U U U U U U U U U U U U ..4.V j.j.j.l l l j.j.;.;.V V Y 4.' 4.1 V V V > V V V i.i.k # k k # # # # # # k # # # # # # # # # # # # # # k k k k k k ;.k i.i.i.i.w w b b b w b b b b b y w y w w b b b %.( %.b b b b w b b %.%.N N 9 9 9 9 9 9 9 9 9 9 9 9 9 9 9 W 9 ,.N K ( C o s s 0.7.0.0.0.t t t t t /.t t t t t t t t t C [.[.t t t /.[.p.p.G G >XG G G L G G G R.p.t 0.0.s s 7.s 0.s 0.( r.x J.a a a a a a J.a a a a a a a a a a a J.a tXbXP P P P P P P P P P P P P P P P P P P P vXP P P P P b.P P G.P P F.F.sXyXh h h h h h h @.X.X.h h X.h h X.@.@.5 5 5 5 B B F F F 1.6 6 6 6 6 6 6 6 1.S.}.}.p.D 6.>XD W D D >Xp.K 6.p.[.v.Y.8X8Xv.V.}.p.6.D D D >X6.}.}.a.8XY.v.t p.6.L G p.[././.t t 0.t t 0.t t 0.0.0.0.7.7.4 7.4 4 4 4 4 4 4 4 4 4 4 4 4 4 7.4 4 4 Y.4 Y.4 Y.3.Y.8XfX^.3.}.DX} AX0X*X*X*X0X0XAX} DXF.K C * c.i.k < < < <     < <           < < < < < < # k i.i.i.i.i.i.i.i.k k # < <             < < < < # # # # < < <                 ",
"o.=.=.=.5. .r r r  . .=.#.z , - X $ - #.o.5.5.1X9X-.k.$X' ....U U U ..U ..U ....4.> > > > V V Y 4.E.E.......U U U U U U U U U U U U U 4.V j.l l l l l l j.j.;.;.;.V Y 4.' ' Y V V > > > V V i.i.k k k k # # # # # # k k # # k # # # # k # # # k # k k k k k O.k i.i.w w w w w b b b b b b b c w b w b y w b b b %.%.( %.%.b b w b b b %.%.N N 9 9 N N 9 9 9 9 9 9 9 9 9 9 9 9 9 N N &.( o q 7.7.7.7.7.0.0.0.0.0.t t t t t t t [.[.t t t t t /.t t t t [.[.p.p.p.6.G G L L L L G p.[.0.0.s Q.s Q.s q o D r.J.J.a a a a a a a a a a a a a a a a a a J.J.bXbXP P P P P P P P P P P P P P P P P vXP vXP P vXP P P P P P P P vXF.F.sXyXh h h h h h X.X.X.X.h h h X.h h @.@.5 5 5 5 B B B F F 6 6 6 6 6 6 6 6 6 1.S.V.}.p.6.D D D D >XK >XK 6.>X6.p.a.v.8X8XI.a.}.p.6.D D D D 6.}.}.a.8X8Xa.}.p.G L G p.[.t t t 0.0.t t t 0.0.0.7.7.7.7.4 4 4 4 4 4 4 4 4 4 4 7.4 4 4 4 4 4 4 4 4 Y.4 Y.4 4 Y.Y.^.fXY.}.DXAX*X.XZ.Z.Z.Z.Z.Z..X*XAX|.DX>XC i.H <           < <             < < <         < # k k k k k k k # # < <             < < < < # # # m.# # # < <               ",
"o.=.=.5. .r r r r  . .5.#.- - - - - z 0 +.9X9X^ 3 k.$XE.' ..U U U U ..U U U U ....> > > > V > Y ..E.U U ..U U U U U U U U U U U U U ..> ;.l l l l l l l j.j.;.;.V V 4.4.' 4.Y Y > > Y > V V i.i.k k k k m.# # # # k k k # k k k # # # k k # # # k k k k k k k k i.w w w b b w w w b b b b b w w w b b w b b b ( b %.%.b ( b b w w b b b b %.%.N N N N 9 9 9 9 9 9 9 9 9 $X9 9 9 N ,.K ( o q 7.4 4 4 4 v.7.0.7.0.0.s 0.0.t t t t t t 0.t t t t t t t t /.t /./.[.p.6.G L F.L L L G [.0.0.s s s s s s ( vX(.J.J.a a a a a a J.a a a a a a a a a a a J.tXbXP P P P P P P P P P P P P P P P P P P P P vXP vXP P P P P P P P vXF.sXsXyXh h h h h h X.X.X.h h h h h h X.@.@.5 @.5 B B 5 B F F F 1.6 6 6 6 6 6 6 1.S.V.}.p.6.D 6.>XD D D >X6.6.6.p.p.}.}.{.8X8X{.V.}.p.6.D D D 6.p.}.a.8X8X{.}.R.G L G p.t t 0.t 0.0.t t 0.0.7.7.7.7.7.4 7.m.4 4 4 4 4 7.P.4 7.4 4 4 7.4 4 M.M.4 4 4 4 4 Y.4 Y.M.^.M.}.DXxXT.Z.Z.Z.Z.Z.Z.Z.Z.Z.Z..X*XAXDXK i.A.                      2.              >.      < # < # < < < < <                 < < < < < # # # # # < < <               ",
"#.#.o.=.5. .r r r  . .5.o.- - - - z - +.^ ^ @ x nX$X4XE.....U U U ..U ..U U U U ..4.Y > V V Y 4...E.U U ..U U U U U U U U U U U ....4.;.j.l l l ) l l l j.;.;.;.V V Y 4.4.4.Y Y Y > > V Y V i.i.k k m.k # # # # # k k k # # k # # # # # # # # # # k # # k < k i.i.w b b b w w w w w b b w b w w b w b b y b b b b b b b b b b w w w w b b b E.%.%.N N 9 9 9 9 9 9 9 9 9 9 9 9 9 9 9 K &.C s 7.m.4 4 4 4 4 7.7.7.7.7.7.0.7.0.7.v.0.0.0.0.t t t t t t t t t t t /.[.p.6.G L L L G G p.t 0.0.Q.0.s s c ,.r.tXJ.J.a a a a a J.a a a a a a a a a a a J.J.bXP P P P P P P P P P P P P P P P P P P P P vXP vXP vXvXP P P G.P P vXF.sXyXh h h h h h h h X.X.h h h X.X.X.X.@.@.5 @.5 B B 5 B F F F 6 6 6 6 6 6 6 6 6 S.V.}.p.6.6.D D D D >XK D 6.K >Xp.p.}.V.I.8XI.{.}.}.p.6.D D p.p.}.a.8X8X{.}.R.G L 6.[.t t t t t v.0.t 0.7.7.7.4 4 7.7.4 4 4 m.4 4 4 4 4 4 P.7.7.7.0.7.4 M.M.4 4 4 Y.M.4 4 4 4 Y.a.DXAXT.Z.Z.Z.Z.Z.Z.Z.Z.Z.Z.Z.Z..X*X} DX( P.<                                         <                 < <                 < < < < < <   < m.< # < <               ",
"X X #.#.o.=.5. . .5.5.=.#.#.#.- - - +.+.: 3 k.nX4XE.........U U U U U ..U U U U ..4.Y > V V 4...E.U U U U U U U U U U U U U U U ..4.> ;.j.l l l l l j.l j.;.;.;.V V Y 4.4.4.Y Y Y > > V ;.V k k k k Q.k m.# # # # k k k # # k # # # # # # # # # # # # # # # k k i.w w w w w w w w w b b b b w w b b b b b b w w w b b w w w w w w w w w w I b %.%.N 9 9 9 9 9 9 9 9 $XN $X9 9 9 9 9 N K ( C s 7.4 4 4 4 4 4 4 4 4 7.7.7.7.7.4 7.7.7.0.0.t t t t t t t t t 0.t t /.[.p.p.6.G G G G 6.[.0.0.7.0.q s &.& tXJ.a J.a a a J.J.J.J.J.J.a a a a a a a a a tXbXP P P P P P P P P P P s.P P P P P P P P P P vXP vXvXP P P P P P P vXF.sXyXh h h h h h h h h h h h h X.X.X.X.@.5 @.@.5 5 B 5 B F F B F 1.6 6 6 6 6 6 1.S.V.}.p.p.>X6.D D D D >X6.D D 6.6.p.R.V.{.I.8XI.a.}.p.p.6.6.6.p.}.v.8X8X3.}.R.G L 6.[.t t t t 0.v.0.v.7.7.4 4 4 4 7.4 7.4 m.4 4 4 4 P.4 4 7.0.t [.[.[.t 0.0.7.7.4 4 4 4 3.7.7.t F.gX*XZ.Z.Z.Z.Z.Z.Z.Z.Z.Z.Z.Z.Z.Z..X*X} F.q # <         <     <   <   <         < < < < <                           < <     < <                 <                   ",
"=.o.#.X - #.#.o.o.o.#.o.9Xo.o.o.#.#.+.^ 3 q.$XE.............U U U U U U U U U U ..4.Y > V V 4.E.E.U U U U U U ..U U U U ....U U ..4.V j.l l l l R l l j.j.;.;.V V V > Y Y Y Y 4.> > ;.V ;.;.O.k k k i.m.# # # # # # k k # # k # # # # k k # # # k # k < # < k k i.w w w 8.w w w w b b %.b b b w b b b b y b b w b w b b b w w w w b b b b y b %.%.N 9 9 9 9 9 9 9 N N N 9 9 9 9 9 9 D 9 K ( C s 7.4 4 M.4 4 4 m.7.m.4 m.4 4 4 4 4 7.0.0.t t t t t t t t t /.t /.t /.t /.[.p.p.6.G G G [.t 0.0.q C W _ J.J.a J.J.J.J.tXbXbXbXbXbXJ.a a a a a a a a tXbXP P P G.P P P P P P P P P P P P P P P P vXP P vXvXvXvXvXP P P P P vXF.sXyXh h h h yXh h h h h X.h h X.X.X.X.@.5 5 5 5 5 B B B F F B F 6 6 6 6 6 6 6 1.1.S.}.p.p.6.6.D D D >X6.D D D D 6.p.p.}.a.I.8X8X{.V.}.p.6.6.6.p.}.v.8X8X3.}.R.G G p.[.t t t t t 0.7.7.4 4 4 4 m.4 4 m.4 m.4 4 4 4 7.7.7.0./.p.G F.DXDXDXDXF.G [.0.v.v.0.0.0.[.G DXAXT.Z.Z.Z.Z.Z.Z.Z.Z.Z.Z.Z.Z.Z.Z.Z..XxXy.[.k <     < < < < <               < < < < < < < <             < <                                 9.                      ",
" .=.o.X X X X #.#.o.=.5.5.5.5.5.1Xo.^ 3 nX$XE.E.U U U ..U U U U U U ..U U U U ..4.4.> > V Y 4.E.E.....U U U U U ..4.4.Y > > 4.4.Y V ;.j.l l l l l j.j.l j.;.;.;.V > > > V > > > > > > V V ;.k i.k k m.k k m.# # # # k # k k k # # # # # # # # # # k < # < # k i.i.w w w w w w w w ( b b b b w w b b b b b b b b b b b b b w w b b b b b w w b b %.N 9 9 9 9 9 9 9 N N N 9 9 9 9 9 9 9 D D K ( o 7.4 4 Y.4 M.4 4 4 4 4 4 4 4 4 4 4 4 7.0.t t t t t t t t t t [.t t t o /.[.[.p.p.G L L p.[.t q q ( A tXJ.a a J.a a J.tXtXbXtXtXJ.J.a a a a a a a J.tXbXP P P P P P P P P P P P P P P P P P P P P P vXP vXvXvXvXP P P P vXF.F.sXyXh h h h h h h h h h h h h X.@.X.X.@.5 5 5 5 5 5 B B F F B F F 6 6 6 6 6 6 6 S.S.V.}.p.6.6.D D D D K >XD D 6.D D p.p.}.{.I.8XI.a.}.p.p.6.6.p.}.v.8X8X3.}.R.G G p./.t t [.t 0.v.4 4 4 4 4 4 4 4 m.4 4 m.4 m.4 7.7.0.t p.F.DX} AXxXxX0X0XxXAXgXDXF.}.0.0./.p.F.!.*X.XZ.Z.Z.Z.Z.Z.Z.Z.Z.Z.Z.Z.Z.Z.Z.Z.*X} G s 9.2.  < # < < # < <       <                                     <           <                                         ",
" .5.o.X X X $ z $ o.=. .r | | | =.9X3 nX$XE.....U U U U U U U U U U U U U U ..4.4.Y > V V Y 4.E.E.....U U U U U ..> V ;.j.j.;.;.;.j.j.l j.l j.j.l j.l l j.j.;.;.V V V V V V V V > > > > i.;.k k # # k m.k # # # # # k # # k k # # # # # # # k # # k # # # # # i.i.w 8.w w w w w w b b b b w w w b b b b b b y b b b b b b b w w w b b b w w w b %.%.N N 9 9 9 9 9 9 N 9 9 9 9 9 9 9 N N N D K ( s 4 M.4 Y.4 4 4 4 4 4 4 4 4 4 4 4 4 7.0.0.t t t [.t t t t [.t [.t t t t /.[./.p.6.L L G p./.o /.D _ J.J.a a a a J.a J.J.tXJ.J.J.a a a a a a a a J.tXbXP P P P P bXG.P P P P P P P P P P P P P vXP vXvXvX>XvXvXP P P P vXF.F.sXyXh h h h h h h h h h h h h X.@.X.X.@.5 5 5 5 5 5 5 B F F F F F 6 6 6 6 6 6 1.1.S.V.}.p.6.6.D W D D D >X>XK D D D D p.}.V.{.I.I.{.}.}.p.p.p.}.V.v.8X8XI.}.R.R.G p.[.t [.[.t 0.7.4 4 4 4 4 4 4 m.4 4 m.4 m.m.P.7.0.[.G DX|.AX*XT..X.X.X.X.XT.*XxX} DXG [.[.p.F.} T.Z.Z.Z.Z.Z.Z.Z.Z.Z.Z.Z.Z.Z.Z.Z.Z.Z..X&XF.t m.2.  < < < < < < < < < <                                     < < <                         9.<     < < <             ",
" .=.o.X X O $ z , #.=.5.| | | 5.9X3 nX4XE.U U ..U U U U U U U U U U U U ....4.4.> V V V V Y 4.E.E.......U U U ..4.> ;.j.l j.l j.j.l l l l l l j.l l l l l j.j.;.;.;.;.;.;.;.V ;.V > V V ;.;.i.k # # k k # k # # # # k # # # k # # # # # # # k # # # k # # # k k i.i.w w o w w w w w b w w w w w w b b b b b w w w w w b b b w b w w b b b w w b b %.%.N N N 9 9 9 9 9 9 N N N N 9 9 9 N N K N K C 7.M.M.4 Y.4 4 4 4 4 4 7.7.4 4 4 4 7.7.0.0.t t t t t t t t [.[.[.[.t t /./././.p.G F.G 6.p.[.6.& (.J.J.a a a a a J.a J.a J.a a a J.a a J.a a J.tXbXP P bXP tXtXtXtXtXG.P P P P P P P P P vXP P P vXvX>XF.vXvXP P P P vXF.F.yXyXh h h h h h h h h h h h X.@.@.X.h @.5 5 5 5 5 B 5 B F F F F 6 6 6 6 6 6 6 1.1.S.S.}.}.p.6.D D D >X>XD D K D D W D 6.}.V.V.I.I.3.a.}.p.p.p.}.a.v.8X8X3.}.}.}.p.p.[.[.[.[.0.7.7.4 4 4 4 4 4 m.4 4 m.4 7.m.7.7.7./.G DX} 0XT..XZ.Z.Z.Z.Z.Z.Z.B..X*XAX!.F.p.G DXAXT.Z.Z.Z.Z.Z.Z.Z.Z.Z.Z.Z.Z.Z.Z.Z.Z.Z..X0XDX[.m.9.          < < < <                             < <         < < <                                 < # < < <         ",
"o.[ X X X X X $ , X #.o.5. .5.` 3 nX4X......U U U U U U U U U ..U ..U U ..4.Y > V ;.V V ;.V 4.I E.E...U U U U > ;.j.j.j.j.l j.l j.l j.l l j.l l l j.) l j.l j.j.j.j.j.j.j.;.j.;.j.;.;.;.;.k k k # m.k # # # # # # # # # # # k # # # # # # # k # k # k # k # k k i.i.i.8.w 8.w w w w w w w w w w b b b b b b I b w b w w w w w y b w b b b b w w w b b %.%.%.%.N N N N N %.%.%.N N 9 9 N N N >XK ( s 4 M.Y.4 4 Y.4 4 4 4 4 4 7.4 4 4 4 7.0.0.0.t t t t 0.t t [.[.[.t [.t t t t [.p.G F.G G G 6.L r.y.J.J.a a a a a a a a J.a J.J.J.J.a J.a J.J.J.tXbXP P P tXJ.J.J.J.tXtXP P P vXP P P P P P P vXP vXvX>X>X>XvXvXP P vXvXF.F.yXyXh h h h yXh h h h h h h X.@.@.X.X.@.5 5 B 5 5 5 B B F F F 6 6 6 6 6 6 1.F 6 1.S.S.}.}.p.6.6.D D D D >X>X6.D D W ,.6.p.}.V.{.I.8X3.}.R.p.}.}.V.v.8XKX3.}.}.}.p.[.[.p.[.[.0.7.4 4 4 4 4 4 4 4 4 4 4 4 4 P.7.P.t G DX} *X.XZ.Z.Z.Z.Z.Z.Z.Z.Z.Z.Z.Z.T.xX!.F.F.y.&X.XZ.Z.Z.Z.Z.Z.Z.Z.Z.Z.Z.Z.Z.Z.Z.Z.Z.Z.*X!.p.m.9.            < <                               < <         < # # < <           <     9.    9.  < < # # # # <       ",
", , , O X X X , , , - #.o.9X^ 3 nX4X......U U U U U U U U U U U U U ....> > V ;.j.;.;.;.;.O.1 I E.E.......N...> j.j.j.j.j.j.l j.l j.l l l l l l l l l l ) l l j.j.l j.j.j.j.j.j.j.j.j.j.;.;.k k # # # m.# # # # # # # # # # k # # # # # # # k # # k k k # # k k k k i.i.i.i.w b b w w w w w w b b b b b b b b b b w b b b w b w w w w w w w w w w w b b b %.%.%.b b b b %.%.%.%.%.N N N N 9 N N K C 7.4 M.4 4 4 Y.4 4 4 4 9.4 4 4 4 4 4 7.7.0.0.t t t t t t [.[.[.t t t /.[./.[.p.G L L L L G F._ x J.a a a a a a a a a J.J.tXJ.tXtXJ.J.tXtXtXbXG.P P P tXtXJ.J.J.J.tXbXP P P P P P P P P vXP P vXvX>XK G F.vXvXP P vXF.F.sXyXh h h h h h h h h h h h h X.@.@.h X.@.5 5 5 5 5 B 5 B F 6 6 6 6 6 6 6 6 6 6 1.1.1.S.V.}.p.6.6.,.D D D >XD 6.D W W ,.K p.}.}.V.I.8X8Xa.}.}.}.}.a.3.KX8X3.V.}.}.}.}./.[.[.t 0.7.7.4 4 4 4 4 4 4 m.4 m.4 m.4 7.q p.F.} *X.XZ.Z.Z.Z.Z.Z.Z.Z.Z.Z.Z.Z.Z.Z.T.xX!.DX!.&X.XZ.Z.Z.Z.Z.Z.Z.Z.Z.Z.Z.Z.Z.Z.Z.Z.Z.Z.*XgX[.m.9.    <       < <                 <                         < # # # <         9.  9.            < < # # k # <       ",
", , X , , , , , , - 0 - +.2 3 nX$X....U U U U U U U U U U U U U ....4.> V ;.j.j.j.j.;.;.;.V $.I E.E.' 4...4.> ;.j.l l l l l l l l l l l l l l ) l ) j.l l l l l l l l l l l l l l l j.j.j.H k k # # # # # # # # # # # # # # k # # # # # # # k # # k k k k # # # k k k k i.i.w w w w w w w b b b b b b b b b w b b b b w b b w w w w i.i.w i.i.i.i.w w w b w w b w b w b y b b b %.%.%.N 9 9 9 N N K C 7.4 4 Y.4 4 4 Y.4 4 4 4 4 4 4 4 4 4 7.7.7.0.0.0.0.t t t t [.t t t t t [.[.[.p.G L L F.L F.r.x J.a a a a a a a a a J.tXbXJ bXbXJ bXtXbXG.bXP P P P G.tXtXtXtXtXG.P P P P P P P P P P P vXP vX>XK p.G G vXvXP P vXF.F.sXyXh h h h h h h h h h h h X.X.@.@.X.X.@.5 5 5 B 5 5 B F F 6 6 6 6 6 6 6 6 6 6 F 1.1.S.V.}.}.p.6.6.6.6.K 6.>X>XD W W ,.,.6.p.}.}.{.8X8XI.a.}.}.}.V.I.KXKX3.V.}.}.}.}.t t [.t 0.7.7.4 4 4 4 4 m.4 4 4 4 4 4 P.q /.G y.&X.XZ.Z.Z.Z.Z.Z.Z.Z.Z.Z.Z.Z.Z.Z.Z.Z.T.AXy.!.&X.XZ.Z.Z.Z.Z.Z.Z.Z.Z.Z.Z.Z.Z.Z.Z.Z.Z.Z.*X} p.m.9.              <                 < <                     < < # # # # <                           < # # k # #       ",
"o.o.o.o.#.X X X #.#.- 0 ^ 3 nX$XE.....U U U U U U U U U U U U U ..4.> ;.j.j.j.j.l j.;.;.;.V $.' E.4XI I 4.y Y j.l l l l l l l l l ) l ) l ) l l l l l l l l ) l l l l l l l l l l l l l j.< # k # # # # # # # # # # # # # # k # # # # # # # k # # # k k k k # # # # k k k k i.i.i.i.w w w w b b b w w w w w w b b b w w w w w w i.i.i.i.i.i.i.i.i.i.i.8.w 8.w w w w w w w b b b b b %.N 9 9 9 9 N D K C 7.4 4 4 4 Y.4 4 3.7.4 4 4 4 M.4 4 4 4 4 7.v.7.0.0.0.t t t t [.t [.t t t [.p.6.G L L L L r.(.J.a a a a a a a a a J.tXbXP P P P P G.P P P P P P P P P G.P P P P P P P P P P P P P P P P P 9 N ( [.G F.vXvXP P vXF.F.sXyXh h h h h h h h h h h h h X.@.X.h X.@.5 5 5 5 B 5 B B F 6 6 6 6 6 6 6 6 F 1.6 1.1.S.S.}.}.p.6.6.6.6.6.>X6.6.D D D D D 6.p.}.}.{.I.KX8XI.a.V.@X{.I.KXKXI.V.}.}.}.}.t t t t q 7.4 4 4 4 4 4 4 7.7.7.7.7.4 7.q p.F.} *XZ.Z.Z.Z.Z.Z.Z.Z.Z.Z.Z.Z.Z.Z.Z.Z.Z.Z.&X|.|.&X.XZ.Z.Z.Z.Z.Z.Z.Z.Z.Z.Z.Z.Z.Z.Z.Z.Z.Z.T.gXp.m.9.                                < <                       < < < < < <         9.        < < < < < < # # # # <     ",
"5.5.5.5.=.o.o.=.o.o.o.0 @ q.$XE...U U ..U U U U U U U U U U ....> ;.j.j.j.j.l l l j.;.;.V V Y 1 I 4XE.E.I y $.H l >.l l l l l l ) l ) l R l ) l ) l l l l l j.l l l l l l j.) l l l l l l j.# k # # # # # # # # # # # # # # k # # # # # # # k # # # k k k k k # # # # # # # m.k k i.i.i.8.w w b b b w w w w w w w w w w i.w i.i.i.i.k k k k k k k k i.i.i.i.i.w 8.w w b w w b b w w b %.9 9 9 9 9 9 D K C s 7.7.4 Y.Y.Y.4 3.M.M.4 4 4 4 4 4 4 4 4 7.4 7.7.0.0.0.t t t t t t t t /.[.p.6.G G L L A _ J.a a a a a a a a a J.tXP P P P P P P P P P P P P P P P P P P P P P P P P P P P P P P P P vX9 %.C [.R.F.vXvXP P vXF.F.yXyXh h h h h h h h h h h h h X.X.X.h X.@.@.5 5 B 5 5 B B F 6 6 6 6 6 6 F 6 6 6 6 1.1.S.S.V.}.}.p.6.6.p.p.p.6.6.D D >XD W D 6.p.}.a.I.KXKX8X{.V.V.{.8XKXKXI.a.V.}.}.}.a.0.t 0.q 7.4 4 4 4 4 4 4 7.7.7.7.4 P.7.q p.DXAX.XZ.Z.Z.Z.Z.Z.Z.Z.Z.Z.Z.Z.Z.Z.Z.Z.Z.Z.*XAX} xX.XZ.Z.Z.Z.Z.Z.Z.Z.Z.Z.Z.Z.Z.Z.Z.Z.Z.Z.*X!.p.m.9.  A.    2.    < R                               < <             < < < < <             <   < <     < # # # # <     ",
" .|  . . . . . . .5.=.0 <.$X4X..U U U ....U U U U U U U U ..4.> ;.j.j.j.l l l l j.j.;.;.V V Y / 1 y I %.%.%.w P.  >.>.>.>.l >.l >.l R l R l l R l l l l l l l l j.l l ) l l l l l l l l < j.< k k # # # # # # # # # # # # # k # # # # # # # k # k k k k k k k # # # # # m.# # m.k m.k k i.i.i.w w w w w w w w w w w i.i.i.i.i.k k k # # k k # # # k k k k k k i.i.w w w w w b w b w b %.%.N 9 9 9 9 N K K ( s 7.4 Y.Y.M.M.^.^.M.4 4 4 4 4 Y.4 M.4 4 4 4 4 7.7.7.0.0.0.t t t t t t t [.p.p.G G L & _ tXJ.a a a a a a a J.J.tXbXP P P P P P P P P P P P P P P P P P P P P P P P P P P P P P P s.vXN ( C [.R.G vXvXP P vXF.OXyXyXh h h h h h h h h h h h h X.X.X.h X.@.@.5 5 5 5 B B B F 6 6 6 6 6 6 6 6 1.6 6 1.1.1.S.}.}.R.}.p.p.p.p.p.6.6.K >XD D D D D p.p.a.{.8XKXKXu.I.{.I.KXiXiX8X{.{.a.a.a.t t t o 7.4 4 4 4 4 4 4 4 7.7.7.7.4 4 7.o p.!.&X.XZ.Z.Z.Z.Z.Z.Z.Z.Z.Z.Z.Z.Z.Z.Z.Z.Z.Z..XxX} AX*XT.T.B.Z.Z.Z.Z.Z.Z.Z.Z.Z.Z.Z.Z.Z.Z.Z.;Xy.p.P.A.P.P.A.<           < < < <                                           < < <   2.9.2.        m <       < # # # <     ",
"| | |  . . .| | | | =.^ nX4XE.....U U ......U U U ........4.> ;.j.l l l l l l l l j.;.;.> V V $.$.$.y b %.N %.c c.P.# A.A.A.>.>.>.>.>.l >.>.>.l l l l l l l l l l l l l l l ) l ) l l l l l < k k k # # # # # # # # # # # # # # # # # # # # k # k k k k k k # # # # # m.< # 9.9.m.m.m.m.# k k i.i.w w w w i.i.i.i.i.i.k k k k k k # k # # # # # # k k k k # k k i.i.w w b b b b b b b E.%.N 9 9 9 9 9 N N K ( 0.4 Y.M.8X^.fX^.M.4 4 Y.4 4 4 4 4 4 4 4 4 4 4 4 4 4 7.7.0.0.s t t t t t [.p.p.G L F.r.tXJ.a a a a a a a a a tXbXP P P P P P tXP P P P P P P P P P P P P P P P P P P P P P P P s.9 %.( C [.}.G vXvXP P vXF.sXyXyXh h h h h h h h h h h h h X.X.X.h X.@.@.5 5 5 5 5 B B F 6 6 6 6 6 6 6 6 6 6 6 1.1.S.S.V.}.}.}.}.}.}.p.p.6.6.6.6.6.6.W ,.,.6.6.}.a.8XKXKXKXu.u.iXiXiXiX8X8XY.3.v.a.a.t t s 7.4 7.4 4 4 4 4 4 4 7.4 7.4 P.q /.p.!.0X.XZ.Z.Z.Z.Z.Z.Z.Z.Z.Z.Z.Z.Z.Z.Z.Z.Z.Z..X*X} !.AX} AX*XB.Z.Z.Z.Z.Z.Z.Z.Z.Z.Z.Z.Z.Z..X&X(.6.c c.d.d.c P.<     < < # # < < <                                         <   9.  9.2.2.2.2.    < <       < < < < <     ",
"| | | |  .| |  .5.=.9X@ $XE...U ..U U ....4.4.4.> > 4.4.> > ;.j.l l l l l l l l l j.;.;.> > V V O.H $.y b %.%.( ( C o q P.P.m.A.A.A.< <     l l >.l l l u l u l l l l R l R l l l l l l l   j.k k k # # # # # # # # # # # # # # # # # # # # k # k k k k k # # # # # # # # 9.2.2.2.9.m.9.< # k k i.i.i.i.i.i.i.k k k k k # # # # # k # # k # # # # k k k # # # k k i.w w b b b b b b b b %.N 9 9 9 9 9 N N >XK t 7.M.^.^.fXfX^.M.4 M.4 4 4 4 4 4 4 4 4 4 4 4 4 4 4 4 7.7.0.0.0.t t t t /.[.[.p.G F.r.tXJ.a a a a a a J.a J.J.tXP P P P bXtXbXP P P P P P s.P P P P vXP vXP P P P P P P P P P 9 N %.( C [.}.G vXvXP vXvXF.sXyXyXh h h h h h h h h h h h h X.X.X.X.X.5 5 5 5 5 5 5 B F F 6 6 6 6 6 6 6 6 6 1.6 1.1.1.S.S.}.}.}.}.R.R.R.6.6.6.6.6.6.6.D ,.W 6.G R.}.I.KXKXiXiXiXiXiXiXiXiX8X8X8X{.a.a.t t s 7.4 4 4 4 4 4 4 4 4 7.7.7.q 0.o /.G |.*XZ.Z.Z.Z.Z.Z.Z.Z.Z.Z.Z.Z.Z.Z.Z.Z.Z.Z.Z.Z.*X} DXF.R.DXGXD.Z.Z.Z.Z.Z.Z.Z.Z.Z.Z.Z.Z.Z.T.aXL.A W =Xf f ,.c.A.      < # # # < <                       < < <                 9.2.2.2.2.2.2.        < < < < < < <       ",
"| |  .| | | | 5.9X+.. <.$XE.....U U ....4.Y V ;.j.j.;.j.;.j.j.l l j.l l l l l l l j.j.;.;.V ;.V O.H O.O.O.O.P.P.q C C ( [.p.[.C o s q i.P.k A.A.A.< l l l l l l R l R l l l l l l j.l l l l < k k k # # # # # # # # # # # # # # # # # # # # k # k k k k k # # # # # m.< 9.2. XfX^.2.9.m.# # # k k k k k k k k # # k k k k k k # # # # # # # # # k k k k k # # k k i.w w b w w b b b w b %.N 9 9 9 9 9 9 9 9 K [.0.M.fXfX^.8XY.Y.4 4 4 M.4 Y.4 4 4 4 4 4 4 4 4 4 4 4 4 4 7.7.7.0.0.t t t t /.[.6.L r.tXJ.a a a a a a a a a a tXbXP P P P tXtXtXP P P P P P P P P P P P P P P P P P P P P P nXj %.%.%.[.[.}.G F.vXP vX>XF.sXyXh X.h h h h h h h h h h h h @.X.X.X.@.5 5 5 5 5 5 5 5 F F 6 6 6 6 6 6 6 6 6 6 6 1.1.S.S.S.V.}.}.R.R.R.OXG 6.6.6.6.6.6.,.W =Xf L OXR.a.8XKXiXiXiXiXiXiXiXiXKXKX8X{.a.v.t 0.q 7.7.4 7.4 7.4 4 4 P.4 q t /.p./.p.L |.*X.XZ.Z.Z.Z.Z.Z.Z.Z.Z.Z.Z.Z.Z.Z.Z.Z.Z.Z.Z.T.gXR.a.v.}.DX0XB.Z.Z.Z.Z.Z.Z.Z.Z.Z.Z.Z.Z.T.} L.'.'.k.<.<.A d.P.<     < # k # < <             < < < < < < < < <             9.2.2.M.M.M.M.2.2.      < < < <             ",
"| | | | r r  .5.9X^ . ].$XE.......U ..4.> ;.j.j.j.l j.j.l l l l j.l l l l l l l l l j.j.;.j.;.H ;.j.j.H j.j.H H k i.i.c.* o o o q q q q s q q 7.i.P.i.k A.A.  l >.l l >.l u l l l >.l l l   < k k k # # # # # # # # # k k # # # # # # # k k k k k # # # # # # # # # # # # 9.^.fXfX^.M.m.m.# # k k k # # # # # # # # k k k k k k k # # # # # # k k k k k # k # k k i.w w w b b b I b I b %.N 9 9 9 9 9 9 9 9 N K [.4 ^.fXKXY.Y.Y.4 Y.4 Y.4 4 4 4 4 4 4 4 4 4 4 4 4 7.4 4 7.4 7.7.0.0.t t /./.[.6.L r._ J.a a J.a a a a a a J.J.tXP P P bXP bXP P P P P P P P P P P vXP P P P P P P P P s.vXs.N %.%.,X[.t }.>XvXvXvXvXF.F.yXyXh h h h h h h h h h h h h h X.@.X.X.@.5 5 5 5 5 5 5 5 B F 6 6 6 6 6 6 6 6 6 6 6 1.1.1.S.S.@XR.}.R.R.OXNX`.L.L.L.L L.L.L.E E E '.`.OXR.3.KXiXiXiXiXiXiXiXiXfX8X3.a.a.0.0.0.0.7.7.4 4 4 4 4 4 4 7.q /.6.A L.& L L !.0X.XZ.Z.Z.Z.Z.Z.Z.Z.Z.Z.Z.Z.Z.Z.Z.Z.Z.Z.Z..XAXF.a.3.a.DX0XB.Z.Z.Z.Z.Z.Z.Z.Z.Z.Z.Z..X;X|.E e.e.].qXqXq.=Xc.A.<   < # # # < <           < < < < < < < #               2.9.M.^.fXfX^.M.2.2.2.  < < < < <             ",
" .|  .r r |  .5.o.0 ^ 2XnX$X4XE.....4.Y ;.j.l l l l l l l l l l l l l l l l l l l j.l j.l l l j.j.j.j.j.j.l j.j.H H H H H k k k k k P.P.P.P.P.q q s s i.P.P.A.A.< <               >.      < # k O.k k k # # # # # # k k # # # # # # # # k k i.k k # # # # # # # # # # m.m.9.^.fXBXfX^.M.m.m.# k k k # # # # # # # k k k k k k k k # # # # # # # # # # k k k k k i.i.w w w b b b I b b b %.%.N 9 9 9 9 9 9 9 9 N K 0.Y.^.8X3.Y.Y.4 4 4 4 4 Y.4 4 4 4 4 4 4 4 4 4 4 4 4 4 4 4 7.7.7.0.t t t /.p.6.L & r.tXJ.a -.a -.a J.a a a J.tXbXP P P P P P G.P P P P nXP P P P vXP P P P P P P P s.vX9 9 C.%.,X( t a.[.>XvXvXvXF.G sXyXyXh h X.h h h h h h h h h h h @.@.X.X.@.5 B 5 5 5 5 5 5 B F 6 6 6 6 6 6 6 6 6 6 6 6 1.1.S.@X@XR.R.p.OX`.VX6X6X'.'.'.'.] XX] XX2X-X-X`.OXa.8XKXiXiXiXiXiXiXiXKX8Xv.a.t 0.0.0.0.7.4 7.4 4 4 4 4 4 q /.e L.'.'.E L.L.y.&X.XZ.Z.Z.Z.Z.Z.Z.Z.Z.Z.Z.Z.Z.Z.Z.Z.Z.Z.Z..XxXDXp.p.DXgX*XZ.Z.Z.Z.Z.Z.Z.Z.Z.Z.Z.Z.T.aX~.XX: = XX].].qXA &.c.P.< < < < < < <         < < < < < <     <       2.  9.9.2.M.M.fXBXfX^.M.9.2.  9.  < < <               ",
"=.=.5.5. . .5.=.o.#.0 2 XXq.$X4XE.I 4.V j.l l l l l l l l l l l l l l l l l l l l l l l l l l l l l l l l l l l l l j.j.j.j.j.l H l l < <   < < < # k k P.P.i.i.i.i.7.i.7.P.7.P.4 m.4 m.9.# A.# k k k k k k k k # # k # # # # # # # # # k k k k k # # # # # # # # # # m.m.m.M.^.fXfXfXM.M.m.# # k k # # # # # # k k k k k k k k k k k # # # # # # # # k k k k k i.i.w w w b b b b I b E.%.%.N 9 9 9 N N 9 9 9 >XK t 3.8X8X3.Y.Y.4 Y.m.Y.4 M.4 4 4 4 7.7.4 4 4 4 4 4 4 4 4 4 4 7.7.0.0.t t /.p.6.6.D W k.tXJ.J.J.J.J.a a a a J.tXbXP P P P P P P P P P P P P P P P P P P P P P P P s.9 N N C.%.C.,XC t a.}.>XvXvXvXvXF.sXyXyXh h h h h X.h h h h h h h X.@.@.X.X.@.5 5 5 5 5 5 5 5 5 F F 6 6 6 6 6 6 6 6 6 6 6 6 1.S.@X@XOXR.R.L `.`.6X-X-X-X-X-X-Xz.z.z.+.+.z.6X`.}.3.KXiXiXiXiXiXiXiXKX3.V.}.t t 0.t 0.7.4 4 4 4 4 4 4 4 7.p.L.'.] ] '.E L.`.aXT.Z..X.X.XZ.Z.Z.Z.Z.Z.Z.Z.Z.Z.Z.Z.Z.Z.Z..X0X!.F.DX} 0X.XZ.Z.Z.W.Z.Z.Z.Z.Z.Z.Z..X;X} e.z.2 : = 2X2X] '.q.=Xc.H < < <                 < < < < <               2.2.2.M.^.^.BXBXfX^.M.9.9.9.                        ",
"#.#.o.o.=.=.=.o.#.X - 0 2 3 <.f N %.y / H l l >.l >.l >.l >.l l l l l l l l l l j.l l l l j.l j.l l l j.l j.l l l l l l l j.l l l l l l l l l >.l l l j.H H O.P.P.7.7.7.7.7.0.0.0.v.0.0.7.7.m.# k k k k k k k k # # # # # # # # # # # # k k k k k # # # # # # # # # # k m.m.m.M.^.fXBX^.M.m.m.# # # k # # # # k k k k k k # k k k k k k k k # # # # # k k k k k i.i.w b b b b b I b b b %.%.N 9 9 9 9 N 9 vX9 N K [.0.3.Y.3.Y.M.4 4 4 4 4 4 4 4 4 4 4 7.4 4 4 4 4 4 4 4 4 4 4 4 4 7.t [.[.t p.G 6.K &.W P tXJ.J.J.J.a a a a J.tXbXP P G.P P P P P P P P P P P P P P P P G.nXb.P P 9 N b b %.C.%.,XC t a.}.G vXvXvXF.F.sXyXyXh h h h h X.h h h h h h X.X.@.@.@.X.@.5 5 5 5 5 5 5 5 B B F F 6 F F 6 6 6 6 6 6 6 1.1.S.@XOXOXOXL L.L.`.6X-Xz.z.+.+.0 +.- - - $ +.-X`.R.v.8XiXiXiXiXiXiXKX8Xa.R.}.[./.t t t 7.4 4 4 4 4 4 4 4 q 6.L.'.] ].qXqXE '.} ;X*XxXAXGX*XB.Z.Z.Z.Z.Z.Z.Z.Z.Z.Z.Z.Z.Z..X&X!.`.!.&X.XZ.Z.Z.Z.Z.W.Z.Z.Z.Z.Z.Z.T.&X-XXX2 2X2X2X2X2XXXe.] A d.P.# <                     < < < <         < <   2.2.2.M.^.fXBXBX^.M.M.9.9.9.              < # # < < ",
"X X $ $ X [ X X $ $ z - - ^ @ x k.A W =X)./ P.P.H A.A.A.A.l A.l >.l l l l l l l l l l j.j.j.j.j.j.l j.l l l l l l l l l l l l l l l l l l l l l l l l l l l l >.>.2.9.9.4 4 7.7.7.v.0.v.0.7.m.# # k k ;.k k k # # # # # # # # # k k # # # k k k # # # # # # # # # k m.# m.m.m.m.M.fXBXfX^.M.m.9.< # k # # # k k k k k k k k k k v k k k k k k # # # # # k k k O.i.i.w b b b I b b E.b b b %.N N 9 9 9 9 9 9 9 N K K t v.3.3.M.Y.4 Y.Y.4 4 3.4 4 4 4 m.4 m.4 4 4 4 4 4 4 4 4 4 4 4 7.t [.[.[.G G p./.c d.K W r.tXJ.J.a a a a J.tXbXP P P P P P s.P P P P P G.P P P P P P P P P s.9 N ( C w b %.C.,XC t a.V.p.>X>XvX>XF.sXyXh h h h h X.@.X.h h h h h h X.@.@.X.X.@.5 5 5 5 5 5 5 5 B B F F F F F 6 6 6 6 6 6 6 6 1.S.@XNXNX`.`.`.`.`.6Xz.+.+.+.- 0 0 , , $ z +.z.6XOXa.8XiXiXiXiXiXiXKXI.}.OXG p./.t 0.0.7.4 4 4 4 4 4 4 7.q K A E '.].qXqX2X] -X} } DXR.DXgXD.Z.Z.Z.Z.Z.Z.Z.Z.Z.Z.Z.Z.Z..X&Xy.(.y.} *X.XZ..XZ.Z.Z.Z.Z.Z.Z.Z..X&X|.e.2X2X].].].XXXXXX2Xe.qX=Xc.A.<                         <           < <   2.2.M.M.fXBXBXfX^.M.2.9.9.<   < <       < # # # # < ",
"$ $ $ $ $ O $ $ $ $ X $ $ z ^ : e.] '.E q.f W W =X&.&.d.).c.c.P.P.O.H H A.A.A.  l l l l l l l l l l l l l l R l l R l l l R l R l >.>.u >.>.>.>.>.>.l l l l >.l >.>.>.2.A.2.2.9.9.9.4 4 m.9.m.# # # k k k # # # # # # # # # # # k k # # # # k k # # # # # # # # # m.k m.k # m.m.M.^.fXBX^.M.M.9.< # k k k k k k k k k k k # k k k k k # # m.# # # # k # k k k k k i.w b b b b b b b b I b b %.N N 9 9 9 9 9 N N D K t v.3.3.Y.Y.Y.Y.4 Y.Y.4 4 4 7.4 4 4 4 m.4 4 4 4 4 4 4 4 4 4 4 7.0.t t t p.G p./.q * C ( K vX_ J.a a a a J.tXbXP P P P P P P P P P P P P P P P P P G.P s.P vX9 K ( ( C ,X%.%.,X( t a.V.[.K K N >XG yXyXh h h h h h X.X.h h h h h X.X.X.X.@.X.@.5 5 5 5 5 B 5 5 B B F F F F F 6 6 6 6 6 6 6 6 1.@XOXVXHXHX-XHX-X-X+.=.=.o.#.X , , % X O O $ z.6XL.a.8XiXiXiXiXiXKXKX3.R.NXOX6././.t 0.7.4 4 M.4 4 4 4 7.7./.W q.qX].XX2X: e.-X6X`.G t }.DX*X.XZ.Z.Z.Z.Z.Z.Z.Z.Z.Z.Z.Z.T.aXy.] (.y.} ;XT..XZ.Z.Z.Z..XZ..XT.&X} -X-X2 : 2XXXXX= = = -X2 ] f c.A.                      <   9.      < m < <   2.M.M.^.fXBXfX^.M.2.9.        < <       < # k k # < ",
", $ $ $ , , , , X X X X $ $ - +.2 2 2 -X2XXXXX] '.qXE E q.f f W =X=X=X&.&.C c c.P.A.A.A.l A.l l l l   l >.l >.>.>.l u l >.>.>.>.>.>.>.>.>.>.>.>.>.>.>.>.A.A.A.A.A.A.A.A.>.>.>.2.2.9.m.m.# < < # # # # # # # # # # # # # # # # # k k # # # # # # # # # # # # # # # # # # # m.# m.9.M.^.BXfX^.M.9.9.# # k k k k k k # k k # # k k k # # # m.m.9.9.9.# # # # k k k i.i.w w b b b b b b I w y b b %.N N 9 9 9 N N 9 D K t 7.4 3.Y.Y.Y.Y.M.Y.M.Y.4 4 4 4 4 4 4 4 4 4 4 4 4 4 4 4 4 4 4 7.0.0.t [.p.p.p./.q o o o C K P tXJ.a a a J.tXbXP P P G.P P P P P P P P P P P P P P P P P 9 9 K K [.[.t C ,X,X,X( t a.a.[.[.,X%.K G yXyXh h h h h h @.X.h h h h h h X.X.X.X.X.@.5 5 5 5 5 B 5 B B F F F 6 F F 6 6 6 6 6 6 6 F S.@XNXHXHX<X1X1X1X<X5.5.=.o.[ % % % % % % % +.z.-X`.}.Y.KXiXiXiXfXKX8Xv.R.NX`.G /./.0.0.7.4 4 4 4 4 4 4 7.P./.,.q.qX2X: 2 M 2 -X] L./.0.}.DX*X.XZ.Z.Z.Z.Z.Z.Z.Z.Z.Z.Z..X*X} ] e.] ] y.|.aX;X*XT..XT.T.T.;X&X|.-X-.z.M 2 2X2X2X2 ^ z.2 z.e.A c #                                   < # <   2.2.M.M.fXBXBXM.M.m.m.# <     < < <       < # # # # < ",
", , , , , , , , , , , O O X X z z +.+.#.#.+.+.+.+.z.z.-X-X2Xe.] ] 6X] ] '.(.E A D &.d.c.P.P.H A.A.A.A.A.A.A.>.l >.>.2.l >.>.A.2.A.2.A.A.A.A.A.A.A.A.A.A.A.P.q q q c.P.P.A.A.9.A.# k i.i.k A.k k # # m.m.# # # # # # # k # # # # # # k # # # # # # # # # # # # # # # # # # # # m.9.m.^.BXBXfXM.M.m.# # k k k k k k k # # # # # # # 9.9.9.m.m.m.m.2.2.2.9.# k k k # i.i.w w b b b b b b w y y b b %.%.N N 9 9 9 9 9 K o 7.4 4 3.Y.Y.Y.Y.M.M.M.Y.4 4 4 4 4 4 m.4 4 4 4 4 4 4 4 4 4 4 7.7.0.t [.p.p.p./.o C c o q ( vXtXJ.a a a J.tXP P P P P P P P P P P P P P P P P P P G.P P 5XN K [.[.[.t t C ,X,Xt t a.{.a.t C ( K R.yXh h h h h h h X.h h h h h h h X.h X.@.@.@.5 5 5 5 5 B 5 5 B F F 6 F F F F 6 6 6 6 F 6 F S.@XNXHX<X<X1X5.5. . .5.=.[ % % % % X O $ X z z.-X`.}.3.KXiXiXiXiXiX8Xa.OXVX`.L p./.t 0.4 4 4 4 4 4 4 4 4 7.d.W q.].: M M 2 +.z.] A &./.G !.T.Z.Z.B.Z.Z.Z.W.Z.W.Z.Z.Z.T.&X-X] -Xz.e.'.E '.|.aX&X&X&X&X1XHX~.6X-Xz.^ : = 2X2X2Xz.z.^ 2 2 XXA c m.<                               < < < <   2.M.Y.^.BXBXfXY.m.m.Q.Q.k # < < <         < < # < <   ",
"z , , X #.#.#.#.#.X , X [ [ #.X z z - +.+.$ - - z z z z +.z.z.+.+.9X9X<X<X<X9X` ` -.~.y.(.L.L 6.6.&.&.d.d.c c c c c c.c c c c c d.d.&.&.&.&.6.,.6.6.6.6.6.L L L f L 6.6.6.6.[.s k k k k O.k k P.k # m.m.m.m.# # # # # # k # # # # # # # # # # # # # # # # # # # # # # # # # # # m.m.M.fXBXfX^.M.m.9.# k ;.k k k k # # # # # m.m.9.9.9.m.m.m.M.2.^. X>.2.m.m.m.k # k i.i.* w w w w w b b w w w b b %.%.%.N 9 9 9 D ,.( s 9.^.M.M.Y.M.Y.Y.Y.Y.3.Y.4 4 4 4 4 4 4 4 4 4 4 4 4 4 4 4 4 7.0.t t /././.K &.d.d.c c * &.& tXJ.J.a J.J.tXbXP P P P P b.P P P P P P P P P P P P P s.vXN K ( [.[.V.a.t [.( C t 0.{.a.t t C C p.sXyXh h h h h h h X.h h h h h h X.X.h X.@.@.@.5 5 5 5 5 5 5 B B F F F F F F F 6 6 6 6 6 6 1.1.@XNXHX` 9X9X#.+.#.o.o.[ [ % , % , X X $ $ z z.-X6XR.3.KXiXiXiXiXiX8Xa.OXVX6X`.6./.t 0.7.4 4 4 4 4 4 4 P.q ,.q.qXXX2 M z z - +.: ] E L.y.&X.XZ.Z.Z.Z.Z.Z.Z.Z.Z.Z.Z.T.&X|.6X-X2 ^ 2 . e.] ] ] 6X] 6X6X~.-X-X-X: = 2X].].].].].= 2X2X= = '.W q m.<                     <     < <   <       9.M.M.fXLXBX^.M.9.m.# k # # <             < < <       ",
"z , [ o.o.=.=.=.=.=.=.=.=.=.=.o.o.#.#.#.o.#.#.#.X $ $ z z $ +.#.9Xo.=.=.=.=.=.=.9X<X9X` -X~.6X] '.'.E E E L.L.L.L.L.L.L.L.q.E q.E E E E '.'.'.'.'.].].'.].'.] ] 6X] ] ] `.(.F.C k # # k k k O.k # # k k m.k # # # # # # # # # # # # # # # # # # # # # # # # # # # # # # # k k k # m.M.^.BXBX^.M.m.m.# k k k k # k k # # m.# m.m.m.m.M.9.M.M.2.^.^.>.2.9.m.k m.# m.k k i.i.i.w i.w w w w w w w b b b ).%.%.9 N N N 9 K C m.^.^.M.Y.Y.Y.Y.Y.Y.4 Y.4 Y.4 4 4 4 4 4 4 4 4 4 4 4 4 m.4 7.0.t t /.p.L _ _ L._ _ r.r.r._ x 3 J.J.J.J.bXP P P P P P vXP s.P P P P P vXP vXs.vXs.9 9 N ( C [.[.a.v.v.t C C Q.v.{.a.t [.C t }.sXyXh h h h h h h h h h h h h h h X.h X.@.@.5 5 5 5 5 5 5 B B B F 6 6 F B B F F 6 6 6 6 6 6 S.S.OXVXz.+.+.- , X [ [ [ % % % , , X X $ $ z +.z.6XR.{.KXiXiXiXiXKX8Xa.R.NXVX`.L.p./.0.7.4 4 4 4 7.4 7.q /.e E ].2X: M z z z z M : XX'.~.} &XT..X.XZ.Z.Z.Z.Z.Z..X*X&X} -Xe.: M 2 : 2X2X2X2Xe.XX] XX2X= 2 ^ ^ 2 2XXXqX].].qXqX2X2XXX= e.E &.P.9.9.                    <     < <     )     9.M.^.BXBXfX^.2.2.  < # # # <           <             ",
", [ o.=.=.5.5.5. . . .5.5.5.5.5.5.5.5.=.=.=.=.=.[ [ X $ $ $ $ X #.#.o.#.o.o.o.#.o.#.#.9X9X+.z.z.z.z.-X-X-X2X6X2Xe.e.e.2X2X2X= @ = = = : : : 2 2 -X2 2 z.z.z.z.+.+.z.z.z.z.|.(.( P.# # # k k k k # # k k k k k # k # # # # # k # # # # # # # # # # # # # # # # # # # # # # # k k # m.9.M.fXfXfX^.m.9.# k ;.k k k k # # # m.9.m.m.m.M.M.M.2.^.^.>.2.2.9.9.m.m.m.# # k k k k k i.i.i.i.i.i.w w w w b b b b 4XN N 9 N W D ( 7.^.^.Y.Y.3.3.Y.4 Y.Y.4 Y.4 4 4 4 4 4 4 4 4 4 4 4 4 4 4 4 4 0.t /./.L.y.|.` ` ` ` ` |.~.~.x x J.J.J.tXP vXP vXP P s.P vXP vXP P P P P P vXvX9 9 N C.%.,X( C [.a.v.{.t t t 0.v.v.a.t [.C t R.sXh h h h h h h h h h h h h h h X.X.h X.X.@.@.5 B 5 5 5 5 5 5 B F 6 6 F B B F F 6 6 6 6 6 6 1.S.OX6X-X+.#.#.o.o.o.[ [ [ , , , - - $ $ $ z +.z.6XOXa.8XiXiXiXiXiX8Xa.R.`.VX6XE 6./.0.7.4 4 4 4 4 4 7.q 6.L.'.].2X: M z z z z z M : @ e.~.|.aX&X*XT..X.X.XT.T.;X&XHX-X-X: M M : 2X].2X2 2 2 2 2 M M M z z z 2 2X].].].].qXqXXX= = = ] f d.m.9.9.                    < < < < <         2.M.M.fXBXBXfXM.2.2.    < < # < <     < <   <   <       ",
"[ o.=.=.=.5.5.5.5.5.5.5. . .5. . .r  . . . .5.=.[ X X , O O % % [ [ [ [ [ X X [ [ o.[ o.o.[ X X X $ $ $ z z +.z M M +.+.z.+.z.z.+.+.+.+.+.+.+.+.z O O [ o.=.5. . .5.5.5.=.9Xx d.P.# # k # A.# # k k k k k k k k # # # # # # k k # # # # # # # # # # # # # # # # # # # # k # k k # m.m.4 ^.fXfX^.m.m.# k k k k k # # # m.9.9.m.m.9.2.^.^.2.M.M.9.9.9.m.m.m.m.# # # k k # # k k k k P.k i.i.i.w w b b w b E.%.N 9 9 9 N K C 4 4 Y.4 4 4 Y.4 Y.4 4 4 4 4 4 4 4 4 4 4 4 4 4 4 4 4 m.4 7.0.t /.6.y.<X1X1X1X1X1XFX1X<X-.3 x 3 J.tXbX9 9 9 P vXP vXP b.vXP b.P P P P P vX9 N %.%.%.,X( ,X[.[.a.{.{.a.t t t v.{.a.t ( t t @XsXh h h h h h h h h h h h h h h X.X.X.X.X.X.@.5 B B 5 5 5 5 B B F 6 6 F F B B F F 6 6 6 6 F 1.S.OX`.-X+.o.=.5. .5.=.o.X $ $ - - - z , O $ 0 z.6XOXa.8XiXiXiXiXKX8Xv.R.`.-X-X`.6.[.t 7.4 4 4 4 4 4 7.o 6.L.E ].2X2 M z z z O O z M 2 = e.] 6X~.HXaX&XFX&X&X<X|.-X-X-Xz.M z z 2X2X].2XM z z M z z O z O O O : XX].].XX].qXqX2X2 : XXq.&.q m.9.9.        9.<   <     < < < <         2.2.M.M.fXBXfX^.M.9.        < < < <       <               ",
"o.[ o.o.o.o.o.o.o.o.o.o.=.=.=.=.5.5.5.5.5.5.=.o.o.[ [ #.[ [ [ o.[ o.o.o.o.o.o.=.=.=.=.=.=.o.o.o.[ [ X X X $ $ $ z - - - $ z +.- +.$ +.$ $ z $ $ O % % [ =.5.5. . . . . . .9Xx ).P.k k k # # # # k k k k k k # # # # # # # # k # # # # # # # # # # # # # # # # # # # k k # k # k # # m.4 M.fXBXfXM.9.# k k ;.k k k # # m.m.9.M.^.^.^.2.2.9.m.m.m.m.m.m.# # # # # # k k # # k k H # # k k k i.i.w b b w b b %.N N 9 N N K ( 0.v.4 4 Y.4 4 4 4 4 4 4 4 4 4 4 4 7.7.4 4 4 4 4 m.4 4 4 7.0./.6._ ` 1XFX1X1X| | | FX1X` e.3 ~.x tXr.9 N 9 vXvXP P vXP P vXP vXb.P P P s.9 N %.C.%.%.,X,X( [.a.{.{.{.a.a.a.v.v.a.t ( t [.@XyXh h h h h h h h h h h h h h h X.X.h X.X.X.@.5 5 5 5 5 B 5 5 F F 6 6 F F B B F F 6 6 6 6 F F S.@X`.-X9Xo.5. .r r 5.=.#.$ z - - $ X X % , M z.6XOXa.8XKXiXiXiXiXKXv.R.`.HXHX6X6./.t 7.4 7.4 4 4 4 7.c W E '.XX2XM z z z z O O O z z M 2 = ] ] 6X-Xz.` HX-X-X6XXX= 2 0 z $ z 2 2X2X: M z z z O O O O O O z 2 2X].qX].].qXqX2X: 2XqXf c P.9.M.9.9.    <             < < <           9.M.M.^.BXBX^.M.9.< <       <     <           <       < < ",
"[ [ [ X , X , X X X X X X X [ [ [ [ [ [ [ o.o.o.o.o.o.=.=.=.=.=.=.5.5.5.5.5. .5. . . . .5.5.=.o.o.[ [ X X X , , - - z - - +.$ z $ $ $ - - $ O O O % % [ o.o.=.=.=.=.=.5.=.` <.y P.k k # # A.k k # # A.# A.# # # # # # # k k # # # # # # # # # # # # # # # # # # # k k k k < # k # # m.M.Y.^.BXfXM.9.# k k k k k k # 9.m.4 M.^.^.^.M.M.m.m.m.m.m.m.# # # # # # # k k k k H k k k k k k k O.i.i.w b b w b b I %.%.N N N K ( [.7.7.4 4 4 4 4 4 4 4 4 4 4 4 4 4 7.7.7.4 4 4 4 4 4 4 7.7.0./.L.-X<X1X| | | | | | | | =.` -.e.x _ A N %.N vXvXvXvXb.vXP s.vX9 vXvXs.vXj vXj 9 N %.%.,X,X,X,X[.a.{.{.{.V.{.3.v.v.t C s }.sXyXh h h h h h h h h h h h h h h X.X.X.X.X.X.@.5 5 5 5 B B B B F F 6 F 6 B B 5 B F 6 6 6 6 6 6 1.@XOX6X9Xo.=. .r r  .=.o.X , , X X X X O z z +.-X`.}.I.KXiXKXiXiXKX3.}.`.HXHX6X6./.0.7.4 4 4 4 7.7.7./.f '.XX= 2 +.z M M z z z O z z z M 2 2 -X2 -X-Xz.z.-X2 2 2 M M z z z z M M 2 M z O O O % % % O O z z M = XX].].].XXXX2X2X].qXf d.A.2.M.M.9.9.< <     2.      < <     < <     9.M.^.fXBXfX^.9.9.                  <         < <       < ",
"[ [ X , , , , , $ $ , $ $ $ $ X X X $ $ $ [ [ o.=.=.=.5.5.5.5.5.5.5. . . . . . . . .5.5.=.=.o.#.#.#.X X , , , , , , - - - +.$ $ $ $ $ $ $ X O % % % % [ #.#.#.[ [ [ o.o.#.^ _ c.O.k k # # k k # # # # # # # # # # k # # k k # # # # # # # # # # # # # # # # # # # k k k # # # H k # # 9.Y.^.fXfX^.2.m.k k k k k k m.m.m.M.^.^.^.^.M.9.m.m.# # < # # # # # # # # # # # # # # # # k # k k k k i.w w b b b b I b %.%.N N K K [.0.7.4 4 4 4 4 4 4 4 4 4 4 4 4 4 7.7.4 4 4 4 4 4 4 7.7.7.c 6.(.<X1X1X| | r r r r r | | 1X9X-.x _ & =X&.N 9 vXvXP P vX9 9 N N C.N N N 9 j 9 9 N %.%.,Xb ,XC [.a.{.{.{.V.{.3.3.a.t t 0.}.sXyXh h h h h h h h h h h h h h h X.X.X.X.X.X.@.5 @.@.5 B B B B F F F F 6 F 5 5 B F 6 6 F 6 6 6 1.S.OX6X<X=. . .r r  .5.=.o.#., X X , O $ , $ #.z.6XR.3.KXKXiXiXiXiXI.}.NXHX<X6X6.t 0.7.4 P.4 4 7.0./.6.f '.-X2 M M M M 2 z z z z z z z M 2 : : z.z.2 -X2 2 M z +.z z z O O z z M M z z O O O O O % O O O z z M : 2X2X2X2X2XXX].].qXq.&.P.^.^.M.9.m.m.# <   9.      <       < <     2.M.fXBXBXfXM.9.                    <                     ",
"[ X O , , , , , , O , , z z , $ X O $ $ $ X [ [ o.=.=.=.5.=.=.=.=.=.=.5.5.5.5.5.=.=.=.o.o.#.#.X X X , , , , , , , , , - - - - $ $ $ $ X X O % % % % % X , , , , , $ $ #.- -.<.).P.k # # k k # A.# # # A.# # m.k # # # # k # # # # # # # # # # # # # # # # # # # # k k k k # # k k # # 9.4 M.fXfX^.M.m.k k k k k # m.m.M.M.fX^.M.9.9.m.# # # A.# # # # k # # # # k # # # k < k A.# k H k k k i.w w b b b b I b b %.%.N K K [.0.7.4 4 7.m.4 4 m.4 4 4 4 4 4 4 4 4 4 4 4 4 4 4 3.7.7.q /.L.~.1X| 1X| | r r r r r | | |  .<X-.3 _ f W ,.N N vXvXvXvX9 N %.%.%.%.%.%.C.N 5X9 C.%.%.%.,X,X,X[.a.{.{.{.{.{.{.3.v.t t Q.R.sXh h h h h h h h h h h h h h h h X.X.X.X.X.@.@.5 5 @.@.B B Q B F F F B 6 F 5 5 B F F F 6 6 F 6 1.S.OX|.1X . .r r r  . .5.=.o.o.#.X X X #.#.o.=.9X6XOX{.KXKXiXiXiXiX8Xa.OXHXHX6X6.0.7.4 4 4 4 7.7.p.L A q.].2 +.M M 2 2 2XM z M M M M M : 2XXX2X2 +.z.M -X: M z z z z z O z z z z z O O z O O z O O O O O z z z z M 2 -X= XX].].XX].E 6.q M.^.^.M.m.m.9.m.9.9.2.              <     M.^.BXBXBX^.2.9.                                          ",
"X X O , , , , , X O O , , 0 , , , , , , $ X X [ #.#.#.#.#.#.#.X - X X X [ o.[ o.[ [ #.X $ $ $ $ $ - , , , , X X X X , , , , , , , O X X X X % % % % O , , , 0 , , X $ - - ^ x &.c.P.k k P.k # # # A.# # # # # # # k # # # # # # # # # # # # # # # # # # # # # # # k k # # # k k k # < 9.4 M.^.fX^.M.m.# # k k k # m.9.M.fXfX^.9.m.# # k k k k k k k k # # k # # # A.# H # # # # k # k k k P.i.i.w b w b b w w b d.&.K K [.[.0.7.4 4 4 4 4 4 4 4 4 4 4 4 4 4 4 4 4 4 4 4 Y.m.4 4 7.q &._ ` FX| |  .| r  . .r r  . . .| | | 1X` ] k.f &.&.K D N N C.%.b %.C.%.C.%.,XN %.%.%.%.,X%.C.,X,Xt t {.{.{.{.{.I.I.{.a.t a.R.sXh h h h h h h h h h h h h h h h X.X.X.X.@.@.@.5 5 @.5 B B F F B B B B 6 F 5 5 B F F F 6 F 6 6 1.S.OX|.1X| r  .r  .|  . .5.5.=.o.o.o.o.=.=.5.5.1XHXNXa.8XKXiXiXiXiXKX{.OXHX<X6X6./.7.4 4 4 4 7.o L E E '.XX^ M M z M : 2X2 M z 2 : 2 = XXqXqX].2X: M 2 = 2X2X2 z M M z O z z z z O O z O O z O O O z z z M z z z M z 2 XXqXqXXX= XXE L.6.t 4 ^.^.M.M.9.9.9.                        M.fXBXLXBX^.2.9.                                      < < ",
"X O O O O O O X X O O , , , , , , , , , X X X X X X X X X X - - $ , , , , , , , X , , , $ $ $ $ $ - , , , X X X % X O , , , , , O O X X X X X % % % % % , , , , , $ $ z 0 ^ 3 =Xc.P.k k # # # P.# # # # # k A.# k # # k # # # # # # # # # # # # # # # # # # # # # # # # # # # # k # # 9.m.M.^.fX^.M.m.# < # k k # m.2.^.fX^.^.9.9.# # # k k k P.k A.# A.# P.# k # # # # k # k # k k k k k k i.w w b w b w w w C C ( [.[.[.t v.4 4 4 4 4 4 4 4 4 9.4 4 4 4 4 4 4 4 4 Q.4 4 4 Y.7.7.q K ~.<X| | | | r r r  . .r r  . .5.=.=.9X9X-X] E ,.&.( ( ( ,X,X%.N.%.%.C.%.,X%.,X%.,X%.%.C.%.%.%.,X,Xt a.{.I.{.{.I.I.{.a.a.a.sXyXh h h h h h h h h h h h X.X.h h h X.X.X.X.@.5 5 5 @.5 B F B B B B B B 6 F B 5 B F F F 6 6 F 6 F S.sXVX<X1X|  .r  . .| r r  .5.5.5.5.5. . . . .| <XNXV.8XKXiXiXiXiXKXI.R.VXHX-XL./.7.4 Y.4 4 7.o L L.E '.2X2 = = z M = XX: M M 2 2 2 2X2X].].XX2X: = 2XXX].XX2XM z z z z z z O z O z z z z O z z z M M z z z z M z z 2X].qX].2X: 2XqXL.L.F.t M.^.^.^.M.2.2.              2.      2.M.fXBXBXfXM.9.9.        <                 <       < < < < ",
"O O O O O % % X X O O O X , , , , , , , , X , , , , X X X X X $ , , , , , O , , , O , , $ $ $ - - - , , , X X % % % O O , , O O O O X , , , $ $ O % % O , , X X X $ $ z 0 ^ e.f ).P.k # < # # k k # k k k # # k # # k k # # # # # # # # # # # # # # # # # # # # # # # # # # # # # k # m.m.M.^.fXfXM.m.< < # k k m.9.^.fXBX^.M.M.9.m.# # # # # # k # # # # A.# # k k k k k k k k k k k k O.i.i.w b b b w w o o o o t t t 0.v.4 4 4 4 7.4 4 4 4 4 4 4 4 4 m.4 4 4 4 4 4 Y.Q.4 m.7.7.c.,.-.<X5. .|  . . . . . . .5.5.=.o.#.+.9X+.z.-X] e &.( C C b ,X,X%.C.%.,X,X,X%.,X%.%.,X%.%.N.C.%.C.( C t V.I.I.{.I.I.{.V.V.V.sXyXh h ; h h h h h h h h X.X.X.h h h h X.X.@.@.5 5 5 @.5 B B F B B B B B 6 F B B B B F F 6 6 6 6 F S.@XVX<X1X| | r | | | r r r r  . . . .| r r r | <XNX}.8XKXiXiXiXiXKXI.}.VXHX-XE p.0.4 Y.4 4 7.0.p.L L.'.2X: 2X2XM M 2X].2X2 2 2 2 2X= 2XXX2X2X2 : 2X].].XXXX2X2 z $ z O z z O O z O O O O O z z z M z z z z z M M M ].qXqXXX: : 2X].E _ F.p.4 ^.fX^.M.2.2.    )                 2.M.BXBXBX^.M.9.          <                 <     < < # # # ",
", , O O % % % % X X O O X X O O O , , , X , , , , , , , O O X X O , X X X [ % X X X X X X - - - - $ , , X X X % % % X O O O O X X X X O , $ - - - X % O O , X X X [ #.#.#.+.^ <.&.P.k # < # # k k k k k k k # A.# # # k # # # # # # # # # # # # # # # # # # # # # # # # # m.m.m.m.# m.m.4 M.^.fXfX^.M.9.9.m.m.m.2.^.fXBXBXfXM.M.M.M.m.m.# # # # # A.k A.# # # k P.# k m.k k k k # k k k k i.i.w b ).b w * o o s 0.0.0.v.7.4 Y.4 4 4 4 7.4 4 4 4 4 4 4 4 4 7.4 4 M.4 Y.4 Q.4 4 7.P.c f -.<X=.=.5.5.5.=.=.=.=.o.[ #.o.o.#.- +.+.+.-X6XL.6.&.( ( ( %.,X,XN.,X%.%.%.,X%.,X%.%.,XC.%.%.C.%.,X,X[.V.I.I.#Xu.I.t.{.{.V.sXyXh h h h h h h h h h h X.@.X.h h h X.h X.@.5 5 B 5 5 5 B F B B B B B F 6 F B B B B F F F 6 6 F 6 F @XNX} 1X| | r | | | r r r r r | | | | | r | | <XNX}.8XKXiXiXiXiXKX8X}.NXHXHX] L o 4 M.4 4 7.7.o &.f '.2X= 2X2X2 M = ].2X2 : 2 : 2X2X= 2X: 2 M : 2X].].2XXX2X: M z z z O O z O O O z O O O z z z z z $ z M M z M = qXqXXX= : = 2X].E L.L [.7.^.fXfX^.2.9.  < < <     9.  2.  2.2.^.BXBXfXM.9.          <                   <     < < # # < ",
", O O O % % % % % O O O O O O O O O , X X , - , - , , , O O % X X X X X X [ % O O O O O , , - - - $ , , , O % X X X X X O $ $ O O X X O O , - 0 - O % O , O X [ o.o.=.=.=.=.9X-.f c.k # # # # # # k k k k k k # # # # k # # # # # # # # # # # # # # # # # # # # # < m.< m.m.9.9.9.m.m.m.4 M.^.fXBX^.^.M.M.M.M.^.fXBXBXLXLXBXfX^.M.M.9.9.9.m.m.# k k # # k P.k k k # k k k k # k # v # k k i.y w b b y w w * o s 7.7.7.7.4 4 4 4 4 4 4 4 4 4 4 4 4 4 4 4 4 7.4 4 4 4 m.4 4 4 7.m.P.&.E -.9X#.o.o.o.#.#.#.[ [ [ , , X $ $ $ +.+.+.z.-X'.A ,.&.( ( b %.%.C.%.%.,X%.( ( ( ( ,X( ,X,X%.%.%.%.( [.[.I.I.#Xw.w.#X#X{.S.sXh h h h h h h h h h h f.X.@.X.h h X.X.X.X.@.5 B B B B B B B B B B 5 B F 6 F F B 5 B F F F Q F 6 6 1.S.NXHX1X| | | | |  .| | r r r r | | | | |  .| 1XVXR.I.KXiXiXiXiXiXu.a.OXHX<Xz.E 6.7.4 4 4 4 7.q d.W E XX= : 2 M M : XX2X= : : 2X].].XX2X2 z M : 2X].].XX2X: M z z z z O z O z O z O z z z z z z z M 2 2 M M M : ].qX].= 2 2 : 2X].q.,.d.P.m.M.^.fX^.M.9.  < m < <   9.2.    2.2.^.BXBXfXM.9.                                    < < < < < ",
"$ O O % % % % % % O O O O O X O O O X % % X , , , , , O % % % O X , - - , , O X X O O , , , X - $ $ , , , , O X X X X X $ $ $ $ , , % % % O $ - - X X , , , O X [ o.o.=.=.=.o.` k.&.P.P.k k # # # k k k k k k A.# # k k # # # # # # # # # # # # # # # # # # # # # # < m.# m.2.^.2.M.M.M.Y.M.^.BXBXBXiX^.8X^.fXBXBXBXLXLXLXBXBXfX^.^.M.9.9.m.m.m.k # # # # # # # # # # # # # # v # # k k k k i.w b b b w w o s s 7.7.3.4 4 4 4 4 4 4 4 4 4 4 4 4 4 4 4 4 4 4 4 4 4 4 4 4 7.7.7.P.c f ] -.+.#.#.X - , , X , % X , , , O $ $ $ $ M +.z.e.'.q.W D ,.K &.&.K %.&.&.&.( ( C C C ( ( C C b %.b ( ( t {.I.w.iXw.u.u.#X1.sXh h h h h h h X.h h h X.X.@.X.h X.X.X.X.@.@.5 B B B B B B B B B 5 B B F 6 F F B 5 B F F F F F F F 1.S.OX|.1X| | |  .| | |  . .r r r | | | | | | | 1XVXR.I.KXiXiXiXiXiXKX3.OXVX1X<X~.L.K q 7.7.P.7.c &.f E ].2X2 +.z z : 2XXX2X: 2 2X].].XX= 2 M z M 2X2XXX2X: 2 z M z z z z z z z z z z z M 2 2 z z 2 2X2X: M M 2 2XqXqXXX2 M M 2 2XqXf &.P.A.9.2.^.fXfX^.2.  < < <         9.  2.^.^.BXfX^.M.        9.                < <           < <     ",
"$ O X % % % % % % % O O O O X X O X % % % % % % , , O O % % % % O , - - 0 , , [ [ [ X X O O X X X $ , O O O O O X O $ $ $ $ , , , , % % % % O $ $ X X O , , , , X #.#.o.o.#.#.+.x f ).P.P.k k k k k k i.k k k # # # k k # # # # # # # # # # # # # # # # # # # # # < m.< m.9.2.^.^.^.^.M.M.8XfXBXLXLXBXfXiXfXBXBXBXLXBXLXBXBXBXfX^.^.2.9.9.m.m.m.m.# # # k # k # # # # # # # # # # # # k k k i.i.w w * w o s s 7.4 3.3.4 4 4 7.7.4 4 4 4 4 4 4 4 4 4 4 4 4 4 4 4 4 4 4 7.7.P.q d.W <.-Xz.+.- - , , , O O % [ % % % % % O $ $ X z z +.^ @ 3 <._ k.A D &.&.K ,.,.6.p./.[.[.[.[.[.[.C ( ( ( ,X[.t {.I.w.iXw.iXw.#XF @.h h h h h h h h X.h h X.X.X.X.h X.@.@.X.@.@.5 B B F F B F B B B 5 B B F 6 F F B B 5 B F B Q B F F 1.S.OXVX1X| | |  .|  .| | r r | | | | | | |  .| 1XVXOX{.KXiXiXiXiXiXKXY.R.VX1X1Xz.] L.6./.q q c &.f q.E qX].: 0 0 z 2 2XXXXX= : = 2XXX2X: = : 0 z 2 : : M M z M z z z z z z z z z z z M : 2X2X: M 2XXX].2XM M 2 XXqX].2XM M z M 2XqXf ).P.  2.2.M.fXfXfX^.9.< <       9.      9.2.fXBXfX^.9.        9.9.      < < < < < < <                 ",
"$ , X % % % % % % % O O X X X X X % % [ % % [ % O $ O O % % % % % , 0 0 - #.#.o.=.=.o.[ % % % % % X X O O O O O , $ $ z z , , , , % % % % % % % O , , , , , , , , X X X X $ - +.@ <.=Xc.P.P.k k # k k k i.P.k A.# # k k # # # # # # # # # # # # k # # # # # # # # # # 9.m.m.M.^.fXfXBXfXfXiXBXLXLXLXLXLXBXBXLXBXBXfXfXfX^.^.^.^.M.M.9.9.m.m.m.k m.m.A.# # # # k # k # k # k # # # k k k # # k i.i.s w s s 0.7.3.Y.3.3.Y.Y.4 7.7.4 4 4 4 4 4 4 4 7.4 4 4 4 4 4 4 4 4 7.7.7.c &.W E e.z.z.0 - $ , O O % % % % % % % % % % O O X $ $ , - 0 ^ . @ e.'.L.6.6.L L.L.L.L p.}.}.}.}.[.}.[.[.[.( ( ,Xt {.I.iXiXiXiXw.#X5 X.h h h h h h h X.h h h h X.X.h h X.@.@.X.X.@.5 5 B F F F B B B B B B B F 6 F F B B B B F B F B F F F S.OXVX1X| | | | | | r r r  .r | | | | | r r r 1X-XOX{.KXKXiXiXiXiXiX8X}.y.<X<X9X-Xe.'.A =X&.&.A E '.].qX].2XM 0 z M M 2X].].2X: 2 2 2 : 2X2X2 +.0 M M z +.+.+.+.+.M z z z z M z z M : 2X].].2XM : 2X2X: M 2 : XXqXXX2 M M z M = qX=X).P.A.2.2.M.^.fXBX^.9.<   >.  9.    9.< 9.2.fXBXfX^.9.          9.      < < # # # # <                 ",
"$ , X % % % % % % X X X - - - - - , O % % [ % % % $ $ $ $ O , , 0 0 - 9X9X=.=.=.5.=.o.[ X O O O O X $ $ z z , , z z z 0 0 ^ 0 0 - , % % % % % % % X - X O O O , , , $ $ $ $ z +.^ e.k.=Xc.P.P.k # # k i.m.k k # # # # # # # # # # # # # # # # k k # # # # # # # # # # m.# m.4 M.^.fXBXLXBXBXLXLXLXLXLXLXBXBXBXfXfX^.M.M.M.M.m.4 m.m.m.m.# # m.m.m.k # k k k k k k k k H k k H # # k k # # # k k i.i.s 7.7.7.3.3.Y.Y.3.3.3.4 7.7.7.7.7.4 7.4 7.7.7.7.7.7.7.q 0.0.0./././.6.W L.'.e.z.+.+.0 z $ O O O % % % % O % % % % % O O X $ O % % X - 0 +.z.-X] L.`.`.6X6X`.L.R.}.a.a.a.V.V.a.t t t C t t V.I.u.iXw.iXw.x.@.h h h h h h h h h h h h h h h h h X.@.@.X.@.@.5 5 B F F F B B 5 5 B 5 B B 6 6 F B B B B B F Q F F F 6 S.@XVX<X| | | r r r r r r r  .| | | | | r r r 1X-XOXa.8XKXiXiXiXiXiX8Xa.`.HX9X+.z.z.-X] E q.A '.] ] XX].qXXX: 0 z z z : XXqXXX= : M M = 2XXX: M M z.M 2 2 2 2 2 2 2 2 M M M M z z M : 2XXX].2X2 M 2 2 M M : 2X].qX2XM M M z M 2XqX=Xc.P.#   2.M.^.fXBXfXM.9.    <     2.< < 9.M.fXBXfXM.9.        2.2.      < < # # # <                   ",
"$ X X O O % % % X - - - - ^ ^ z.+.^ 0 z $ X $ z 0 +.+.+.+.+.+.^ z.` <XFXFX;X1XaX1X<X9X+.+.- 0 - z z +.+.+.+.+.+.+.z.9Xz.z.` ` 9X9X9X0 , O % % % [ X X $ X X O , , , - 0 - z z - +.^ @ k.=Xc.P.k k # k k k k k # A.# # # # # # # # # k k k k k # P.# # # k # # # # # # k P.P.m.9.M.^.fXBXLXLXLXLXLXLXBXLXBXfX^.^.2.9.9.# m.m.m.m.m.# # # # # # # k m.k k k k H k H k k k # P.k P.P.P.P.P.P.P.P.7.P.7.P.0.0.v.3.3.v.v.0.t t /././././.&./././.c /./././.&.6.L L L.E '.'.] ] e.e.-X^ +.+.- z z $ $ $ O O O O O O % % % % O % O $ , % % % % , - +.+.z.-X-X-X-X-X-X6X`.R.v.8XKX8XKX8X8XY.Y.4 Q.0.a.V.I.KXiXiXw.w.6 X.h h h h h h h X.h h h h h h h h h X.@.@.X.@.5 5 5 5 F F F B 5 5 B B 5 5 B 6 6 F F F B B B B B F F 6 6 1.S.NX<X1X| | r r r r r r r r  .| | | r r r r | HXNXV.8XKXiXiXiXiXiXKXv.OX-Xz.+.+.- +.2 = XXqXqX].XXXX].qXXX: z z z z M 2 2XXXXXXX2X2X2X2X2X2X2X2X2X2XXXXXXXXXXXXX].XXXX= : 2 ^ ^ M 2 2 : : 2 M 0 M M +.M = ].qX].: M z z z M 2XqX=Xc.A.# 9.2.M.^.^.BXfX^.M.9.9.        < 9.9.^.fXfX^.M.9.        2.            < # <                     ",
"$ X X O O % % X $ - +.+.z.z.z.` <X9X9X+.0 0 0 z.z.z.` ` ` ` ` <XaX&X&X;XT.T.;X&X&XaX<X<X<X<X9X` z.` <X1X<X<X` ` <X<X<XaXaXaX&XFX1X9X0 0 z % [ % , , - $ $ $ X X #.#.#.#.#.#.#.#.+.+.^ 3 q.d.P.P.k k # k k k k k # k k # # # k k # # # # # k m.k # # # # # # # # # # P.P.P.P.P.4 4 M.fXBXLXLXLXLXLXBXLXBXfX^.M.9.9.# # # # < # # k # # # # # # m.A.# k k i.k k k k k k k # A.P.* &.&.d.c.c.q o C /.K 6.6.G G G L L L.L.L.`.E _ (.'.(.'.'.E L.L.L.E E E E '.] ] e.e.-Xz.z.z.z.+.+.0 z z - - $ $ $ $ O O O O O O O O O O O O O $ , % % % % X $ - +.+.+.z.z.z.z.z.-X] L a.8XKXiXiXiXiX^.^.M.Y.v.{.{.I.iXw.iXw.#XF X.h h h h h h h h h h h h h h h h h X.@.@.X.@.5 5 5 B B F F B 5 5 B B B 5 B 6 6 F F F B 5 B B F F F 6 6 1.S.NXHX1X| | r |  .r r r r r |  .| | r r r r | <XVXR.I.KXiXiXiXiXiXKX3.L 6Xz.+.z X #.- ^ 2XqXqX].].].qXqX2X2 z z z z z M M : 2X2X2X2XXXXXXX].].].qXqXqXqXqXqXE E E qXqXqX].XX2X2X= : 2 ^ 2 M M +.0 M M : XX].].= 2 M z M z M 2Xq.=Xc.A.9.2.2.M.M.^.fXfX^.^.M.9.        < 9.9.^.fXfX^.M.2.>.      2.  9.          < <                     ",
"z , O O O O O X $ - +.9X` <X<XaX&XFX1X<Xz.z.z.` ` } aXaXaXaX} &X;XT.T.T.T..XT.*X0X;X&X&XFXFXaX} } aX&X;X;X&XaX&X&X&X&X&X*X;XT.T.;X1X+.^ 0 X #.X , , , X X X o.o.o.o.o.=.=.=.o.#.#.#.+.2 x f ).P.P.k # k k k k k k k k k # # k k k # # # # # k m.# # # # # # # k k P.P.P.c.c o 0.7.M.fXBXLXLXLXLXBXBX^.M.4 7.s q P.P.k # # # # # # # # # # # # # # m.k k k k # # # # # k k k c.,.r.r.L.W 6.6.6.L L.E `.y.6X6X6X6X-X|.` HX` <X` <X<X<X9X` z.-X-X@ -X. -X-X2 z.z.z.+.+.+.- - $ $ $ z z z z $ $ $ $ O O O O O , O O O O O O O O O X O O X X O O $ $ - - +.+.0 z +.z.6XL.}.8XKXiXiXiXiXiXiX^.8XY.I.{.I.w.iXiXw.#XB X.h h h h h h h h h h h h h h h h h X.@.@.X.@.5 5 5 B B F F B B B B F B B B 6 6 6 F F B 5 5 B F F F 6 6 6 S.OXHX1X|  . . . .r r r  . . . .5.| r r r r | <XVXR.{.KXiXiXiXiXiXKX8XR.`.z.+.$ X X - ^ = ].qX].qXqXqX].= M M M z z z z M M 2 : = 2X2X2XXX].].qXqXqXqXqXqXE q.q.q.q.q.q.q.qXqXqX].XX2X= : 2 2 M M 2 : 2X].].2X+.+.z.M z z M XXq.&.c.# 2.2.2.M.^.^.BXBXfX^.M.2.2.2.      2.M.^.fX^.M.M.2.    <       2.                                  ",
"- $ , O O O O $ - +.9X<XFX;X;X;XT.T.;XFX<X-X` <X&X;X*XT.T.T.;X;XT..X.XD.D.D.+XD.B.B.B..XT.;XAXAXAXxXT..X.XT..X.XT.T.*XD.D.*XT.T.;X1X` ^ 0 #.#.#.o.o.o.o.o.=.5.5.5. . . . . . .5.5.=.#.+.. <.f ).c.P.k # < < k i.i.k k # k k # k k k k k k # # # # # # k k k k P.P.c.c.&.,.& r.L.p.7.^.BXLXBXBXfX^.4 t L L L e ,.d.c.P.P.A.A.k k k # # < < # # # # # k m.k # k # # # # k k k * & ] -X-X6X] 6X6X6X-X-Xz.z.9X9X9X<X<X=.<X=.1X=.=.=.=.=.=.9X#.+.0 0 0 +.+.+.- - - - $ $ O O % % [ [ X $ $ O O O O , , O O O O X X O O O O O O O , O , z $ $ O O O X X , , , , O $ +.-X`.R.Y.KXiXiXiXiXiXiXiXiX8XI.I.w.w.w.w.w.x.5 h h h h h h h h h h h h h h h h h h X.@.X.X.@.5 B B B B F F B B B F F F B B 6 6 6 6 F B 5 5 B B F F 6 6 6 Q OXVX<X|  .r r r r r r  .5.=.o.o.o.=.5. . .r 1XHXOXa.8XKXiXiXiXiXiX8X}.`.z.+.- $ z z 0 ^ 2 = XX].q.qX2XM +.M M z $ $ z : XX].].XX: ^ ^ M 2 2 : : : = 2X2XXXXXXX].qXqXqXq.q.f q.q.qXqXqXXX2X: : 2X2XXX].XX2X: +.+.+.z z 2 2XqXq.=Xc.m.2.2.2.M.M.iXBXBXBXfX^.M.9.    9.2.2.M.^.BX^.M.2.2.  >.<         < < <   < <                       ",
"- - $ O O $ $ $ 0 +.9X1X;X;XT.*XT.;XFX1X` ` <XFX;XT.T.;XT.;X;X&XaXAXAXGX+XD.D.D.B.B.B.B.B.T.0X0X0X+XT..X.X.XT.0X0X0X+XD.D.D.D.T.&X<X` 9Xo.o.=.=.5.5.5.5. . .5. . .r r r r r r  . .5.=.#.+.-.3 q.=X).P.k k k k k m.i.m.k # # # # # # # # # # # # # # P.i.w b d.&.=XW q._ x e.e.~._ L /.0.0.t [.6.L L.`.] 6X6X] '.k.A =X&.).c.P.P.P.k k k k k k k k # # # k k k k k k # # # H c.A e.z.z.z.z.z.z.z.z.z.9X+.#.#.#.o.o.o.o.o.#.o.o.o.#.#.#.#.- - - - - - - X X X X X X O % % % % % % % X O O O O O X X X O X X X O X X X X O O , , , z z z $ , O O % % % [ % % % % z z.6XL 3.KXiXiXiXiXiXiX^.iXiXiXu.w.w.iXiXw.6 @.h h h h h h h h h h h h h h h h h h @.X.X.@.@.5 5 B B F F 6 F F B F 6 F B B F 6 6 6 F B 5 5 B B Q B F 6 F Q sXNX<X| 5. . . . . .5.=.o.#.#.#.#.o.5.5. .| 1XHXNXa.8XKXKXiXiXiXKX8X}.`.<X=.=.o.#.- 0 +.+.^ = XXqXqX2X: M z z z z +.M 2XXX].].XX= 2 +.+.z M z M M M 2 : : -X= 2X2X2XXXXX].qXqXqXqXE qXqXqX].].XXXXXX2X2X: 2 ^ M M z.M 2X].qXE q.,.q 9.9.M.^.^.BXLXLXLXiX^.^.2.2.2.  2.2.^.fXBX^.M.9.  <       2.  9.< <       <                       ",
"- - , $ $ O $ z 0 +.9X<X&X;X&X&X&XFXaX<X9X<XFX;X;XFX&X&X;X;XFXaX} !.!.} 0XD.B.B.B.B.B.B.B.+XxX+X.XB..X.X.X.X;XAXgXgX+XD.D.D.T.xX} ` 9X=.5.5. .| | 5. . .| | | 1X| r r r r r r |  . .5.o.9X+.^ e._ f d.y i.k k k k k k m.k # # # < < < # # # # k k i.c =XW q.q.k.qXx e.. ^ z.+.^ @ ] <._ _ (.] ~.e.-X-X-Xz.z.z.^ . 3 <.k.f =X&.d.d.c c.c.P.P.P.P.P.P.P.P.P.P.P.P.i.P.P.P.P.c.&.k.@ +.+.+.+.0 +.+.+.+.+.- X - #.#.- $ $ X X % % X , , X X , , , , X X , , , , O X X X X X % % % % % O % % O % % X X X X X X X , O O X X X O , , , , z z , , , O O % , % % [ % % - z.6XOXv.8XiXiXiXiXiXiXiXiXiXiX8XiXiXiXw.#XF X.h h h h h h h h h h h h h h h h h h X.X.X.@.5 5 5 B B F 6 6 6 F F F F F B B F 6 6 6 F F B 5 B B B B F F F Q @XNX-X1X=.=.=.=.=.o.o.o.[ #.#.o.=.5.5. . .| 1X<XVX}.3.8X8X8Xu.u.I.3.}.`.<X1X5.5.o.#.- - - ^ : XXqXqXXX2X: +.z z M z 2 2XXX].XX2X2X2 M z M z M z z M z z.M -X2 z.z.z.z.2 : = 2XXX].].qXqXqX].].XX2X= : 2 2 2 : = 2 M : XXqXqX] (.& ( m.9.^.fXBXLXLXLXLXBXfX^.^.2.2.2.9.M.^.fXBX^.M.9.< < < <         < <       <     < < < < <         ",
"- - $ $ $ X $ z 0 +.9X9X` } |.|.` <X<X1X1X1XFXFXaX|.!.|.aXFXFX1X<X|.|.AX0X+XD.B.B.JXD..XD.xXAX0X.XB..XT..XT.xXlXDXlXGX+XD.D.0X} |.` =.| r | | | | | | 1XFX1XFX1X| | r r r | | | | | r =.#.+.+.+.. 3 k.W ).P.k k k k k # # # # # # # # # A.k P.c.y &.f <.3 e.. . 2 ^ 0 0 0 0 - $ 0 ^ 2 . -.^ ^ ^ 0 - +.+.+.+.z +.+.^ : @ 3 x <.k.A W =Xd.).c.c.c.c.c.c.c.c.c.y c.).).).).=X=Xq.XX^ - - - z $ $ $ $ $ $ X O O O O $ X O % % % [ % , , , , , , , , , , , , , , , X X X X X X O O O O O % % % X X X X X , $ X X , O O O X X O , , , $ , , , , , O O , % % , % [ % z z.-X`.a.8XKXiXiXiXiXiXiXiXiXiXiXw.iXiXiX#XB X.h h h h h h h h h h X.X.h h h h h h X.X.X.@.5 5 5 B B B 6 6 6 6 B F F B B F F 6 6 1.6 F B 5 5 5 B B F F F F @XOX6X9X+.#.#.#.X X X [ o.o.=.5. . .r | | | | <X6XL }.a.v.{.{.V.V.}.R.`.z.1X|  .5.o.#.- 0 0 : 2X].].XX2X: +.M 2 2 M M : XX].XX2X: M M z z z z M M M z z +.+.+.+.+.+.+.+.+.z.z.2 -X: = 2X2X2X2X2 M z M M 2 2XXX2X2X2 2X].qX].] (.r.K 9.^.fXBXLXLXLXLXLXLXBXfXM.M.2.9.M.M.fXBXBX^.M.9.< < < < 9.      < < < < < < # # # # # < <         ",
"- - , $ $ $ $ $ +.+.9X9X<X` ` ` 9X=. . . .| | 1XaX} |.} aX&XFXFX<X<XaX&X0X+XD.B.D.0XGXAX} ZX} xXT.T.xXxXxXxXAXgXgXgX0X+XD.D.0XaX|.` =.r r r | | FXFXFXFX&X&X;XFXFX1X| | | | | | r | r  .o.0 0 #.+.^ @ <.A =Xy / P.k # # # # # # # k k A.P.P.).=XA <.3 . ^ 0 - - $ X X $ z z z z $ - - +.+.+.0 - z $ $ $ $ z z z z - +.+.^ ^ ^ -.e.3 <.E q.q.A f A f q.q.A A A q.q.q.q.k.k.x @ 2 0 #.- z , X X , , , , O O O , $ , O O X O O O O O O X X X O O O O O , , , , $ $ $ , $ $ $ $ $ $ O % % % X X X , , X - X [ [ X , , O O O , , , X X , O , , , O O , $ $ , % % % $ +.-X`.}.Y.KXiXiXiXiXiXiXiXiXiXiXiXiXiXw.t.@.h yXh h h h h h h h X.X.X.h h h h h h h X.X.5 5 5 B 5 B B F 6 6 F F F B F F F 6 6 6 6 6 6 F B 5 B B Q 6 6 F F S.R.`.-Xz.+.#.- X X [ o.=.5. . .r r | | | | 1X1XHX`.OXOXOXOXNXNXNX`.`.6X9X1X| | | =.o.#.- - 2 2X].qX].2X: M : 2X2X: 2 2 2X2X2X: 2 z M z z $ z z z z $ o.=.=.5.5. . . . .1X5.5.=.=.9X9Xz.z.z.M M z z z M 2 2X].XX2X2 2X].qX].] (.F.( 9.^.fXBXLXLXLXLXLXLXLXBXfXM.2.M.M.^.fXBXfX^.M.9.      9.9.9.2.2.  < < < < < < # # # # # <         ",
", , , , , $ $ $ $ #.=.5.| | | | | | r r r | | FXFX;X;X;X;XT.;XFXaX&X&X&X0X+X.XD.0XgXlXSXr.(.|.aXaXaX!.!.|.} xX0X0X0X+XD..XT.;X&X` 0 o.5.5.5.| | FXFX;X;X;X;XT.T.;X1XFX| | | | r r | |  .=.- 0 - - - +.^ e.<.f =X).c.P.P.P.P.P.P.P.P.c.c.).=Xf <.e.^ ^ 0 - , $ $ X X O $ $ $ z z $ $ - z - - - $ z z z $ z $ $ $ $ - - - - +.+.+.+.z.^ 2 . -X. -X= @ @ . . . . . . . . . : ^ +.+.+.- - - $ X $ $ $ X $ $ $ $ $ $ $ $ $ , , , z O O X X X O O O O O O O O O $ $ $ z z z $ $ $ $ $ O X O O , , , , X #.#.o.o.o.[ X O O O O , , , X X X X O O O $ $ $ $ - - $ O O $ +.z.6XR.3.KXiXiXiXiXiXiXiXiXiXiXiXiXiXu.1.@.h h h h h h h h h h X.X.@.h h h h h h h X.@.5 5 B B 5 5 B F 6 6 F F B B B F 6 6 6 1.6 6 6 F B 5 B B F 6 6 F F @X@X`.-Xz.+.#.#.#.o.=.5. .r r r  .| | | | | | | <XHX-X6XHXHXHXHXHXHXHX9X1X| | | | | 5.o.#.- 2 2XqXqXqXXX= 2 2XXX].2X2 M 2 2 M M M z z z z $ $ $ #.o.5. .r r eXeXeXeXeXeXeXeXeXeX| | 1X1X9X+.z.M M M M M 2 : 2X2X= 2 2X].qXE E A D o 9.M.^.^.fXfXBXLXLXLXLXLXBXfX^.^.^.fXBXBXfX^.M.M.2.2.2.9.9.9.2.2.2.  < <         < < < <           ",
", , , , z , O X [ o.=.5.r  . .|  . . . .5.5.| FX;XT.T.T.T..X;X&X&X;XT.*X*X+X+X0XxXAX!.(.(.~.~.x <.<.k._ y.} &XT.T.T.+XT.T.;X&X<X9X#.[ [ o.=.| | FX;XT..XT.T..X.X;XFXFX| | | | r | |  . .=.#.- $ $ $ #.- ^ . 3 <.q.f =X&.d.d.).).).d.=Xf k.].2X2 0 #.X X X X X X [ X O $ z $ $ z $ z z z z $ $ $ $ $ $ O $ O $ $ $ $ $ z $ - - - - - +.+.+.+.+.0 0 ^ +.^ +.0 0 0 - 0 0 ^ +.- +.#.- - z z $ $ O O X X $ , , , , , O X X X $ , , , O O O O O O O O O O X X X X $ $ $ $ $ $ $ X X X X X X , , , , X #.o.o.=.=.o.[ X O O O O O , , X X X X X X O $ $ $ $ - - $ $ $ $ $ z.6XL.a.3.8XKXKXiXiXiXiXiXiXiXiXiXiXu.F X.X.X.h h h h h h h X.X.@.@.h h h h h h h X.@.5 B B 5 5 B B F 6 6 F F B B B F 6 6 6 6 6 6 6 6 F 5 B F 6 6 6 6 F Q @XOX6X-X+.- $ #.=.5. .r r r r  .| | r | | | | 1X1X<X<X1X1X1X1X1X1X<X1X|  . .| | | 5.=.+.^ : 2X].qXqX].2X2 = 2X2X= 2 M 0 - M M 2 z z z z z $ o.5.r eXeXeXeXeXeXeXeXeXeXeXeXeXeXeXeXeX| | =.o.+.z z z M M : : 2 2 ^ 2XqXq.f W ,.d.P.9.2.M.M.M.^.fXBXBXBXLXLXLXBXfXfXfXBXLXLXfX^.M.M.M.9.9.M.9.M.m.9.9.< < <   >.                      ",
", , , , , , O [ [ o.=.=.=.5.=.=.o.=.=.=.o.9X1XFXT.T.T.+X+X+X0XxX&X*X.XD.D.D.0XxXxX0XAX} ` -.@ <.qXbXqX<.e.` &XT.T.*XT.T.;X&X<X9X- X % O #.o.=.1XFX;X.X.X.X.X.X.XT.FXFX| | | r r r r |  .=.#.- $ $ $ - - - 0 ^ : e.3 <.k.q.q.q.q.q.k.<.3 @ ^ 0 - X X X % X % X X X X O z z $ z z $ $ z z O O O $ $ $ $ $ O $ $ $ $ $ $ $ O O O O $ $ $ $ - - - - z - - 0 - - $ $ , , - #.- - - - $ z , O [ % O O % [ O , , , , O O O , X $ $ $ , O , , , , , , , O O O X X X X X X X #.#.#.#.[ #.#.#.#.#.#.#.#.o.o.o.o.o.o.o.[ X O O X X O , , O X X X X O O O $ , , , , - - $ $ z z.-X`.R.a.3.I.I.u.KXKXKXKXKXKXKXiXKX#X5 X.X.@.X.h h h h X.X.@.@.@.@.X.h h h h h X.@.5 B B 5 5 5 B B F 6 6 6 F B 5 B F 6 6 6 6 1.6 6 6 F B B F 6 6 6 F F Q @XOX`.-Xz.z $ #.o.5. .r r r r | r r r r | | | | | | | 1X| | | | | | | | |  .| | | =.#.: XXXXXX].qXE qXXX2 2 2 : M M M z - M : 2Xz z z z +.=. .r eXeXeXeXeXeXeXeXeXeXeXeXeXeXeXeXeXeXeXeXeX| =.$ z z z M : 2 M 0 2 XXk.f =X=X&.&.* m.9.9.9.M.M.^.^.fXfXBXLXLXLXBXBXLXLXLXLXBX^.^.^.M.M.M.M.^.M.9.m.9.  < <         )         < < < < ",
"z , X X , , X [ [ [ [ [ % X #.#.- #.[ X 0 ^ <XFX;X;XxXAXGXxXAXAXxX*XD..XD.D.+X0X0X.X.X;XFX9X^ 2 : : 2 2 ^ 9XFX;X&X&X;X&XaX` ` +.- O % X - 0 ` 1XFX;XT..X.X.XT.T.;XFX| | r r r r r r r 5.#.#.- $ $ $ z $ $ - - 0 +.+.+.^ ^ ^ ` ^ ^ ^ z.+.+.- $ O O % O % % X , , , , - - - z z z O % % % % % % % O X X X , , - 0 - $ O X % % % O O O O X O $ $ $ $ $ $ - X X O O O O X #.#.$ z $ O , % [ [ % % % % [ O O X X X X O O O , , O X , , , , , , , , , , , , , , , , , X #.o.o.=.=.=.=.=.=.=.=.=.=.=.=.o.#.#.X X X , z , , X X O , , , O X O O O O O O , , , , - - - $ z +.z.6X`.R.}.V.{.{.I.u.8X8X8X8X8X8Xu.t.@.X.@.5 X.h h h h X.@.@.5 5 @.X.h h X.X.X.X.@.5 B 5 5 5 5 B F 6 6 6 6 F B 5 B F 6 6 1.6 1.6 6 6 F B B F 6 6 6 6 F 1.S.R.`.-Xz.0 z $ #.=.5. . .r | | r r r r r | | | | r | |  . .r r | |  . .r r r  .=.+.= ].qXqXqX].qXE qX].= M z z - z M z z : 2XXXM M z #.5.| eXeXeXeXeXeXeXeXeXeXeXeXeXeXeXeXeXeXeXeXeXeXeXeX .o.z z z M 2X2X2 ^ = qXq.f =X=XW e >Xc P.m.9.2.2.2.M.M.^.BXLXLXLXLXLXLXLXLXLXiXiX^.8XM.M.^.fXfX^.2.9.9.      <   <   <   m   < <   < < ",
"O , , , , , , O X % % [ [ X - - - 0 - - 0 +.9X=.1X<X-.!.lXgXAXxX+XT.+X+X+X+XD.D.+XD..XT.FX<X^ ^ 0 , % % , 0 ` -.~.x x ~.-.^ 0 - , , O % X - 0 ^ ` ` } aX;X;X;X;XFXFX|  .r r r r r r  .o.X , $ X X $ $ $ O X [ X , , , - 0 0 0 - - 0 - X X X X O O O O , O O % [ , 0 0 - - 0 - - - , O O % O O $ , X - - z , , O O O O % % O O $ O X X X , , , , , O O , , X X O O $ $ $ X $ $ , , , X X X % O O % % % % % % X X X X X X X X X O , , , , , O O O O , O O X X X X #.o.=.5. .r  . . . . . . . . .5.=.o.#.X , , , , O O O O O , , , , , , , , , , , , , , , , , , O O $ z z.6X`.L.R.R.}.@X}.}.}.}.}.V.V.S.l.X.X.@.5 X.h h h h @.@.5 5 @.@.h h X.@.@.@.@.@.5 5 5 5 5 B B F 6 6 6 6 F B 5 B F 6 6 6 6 6 6 6 6 F B B F 6 6 6 6 F 1.S.@XOX6X-X+.z $ [ [ o.o.=.=.5. . . . .r r | r | | | r  .r r r r | | | | | | =.9X^ : 2X].qXqX].].].qXqXqX].: M 2 : : 2 M M 2 2X2XM z o.| r eXeXeXeXeXeXeXeXeXeXeXeXeXeXeXeXeXeXeXeXeXeXeXeXeXeX5.o.+.z M : 2X2 = ].qXq.q.E E _ _ r.e &.c P.A.2.2.9.M.^.^.fXBXLXLXLXLXLXLXLXBXBXiXfXfXBXBXBXfX^.M.9.9.              )       )   <     ",
"O , , 0 0 - , , $ O O O , 0 0 +.z.9X9X9X9X+.9X9X9X` -.|.AXxX0X+XD.D.+X+X0X+XD.D.D.T.;X&XaX` ^ 0 , [ [ [ , 0 2 @ 3 <.<.3 . ^ - - , O O O X X 0 2 @ 3 x -.aXFXaX1X1X5.5. . . . . . .5.=.#.- z $ X X $ - $ $ O O O O % , X , , , #., , , $ $ $ $ z , , X , X O O % X , , - #.- #.#.#.[ [ [ [ [ #.#.#.#.#.- 0 0 z O O O O X X X $ $ $ O , , , , , , , O , O O O O O O $ $ $ O O O O , , , , , , , O O % % % O O O , , , , $ , , , , , , , , O O O O O O O O O X X X X o.=. .r r r  .r r  .r r r  .5.=.#.X - , , , O O O O O O O , , , , , , , , , , , , , , , , % % % % $ +.-X6X6X`.`.OX`.OX`.`.`.OXOXOXsX%X; X.@.@.X.h h X.X.@.5 5 5 @.X.h h X.@.@.@.@.5 5 5 @.5 5 5 B F 6 6 x.6 F B 5 B F 6 6 6 6 1.6 6 6 F B B B 6 6 6 6 6 6 S.@XOXVX-Xz.z X X X X X [ o.o.=.=.=.5.5. . .| | r r r r r  .r r  .| | | 1X<X^ = XXXXXX].].].].].'.].qXqXqX2X: = 2X2X= M z M 2 : z o. .eXeXeXeXeXeXeXeXeXeXeXeXeXeXeXeXeXeXeXeXeXeXeXeXeXeXeXeXeX=.+.M M 2 : = XXqXqXqXqX].] ] x <._ q.,.).P.    9.2.2.^.^.fXBXLXLXLXLXLXLXLXBXBXBXBXBXBXfXfX2.9.9.9.          <   <           < < < ",
", , , 0 - - - $ $ $ $ - 0 +.` ` ` <X1X1X<X9X9X+.` ` aX&XT..XD.D..X.X+X0X0X+XT.T.T.;XaX|.-.^ 0 - X [ [ [ % , ^ 2 . @ @ : ^ 0 - , X O % % X , 0 2 @ 3 3 e.` <X` 9X9Xo.=.5.5.5.=.=.=.o.#.- - - - X - - - X $ z z O % % O O $ , X #.X , - - - 0 0 - - - - #.X O O O % [ X - #.o.o.o.=.=.5.5.=.=.=.o.o.o.#.#.#.0 , , , , , , X X , , , , , , , X , , , , , O O O O $ $ $ $ $ O % O , $ - $ , , , , , O X X O , , , , , , z , $ $ $ $ , , , , O O O O O O O O , O , , X [ o.5. .r r  . .r  . . . .5.=.o.X , , , , , , O O O O O , , , , , , , , , , , , , , , , [ % % % % O z +.z.-X6X6X6X6X6X6X6X6X6XNXNXyXyXyXX.@.@.X.h X.X.@.@.@.5 5 @.X.h h X.@.@.X.@.5 5 5 5 5 5 5 5 F 6 6 6 6 F B 5 B B 6 6 6 6 6 6 6 6 6 B B B 6 6 6 F 6 6 1.S.OX`.-Xz.- X X X $ - X X #.#.#.#.o.o.=.5. .| | r r r r r r  .| | | | =.+.2X].].].].XX].XX].qX].].qXE qX].2X2X].XX2XM z z M M #.=.| eXeXeXeXeXeXeXeXeXeXeXeXeXeXeXeXeXeXeXeXFXeXeXeXeXeXeXeXeX| #.+.M ^ : XXqXk.qXqX].] ] ] ] ] '.<.q.=X/ A.< <   2.2.^.M.fXBXLXLXLXLXLXLXLXLXLXLXBXfX^.^.M.9.9.9.      <     <           < < < < ",
", 0 0 0 0 - - X #.#.#.#.9X1XFX&X&X;X;X;XFX1X9X9Xz.` 1X;X.X.X.X.X.XT.xXAXAX&X;X;X&X} ~.x @ 0 #.[ % % % % % O 0 0 ^ ^ ^ 0 - - X , X % % % O , , 0 M 2 2 0 9X9X` +.0 - [ [ [ X - #.- +.0 0 - - - - - 0 0 - - , O % % % O O $ , , X X - - 0 ^ ^ ^ - - 0 0 - X X O O O O O $ o.5. . . . .r r r  . .5.5. .5.=.=.o.o.o.#.#.- - , , , X , , , , , X , , , , z $ $ O $ $ $ $ $ O O O O $ z z $ $ $ $ $ $ $ $ $ $ - - $ $ $ $ $ - $ $ $ , , , , , , , , , , , , O O X X O , , [ o.5.5.5.5.5.=.5.=.=.=.=.[ X , z , , , , , , O O O , , , , , , , , , , , , , , , , , , , % % % % $ +.+.+.z.z.z.z.M +.+.z.z.VXNXNXyXh.yXX.X.h X.@.@.5 @.5 5 5 @.X.h X.X.X.X.X.@.5 B 5 5 5 5 5 5 B 6 6 x.6 F B 5 B B F 6 6 t.6 6 6 6 F B B B 6 6 6 F F 6 1.S.@XNX6Xz.+.$ $ $ - - X X , - - - - #.#.o.=.5.5. . . .r r r  . .| | 1X9X: XX].XXXXXXXXXX].].].qXqXqXq.q.qX].XX2X2X: M z z z z #.+.9X1X| eXeXeXeXeXeXeXeXeXeXeXeXeXeXeXeXFX1X<X<X1XeXeXeXeXeXeXr 5.+.z.: XXqXq.q.qXqX].].].].] ].].qXq.=X/ H A.< < 2.2.2.9.^.fXBXLXLXLXLXLXLXLXLXBXfX^.^.M.M.9.9.  2.                  9.9.< < < # ",
"- 0 0 0 0 - - - - - 0 9X<XFX;XT.T.T.T.T.FX1X9Xz.z.` <XFX;X&X&X&XxXaX} |.} aX<X` ` 3 <.3 : , X [ % O [ [ [ [ [ #.#.#., X X X X O O % % % X O , , , , % #.#.#.0 0 z z % % O $ - z z 0 0 0 0 0 - - - - - 0 , , X X O O $ $ $ $ z z 0 0 ^ z.` ` ` 9X9Xz.0 z z $ O % [ X $ $ o.5. .r r r r r r r r r r |  . . . .5.5.=.=.=.o.#.[ [ [ [ X X O O O O O O , z $ $ $ $ $ $ $ $ $ O O O O $ $ $ $ $ $ $ $ $ $ z $ z - - - - $ $ $ $ , , , , , , , , , , , , , , , O X X O , , O [ o.o.o.o.[ o.[ o.[ o.#.X , z , O O O O O O O O O O O O O , , , , , , , , , , , , , , , % % % % $ $ +.+.+.+.+.z z $ $ +.z.6XNXNXyXyXX.X.yXh X.@.5 5 @.@.@.@.X.h X.h X.h X.X.@.5 B 5 5 5 5 5 B B 6 6 6 6 F B 5 B B F 6 6 6 6 6 6 F 6 B B B F 6 F F F 6 1.S.@XOX6Xz.+.z $ $ $ - $ X X $ $ X - - - - #.o.=.=.=.5.5.5.5.5.5.=.=.=.^ 2X].qX].].XXXX].].].'.].qXqXE q.q.qX].2X2 M 2 M M M 2 2 = 2X-Xz.<X1XeXeXeXeXeXeXeXeXeXeXeXeXeX1Xz.-X-X-X-X<XFXeXeXeXeXeX1X+.: XXqXq.f q.E qXqX].].].].].].].].k.=Xc.A.A.A.  9.9.9.M.M.^.fXfXfX^.^.fXfXfX^.M.M.M.M.2.2.9.      9.            2.    9.  9.< ",
"#.#.#.- - - #.- - +.^ +.<XFX;X;X;XT.;X;X1X9X+.z.^ +.9X<X` -.~.~.-.~.-.-.` ` z.^ @ ].XX: 0 X , % % X [ o.o.o.[ o.o.o.o.o.[ [ X X O X X X O O O X X % % [ X - - - $ O X X X - - 0 0 +.9X+.+.+.0 0 - #.[ , , X X z z z - - - 0 +.+.z.z.` ` <X1XFXFX<Xz.z.+.0 z z #.#.- - - #.#.=. . . .1X .| | | r r  . .r  .| |  .5.5.5.=.o.=.=.o.o.[ X O O O O O O $ $ $ $ $ $ - - $ $ $ , , O O O X $ $ $ $ $ $ $ $ $ $ $ $ $ $ $ , , , O O , , , , , , , , O O O O $ $ O X X O , z z , , X X X , , , X X X , , , , O X X O O O O O O O O O O O , , , , , , , , , , , , $ z , O % % % O $ z z +.$ X X % [ [ +.z.6XNXyXyXh X.X.h X.@.5 B 5 @.@.@.@.@.h h X.h h X.@.@.5 B B 5 B 5 5 5 F 6 6 6 6 F B 5 5 B F 6 6 6 6 6 6 6 F F B B 6 6 6 F F 6 1.S.@XOX6Xz.+.- z z $ $ $ X [ X X X $ $ - - - #.#.#.o.o.o.o.#.o.9X#.#.+.= XX].].].qX].].qXqX].].].'.qXqXE E E qXXX: : 2 2 M M : 2XXXXX].XX-Xz.1XeXeXeXeXeXeXeXeXeXeXeX1X-X6X] ].'.] -X<XeXeXeXeXeX=.-XXXqXq.f q.q.qXqX'.].qX].].].qXXXe.] E &.P.A.A.P.P.q q o o 0.0.t t t t t 0.0.t /./.q P.A.A.9.    < <   2.    9.  9.  2.  < < < ",
"o.o.o.o.=.o.=.o.o.9X9X9X9X1XFXaXaXaXaX<X<X9X9X#.- - #.9X^ -.. @ . . ^ 0 - 0 ^ 2 2 = 2 0 , X % % X X X % X [ [ o.o.o.=.o.o.o.[ X , , X X O , , X % % % X $ $ $ $ $ $ $ $ - 0 ^ z.` ` <X<X<X<X` ^ +.- #.- - - +.+.+.+.9X9X+.z.z.` <X<X<XaX&X;X;XT.&X} ` ` z.z.+.+.^ ^ 0 0 0 - #.=.=.1X<X1X1X1X| | |  .| | 1X5.1X1X1X1X<X=.=.=.=.=.o.[ X O O O O O $ $ $ $ $ $ - - - - - - - , X % % % X O , , , , , , X , $ , O O O O X X % % % O O O , , , O O O O , $ $ , , $ , , , z z z , , , , , , , , , , z , , O X X O O O O , , , O O O O , , , , , , , , , , , , $ $ $ O X % , , - - - $ - X % % % [ +.-XVXNXyXyXh X.X.h X.@.5 B 5 @.@.@.H.@.h X.h h X.X.@.5 5 B B 5 5 5 5 B F 6 6 6 F B B 5 5 B F F 6 6 6 6 6 6 6 F B B F 6 6 F F 6 6 1.S.@X`.-X+.- z z z $ $ O % X X X X $ $ $ z - - $ X X X - - #.#.- 0 2 2XXX2X2XXXqXqX].qX].].XX].].].].qXqXE E qXXX2X= M +.^ 2X].].].'.].] z.1XeXeXeXeXeXeXeXeXeXeXeX1X-X] ].'.].'.] z.1XeXeXeXFX9XXXqXq.f f q.E '.].].].].].].].qX2X-Xe.'.,.c.P.c.&.W f A E E E '.'.'.(.'.(.E E E E E L.=Xd.c.P.A.A.A.A.< A.< < < < A.A.# # k k k ",
"5.5.5. . . . .5.5.5.=.=.9X9X` -.-.-.` 9X=.5.5.=.=.=.o.#.#.o.#.- , #.[ [ , - 0 , , , O O , , , , , $ z z z $ $ #.#.o.o.o.o.o.[ X , , - X , , , O O % O , z $ $ $ $ $ z 0 +.9X<X1XaXaX&X&X;XFXFX<X<X9X+.+.+.+.` <X<X1X1X<X<X` <XaX&X;X;X0X;XT..X.X*XxXaXaXaX<X` ` ` 9X9X` ^ ^ +.9X<X<X<X<X<X9X1X1X5.1X1X1X1X<X<X1XFX1X<X` 9Xo.=.o.[ [ X O O O O X O $ O O $ $ - - 0 0 0 0 - - X [ [ [ [ X X , , , , , , O O O X X X X X % % % % % O O O O O O O , $ $ $ $ z z - - - - - - - - - , , , , , , O O O , O O X X O O O , , , , , O O O , , , , , , , , , , , , $ $ $ $ O , , , - - - #.X X % [ [ $ z.6XNXyXyXh h X.X.X.@.@.5 5 5 X.@.l.5 @.X.h h X.X.@.5 5 B 5 5 5 B B B F F 6 6 6 F B 5 5 B B F F 6 6 6 6 6 6 6 F B B F 6 6 F 6 6 6 1.S.S.NX-Xz.- z $ $ z z O O O O O O $ $ $ $ $ z , , O , , - - - - 0 : 2X2X: 2 2X].qX].].].XXXXXX].].XXXX].'.E qXqX].2X^ 9X^ XXXX].].].].6X9X1XeXeXeXeXeXeXeXeXeXeXeXeX9X-XXX].'.].] -X<XeXeXFX1X-XqXE q.q.E qX'.XXXXXXXXXX].].].].XXe.] E W &.&.W E ] e.@ -Xz.z.+.z.+.z.z.z.z.z.z.z.-Xe.].q.f =Xd.c c c c.c.c.c.* c c c d.( &.&.K ",
" .r r r r r r r | | | | | =.9X^ ` =.5.| r r r r r  .5.5.5.5.=.=.o.o.o.[ X X , X X X X , z , X , z z z 0 - - - - - - X X [ [ [ , , - - - X , , O X X , z z $ X $ X #.- +.9X1X;XT.T.T.T.T.T..XT.;XFX<Xz.z.` ` aX&X;X*X;X&X&X&X&X&X;X.X.X.XD.+X+XD.D.+XT.T.*X;X&XaX&XFXFX<X` ` ` aX&X&X&X&X} } } <XaXaXaXaXaXaXaX;XT.;XaX` ` +.$ [ % % X $ $ $ $ $ $ O O O O $ - - 0 +.0 +.- - #.[ o.o.o.o.o.o.o.o.[ X X , O O X X X X X X X % % % O O O O O , O , z z z z z - - - - X - - - - - X X X X O O X X X X O O , O O O , , , , , , , O O , , , , , , , , , , , $ $ $ $ $ O , , X - #.- - - X [ [ [ - z.6XNXyXyXh h X.@.X.@.@.5 5 @.@.@.B 5 @.h h h h @.@.5 B 5 5 5 5 B B F F 6 6 6 6 6 B B 5 l.B B F 6 6 6 6 6 6 6 F B B F 6 6 6 F 6 1.1.1.S.OX6Xz.+.- $ $ $ , O % O O O O $ $ $ $ z $ $ X [ [ [ #.[ #.#.- 2 2XXX= ^ = ].].XXXXXXXXXXXXXXXX] ].].].].qXqXqX].= +.: XXXX].].].].-X1XeXeXeXeXeXeXeXeXeXeXeXeXeXeX<X-X].qX].].6X-X1X1X<Xe.E q.q.E qX].].XX6XXXXXXXXXXX].].qX].].qXE q.k.<.e.^ ^ ^ 0 z - - - - 0 +.0 +.0 +.+.+.+.^ 2 . e.3 x <.E k.k.q.q.k.k.k.k._ _ <.<.<.(.",
" . . . . . . . .5.5.5.5.=.o.o.9X=.5.| r r r r  . . .5.5.5.=.5.5. .5.=.=.=.o.=.o.o.[ [ o.[ [ o.[ [ [ [ o.o.=.o.#.- z $ , X X X , , z - - X X , X X X $ z - X $ , , - +.+.` 1X;XT..XT.T..X.X.XT.FX<X` ` ` aX&X;X*XT.T.T.+XT.*XxXxXT..X.XD.+XD.D.D.0X0XD.B.B..XT.+XT.;X&X} |.<XaX;XT.T.T.*XxXxX;X;X;X;X0XT.*X0X0XT..XT.&X} z.^ z O O O $ $ - - - , , , O % % O , - 0 0 +.+.- +.#.o.o.=.=.=.5. .5.5.=.=.o.#.#.#.#.#.#.X X X , , , , % % % X X , , , $ z z - - - - - - - - - z z - $ O X O O O O X X X , , , , O O , , , , , , , O O , , , , , , , , , , , , z z z $ O X X X - - - - , O % [ $ +.-X`.NXyXyXh X.@.@.X.@.@.@.5 5 @.5 B 5 X.h h h X.@.@.5 5 B 5 5 5 B F 6 6 6 6 6 6 6 F B 5 5 B B F F 6 6 6 6 6 6 F B B B 6 6 6 F 1.6 1.t.1.@X`.-X+.- X X $ , O % $ O $ $ $ $ - - - #.o.o.=.=.=.=.=.=.=.=.o.2 2X2XXXXX].qX].XXXX].XXXX].XX].].].].XX].qXqXqX].= 2X].].].qX].].-X1XeXeXeXeXeXeXeXeXeXeXeXeXeXeX1Xz.] qX].'.].6Xz.-X] E E E qX'.'.XX] XXXX].].XXXXXXXX].qXqXqXqX].XXe.. ^ ^ 0 , [ X , , , , , , , z z z $ - - - +.+.^ ^ . @ @ @ @ @ e.e.e.e.e.e.e.e.e.e.e.",
"=.=.=.=.5.=.=.o.=.=.o.=.o.=.=.5. . . .r  . .5.5.=.5.5.5.5.5.5. .5.5.=.=.=.=.=.=.o.o.o.o.o.o.o.o.o.o.o.=.5.5.=.o.#.X X X , , , , , , $ $ X X , O , X $ z $ X O , , , - +.z.1X;XT.;X;X+X0X;X;X&X<X` ` z.<XFX;XT.T.T.+XD.T..X*XxXAXxX0XxXGXxX0XD.D.0X0XD.W.B.B.B.B.B.+XxXAXAX&X;XT..X.XD.D.+XD..X.XD.+XD.B..XT.T..XB..X;X} z.^ z O O $ $ - - - - - , , % % % % O - 0 0 +.0 +.+.#.#.o.o.o.=.5. . . . .5.=.=.o.o.o.o.o.o.#.#.#.#.- #.[ [ [ [ [ [ X X #.X - #.#.X $ $ $ $ $ $ , , $ $ O O O O O O O O , , , , , O O , , , , , , , O O , , , , , , , , , , , , $ z $ O % % % X , $ $ $ , O % % z z.6XNXyXyXh h X.@.@.X.@.@.@.5 5 5 B F @.X.h h h h @.@.5 5 5 5 5 5 B F 6 6 6 6 6 6 F F 5 l.5 l.B B F 6 6 6 6 6 6 6 B B B 6 6 6 F 1.1.1.1.1.@XOX6Xz.- X X X , O [ $ $ $ - - - - #.#.o.=.5.5. . . . . . . .5.o.2 XX].].qXqXqX].XXXX].].].].].].].XXXX].qXqXE qX].XXXX].].qX].].z.| eXeXeXeXeXeXeXeXeXeXeXeXeXeXFXz.XX].].].].].6X'.E q.E qX] ] ].XXXX] ].].].XXXXXX].].qXqXqX].XX: z.z.^ ^ 0 , [ % O , , , , O , , , $ $ $ X X - - - +.^ ^ ^ +.+.+.+.+.^ ^ ^ 2 . . . . @ ",
"- #.#.#.#.#.#.#.#.o.o.=.=.5. .r |  . . .5.5.=.o.o.o.=.=.=.=.=.=.o.[ o.o.[ o.[ o.[ o.[ [ [ o.o.o.o.=.=.=.5.5.=.o.o.o.o.[ X , , , , , $ $ $ O , , , $ $ - X X % O O X #.+.z.<XFX&XaX} AXAXAX} ` -.+.+.0 9XFXT..XT.0X0XT.T.;XxX} |.!.!.DXDXlXAX0XD.D.D.B.B.D.D.D.W.B.+XGXxX0XT..X.XT.*XD.D.B.B.B..X+X+X+XD.D.+X+XD.B..X;XaXz.+.$ O O $ - - 0 0 0 - - , % [ % % % , - 0 0 +.+.- - - - - - #.o.5. .| r r  . . . . .5.5.5.=.=.=.o.9X=.o.=.o.o.o.o.o.o.o.#.#.#.o.#.X $ $ $ $ $ $ $ $ X X O O X O O , , , , , , , O O , , , , , , , O O , , , , , , , , , , , , , z , % % % % O O O O X X X [ X 0 -X6XNXyXyXh h X.@.H.@.@.@.@.5 B B F B @.X.h h h X.@.@.5 5 B 5 5 5 B F 6 6 6 6 F 6 F B 5 5 5 5 5 B F 6 6 6 6 1.F F B B B F 6 1.1.F 1.1.1.1.@XOX6Xz.0 , X , , , [ $ $ - - - #.#.o.=.5. . .r r r r r  .r r  . .9XXXqXqX'.qXqXXXXXXX].qXqXqX].XX2XXX].].qXqXE E qXXX2XqX].].].XXz.1XeXFXeXeXeXeXeXeXeXeXeXeXeXeX1Xz.XX].'.].] XX] E q.E E '.] XX].'.].].].].].XXXXXX].].].qXqX].2Xz.z.+.z.+.- X % % X X % % O , O % % X X O X O , $ - z +.+.+.+.0 0 0 - +.+.^ z.^ ^ 2 . . ",
"$ $ - - - $ $ $ $ #.#.#.o.o.o.=.=.o.o.o.o.o.o.=.5.5.5.=.o.o.[ X X X X X [ [ [ [ [ [ X X O O X X [ [ [ [ [ o.[ [ [ [ [ X , , , , , , O O , , , , , $ - - - X , O % X [ - - 9X9X-.~.y.!.!.~.|.` +.0 0 0 =.1XFXaX|.y.y.|.` <X<X` |.|.~.y.y.!.xXD.B.W.B.W.B.D.D.B.W.W.B.+X+XD..X.XT.*X*XD.D.D.+XxXgXgX0XD.B.D.D.D..X.X;XaX` 2 M $ % % X X , , , X X X - X X O z M 0 0 0 ^ ^ +.+.^ +.+.+.#.o.=. .r r r r r r r | | |  . . .| 5.5.5.5. . . .5.| 5.1X1X1X1X1X=.=.=.o.#.#.+.0 - X $ $ $ $ $ $ , , X , , , , , $ $ , O X X X , , , O X O O O O O O O O O X X X X O O O X $ $ O % % % % % % % % O +.-X`.NXyXh h h X.@.@.X.@.@.5 B B F F B @.h h h X.X.@.5 5 5 5 5 B B F F F F F 6 6 6 F B 5 @.l.5 l.B B F 6 6 6 6 F 6 F B B F 6 6 1.F 1.6 6 6 S.@X`.-X0 [ [ % , X #.[ #.#.o.=.=.5.5.r r r r r  .r r  . . . .| | =.-X] E E E '.'.'.].].qXqXqXqX].].qXqXqXqX].qXqXqX].XX].].].].XXz.<XFXeXeXeXeXeXeXeXeXeXeXeXeX| <X-XXX].].].XX].qXE E E qX] XX] ].].].] ].'.qX].].].'.'.'.E qXXXz.9X<X9X9X9X9X#.#.#.X , , , , z , % % O $ $ $ $ $ $ $ $ $ $ $ $ $ $ X X X X - 0 0 M 2 2 : ",
"$ $ $ $ $ z z z $ $ $ X [ [ X X X X - , X [ o.=.5. .=.o.[ O O , O O O O O O X X O O O O , , , , , X X X X X X , , , , , , , , , , , , , , , , , , $ - - - - , X X % % , - - +.. @ e.3 e.-.^ 9X#.0 0 - 9X9X` -.x _ _ x -.-.` 9X<X9X` ` |.} &XT.D.D.B.W.B.D.B.B.W.W.+X0X0XD.B.D.D.D.D.D.B.D.xXgXDXDXAX+XD.B.B.B.D.0X} |.e.2 0 , % % X $ $ $ X X X - - - +.^ ^ ` 9X<X<X9X9Xz.z.z.` 9X9X=.5. .r r r r  .| | | | | | |  . .| r r r r r r  .| | FXFXFXFXFXFXFXFX1X1X1X<X` ` 9X+.0 - $ $ $ $ , , X , , , , $ $ $ O O , , , , , , O O O O O O O O X X X X X [ [ [ % X $ - z z % % % % % % % % , z.6XNXNXh.h h h @.@.@.@.@.5 5 B F F F B X.X.h X.X.X.@.5 5 5 5 5 B F F 6 F F F 6 6 F F B B 5 5 5 B B B F 6 6 6 6 F 6 F B B F 6 6 6 6 1.6 6 6 S.@XOX6X+.[ [ [ [ o.o.o.=.=.=.5.| r r r r  .r | |  . . .5.1X1X1X1X1Xz.6X`.`.`.'.`.'.'.'.qXE qXE qX].].qXqX].].XX].qXqX].].].].].XX= -X9X1X1XFXeXFXFXFXFXFXFX1X1X9X= XXXXXXXXXX].qXqXqXqXE qX].'.].'.].].].].qXqX'.] ] ] 6X6X`.`.6X6X-Xz.<X<X=.=.o.=.9Xo.#.[ [ , z z X % % $ $ $ $ $ $ O X O O % % O % % X X X X O z M M 2 2 ",
"$ $ $ $ $ z z z z $ $ $ X X , , , , , , , X o.o.=.=.o.[ X O , O O O O O , , , , O O X O O O , , X X X X X X X , , , , , , , , , , , , , , , , , , $ - - - - , X X % O O , X 0 ^ M M ^ ^ ^ 0 - #.- - , 0 z.z.|.~.|.|.` ` ` ` aX1X1X1XaXaXaX&X0X0X+XD.B.B.D.D.D.T.+XxXgXGX0X.XB.B.D.B.B.B.D.AXlXF.DXgXxX+XD.B.D.+XAX!.(.e.^ 0 - , , $ $ z $ $ $ - +.+.z.z.z.` aXFXFXFXFXaX<X` <X<X1X1X1X1X| | r | | | | | | 1X| | | | |  .r r r r r  .| | 1XFX&X&X;X;X;X;X;X;X&X&X&XaXaX<X<X+.+.- $ $ $ , , X X X , , $ $ $ O O , , , , , , , O O O O O O X X X X X [ [ [ [ [ X - z z z O % % % % % % , +.-X6XNXyXyXh h h @.@.X.@.5 B F F F F B 5 X.X.X.@.@.X.@.5 5 5 5 5 B F F 6 F F F 6 6 F B B B B l.B B l.B B F 6 6 6 6 6 F F B B 6 6 6 1.6 6 6 6 1.@XOX6X+.o.o.o.o.o.=.=.=.5.5. .r r r r |  .| | 5.1X1X1X1X1X1X1X<X<XHXHXVXVX6X`.6X6X`.E E E E E qXXX2X2XXX].XXXXXXqXqXqX'.].].].XXXX].] -X-X-XHX9Xz.z.z.z.z.-XXX].qXqXqXXXXXXXqXqXE qXqXE qXqXqXqX'.qX].qXqXE '.] 6XVXVXVXHXVXNX`.`.VXVX-XHX<X1X1X1X5.=.=.=.=.#.- z X % % $ z z , , $ O X X X % % % % O O O O O $ $ z M M M ",
", , , $ $ , , z , , , $ X O , , , , , , , X [ [ o.o.[ X O O O O O X X O , , , , , O X O O , , , , X X X X , , , , , , , , , , , , , , , , , , , , $ $ - , X , X % % % X X X X , , O % X X #.#.#.#.X O M z.-.|.} &X;X;X;X&XFX;XFXFXaXaXaXaXxX*X+X+XD.D.+XxXAX} } ZXlXlXAXT..XB.D.+X+XD..X0XAXZXDXSXgXxX+XD.+X0XxX} !.~.-.^ 0 0 - - - 0 M M 0 +.+.z.z.z.` } aX;XT..XT.T.*X&X&X&X;X;X;X;XFXFX1X1XFX1XaX1XFXFXFXFXFXFX1X1X5.5. .r r r | | FXFX;X;XT.+XT.T.T.T.*X*X*X*X*X;X;XFX1X9X+.z $ , O O % X X X , $ $ , , , , , , , , , O X X X O X X X [ X X X X [ [ [ [ X - 0 M z O % % % % O X - z.-XNXNXyXh h h X.@.@.@.l.B F 6 6 6 F B @.X.X.@.5 @.X.@.5 5 5 5 5 B F 6 6 F F F 6 6 F B B F F B B B 5 5 B F F 6 6 6 6 1.F B B F 6 6 6 6 6 6 6 1.@XOX6Xz.- [ [ [ #.#.#.o.=.5.r r r r r | | 1X<X9Xz.HXHX<X1XzX<XHXzXHXHXHXzXHXHXzXHXHX`.`.`.'.'.'.e.-X= XX].].].].qXE E qX].].].XX].qXE E E E E qX'.qX].].'.E E E E qXqX].XX].qXE qX'.qX'.qXqXqXqXqXqXqXqX'.'.`.VXHXzXzXzXzXHXPXVXVXNXVXVXVX6XHX<X1X| |  . . .o.- z X X X $ z z z , , , O O X X X X X O O $ $ $ $ $ z z z 0 ",
", , , O X O , , , , , O X O , , , , , , , O X X X X X X O O X X O O O O O X , , , O O O O , , , , , , , , , , , , , , , , , , , , , , , , , , , , $ X , , X , X % % % % X X [ % O O O X X #.#.#.#.X X - 9X<X} &XT..X.XT.T.T.T.;XaXaX&X&X&X0XT.D.D.D.D.xXZXtXP P P bXJ.aX;XT.;XxXgXAXxX;X;XxXAXgXgXGX0XD.D.+XxXxXAX} ` ` ` ` ` 9X9X+.z.` 9X9X9X` ` } aX&X0X*XD.B.B.B..XD.*X*X.X.X.XT.T.;X&X&X&X&X&X&X&X;X*X*XT.;X;X&XFX1X1X| | | | | FXFX;XT..X.XB.B.D.D.D.+XD.B.B.B..XT.;X1X` z.0 , O O % % % % X X , , , , , , , , , , , X X X X X [ [ [ [ X X O O X X [ [ , 0 0 z $ O O % O , z +.z.-X6XNXyXyX; h X.@.@.@.@.B F 6 6 6 6 6 5 @.X.@.@.B @.X.@.5 5 5 5 5 B F 6 6 F F F 6 6 F B B F F Q B 5 5 l.B F F F 6 6 6 6 F B B F 6 6 6 1.6 6 6 1.S.@X`.-X+.z X $ $ - z z X =. . .5.5.| 1X1X<X9XHXHXHXHXzXzXzX7XzXzXzXzXzXzX7XzX7X7XzXVX`.`.`.] ] XX2XXX].'.].].'.qXqXE E qX].XXXX].qXE L.L.f f f f q.E E E E E qX].qX].].].qXqXqXE qXqX] XXXX].qXqXqX'.qX'.`.VXHXzX7X7XzXzXzXzXzXPXzXPXPXVXVX6XHX<X1X| r r  .=.#.- $ X % , z , , , , $ $ $ $ $ $ $ $ $ $ $ $ $ $ $ $ $ $ $ ",
"O O O X X X O O O O O X X X O O O O O O O X X X X X X X X X X O , , , , , X X , , , , , , , , , , , , , , , , , , , , , , , , , , , , , , , , , , O O , , , X % % X O O O O X X X - z 0 0 - - $ X X X #.<X&X;XT..X.XD.T..X.XT.AXAX&X*XT.*X*X*X+X*X+X+XxX} J.bXnXbXJ.-.|.ZXZXZXJ.P tX~.aX&X;X+X+X+X0X+XD.B.D.T.T.;XaX<X<XaX<XaX<X` ` } aXFX;X&X&XxX;X*XT.B.D.D.D.D.+X+X0X+XD.B.B.B.T.*X0X;X*XT.T.T.*XT.T..X.X.X.XT.*X;X;XFXFXFX| | | 1X1XFX;XT..XB.B.D.D.T.+X+XD.D..XT.;X&X` z.z.0 , O O % % % % X X X , , , , , , , , , , , X X X [ [ [ [ [ X X , , , X X X - 0 z - $ % % % O z z z.-X6XNXNXyXh X.X.X.@.@.@.l.F F 6 6 6 6 6 5 X.X.X.@.B @.X.@.5 B 5 5 5 B F 6 6 F F F 6 6 F B B F F B 5 5 l.B B F F F 6 6 1.6 F B B F 6 6 6 F 6 6 6 6 1.@XNX6Xz.z $ z $ $ $ z z #.o.o.#.9X<X9XHX<X<X7X7X7XzX7XzX7XzX7X7X7X7X7X7X7X7X7X7X1XHX6X`.E E E '.].'.].XXXX].'.] '.E qXqX].XXXX].].].'.E E E E E E qXqXE '.] 6XXXXX].].].qX].'.qXE '.XX@ @ XX].].].'.'.`.`.VXHX7X7X7X7XzX7X7X7X7X7X7X7XzXzXHXVXHX<X1X| r  .o.#.$ $ X X O , , , , , , $ $ $ $ $ - - $ $ $ $ $ $ $ $ $ $ $ ",
"X O O O O O X X X X X X X X O O O O X X X X O O O X X X X X O , , , , , , , , , , , , , , , X , , , , , , , , , , , , , , , , , , , , , , , , , , X X O , , X X X X O O O O $ X X - 0 +.0 - - $ % % , +.<X&XT..X.XD.+X+X.X.X*XAX} xXT..XT.*X+X+X0XGXGXxXxX} J.bXJ.-.|.y.tXtXG.P 9 P J.` &XT.B.B.D.+XD.D..XD.T.*X&XaXaX&X;X;X;X;X&X&X&X;XT.T..XT.+X+XD.B.W.B.D.D.D.D.0X0X+XD.B.B.B.+X0X0XxX*X.X.X.X.XT.D..X.XB.B.B.D.T.T.;XFX1X1X5.5.5.<X<XaX&X;X;X+X0X0X0XxXAXxXxX;X;X&X<X` z.z.- , O % % % % % X X X , , , , , , , , , , , , X X #.#.X X X X X X , , , , - 0 0 0 - X % % % O , +.z.6XNXNXyXh h X.X.@.@.@.l.B F 6 6 6 6 6 6 5 X.X.X.@.B @.X.@.5 B 5 5 5 B B F 6 F F F 6 6 F F F 6 Q B @.@.5 B F F F F 6 6 6 6 1.F B F 6 6 6 1.F F F 1.1.@XOX6X-X+.- z z X X - - 0 0 +.z.-X-XHXHXzX7X7X7X7X7XzX7X7X7X7X7X7X7X7X7X7X7X7X7XzXHX6X`.'.qXqX'.qX'.] 6Xe.] ].XX] '.'.'.].XX].].XXXX] '.'.'.'.E '.'.'.'.'.] 6X6X] ].XXXXXX].qXqX'.].].XX2XXXXX].'.'.`.`.NXVXzX7X7X7X7XzXzX7X7X7X7X7X7X7X7XzXHXVXHX<X=.5.=.o.#.$ $ X % O $ , , , , , , $ $ $ z - - $ $ $ $ $ $ $ $ $ $ $ ",
"X O , , , , O X X X O O X X O O O O O X X X O O X X X X X O , , , , , , , , , , , , 0 , , , X X X X X , , , , , , , , , , , , , , , , , , , , , , O X X X X X X X X X O O O $ $ - - - #.- - $ O % O - ^ 9X&XT..X+XxXxXxX;X;X&X} AX0X*XD.+X+XD.D.GXgXGX0XT.;XaX|.} } |.!.tXtXSXtXtXJ.|.aX&X*XB.B.D.D.D.B.D.+X0XxXAXaXaX&XT..X.X.X.XT.+XD.B.B.W.W.B.D.D.B.W.B.B.D.+X0XxXAXxX0X+X+X+X0X&XAXAXxXT..XB..XT.T.+X0X+XD.B.B..XT.&X<X<X9X=.=.=.9X` ` } } aXaX} } } |.!.!.|.} <X<X<X` z.+.- O O O % % % % X X X , , X , , , O , , , , X [ #.#.#.X X - X - - - - - - 0 0 0 z z O % % O , - z.-XVXNXyXh.h h X.X.X.@.5 B B F F 6 6 6 6 F 5 X.h X.@.B @.X.@.5 B B B B 5 B F 6 F 6 6 6 6 F F F F B @.@.@.5 F F F F F 6 6 6 1.6 F F F 6 6 1.F F F F 6 1.S.@X`.6Xz.+.0 z X X #.#.M ^ z.-X6X6XVXzX7X7XzXzXzXzX7X7X7X7X7X7X7X7X7X7XzXzX7XzXzXVX`.] ] XX].'.'.'.] 6X6X].'.XX] '.].].XXXXXX].XX6X] '.'.`.`.`.`.`.`.`.`.6X6X] '.].XXe.e.] E qX].].'.].] XX] '.`.`.`.`.VXVXzX7X7X7X7XzXzX7X7X7X7X7X7X7X7X7X7XVXVX-X9Xo.o.#.$ $ O O % X O O , , , , , $ $ $ $ - - $ $ $ $ $ $ $ $ $ $ $ ",
"X O , , , , O O O O , , O X O O O O O O X X O O X X X X O , z z z , , , , , - X - , , 0 0 , , , , , , , , , , , , , , , , , , , , , , , , , O O O O O X X X X , , , O O O X , z z z - X X , , O O O - ^ ` aX;X;X} tXP tXJ.|.} AXxXT..XD.D.D.B.B.D.+X+XD.B.B.D.+X*X0XxXAXxXuXxXxXxXxXxXAXxX*X.XB.B..XB..XD.0XAXAX} } AXAX0XD.W.W.W.W.B.B.D.D.B.B.D.D.+XD.B.W.D.+XGXgXDXr._ y.!.!.!.!.~.|.} &X;X;X;X;XxX&XaX} AXxXT..X.X;X1X9X9X+.- - #.#.+.^ -.-.~.x x x tXx 3 e.. ^ ^ 9X+.+.^ ^ z O O O O X X X X X X , , X , , , , , , X [ o.=.=.o.o.o.#.#.#.o.o.#.#.#.- - +.+.0 z O O O $ +.+.-XVXNXNXyXh h @.@.@.@.@.l.B Q 6 6 6 6 6 F B @.X.X.X.@.5 @.@.@.5 B B B B B B F F 6 6 6 6 6 F F 6 F B @.X.X.5 F 6 6 F F 6 6 6 6 6 F F F 6 6 6 1.F F F 6 1.S.@XOX6X-Xz.z.0 X X #.#.#.9X+.-X6XVXzX7XzXzXzXzXzX7X7X7X7X7X7X7X7XzX7X7X7X7X7X7XzXVX`.] '.].].'.`.6X'.'.].'.'.'.'.'.'.XXe.-Xe.XX] XX'.6X6X`.`.L.OX`.`.`.`.`.'.`.'.'.] e.e.] qX'.'.'.'.'.'.'.'.`.`.`.NXNXVXzXzX7X7X7X7XzX7X7X7X7X7X7X7X7X7X7X7XzXVXVX-X+.#.X X X $ O % X X O , , , , , O O O O O O , , $ $ $ $ $ $ $ $ $ ",
", , X X , , O , , , , , , O O O O O O O X O , O X X X O , , , , , , , , , #.o.o.o.o.#.X , X X , , z z , , , , , , , , , , , , , , , , , , , O O O , X O X X , , , , $ $ $ $ - - z $ $ z 0 0 0 0 0 0 +.z.` <XFX1X` J.tXJ.ZX} AXxXT.T.+X0X+X+XD.D.D.D.D.D.D.B.B.D.D.+X0X0X0XT.JXJXJXJX.X+X0X0X0X+X0XxXAXAXxX0X0X0XxXAXAXxX+XD.W.K.W.B.D.D.D.D.B.B.B.D.D.D.B.B.D.0X} (.r.A k._ (.x ~.~.-.` ` <X<X` |.!.!.J.J.x ~.|.aXFXFX1X9X+.0 z z $ $ $ #.- ^ 2 . @ @ @ . : : 2 M 0 - - - - - - , O , , O , , , , , , , , , , , , O O , X o.=. . .5.5.5.5.5.5.5.5.5.=.=.=.o.#.#.#.#.X % O +.z.-X6XNXNXyX; h X.5 @.@.@.5 5 B F 6 F 6 6 6 F 5 @.X.X.X.X.5 @.@.5 5 B B F F B B B 6 6 6 6 6 F F F 6 F B @.X.@.5 B F 6 F F 6 6 1.6 1.6 6 6 F 6 6 1.F F F 6 6 1.S.@XNXVX<X9X9X=.=.=.=.5.5.<X-XVXVXzX7XzXzXzXzX7X7X7X7X7X7X7X7XzX7X7XzX7XzX7XzXHXVX`.`.`.'.'.6X6X6X6X'.`.'.qX'.qX'.].] XX6XXX'.'.'.`.6X6XVXNXNXNXNXNX`.`.`.`.`.'.'.'.] ] '.'.'.'.E '.'.`.`.`.`.NXNXVXPXzXzXzXzX7XzX7X7X7X7X7X7X7X7X7X7X7X7X7XzXVXNX6Xz.- , X X , O % X , , , O O O O X X X X X X O , , , , , , , , $ $ ",
", , X [ X X , , , , , , , , O X X O O O O O , O X X X X O , , , , , , , #.o.=.5.5.=.o.o.o.o.[ [ X , , , , , , , , , , , , , , , , , , , , , O O O $ $ O O O , , - - - $ $ - 0 0 +.+.+.^ +.9X<X9X` z.z.+.+.9X<X<X` ` } aXAXxX0XT..XD.+X+X0X0X0X+XD.D.D.+XD.D.B.D.+X+X0XxX0XD.B.B.B.B.W.W.+XxXAXAXZXlXlXlXuX+XD..X*X0X0X+XB.JXK.K.W.D.+X0X0XT.D.D.D.D.B.D.D.D.T.xX|.x <.<.x 3 3 e.-.-.` z.` z.z.-.3 tXtXtX<.<.J.-.-.` 9X9X0 M M z $ O O $ X , , 0 0 0 0 , % , , , , X X O , , X X O O , , , , , , , , , , , , , , O O O O X o.5. .r r r  .r  .r |  .|  . .5.1X5.=.=.=.o.o.#.z.-X6XNXNXyXyXh X.@.5 5 5 @.5 5 B F 6 6 F 6 6 F @.X.X.X.h X.@.@.5 5 B B F F F F B F F 6 6 6 6 6 F 6 6 F B @.@.@.5 B F 6 F F F F 6 6 6 6 6 6 6 6 6 6 6 F F 6 6 1.S.@XOXVX<X<X1X . . . . .| <X-XVXPXzX7XzXzXzXzX7X7X7X7X7X7X7X7XzXzXzXzXzXzXzXzXzXVXNX`.`.6X6XHXHXHX6X`.'.'.'.'.'.'.XX'.'.] '.'.'.'.'.`.NXVXVXVXNXVXVXNXNX`.`.`.'.`.'.'.'.'.'.`.'.`.'.`.`.`.`.NXNXVXPXzXzXzXzXzXzXzX7X7X7X7X7X7X7X7X7X7X7X7XzXzXNXNX6Xz.- , % % O O % X , , , X X X X X X X % % % % % % , , , , , , , $ ",
", X [ o.o.[ X , , , , X , , X X X X O O O O , O X % X X X O , , , , , , o.5. .r r  .5.=.=.=.=.o.o.[ [ [ X X X X X , , , , O , , , , , , , , O O X $ $ $ O X , - - - - $ $ 0 z.z.+.z.z.z.<X1XFX&XaX` 9X+.` +.9X+.<XFX;XT.T.D.T.+XD.D.B.D.0XGXGX+XD.B.D.D.D.D.+X+X0XxXAXZXgXxX+X+XD.D.B.B.+XGXgXDXSXSXSXlXcX+XJXT.+X+XT.B.W.K.K.K.W.B.+XAX} AXAXGX0XD.JXD.+X0XxXaX|.. 2 2 ^ ^ -.-.-.` ` z.-.z.` ` ` |.|.|.-.-.-.^ 0 0 - , 0 0 - $ $ % % % O , , , , [ [ [ [ [ % % % % % O O % % O O O , , - - - - , , , X , , , O O O , , , #.=. . .r  .r | r r r r | r | | 5.| |  .5.5.=.9Xz.6XNXOXyXyX; h @.5 5 5 @.l.@.@.B F 6 F F 6 6 B @.X.X.h h h X.@.5 B B B F 6 F B B F F 6 6 6 6 6 6 6 6 F B 5 5 @.B Q F 6 6 F 6 6 6 1.6 6 6 6 6 6 x.1.6 6 F F 6 6 1.S.@XNXHX<X1X| r r r r | <X6XNXPXzX7XzX7XzXzXzXzXzX7X7X7X7X7XzXzXzXzXzXzXzXzXzXzXHXVXVXVXHX1X<XHX6X`.'.`.'.'.].'.] '.'.] '.E '.`.`.`.VXVXPXPXPXPXPXVXVX`.`.`.'.'.`.'.`.'.`.'.`.`.`.`.`.NXNXVXPXPXPXPXzXzXzXzXzXzX7X7X7X7X7X7X7X7X7X7X7X7XPXh.OXOX`.z.- X % % O % % X $ X X X X X X % % % % % % % % % X , , , , , , $ ",
"[ o.=.5.5.5.=.o.[ [ #.X , , , X X O O O , , , , O X X O O O , , , , , , [ 5. .r r r  . . . . .5.5.=.=.=.=.=.o.o.o.o.#.#.#.#.X , , , , , , , , , , , $ X X O O , - - $ $ $ +.z.` <X1X&X&X&X;XT.T.0X&XFX9X+.+.+.z.9XFX;X.X.XB..XD.B.B.W.D.GXGX+XD.D.D.B.B.D.0XGXxX0XxX} _ r.y.gXGX0X+XD.B.B.+XxXAXgXgXuXcXJXJX+XGXgXgXxXJXW.JX:.W.W..X0X} DXDXSXlXgXcX+X+XxXAX} } ` ^ 0 - - +.` 1XFX&X&XaX} aXFX;X;X;X;X;XaX} -.^ ^ - - - - - - $ O % % % % % O , X X [ [ % % % % , O O O O X O O O , , , , , , , , , O O X X O O , O O , , , o.5. . .r | | | r r r r r | | | | | |  .5.1X<XVXNXOXyXyX; h @.@.5 5 5 5 @.5 l.F 6 F F F F 6 B @.X.X.X.h h X.@.5 5 B B 6 F F B B F 6 6 6 6 6 6 6 6 F F B B 5 5 5 F 6 6 6 6 F F 6 6 6 6 6 6 6 6 6 6 6 6 6 6 F 6 1.1.@XOXVXHX1X| | | r r r 1X6XNXNXzX7X7X7X7X7X7X7XzXzXzXzXzXzXzXzXPXzXzXzXzXzXzXzXzXzXHXzX7X7X7XHXVX`.`.`.'.'.'.'.'.'.`.6X`.`.`.'.`.`.NXVXPXPXPXVXPXPXVXVX`.`.`.`.`.`.6X`.`.`.`.`.`.VXVXVXPXHXzXzXzXzXzXzXzXzX7X7X7X7X7X7X7X7X7X7X7XzXPXPX%X@X@X@XNX-X+.$ O % % % , , - , , z , , , , O O O % % % X X X X , , , , , , ",
"o.o.=.5.5.5.5.=.o.[ X X , , , , , , , , , , , , O O O O , , , , , , , X o.5. .r r r  . .r r r r  . . . . . .5.5.5.=.=.=.o.o.o.o.o.o.o.o.X , , , , , $ X % O % O , z $ $ $ z +.<X&X*X.XT.+X*XD..XT.;XFX9X+.$ #.#.9X1X;XT..XT.T.T..X.X.X0XgXGX+XJXD.D..X+X0XuXgXgXAXaXZXP 9 P (.} xX+X.XB.W.B.D.+X+XD.B.W.W.B.0XgXSXSXZXuXxXcXcXxX0XxXAX} lXSXSXSXZXxX+X+X0XAX} } <X` 9X+.z.z.<X&XT.T.T.+XxXxX*XT..XZ.B..X;XaX} ` z.+.- - - - $ $ % % % % % % % % O X X [ X X X X O , , , O $ $ O O , , , , , , , , , , , X X X O O X X , , , o.5. .r r | | | | r | | | r | | | | | | 1X<XHXNXNXyXyX; X.@.5 5 5 5 5 5 B B F F F B F F 6 6 5 X.X.X.h h h h @.5 5 B F 6 F B B F F 6 6 6 6 6 6 6 6 F F B 5 @.@.5 B F 6 6 6 6 6 6 6 6 6 6 6 6 6 x.6 6 6 6 F F 6 6 1.S.@XOXVX<X1XFX1X| r r 1XVXOXh.PXzX7X7X7X7X7X7X7XzXzXzXzXzXzXzXzXzXzXzXzXzX7X7X7X7X7X7X7X7XzXHXNX`.`.`.`.`.`.6X`.`.VXVXVX`.`.`.`.`.VXPXzXPXPXPXPXHXzXHXVXVXVX6XVXVXHXVXVXVXVXVXHXHXHXzXzXzX7XzX7X7X7X7X7X7X7X7X7X7X7X7X7X7XzXzXPXh.%X@XS.t.S.@XOX6Xz.+.O % % % , , - - - - , #.#.X , , O X O X X X X X X O O , , , ",
"X [ o.o.=.o.o.[ X X , , , , X X X X X , , , , O O O O O , , , X [ o.o.=.=. . .r  .r  .r | r r r r | | r | |  . . . . .5. .5.5.5.5.5.5.=.o.[ , , , , X [ O O O X - 0 z z z +.+.<X;XT.B.D.+X+XT..XT.;X<Xz.0 $ X - 9X1XFX;X;X&X&XxX0XxXAXgXlXgX+XD.D.+XxXAXlXlXDXlXZX!.tXr.k.tX!.} xXT.T.JX.XT.+X0X+X.XB.W.B..X+X} (.P P bXtXtXJ.J.!.|.} AXAXgXgXgXxX+XT.T.T.*X&X&X&X&X&X<X` |.} &X*X.XB.B.+X*X*XT..XB.W.B..X;X&X1X<X+.+.z z #.$ $ % % % % % % % % % O % X X X X O O , , , O $ $ O , , , , , , , , , , , , , $ O O X X X X , #.o. .r r r r | | | | r r r  .| | | | | 1X<XHXVXNXyXyX%X@.@.5 5 5 B B B F F 6 6 6 F B F F 6 F 5 X.h h h h h X.@.5 5 5 F 6 6 F B F 6 6 6 6 F F 6 6 F F B B 5 @.@.@.B F 6 6 6 6 1.6 6 6 6 6 6 6 6 6 6 6 6 6 F F F 6 1.1.S.@XNXVX<X1X1X| | | <XVXOX%XPXPXzXzX7X7X7X7X7X7X7XzX7XzX7X7XzX7XzX7XzX7XzXzXzXzXzXzXzXzXPXVXNXOXNXNXVXVXVXHXVXVXHXHXHXVX`.`.`.VXHXzXzXzXzXPXPXzXzXzXzXzXHXHXHXzXzXzXzXHXzXzXzXzX7X7X7X7X7X7X7X7X7X7X7X7X7X7X7X7XzXzXzXPXh.%X%XQ S.t.t.t.t.V.OX`.-X+.#.[ [ [ [ #.#.o.#.o.o.o.o.o.[ X O O O X X X X X X X O , , , ",
", X X X X X , , , , , , , X X X X X , , , , , , X X O , , , , X o.=.=.5. .r  .r r  .| | | r r | | | r r r r | | r r r r r r r r  .r  .5.=.[ , , , O % % O O O X - 0 0 z z +.9X<X;XT..X+X0X0X*X;X&XaX-.^ - X [ - +.9X1X1X} |.~.|.|.ZX!.lXDXgXGX0X0XxXgXDXSXDX!.} ZXlXtX!.ZX|.|.} aX&XxXxXxXAX} gXAX0X+X+X+X;X&X} -.x bXnX9 s.s.P _ y.|.AX0X0XcX0X+XT..XT.T.*XT.T.T.T.;X&X} |.} &XT..XW.W..X.XT.T.D.B.W.W.B.T.;XFX<X+.z z $ X $ O % % % % % % % % % % % O $ $ O O O , , , , $ $ $ , , , , , , , , , , , , , , , X X X X , X #.=.5.r r r r | | | | r r r r r r | | 1X<XHXNXNXyXh.h.H.@.5 5 5 B B B F 6 6 6 6 6 F B F 6 6 F 5 h h h h h h X.@.5 5 B F 6 6 F F F 6 6 6 6 F F F F 6 F B 5 @.X.X.@.5 B F 6 6 6 F 6 6 6 6 6 6 6 6 6 6 6 6 6 F F 6 6 6 1.S.S.@XOXVX<X1X| | 1X<XNXOX%Xh.h.PXPXzXzXzX7X7X7X7X7X7X7X7X7X7X7X7X7X7XzX7XzXzXzXzXPXPXPXPXNXOXNXVXVXHXzXzXzXzXzXzXzXzXVXVXVXVXVXPXzXPXPXPXPXPXzXzXzX7XzXzXzX7X7X7X7X7X7X7X7X7X7X7X7X7X7X7X7X7X7X7X7X7X7X7XzXzXPXPXh.h.%X@XS.t.t.t.t.t.t.t.S.@XNX-X+.=.=.=.=.=.=.=.5.5.5.5.5.5.5.=.o.X O O X X X X X X X O , , , ",
"X , , , , z z z z z z , , - , - , 0 , 0 , , , X X X O , , , , X #.o.=.5. .r r  .r | | | | r r | | | r | r | r | r r r r r r r r r  .5.=.o.X , , O O O % O O #.+.+.z.+.+.+.+.+.9XaX;X0XAXAXxX&XaX` -.-.0 X [ o.#.0 ^ ^ -.3 k.q.k.k.tXy.|.} AXGXGXGXGXgXDXDX!.&XT.0XAXAXxX&X&X<X|.|.-.J.tXtXP P P tXZXZX} |.} } -.. : XXbXnXnXbXtXZX|.} AXxXxX+X+XD.*X*X*X*X*XT.B.W.B..X;X} |.<XFXT.T..X.X.XT.T.*X+XD.B.B..XT.;XaX9X0 z O % O , , X % O O % % % % % % % O $ $ $ O O , , , , $ $ $ , , , , , , , , , , , , , , , X X X , z , #.=.5.| r r r | | | r r r r r r r | 1X<XVXNXyXyXyX; X.@.5 5 5 5 B B F 6 6 6 6 F F B B F 6 6 F 5 h h h h h h @.5 5 B B F F F F 6 6 6 6 6 6 F B F F F F 5 @.X.X.h X.5 B B F 6 6 6 F F F 6 6 1.F F 6 6 6 6 6 6 F 6 6 6 1.1.S.S.@XOXVX<X1X| 1XHXNX%Xh.h.h.h.; PXPXPXPXzXzXzX7X7X7X7X7X7X7X7X7XzXzXzXzXzXPXPXPXPXPXh.%X%XPXzXzX7XzXzXzXzXzXzXPXPXPXPXNXNXNXNXh.h.h.h.h.h.PXPXPXPXPXPXzXzXzXzX7X7X7X7X7X7X7X7X7X7X7X7X7X7X7X7X7XzXPXPXh.yX%X@XS.1.t.t.t.t.t.t.t.t.t.t.t.@XOX6X<X . . . . .|  .|  . .r r r r  .=.o.X X X X X X X X X O , , , ",
"X , , , , z z M z M M M M M M M M M M 0 0 0 , , O X X O , , , , X #.#.o.o.=.=.5.5.5. . .| r | | | r | r r r | | |  .| r  . .5.5.=.=.o.[ [ X O X [ % % O O $ +.z.z.` ` z.z.z.z.` ` |.!.y.y.y.J.~.-.^ 0 - , O % X - 0 0 +.2 : : 2 -.-.` &X;XT.D.B.D.D.+XxXAX&X&X;X+X+XJXB..XT.;X1X` -.tXbXnXnXnXP bXbXbXk.<.3 -.z.+.^ @ x x ZXaX;X;X0XxXAXlXlXGX+XB.D.D.T.*XT.D.D.B.B.+XxX} |.` <X<X} ZXZXZX!.y.y.ZXAX0XT.;X;XaX` 9X- , O X , , , 0 0 , , O X [ % % % % O $ $ $ , , , O , , , $ $ , , , , , , , , , , , , , , z O X X $ $ #.=. .r r | | | r r r r r r r r r | | <XVXNXyXyX; h X.@.5 5 B B B F F 6 6 6 6 6 F F B F 6 6 6 F @.X.h h h h X.@.5 5 B B F F F F 6 6 6 6 6 6 F B B F F F 5 @.X.h h X.@.5 5 F 6 6 F F F 6 6 6 F F F 6 6 x.6 6 F 6 6 6 6 F F 6 1.S.@XOX6X<X1X<XHXNX%Xh.h.h.h.h.h.h.PXPXPXPXPXPXPXPXPXPXPXPXPXPXPXPXPXPXPXPXPXh.%X%Xh.h.h.h.PXPXyXPXyXh.%X%X%X%X%X@X@X%X@Xl.l.l.H.H.l.l.l.%XH.l.%X%X%X%X%X%Xh.h.PXPXPXPXPXPXPXPXzXPXPXPXPXPXh.h.%XH.l.Q S.S.1.t.t.t.t.t.t.t.t.1.Q 1.t.t.S.@XNXHX1X|  . . . .|  .| |  . .r r  .5.o.X , X X X X X X X O , , , ",
", , , , , , , z M M M 2 2 2 2 2 2 2 2 2 M M z , , O O O , , , , - , , #., #.#.o.o.=.=.=.5.5.5.5.5. .5. .5. .5.5.5.5.5.=.=.=.o.o.o.#.X X X O O X [ [ X $ - +.9X` <XaXaX1X<X` |.} } } |.ZX~.x 3 e.-.^ 0 , , O % [ X X - - , 0 0 , #.^ 9X1X;XT.T.B.W.W.B.D.*X*X*X*X+XB.W.W..X*X&X<X` -.J.bXbXbXnXnXbXnXnXbX<.@ 2 z.9X<X<X} } AX+XB.B.B.D.xXAXgXxX+XB.B.B.B.T.*X+X+XB.B.D.0XAX} |.-.-.J.tX_ _ bXk.k.x |.aX&XFXaX` ` +.+.- - - 0 0 ` 0 0 0 0 - - - $ $ z O $ $ $ $ , , , O , , , , , , , , , , , , , , , , , , , z O X X $ $ o.5. .r r  . . .r r r r r  .r | | 1X<XHXNXyXyXh h X.@.5 B B B F F F 6 6 x.6 6 6 F B F 6 6 6 F B @.h h h h X.X.5 5 B B F F B F F 6 6 6 6 6 6 F B B B B F 5 @.X.h h X.@.5 5 B 6 6 F F F F 6 6 F F F 6 6 6 6 F F F 6 6 6 6 6 6 6 S.S.@XNX6XHXHXVXNX%Xh.; ; ; ; h.h.; h.; ; ; ; ; ; h.h.PXh.PXPXPXPXPXh.%X%X%X%Xl.H.%X%X%X%X%XH.%XH.l.l.Q Q Q Q Q Q Q @XQ @XQ Q hXQ hXQ Q Q Q Q S.Q Q Q Q l.l.l.l.H.%Xh.h.h.h.h.h.yXh.%X%X%Xl.l.Q 1.t.t.t.t.t.t.t.#Xt.t.t.t.1.1.l.1.t.t.S.@XNXHX1X| |  .| | | |  .|  . .r r  .5.o.X , O X X X X X X O , , , ",
", , , , , , z M M M 2 : : 2 : : : 2 2 2 M M z z , O O O O , , , - , - , 0 , , #.#.#.#.#.o.#.o.o.=.o.=.=.o.=.=.=.o.o.o.#.#.#.X , , , , O X X X X [ [ X - +.9X` aX&X;X;X;X&XaXaXaX&X;X;X&XaX` ` ` ^ 0 - 0 , % % [ [ [ X z O O , , #.- z.` <X&XxX0XB.W.W.B..XT.*X*XD.B.W.B.+X&X} z.z.^ . bXbXbXbXbXbX2X2X2X2 0 0 z.<X&X;X*X0X+XD.B.B.B.B.T.*XT.D.B.D.B.B.B.+XxXGX+XB.W.B.D.0XaX} |.|.ZXJ.tXJ.3 3 3 @ ^ ` ` ` ` z.-.z.^ z.z.z.` ` ` 9X` ` ` ` z.z.^ 0 z z z $ $ $ $ , , O , , , , , , , , , , , , , , , , , , , z , O O , X o.=.5.5.5.5.5.5. .r r r  . .| | | 1XHXNXyXyXh h X.@.5 B F F F F 6 6 6 6 6 6 6 6 F F F 6 x.6 B @.X.h h h h X.@.5 B B F F F B B F 6 6 6 6 6 6 F F 5 B B B 5 @.X.h X.@.5 5 5 B F 6 F F F F 6 6 F F F F 6 6 6 F B F F 6 6 6 F 6 F 6 S.S.R.`.VXVXNX%X%X; ; ; ; ; ; ; h.; h.h.h.h.h.h.h.h.h.%Xh.PXPXPXPX%XH.H.H.hXhXl.hXl.l.l.l.Q Q Q Q l.Q Q Q Q Q Q l.Q Q l.Q Q Q hXQ hXQ Q Q l.Q Q Q Q Q hXQ Q Q Q l.l.l.Q Q Q @Xl.l.l.Q Q Q Q 1.t.t.t.t.t.t.x.t.t.x.#Xt.t.t.Q l.1.t.t.t.@XNXHX1X| | | | | | | | | |  . . . .=.[ X O X X X X X X X O , , , ",
"X X X X X X , , , z M M M M M M M M M M M M z , O O O O O X , X , , , , , X X [ #.X - z z +.z +.- #.#.X #.X $ $ $ - - - - , , , , , X [ o.o.o.o.o.o.o.9X9X<X} ;X.X.X.X.XT.*X;XT..XB.B..XT.&XaX<X=.o.#.- , O O z O $ $ z % % , X X $ +.z.z.HXaXxXD.W.K.W.B.T.;X0XT.B.B..X;XaX` z.+.0 , M M , 2 2 2 2 M O % - +.` aX;X.XB.B.B.D.D.D.T.T.T..XB.B.+XGX+XB.B.+XxXGX+XB.W.B.B..X*XxXxXxXxXxX&XaX9X^ ^ ^ 0 , 0 ^ z.z.z.z.` -X|.} aX&X;XFXFX<X|.|.~.-.z.z.+.- $ $ - z $ , , O O O , , , , , , , , , , , , , , , , O , O O , , $ #.#.o.#.o.o.#.o.=.5. . .5. .| | 1XHXNXNXyXh h X.@.5 F F B F F 6 6 6 6 1.6 6 6 F 6 6 6 x.6 F 5 X.h h h h h @.@.B B F F F B B B F 6 6 6 6 6 6 F F 5 B B B 5 @.X.h X.@.5 5 5 B F 6 6 F F F F 6 6 F F B F F F F B B F 6 F F F 6 6 6 1.1.S.R.NXNXNXh.h.; ; ; ; ; ; ; ; ; ; ; ; ; ; h.h.h.h.%Xh.PXPXPXPX%X%X%X%XH.H.H.H.H.l.H.l.l.l.l.l.l.l.Q hXQ l.hXl.Q l.l.l.Q Q Q Q l.H.l.H.H.Q Q Q l.H.l.l.l.l.Q Q Q Q Q Q Q Q Q Q Q Q Q Q Q Q 1.1.6 t.x.t.x.t.x.#X#Xt.x.t.Q l.1.t.t.t.S.OXHX1X| | r | | | | | r r |  .5.=.o.X , , O X X X X X X O , , , ",
", , , , , , , , , z , z M , M , M , z , , , , O , , O O O O , , , , X , [ X X [ X X , z z z z $ $ X $ $ $ $ $ $ z z - X #.o.o.o.o.o.o.=.=.5.5.5.5.5.5.1X1XaX&XT.B.W.B..XT.T.T..XB.W.W.D.+XxX&X1X5.5.=.o.o.o.[ O O $ z z % % X O O z z +.z.z.` } AXxXkXkX;XxXaX} &XxX&X&X1X<X9X+.^ - , % % % , , , 0 , O X - +.` aX;X.XB.B.W.D.*X*X*X*XT..XW.B.+XGXGX0X+XD.+X+XD.D.D.D.D..XD.T.D.D.JX.XT.;X1X9X0 0 , X z M +.+.<X1X&X&X&X&X*X*XT.T.;X&X&XaXaXaX1X1X9X+.0 - - - $ , , O O O O O O , , , , , , , , , , , , , , , O O O O X X X #.$ X [ , X o.=.=.o.=.=.=.<XHXVXNXyX; h X.@.B F F F F F 6 6 6 1.6 1.6 1.6 6 6 6 6 6 F 5 @.h h h h h X.@.5 5 B F F F B 5 B 6 6 6 6 1.6 6 6 F B B B B 5 @.X.X.X.5 5 B 5 B F 6 6 F F F F 6 F F F B B B B B B B B F F F F F 6 6 6 1.S.S.@XOX%X%Xh.; ; ; ; ; ; ; ; f.; h.; ; ; ; h.h.h.%Xh.PXPXzXPX%X%Xh.f.f.f.f.H.f.f.%Xf.H.f.H.H.H.H.H.H.H.H.H.H.H.@.H.H.Q Q Q B H.f.f.@.H.Q Q l.H.H.f.H.H.H.l.Q Q Q Q Q Q Q Q Q Q Q Q Q Q Q 1.1.1.6 t.x.t.x.t.t.t.#Xt.t.1.Q 1.t.t.t.t.OXVX1X| | r r | | | | | r | 5.=.o.#., z , O X X X X X X O , , , ",
", , , , , , , , , , , , O O O O , , , , , O O O , , , O O O O , , , , , O O , X X X , $ $ $ $ X X X X X $ $ $ z z , #.o.=.5.=.5.=.5.5.5. . .r r r | | FXFX;X;X.XB.B.B.D.D.T.D.B.W.W.B.+X0XxX&XFX|  . . .5.5.=.[ [ O 0 z O % % O O O z 0 +.+.z.e.J.J.ZXZXZXZXJ.y.~.~.-.` ` +.+.0 0 , % % % , 0 - - - z z $ , 0 ^ ` aX;X+X+XD.D.D.*X*XT.T..XW.B.+XGXGXGX0XD.B.B.B.D.D.D.D.D.D.B.W.W.W.B.T.;X1X9X+.0 - $ $ z +.+.1X;XT.T.D.D..XT.T.T.T.*XT.T.T.T.;XFX<X+.+.0 - - $ $ , O O O X , , , , , , , , , , , , , , , , O , X X X [ X X $ X X X , , X [ #.- - +.+.z.6XNXyXyXX.@.5 B F 6 F F 1.6 6 6 6 6 1.6 1.6 6 6 6 6 6 6 5 @.X.h h h h h X.@.5 5 B F F B 5 B F 6 6 6 1.F 6 6 1.F B B B B 5 @.X.h X.@.5 5 B B F F 6 6 F B F F F F F F B B B B 5 B B B B B B F F 6 6 6 1.S.S.@X@X%Xh.; ; f.f.f.; ; ; ; ; ; ; f.; ; ; h.h.%Xh.PXzXPXPX%X%Xh.; ; ; f.; ; ; h f.; ; h ; ; f.f.f.f.f.f.X.f.f.X.H.Q Q Q l.f.; ; f.H.l.hXl.H.f.; f.X.f.H.Q 6 Q Q Q Q Q Q Q Q Q l.l.l.Q Q Q F F 6 1.6 t.t.x.t.t.t.#X1.1.t.#Xt.t.S.@XVX<X| r r r r  .| | | |  . .5.o.o.#.X , X X X X X X X O , , , ",
", , , , , , , z , , , , O O O , X , O O O O O O , z , , O O O O O , O O O , , , , , X X X X X X X , , X $ $ z z , #.o.5. . . . . . . .r | r r r | | | FX;XT..XB.B.B.B.D.D.D.D.B.B.W.W.D.+X;XFX1X| r | r r  .5.o.[ , 0 - , O O % O O , - - - 0 = bXk.bXbXbXk.bXk.k.<.3 . 0 0 - - X % O O O O - 0 0 - - z O , , 0 . -.|.AXxXT..XB..X.X.XD.D.B.B.D.+XgXgXcXJXW.W.W.B.B.D.D.D..XB.W.W.B..X;X&X` z.+.+.- - $ $ z +.<X&XT.B.W.W.B.T.*X*X*XD.D.B..XT.;X&X<X` +.+.- - $ $ , O O X X X , O , , , , , , , , , , , , $ X X X O X X X , , X % % , O X , , 0 +.+.z.6X`.OXyXyXH.5 F 6 6 1.1.1.1.6 x.6 1.6 6 1.6 6 6 6 6 6 6 F @.X.h h h h h h h @.5 B F F F B 5 B F 6 6 6 6 1.6 6 6 6 F B B B 5 @.X.h X.@.5 5 B B F F 6 6 6 F B B F F 6 F B B B 5 5 5 5 5 B B B B F 6 6 6 F 1.1.S.l.%Xh.; h.; f.f.f.f.; ; ; ; ; ; ; f.; ; h.h.h.PXPXPXPX%X%Xh.h.; ; ; ; ; ; ; ; ; ; ; ; f.; yXh.h.h.f.; ; ; f.H.Q Q l.H.f.; ; ; f.H.H.H.f.; ; ; ; f.H.Q Q Q Q Q 1.Q Q Q Q l.H.l.l.Q Q F Q Q F Q 1.t.1.1.t.x.t.t.t.t.t.t.t.t.S.@XVX<X| r r r r | | |  .r |  .5.5.=.=.o.[ X X X X X X O O , , , ",
"- - , , , , , , , , , , O O O O O O O O O O O O , z , O O X X X X O X X , , , , , X X , , O , , , , , , $ $ , z , #.=. .r r r r r r r |  .r | r | | FX| ;XT..XD.D.B.W.W.B.B.D.+X+X+XJXT.;X&XaX9X . . .r r 5.=.[ % , 0 #., O % % % % X #.X , , 2 2XbXbXbXnXbXqXbX].3 @ ^ 0 0 0 X [ % % O O X , , 0 , , , [ % , M 2XbXbXtXZXxXT..XB..X.X0X0X0X*XT.0XgXlXGX0X+XJXJXJXJX.X+X0X0XT..X.XT.;X&X` z.z.+.#.#.- $ $ z ^ ` aXxXT.JXW.W.T.*X*X0X*XD..X.XT.&XaX<X` +.- - - $ , O O O X X X , , , , , , , , O O O O , , X X X X O O O O z , O % % O O X , z z - +.z.XX`.OXyXyXH.Q 6 6 6 1.1.1.t.6 t.6 1.6 1.1.1.1.1.1.6 1.F 5 X.h h h h h h h X.@.5 B F 6 F B B F 6 6 6 6 6 6 6 6 6 6 F F B 5 5 @.X.h X.@.5 5 B B F F 6 6 6 F B B F F 6 6 F F B B B 5 5 B F B B l.F 6 6 6 6 1.1.S.l.%Xh.; ; f.f.f.f.f.; ; ; ; ; ; ; ; ; ; h.h.h.h.PXPXh.%X%Xh.h.; ; ; ; ; ; ; f.f.f.f.f.; ; h.h.h.h.f.f.f.f.f.H.l.l.H.%Xh.h.; ; ; f.f.f.f.; ; ; ; f.H.Q hXQ Q Q Q Q Q Q l.l.H.H.l.Q 1.Q F Q Q Q Q 1.1.1.1.t.#Xt.t.t.x.t.t.t.V.@XVX<X1Xr r r r | r | | | r r r  . . .5.o.X O O O O O O , , , , ",
"- - - - 0 - , , , , % X % X X X X X X X X X X O , , , , X X X X X X X X X X X X X X O O O O , , , , , X X , , , X #.=.5. .r r r r r r r | | r r | | | 1XFXFX&X&X0XD.B.Z..XT.xXZXZX} aX} -.a . #.=.5.=.=.=.o.o.[ X , , , , O X O O O , , X X X , 0 M : : : : 2 M M 0 0 0 0 0 , , , , , O , , , , , , % % [ X , 2 XXbXnXnXtXZXaX&X;X;X&XaX} aXaXaX} !.y.y.ZX} AXxXxXxXAX} !.|.} &X;X;XFX1X` z.^ +.- X O O O $ ^ . -.} &X;XT.T.T.;XxXAXxX;X;XT.;XaX` 9X+.0 z z z $ O % O O O , , , , , , , , , , , X X , O , , X O O O O O O O O O X X X X O , , , - - ^ 2X'.OXOXsXsXl.Q 1.1.1.1.S.S.1.1.1.1.1.S.1.S.1.1.1.1.Q l.X.h h h h h yXh h X.@.5 F 6 6 F F F 6 6 6 6 6 6 6 6 6 6 6 6 F B @.@.@.X.h X.@.5 B F F B 6 6 6 6 6 F B B F 6 6 6 6 6 F B B B B B B B 5 B F 6 6 6 1.1.1.Q %X; ; ; f.f.f.f.f.; ; ; ; ; ; ; ; ; ; h.h.h.h.PXPXh.%X%Xh.; ; ; ; ; ; ; ; H.H.l.f.; ; ; ; ; ; ; ; ; f.f.f.f.H.f.f.; ; f.; ; ; f.; f.; ; ; ; ; ; H.l.Q Q Q Q Q Q Q Q Q l.H.H.l.Q Q Q Q Q F Q Q Q Q Q Q 1.t.t.t.t.t.t.t.t.t.@XVXHX1X| r r r | | | | | r | |  .r r 5.#.X , , , , , , , , , , ",
"0 0 z - - - , , , , , , X X X X X X X X X X X O , , , , X X X O O , X X X X X X X X X X X X X , , , O , , , , , , X #.o.=.5. . .r r r r r r | | r | | | 1X1XaX&X&X;XT.T.;XaX!.r.P tXtXbXtX3 2 - #.o.o.o.#.[ [ X X X , X X X X O O O X X X X X , , , , , 0 , , , X , , , , 0 , , , , , , , , , , , , % % [ , , M 2XbXnXnXnXbXJ.-.` aXaX<X9X<X1X| 1X` ` -.-.-.J.J.J.a J.J.<.x ~.` <X<X<X9Xz.^ +.- X X X O O X 0 . 3 ~.|.|.ZX} } |.!.y.!.} aXaXaX` z.+.+.0 z z z $ O O X X O , $ $ , , X , , , , , , , , , , O O , , , , O O O O O , , , O O , , , X - 0 2 6XNXNXNXOX@X@X@X@X@X@X@X@X@X@X@X@X@XS.@X@X@X@X@X@X@XH.h h h X.h h h h @.@.5 B F 6 6 6 F F 6 6 6 6 6 6 6 6 6 6 6 6 F 5 @.X.X.X.X.@.5 5 B F F F F 6 6 6 6 6 F F F 6 6 6 6 6 F F F F B B 5 B B B F 6 6 6 6 1.1.Q H.; ; ; ; f.; ; ; ; ; ; ; ; ; ; ; ; ; h.h.h.h.PXPXh.%X%X; ; ; ; ; ; ; h.f.H.l.H.f.; ; ; h.f.h.; ; ; f.; ; f.f.; h.; h.; ; ; ; ; ; ; ; ; ; ; ; f.H.l.Q hXQ Q Q Q 1.Q Q Q H.l.Q Q 6 Q Q Q Q l.Q Q Q Q l.1.t.t.#Xt.t.t.t.t.V.@XNXHX1X| r r r | | | | | r |  .| r r 5.#.X - $ $ X O O O O , , ",
"M M z z - - X , X , , O X X X X X X X X X X X O , , , , O X O O , O O O , , X X X X X X X X X X X O O O , , , , , 0 , #.#.o.=.=.5. .r r  .r  .r | r | | | 1X1XaXaX&X&X&X&X|.<.nXnXnXbXbXx @ ^ 0 z $ - - X , X X X X X X X X O X X X X X X , , , , , , , , , X X X X , , , , , , , , , , , , , , , , X % X , , , 2 2XbXbXnXbXbX3 -.9X<X=.1X5.| r | | 5.=.0 . @ 3 <.x 3 3 ].XX@ . z.` +.z.+.+.- - , , X % O [ , ^ @ 3 3 x tXtXtX<._ k.x ~.-.` ` z.z.+.+.0 z $ $ $ O X X X X X $ $ X X X , , , , , , , , , , , , , z , , , O X O , , z , , X X X , , - 0 0 -X6XVXNXNXOXOXOXOXOXOXOXOXNXOXNXOXOXOXOXOXOXOXOX@XsXsXh h X.@.@.X.X.@.B B B F F 6 6 6 6 6 6 6 6 6 6 6 6 6 6 6 6 1.F 5 X.h h h X.@.5 5 B B F F 6 6 6 6 6 6 F F F F 1.6 6 6 6 6 F F B B 5 5 B B B F 6 6 6 6 1.Q H.; ; ; ; ; ; ; ; ; ; ; ; ; ; ; ; h.; ; %X%Xh.PXPXh.%X%Xh.; ; ; ; ; ; f.H.H.H.H.; ; ; ; ; ; ; ; h.; ; ; ; ; h.; ; ; ; ; ; ; f.; ; ; ; ; ; ; ; f.H.l.Q Q Q Q Q Q Q Q Q Q l.Q Q Q Q Q Q Q 6 Q l.l.Q l.Q Q t.t.t.{.t.t.t.t.V.@XNXHX1X| r | r | | | | r r | | | r  .5.#.X $ $ $ X X X X X O O ",
"M M z z $ - X X X O , O X X X X X X X X X X X X O O O O X X O O O O O O O , O O X O X X X X O O X X O , , , , , , , 0 0 - - #.o.o.=.5.5. . .r r r r r r r | | FXFXFXFXFX1X9X. bXbX3 . ^ 0 - 0 M z z z $ , O O X X X X X X O , O O O X X , , , z z , X X X X X X X X O O , , , , , , , O O , , , , , , X O , X [ % , 2 a a XX2X2 #.=.5. . .r r  . . . . .5.=.=.o.[ , 0 M 0 , - 0 0 0 0 - - #.X , z , , O % % % , M ^ ^ ^ . . -.. 2 ^ ^ 0 9X+.^ +.+.+.+.- - $ $ $ O X X X X $ $ $ $ O O , , , , , X #.#.#.X , , , z z , , X , , , , - X X [ X , , z 0 0 0 +.z.z.z.-X6X6X6XVX6XVX6XVX6X-X-X6X-X6X6X6X6X6X6XNXNXyXyX@.5 B B 5 @.B 1.6 F F F 6 6 6 x.6 6 6 6 6 6 6 6 6 6 1.1.1.Q @.X.h h h X.X.@.5 B B F 6 6 6 6 6 6 F B Q Q 1.1.1.t.t.1.1.6 Q Q B 5 5 5 5 B B F 6 6 6 6 Q H.; ; ; ; ; ; f.; ; ; ; ; ; ; h.; ; ; h.h.%X%XPXPXh.%Xh.; ; ; ; ; ; ; f.H.l.H.f.; ; ; ; f.; ; ; ; ; ; ; ; ; ; ; ; h.; ; ; f.f.f.; ; ; ; ; ; ; f.f.H.l.l.l.Q Q Q Q Q Q Q Q Q Q Q Q Q Q Q Q Q l.l.l.Q Q Q t.#Xt.t.#Xt.t.t.t.@XNXHX1X| r r r r | | | r | r r | r  .5.o.$ z $ $ X X X X X X O ",
"z z z $ $ $ O O O X O O O O O O O , , , O O O O O O O X X X X X X X X X X $ X O O O O O O O O O X X O , , , , , , , X , , - - - - #.#.#.o.o.=.=.5.5. . . .|  . . .5.5.5.5.=.o.0 2 2 M 0 , , , z $ $ $ O O X O % % O % % O O O O O O , , , , , $ $ $ O O O O $ O O O O O % % X , , , , , , , , , , , , O , , O % [ % % % M M M , #.#.9Xo.o.=.=.=.o.=.=.=.o.o.o.o., 0 0 0 0 0 0 - X $ $ $ X [ X $ z z , O O % % X X X X , 0 0 0 , 0 , , , 0 0 M 0 0 z - - - - $ $ $ O O O $ $ $ $ $ , O $ , , X o.=.=.=.o.#.- 0 - - #.o.=.=.=.=.=.=.=.=.=.=.o.o.[ , , , , , - - - ^ z.-X-Xz.-X2 z.z.z.z.z.z.z.z.z.z.-X-X-X6XNXOXsXl.Q F F F F 1.1.6 6 6 6 6 1.6 1.6 6 6 6 6 x.6 1.1.1.S.t.S.Q @.X.h h h h X.X.@.B F F 6 F 1.6 6 6 1.1.1.S.S.@X@X@X@X@X@XS.Q l.Q l.Q l.B B F 6 6 6 6 x.hXH.; ; ; ; ; ; h.; ; ; ; ; ; ; ; ; h.; h.f.%X%XPXPX%X%Xh.h.; f.; ; ; ; f.H.l.H.; ; ; f.; f.f.; ; ; ; ; ; ; ; ; ; f.; ; ; f.H.H.f.; ; ; ; ; h.; ; f.H.H.H.l.Q Q Q Q Q Q 1.Q Q Q Q Q Q hXQ Q Q B H.l.F Q 1.t.t.t.t.t.t.t.t.V.@XNXHX1X| | r | | r | r r r r |  .r  .5.o.X z $ $ O O O O $ , , ",
"X $ $ $ $ , , , O X X X O O O O , , , , , O O O O O O O O O O X X X X X $ $ $ $ O , , , O X X X X X X O , , , , , X , X X $ $ - - $ - - X #.#.#.o.o.=.=.=.=.=.=.=.=.=.=.=.o.o.[ % , % , , X $ $ $ $ O O O O % % % % % O O O O , , , , , $ $ $ $ $ $ $ $ $ $ $ O O O O O O % X , , , , , , , , , , , , , O , O % % % % % % [ [ , , , 0 - #.#.[ [ X [ o.#.X X #.X , , , , - - , - X $ $ $ O X X $ z z X X , z $ X [ [ X O , % % , % , , , O z z z z z - - $ $ $ $ $ $ $ $ $ $ $ $ $ $ $ $ X #.o.5.5. .5.=.#.0 - #.o.=.5.5.5. . .5. .5. .5.5.5.5.=.o.o.X , , % % O , z z z z $ +.- - - - $ $ +.z - +.+.+.z.-X6XOX@XS.1.1.1.6 1.1.1.1.1.6 6 1.6 1.1.1.1.1.1.1.1.S.S.@X@XS.S.@Xl.H.X.h h h h h X.@.B F F 1.F 1.1.1.1.1.S.@X@XOXNXNXVXVXNXNXNXNXOXsXsX@Xl.l.l.Q Q F 6 6 1.Q H.; ; ; ; ; ; ; ; f.; ; ; ; h.; h.f.f.f.h.%X%XPXh.%X%Xf.; ; ; ; ; ; f.f.H.H.f.; ; ; ; ; f.f.f.; ; ; ; ; ; ; f.; h.; ; ; f.H.H.H.f.; ; ; ; ; ; h.; f.f.f.H.l.Q 6 Q Q Q Q Q Q Q Q Q Q 1.Q Q Q l.l.Q 1.1.1.t.t.t.t.#Xt.t.t.t.@XNXHX1X| | r r r r r r | r r | r r r  .=.#.X X X X $ $ X , , z ",
"#.X X $ O , , , O X X X X O O , , , , , , O O O X O $ $ $ $ $ $ $ - - - - - - - , $ , , O X X X X O X X O , , , , , , , X - X X X X X X X X X X X X X [ [ [ [ [ [ [ [ [ [ [ % O O % o.[ O , $ $ $ O O O O O O % % % % O O O O , , z z , $ $ $ - $ - $ $ $ $ $ X O O O , O % X , , , , , , , , , , , , , X X X % % % % % [ [ % % X , , , X X X O O % % X $ $ X O O [ X X X $ , , $ $ $ z z $ $ $ - - - - 0 0 z $ X X O O O % % % O O O O O O O X $ , X X $ $ $ $ $ $ $ $ $ $ $ $ $ $ $ $ #.o.5. .r  .5.=.#.- #.o.=.5. . . . . . .r r r r r  . . .5.=.o., % % % % O O O $ $ $ $ X X $ $ $ $ $ $ $ $ #.- +.z.6X`.R.@XS.1.1.6 1.1.1.1.6 1.1.Q 1.S.1.S.S.S.S.@X@X@XOXOXOXOXOXsXsXsXh h h h h h h @.5 B F 6 1.1.1.t.S.@X@XOXNXVXHXHX<X<X<XHXHXHXVXVXNXOXOX@X@X@Xl.Q Q 1.1.Q H.f.; ; ; ; ; ; ; ; ; ; ; ; ; ; ; f.f.f.h.%X%Xh.h.%X%Xh.; ; ; ; ; ; ; f.f.H.f.; ; ; ; ; H.H.f.; ; ; ; ; h.; ; ; ; ; ; ; ; H.H.H.f.; ; ; h.; f.; ; ; f.; f.l.Q Q Q Q l.l.Q Q Q F Q Q Q Q Q Q Q l.Q 1.t.t.x.t.t.t.t.t.t.t.t.@XNXHX1X| | r r r | r r r | r r | r r  .5.=.o.o.o.o.#.#.X X $ $ ",
"X X X X O O , $ O O $ $ X X $ $ , , , , , $ O O X O $ $ $ $ z z 0 0 0 0 M M 0 0 0 0 - , X X X X O O O X X X , , , , , , , , , , O X X X X X , , , , X [ [ % % % % % % % % $ z z O X o.X z z $ $ $ O $ O O O O O O % O X X X X , z z z z z - - - - - - - $ $ $ X X O O O X X X , , , X X X X X , , , , , X X X O O O % % % O O O % % % % % % O O O % % O % [ % O O % % O % % O , - X $ $ $ $ $ - z 0 0 +.+.^ M M z $ z $ $ O O O O O O O z z O O O X , , X $ $ $ $ $ $ $ $ $ $ $ X $ z $ #.=. .r  .5.=.o.o.o.=.5. . .r r r r r  . . . .r r r r r  .5.o., , X O , z $ $ z z z z z z $ $ $ z z z $ X #.#.#.9Xz.6XNXOXS.1.1.1.1.1.t.1.1.1.S.S.S.S.@X@X@XOXOXNXNXVXVXVXVXHXVXVXNXyXyXh h h h h h @.5 B Q 1.1.1.1.@X@XOXNXVXHX<X1X1X1X| | 1X1X1X1X<XHXVXVXNXOXOXOX@X@XS.S.S.l.%X; f.; ; ; ; ; f.; ; ; ; ; h.f.H.H.f.f.f.%Xh.h.%X%Xh.; ; ; ; ; ; ; f.f.; f.; ; ; ; ; H.H.H.; ; ; ; ; ; ; ; ; ; ; ; ; f.H.H.H.f.; ; ; ; ; ; ; ; ; f.; f.l.Q F Q l.H.H.l.Q Q Q Q Q 6 Q Q Q Q Q 1.6 t.t.t.t.t.t.t.t.t.t.t.}.NXHX1X| | r r r r r r r | | r | r r r  .5.5.5.=.=.=.=.o.o.o.o.",
", , O O O O $ $ $ $ $ $ $ $ $ $ - - - - $ $ $ $ $ $ $ $ $ z M M 2 2 2 2 2 2 2 ^ ^ M 0 0 , X X O , z O X X X X , O , , , O , O O O O O O O O , , , , , [ [ % O % % % , % O $ +.z $ $ [ $ z z $ X O , $ O O O O O O X X X X X $ $ z z z z z - - - 0 - - - 0 z z - X X X X X [ [ [ o.o.o.o.o.o.o.o.o.o.[ [ [ [ [ [ [ [ #.X X X $ O O % % % % % % % % % O O % [ % O z % O O O % % , - X X X X X - 0 M 2 2 2 2 : : : M M M z z z $ $ X X [ X z z O X X [ X , , X $ $ $ $ $ $ $ $ $ $ X $ z $ #.=. .5.=.o.#.#.#.=.=.5. . .r r r r | |  . . . .r  .r r r 5.=.X , - z 0 - #.#.#.#.#.+.+.+.#.#.#.#.- #.#.o.=.=.=.=.<X<XHXNXOX@XS.S.Q S.S.@X@X@XOXOXOXNXNXNXVXVX|.HXHX<X<X1X1X1X1XaXHXVXyXyXyX; f.f.%XH.l.Q S.S.S.@X@XOXNXVXHX<X1X| | | r r | | | | 1X1X1X<X<XHXVXVXVXNXOXOXOXOX%X%Xh.; f.; ; f.f.f.f.; ; ; ; ; H.H.H.f.f.f.%Xh.h.%X%Xh.; ; ; ; ; ; ; ; ; ; ; ; f.; ; ; H.l.H.; ; ; ; ; ; ; h.; ; ; ; ; ; f.f.f.f.; f.; ; ; h.; ; ; ; ; H.l.Q hXQ l.H.H.l.Q Q 6 Q Q Q Q Q Q Q Q 1.1.t.#Xt.t.t.t.t.t.t.t.t.@XNXHX1X| | r r r r r r | | | r | r r r r r  . . . . .5.5.5.5.5.",
", , , , , , $ $ $ $ $ $ $ $ $ - - - - - - $ $ $ $ $ $ $ $ z M 2 : : : : . : : 2 2 2 2 M 0 , , , O z O X % X X O O X X X X [ [ [ X X X X O O , , , $ $ O O O O , , , X $ $ - +.z - $ $ $ z z $ $ X , X , X X X X X X X O X X $ $ - - - - - #.#.- - - - - 0 0 z - $ $ X O X [ o.=.=.=.=.=.=.=.=.=.=.=.=.=.o.=.o.o.o.o.o.#.o.[ [ $ , , % % % O X $ X X O O X X , , % [ X X X X , , - , , , , - 0 M 2 : = = @ = @ = : : : 2 M M - #.o.o.o.o.#.X [ [ [ [ [ X X $ $ $ $ z z z $ $ - $ $ $ z - #.o.=.o.#.- 0 0 - #.#.o.=.5.5. . .| r r r  .r r r r r r  .5.=.o.o.#.- - #.o.=.=.=.5.5.=.=.=.=.=.=.=.=.=.=. . .r r  .1X1XHXVXNXOX@XOXOXOXNXVXVXVXHXHXHX<X<X<X<X<X1X1X1X1X| 1X| FX1XHXVXNXOXOXOXOXsXOX@X@X@X@X@XOXOXNXVXHX<X1X1X| | | r r r r r | | | | | | 1X1X1X<X<X<XHXHXVXVXNXh.h.; ; ; ; f.H.H.f.; ; ; ; f.H.l.H.f.; f.%Xh.%X%X%Xf.; ; ; ; ; ; ; ; ; ; ; ; f.; ; ; H.H.f.; ; ; ; ; ; ; ; ; ; ; ; ; ; ; f.f.; f.; ; ; ; ; ; ; ; ; f.f.H.Q Q Q l.H.f.H.l.Q Q Q Q Q Q Q Q 1.Q Q 1.t.t.#Xt.t.t.t.t.t.t.t.S.NXHX1X| | r r r | r r  .| r | r | r r r r r r | r  .| |  .| | ",
"O , , , , , $ $ $ $ $ $ $ $ $ - - - - - - $ $ $ $ $ $ $ - 0 2 : = = = @ @ . . . : : : 2 M - , , , O O X X X O O O X X O O X X X X X X X X O , , $ $ $ $ $ $ $ z - - - - - - +.0 - - z - $ - z $ X X - , , , , X X X , , $ $ X X #.#.#.#.#.#.#.#.#.#.#.- 0 0 z z $ $ $ $ $ X [ o.o.o.o.o.=.=.o.o.o.o.o.o.o.o.o.[ o.o.#.X [ [ #.- , % % % % O O $ X X O , X X , , #.- - , #., , 0 , , , , , , 0 2 : = = @ @ . @ @ @ @ = : 2 ^ - #.=.=.=.=.=.=.=.=.=.o.o.[ X X $ $ $ $ z z $ $ - - - $ - - #.#.#.#.- - 0 +.0 0 +.- #.o.=.5. . .| | | r r | |  . . .5.5.5.5.5.=.=.o.=.5. . .| | | |  . . .| 1X .5. . .r r r r r r | 1X<XHXVXVX`.VXHXHX<X<X<X1X1X1XFXFX| | | r | r r r r | | | <XHX6X`.NXNXNXNXOX`.`.OX`.`.`.6X-XHX<X1X1X1X5. . . .r r r r r r  .r  .r r | | | | 1X1X1X1XHXVXNXh.h.; ; ; f.H.H.f.; ; ; ; f.H.l.H.; ; f.%Xh.%X%X%Xh.; ; ; ; ; ; ; ; ; ; ; ; f.; ; ; H.H.f.; ; ; ; ; ; h.; ; ; ; ; ; ; ; ; ; ; f.f.; ; ; f.; ; ; ; ; f.H.l.Q B Q l.f.H.l.Q Q Q Q Q Q Q 1.Q Q Q 1.1.t.t.t.t.t.t.t.t.t.t.@XNXHX1X| r r r r r r r | | | r | | | | | | | | | | | | | | | | ",
"X , , , , , $ $ $ $ $ $ $ $ $ - - - - - - $ $ $ $ $ $ - - 0 2 : = = @ @ @ . . . . @ : : 2 0 , , X O X X O O O O O O O , , , O O O O O X X X O O X X X $ $ $ $ - - - - - - - 0 0 - - z - - - z z - , 0 , , , , , , , , X X #.#.o.o.o.=.=.=.=.=.=.=.=.o.#.#.- - - z z z z z , , , , X , [ X X X [ % X X #.X X X X X X , , X % , $ , X [ % % O O $ X X X $ $ $ - - #.0 0 0 - - - , X X , , , , M 2 = @ . . . . . @ @ @ @ . 2 2 0 #.o.o.=.=.5.5.5.5.=.=.=.o.[ X $ $ $ $ $ - - - - - z - #.#.#.- 0 0 - - - - 0 0 0 - +.#.o.=.=.5.5.5. . . .5.5.5.5.=.=.=.=.5. . .5.5. .r r r r  .| r | | | | | | | r  .r r r r r r | | | 1X1X<X<X1X1X1X1XFX1X| 1X|  .| | r r r r r r r  . . .| 5.<Xz.-X6X6X6X6X-X6X-X6X-X-X-Xz.+.9X9X9X9Xo.=.=.=.=.5.r r r  . . .r r r r  . . .| | | | 1X<XVXNXyXh.; ; ; H.l.H.f.; ; ; ; f.H.H.H.; ; ; %X%X%X%X%Xf.; ; ; f.; ; ; ; f.; ; ; ; ; ; f.H.H.f.; ; ; ; h.; ; ; ; ; ; ; ; ; ; ; h.f.; ; ; ; f.f.f.; ; ; ; f.f.H.l.l.Q l.H.H.l.l.Q Q Q Q Q Q Q Q Q Q Q 1.1.t.t.t.t.t.t.t.t.t.S.NXHX1X| r r r r r r r  .r | r | | | r | r |  .| | | | | | | | ",
"[ X , , , , X X X X $ - - - - - - - - , $ $ $ $ $ $ $ $ z M 2 2 : = = = = . . . . . = : 2 M 0 , X $ $ O O X O O X X O O O X O O O O % O O O X X , , , - z - - +.- +.- - X , , , X X , X X X X X , , , , , X X X , , , #.#.o.=.5.5.5. .5. .|  .|  .5.5.5.=.=.o.#.- 0 0 z z , $ O O , , , , X , , , , $ - $ O O % % % X , , , X $ $ $ X X $ $ z - - - - , , , , , X , - - , , , X % , , X [ X 0 : = 2X= @ . . . @ @ @ = : 2 M z $ $ $ X #.#.[ o.o.o.=.o.o.#.- z z z - - - - z - - - - #.- #.#.#.#.#.#.#.#.- - - #.- #.#.#.#.#.o.#.o.o.o.o.o.#.#.#.#.#.#.o.o.=.5.5.5. .r r r | r r r r r r | |  .| r r r r r r r r | | | 1X5.1X| | | | | | | | | |  .r r r r | r r r r  . .r r  .=.+.+.+.+.+.z.+.+.+.M 0 - - #.- - #.$ +.- - #.#.o.=.5.5.5.5. . . .r  .r  .r r r | | 1X<XVXNXyXh.; ; f.H.l.H.; ; ; ; f.; f.f.f.; f.f.f.%XH.H.%X; ; f.; h.; ; ; ; ; ; ; ; f.; ; ; f.f.f.; ; ; ; ; ; ; ; ; ; ; ; ; ; h.; h.; h.h.h.h.f.H.H.; ; ; ; ; f.f.H.H.Q Q l.l.l.Q l.l.Q Q 1.Q Q Q Q Q Q Q 1.1.t.1.1.1.t.x.t.t.@XNXHX1X| | r r r r r r r r r r r r r r r r r r r | r | | | | | ",
"X , , , , z z - - z z z 0 0 0 0 0 0 0 z $ $ $ $ $ $ $ $ - z 0 ^ 2 : = = = = = . . = : : : M z , X , , , X O O O X X O O X X X X X O O X , , , , , - - - 0 0 +.0 0 0 0 0 0 z , , X X , , , , , , , , O O X X X X X X #.o.=.5. . . .r | | | | | | | | |  . .5.=.=.o.#.- - z z , X O , , X , , , , , , $ - $ O O % % % X , , , , $ $ $ $ $ $ $ z - - - , , O X X , , , , , X , , X % , X X #.#.0 2 : = : . @ @ @ @ = = = : 2 M , $ $ $ $ $ $ X X X [ [ [ [ #.- - - - #.#.#.#.o.o.o.=.=.=.=.=.=.=.=.=.=.=.=.=.=.=.o.=.o.=.o.=.o.o.=.o.o.#.#.#.#.- - - X #.#.#.o.o.=.5.5. .r  . . .r r r r |  .|  .| | r r r r r r r | |  .| | | | | | | | | | r r r r r | | | | | | r r r r r  .5.=.#.- z z - - - - - - $ , X X O O O , , z - - +.#.#.o.o.#.o.o.o.o.=.=.=.=.=.=.=.=.=.1X<XVXNXyXh.; ; f.H.H.H.; ; ; ; ; ; ; ; ; ; f.; f.%Xl.l.%X; ; ; ; h.; ; ; ; f.f.; ; f.; ; ; f.; ; ; ; ; ; ; ; ; ; ; ; ; ; ; ; ; ; h.; h.; h.h.f.H.H.f.; ; ; ; f.f.f.H.Q Q l.l.Q Q l.H.l.Q Q Q Q Q Q Q Q Q 1.1.1.1.1.1.t.t.t.t.S.OXVX<X=.=.5.5.=.5.5.5.5.5.5.5.5.5. . . . . .5.5. .5. .5.5.5.5.",
", 0 0 M M M M M M M M M M M M 2 2 2 M z , $ $ X $ $ $ $ $ - - 0 ^ 2 2 : : : : = = : : : 2 M z , X , , , , , , , X X O O X X X X X X X X , , , , 0 0 0 0 0 ^ ^ ^ 2 2 2 2 2 M M , , X , X , , , , , , X X X X X X X #.o.=.5. . .r | r r r | | |  .|  .1X| |  .| 5.5.=.o.#.z z , X O , , , , , , , , , $ - $ O O % % % , , , , O O O O $ $ , , $ $ $ $ X O X X X X O O O , , , , X % % X X X X 0 M 2 2 2 : = = = = = = : 2 M z O X $ $ $ $ $ $ , , , , , , - - - #.o.=.=.=.5.5.5. . . . . . . . . . . . . . . . . . .5.5.5.5.5.5.5.=.o.o.o.#.#.#.#.#.#.o.o.o.o.o.=.=.5. . .5.5.5. .| r  .r | | | | | |  .r  .| r r |  .| |  .| |  . . .| | r r r r r r | | | |  .| | r r r  .5.=.o.#.- z z z $ $ $ $ , , O % % O O O % O , , z - - +.#.+.+.0 - - X X [ [ [ % [ [ #.- 9Xz.VXNX%Xh.; f.f.H.H.f.; ; yX; ; ; f.; ; f.; ; h.%Xl.hX%X; ; ; ; ; ; ; ; ; f.f.f.; f.; ; ; ; ; ; ; ; ; ; ; ; ; ; ; ; h.; ; ; ; h.; ; ; h.; h.f.H.H.f.f.; ; ; f.; f.H.l.Q Q Q Q l.l.H.H.l.Q Q Q Q Q Q Q Q Q 1.1.1.1.1.t.t.t.t.@XOX`.z.9X#.o.o.o.o.o.o.=.o.=.o.=.o.=.o.=.o.=.=.=.=.=.=.=.=.=.=.",
"M M 2 2 2 2 2 2 2 2 2 2 2 : : : : 2 2 M , $ $ X $ $ $ $ $ #.- - - 0 ^ 2 2 : : : : : 2 2 M 0 , , , , , , , , X X X X , , , X X X , , , X , , 0 0 M M ^ ^ 2 2 2 : : : : : : : 2 M 0 - , , , , , X X X X X % % X X [ [ =.5.r r | | | | | | | | | | | | | | | | | |  . .=.o.X , , X O , , , , , , , , , $ $ X % % % % % , , , % % X X O O O , , , O O O O O O O X X X O O O O , , X X , O , X - - 0 0 M M 2 : : 2 : 2 : 2 M M , % O O O O O X X , , , X X - - - #.o.=.5. . . . .r r r r | r r r r r r r r r r r r r | | | | | | | |  .5.5.5.=.=.=.=.=.=.=.5.5.5. . .5.5.5.=.=.=.=.5. . . .| | r | | | | | | | r r r  . . . . .5.5.5.5.5.5. .| r r r r r r | | | |  . . . .5.=.o.#.#.- $ O O , O O O , O O O % % O O % % % [ X , , z z 0 - - - - - - X [ X [ [ % , 0 0 +.-X6XNX%Xh.f.f.H.H.H.f.; ; ; ; ; ; ; ; ; ; f.; ; %XH.l.%X; ; ; ; h.; ; ; f.f.H.f.; ; ; ; ; ; ; ; ; ; h.; ; h.; h.; h.; ; ; ; ; ; ; ; ; ; ; h.f.f.H.f.f.f.; ; ; ; ; H.l.Q Q Q Q Q H.H.f.H.l.Q Q Q Q Q Q S.Q Q 1.1.1.t.t.x.t.t.S.R.`.-X+.z O X O , X X X X X X X X [ [ [ X X X X X X - - - #.#.",
"2 : : : : : : : : : = : : : : : 2 2 M 0 , $ $ $ $ $ $ $ $ $ #.- - - 0 M ^ ^ 2 2 2 2 ^ ^ 0 z - X O , , , , X X X X X , , , , , , , , , X , , 0 M 2 : : : : = . -X= = = = = = : 2 0 0 - , , , , X X X X % % % % X [ o.=. .r r |  .| | | r | | | | | | | | | | | | | r 5.=.o.X O X O O , , , , , , , , , $ O O O % % O , X X % % X X O O O O O O X X X O O O O O O O , , $ , , , , , , , , , , - - - - 0 M M M M M M M M z , , % O O O O O O O O , , X #.- 0 - #.=.5. .r r r r r | | | r r | r r r r r r | r | r | r r | r r r r r r r |  . . .5. . . . . .r r r r |  .5.=.o.#.#.o.o.=.=.=.=.5.=.5.=.=.=.=.=.=.=.=.=.o.o.o.o.o.o.o.o.o.=.=.5.5.5. . . . . .5.5.5.=.=.=.o.o.#.- - 0 - $ X % O , O , , , O % [ [ [ [ o.o.o.=.o.o.o.#.#.#.#.#.X - - $ , , X , , O , , , 0 z.6XNX%X%Xf.f.f.H.H.f.f.; ; ; h ; ; ; ; ; ; ; ; f.H.l.%X; ; ; ; ; f.; ; f.H.H.f.; f.; ; ; ; ; h.; ; ; h.; ; ; ; ; ; h.; ; ; ; ; ; ; ; ; ; ; ; f.f.f.f.; ; ; ; ; ; f.l.Q F Q Q Q l.H.H.H.l.Q Q Q Q Q Q Q Q Q Q 1.1.t.x.t.t.t.S.R.`.-Xz.z O % % O O O , O O O O O O O O , , $ $ $ $ $ $ $ $ z ",
"= = : = = = = = : : : : : 2 : 2 2 M 0 , , , $ $ $ $ $ $ $ $ $ $ - - - z 0 0 0 0 +.^ 0 0 0 - $ $ X , , , X X X X X X , , O O O , , O , X , 0 M 2 : = = = = @ @ @ @ @ @ = = = = 2 M 0 - , , , , X X % % % % X % % [ o.=.5.r r | | | | | | | | | | | | | | | | | r r r  .=.o.[ X O O O O O , , , , , , , , , O % O , , , X X X % X O O O O O O O X X X X O O O , , , , , z z z z , , , - , - - - - - - - 0 0 0 - - - , , , , O O O X O O O O , , , , X #.#.#.#.o.=. .| r r | | r | | | | | | | | | | | | | | | | | | | | | r | | r r | | | |  . . .| r | | r | | r r r | =.o.#.- - #.- #.#.o.=.9X=.9Xo.=.o.o.o.o.#.#.#.#.#.#.X , X X #.#.#.o.o.o.=.=.o.=.=.=.=.o.o.#.o.#.o.#.#.#.- #.#.[ [ X , , , , , X [ o.=.=.5.5.5.5. .5.5.5.=.=.=.o.o.#.#.$ z z , , , , , , , , - z.6XNX%X%Xf.f.f.f.f.H.f.; ; ; ; ; f.; f.f.; ; f.h.H.l.f.; ; ; ; ; ; ; ; H.H.H.H.; ; ; ; ; ; ; ; ; ; ; ; h.; h.; h.; ; h.; ; f.; ; ; ; ; ; ; h.f.f.; ; ; ; ; ; ; ; f.l.Q Q F Q Q l.l.sXl.Q Q Q Q Q 1.Q Q Q S.Q Q 1.1.t.x.t.t.t.@XOX6Xz.z $ % % % O O , , O O O O O O % O O O O O O $ $ O $ $ ",
"= : = = = : = : : : : : 2 M M M 0 0 , , , O $ O $ $ $ $ $ $ $ $ z $ $ $ - z z - +.- +.0 z - $ $ $ , , O X X X X X X O O O O O O O O X X , 0 M 2 : : = . . @ @ e.@ @ @ @ @ = = 2 M 0 - , , , , X X % % % % % [ , [ [ o.=.5. .| | | | r | | | | | | | | | | | | r r r  .=.o.X O O O O O O O , , , , , , , , , O , , , , , , X X X X O O O O O O X X X X X , , , , - 0 0 0 0 0 0 0 0 0 0 0 0 0 0 - - - - - - - - - , , , , X , , O % X O O O , , X #.#.o.o.=.=.5.5. .| | | | | | | | | | | | | r | | | | | | | | | | | | | | | | | | | | |  .| | | | | | |  . . .| r r  .5.o.#.- #.#.#.#.o.o.=.=.=.=.=.=.=.=.=.o.o.#.#.#.#.#.X , , , X - X X X [ [ #.#.#.#.#.#.#.#.o.o.=.=.=.=.=.=.=.=.o.o.o.o.#.#.#.o.o.=.5.5. . .r r r r r r  . . . .5.5.=.o.#.$ , $ $ $ $ $ - , , X +.6XNX%X%Xh.; ; f.H.H.%X; ; ; ; ; f.f.f.H.; ; ; ; H.H.f.; ; ; ; ; ; ; ; H.H.H.%X; ; ; ; ; ; h.; f.h.f.f.f.; ; ; ; ; h.; ; ; ; ; ; ; ; ; ; ; ; ; f.; ; h.; ; ; ; ; ; H.l.Q Q Q Q Q l.l.l.Q Q Q Q Q Q Q Q Q Q Q Q 1.1.t.t.t.t.t.}.OX6X-X+.$ % % % O O O , , O O O O O % O X X X O X X X X X X ",
": : : : : 2 2 2 2 2 2 M M 0 0 - - , , , , O O O O O O $ X X $ $ z , $ $ $ z - - - - - z z z - $ $ O O O X X O O O O O O O O O O O O X X , z M 2 2 : : . . . . @ @ @ @ @ @ = : 2 M 0 - , , , O X X O O % X % % % , [ [ o.=.5. . .| | r | r | | | | | | | | | r |  .5.=.o.[ X O O O O O O O O , , , , , , , , , , , - - , , , O X X X O O O O O X X X X X , , 0 0 0 ^ ^ ^ ^ ^ ^ ^ ^ ^ ^ ^ ^ ^ ^ 0 0 0 - - - - - - , - , X , X , O , O O O O O [ o.=.5.5.5.5.5. .| | | |  .| | r | | | | | | | | | | | | | | | | | | | | | | | | |  .| | | | | | | | |  .5. .|  .r r r  .5.=.o.o.o.=.=.=.5.5.5. . .5. .5. .5.5.5.=.=.=.=.o.o.#., , , , , , , , X X X , , , 0 - #.o.=.5. . . . . . . .5.5.5.5.=.=.=.=.5.5. .| r r r r r r r r r | | | | r  . .5.o.#.$ $ $ $ $ - - , , % 0 6XNX%X%Xh.; ; H.H.l.H.f.; ; ; f.f.f.H.H.f.; ; ; %XH.f.; ; ; ; ; ; ; h.H.H.H.f.; ; ; ; ; ; ; h.; ; f.f.f.f.; h.; h.; ; ; ; ; ; ; ; ; ; ; ; ; ; ; ; ; ; ; ; ; ; ; ; H.l.Q Q F Q Q Q Q Q Q Q Q Q Q Q Q Q Q Q S.Q Q 1.1.x.t.t.t.S.@X`.-Xz.- O % % % % O , , , O O X X O O O O O X X % % % % % ",
"M M M M ^ ^ M M M ^ 0 0 - - - - , , , , , , , O , O O X X X O , , , , , , z z - $ - z z z z - $ $ $ $ O O O O O O O % % O O O O O O O X O z M M 2 2 : : : : : . @ @ = = = : : ^ 0 0 - $ $ , , O , O , X % % X , , X X #.#.o.=.=.5.5. .| | | | |  .| | | |  .5.5.=.=.o.[ O , , O O O X X X O , , , , , , , , - - - - - - , , , X X X X O O O O O O O , , , 0 0 ^ ^ 2 2 : : : : : : 2 2 2 2 2 2 ^ ^ 0 0 - - - - , , , , , , , , , , O X X X X o.5. .r r r | | | r r r | | | | | | | | | | | | | | | | | | | r r r | | | | | | | | | | | | | | | | | 5.=.=.=.5. . . . . . .5.5.5.5. . . . .r r r r r r | r | r  . . . .5.5.=.o.#., , , X , X , , X X X , , 0 , o.=. .r r r r r r r  . . .|  . . . . .| | | | | r | r | | | | | | |  .| r r r 5.=.#.$ z z z z z 0 - % [ +.6XNX%Xh.h.; ; H.l.l.H.; ; ; ; ; f.H.l.H.f.; ; ; f.H.f.f.; ; ; ; ; ; f.H.H.%Xf.; ; ; h.; ; ; ; ; h.f.f.f.f.; ; ; ; ; ; ; ; ; ; ; ; ; ; ; ; ; ; ; ; h.; h.; h.; ; ; f.H.l.Q Q Q Q Q Q Q Q Q Q Q Q Q 1.Q Q Q Q Q Q Q 1.t.t.t.t.t.@XOX6Xz.+.$ % O O O , , , , , , , O O , O O O O O O % % % % ",
"0 0 0 0 0 0 0 0 - 0 - - $ $ , , , , , , , , , , O O X X X X O , , , , , , , $ $ $ z - - - - - - $ $ $ $ O O O O O O O O O O O O O O O X O , z z M 2 2 2 2 2 2 : : : : : : 2 2 M 0 - $ $ $ $ $ $ $ , , X X % O O O , X X - X #.#.o.=.=.5.5.5.5.5.5.5.5.5.5.=.=.o.#.#.X O O O O O O X X X X O , , , , , , - - - 0 0 0 0 0 - z , X X X O O O , , , , , , , 0 M M 2 : : . . . . = = = : : : : : : : 2 M 0 - X - - $ z , , , , , , , , X X X O X o.5. .r r r | | r | r | r | r | | | | | | | | | | | | | | | r | | | | | | | | | | | | | | | | |  .5.=.=.o.#.#.o.o.=.5. . .r  . . . . .r r r  .r  .r | r r | | r r r r | r  . .5.5.=.=.o.[ X , , , , O O , , , X o.5. . .r r r r r r r r | | | | | | | |  .| | | | | | | r r r r r | | | r r r 5.=.o.X - - - - 0 - #.o.=.o.-XNX%X%Xh.; f.H.l.H.f.; ; ; ; ; f.H.l.H.f.; ; ; f.H.H.f.; ; ; ; ; ; ; %Xf.f.; ; ; ; ; ; ; ; ; ; ; f.f.f.; ; h.; ; h.; ; ; ; ; ; ; ; ; ; ; ; ; ; ; ; h.; ; ; ; ; ; ; H.H.l.Q Q Q Q Q Q Q Q Q F Q Q Q Q Q Q Q Q Q Q 1.t.x.t.t.t.S.@XNX6Xz.$ % O O O O $ $ $ , , , , O O O O O X X X % % % % ",
"$ $ $ $ - - - - - $ $ $ $ $ $ , , , , , , , , , O X X O O , , , , , , , , O , $ $ z - $ $ - - - - $ $ $ $ $ $ $ $ $ , , , , O O O O X X O , , , , z M M M M M M 2 2 2 2 2 2 M 0 - - $ $ $ $ $ $ $ $ , O X O O O O X X $ z z $ $ #.#.#.o.#.o.o.o.o.=.o.o.o.#.#.#.- , , O O O X O X X X X X O , , , , , - - - 0 0 0 +.0 0 0 - X X X X O O O , , , , , z z M M 2 : = = @ @ @ @ @ = = = = : = = = : 2 M 0 - $ - $ $ $ $ $ , , , , , O X [ X O X o.5. .r r  .| | r | r | r | | | | | | | | | | | | r | r | r | | r r r r | r r  .| | r r |  .5.=.=.o.o.9X#.+.- - #.#.=.5. .r r r r r r r | | |  .| | r | | | | | r r r r r r r r  . .5.=.o.o.X , , z , X X , z X o.o.=.5.5. . .r r r r | | | | r r r | | | | | | | | | | r | r r r r  .r | | |  .=.o.#.#.#.#.#.#.#.o.=.5.=.HXNX%X%Xh.h.f.H.H.H.f.; ; ; ; ; f.H.H.H.f.; ; ; %XH.H.%X; ; ; ; ; ; ; f.f.; ; h.; ; ; h.; ; ; ; ; ; ; f.; ; ; ; ; ; ; ; ; ; ; ; ; ; ; ; ; f.; ; ; f.; ; h.; ; ; ; ; X.H.l.Q Q Q Q l.Q Q Q Q hXQ 6 Q Q Q 1.Q Q Q Q 1.1.t.t.t.t.t.@XOX`.-X- [ % O O $ $ $ - $ , , , , , , , , O O X X X % % ",
"$ $ $ $ $ $ $ $ $ O $ $ $ $ $ , , , X X X O , , X X O O , , , , O , , , O X O $ z z $ $ - - z 0 0 z z - - - - - $ - - - , , , O O X X X X X X X X X X O , , , 0 , 0 M M M 0 0 - - - $ $ $ $ X X $ , , , O , , , O X X $ z z $ $ $ - - z z +.+.z z +.- - - - - - , $ O X % % X O X X X O X O O , , , - 0 0 0 +.^ 0 ^ 0 0 0 - , X X , , , , , , , , , 0 , M M 2 : : . @ @ . . . = = = = = = : = = 2 M 0 - $ $ $ $ $ $ O O X O O O O [ [ X O O [ 5. .r  . .| r | r | | | | | | | | | | | | | | r | | | | | | r r r r r r  .r r  . .| |  .=.=.o.#.#.- - - 0 - - - #.o.=.5. . .r  .r r r | | | | | | | | | | | | r r r r r r r r r r r  .5.=.o.X , $ $ $ $ $ , , , , X #.o.=.5. .r r r | | | r r r r r r | | | | | | | r | r r r r r r  .| | |  .5.=.o.o.o.o.o.o.=.=. .r  .<XVX%X%Xh.; f.f.H.f.; ; ; ; f.; ; H.H.H.f.; ; ; H.H.H.f.; ; ; f.; ; ; ; h.; ; ; ; h.; ; ; ; ; ; ; ; ; ; ; ; ; ; ; ; ; ; ; ; ; ; ; ; ; ; ; ; ; ; ; ; f.; ; ; ; ; ; ; ; f.H.l.Q Q Q Q Q Q Q Q Q Q Q Q Q Q Q Q Q l.Q 1.1.t.t.x.t.t.t.@XOX6Xz.#.X O O $ $ $ - - , , , , , , , , , , O O O % % ",
"- $ $ $ O O , , , X % X O O O O X X , , , , , , , , , , z z z , , , z z , $ $ z 0 M M M M M M 2 2 M M 0 0 - - - - - - - X X X X X #.X - - - - X X O % % % % O X X O z z z - - - - - $ $ $ $ $ $ $ X X X , , , , , $ $ $ $ $ $ $ $ $ $ $ z z z z z z z z $ $ $ , O O O % % % X X X X X O O O O , , , 0 M 2 2 2 2 : 2 ^ 2 ^ M M 0 0 - - X X X O , O X X , , 0 0 M ^ 2 : : : : : : : : : : : : 2 2 M M z z $ $ $ $ $ $ $ O X X X % % O X O O O [ o.=.=.=.=.5. .| r r r r r | |  .| | | | | r | r r | | r r r r r | | r r r r r  . .5.5.=.o.#.- #.#.#.- , , $ - z $ [ o.=.=.=.5.5. .r r r r r | r r r r r r r r |  .| r r r r r r r r r  .=.o.#.#.X , , , , , , O , , X #.#.o.=.=.5.5.5. .| | r r | r  .| r r r r r | | r | | | r | r r r | 5.5.=.=.5.5. . . . .5. . .r  .<XVX@X%Xh.; ; f.f.f.; h.; ; ; ; ; ; f.f.f.; ; ; f.H.H.%X; ; ; ; ; ; ; ; ; ; ; ; ; ; ; h.; h.; ; ; ; ; ; ; ; ; ; ; ; ; ; ; ; ; f.; ; ; f.; ; ; ; ; ; h.f.; ; ; ; ; h ; f.f.H.l.Q l.l.H.l.Q Q Q hXQ 6 Q 6 Q Q Q Q Q Q 1.t.1.1.6 t.t.S.R.`.-X+.- $ $ $ $ $ $ - z , , O O , , , , , , , , , , ",
"- $ X O X X X X X % % % O O O O X X , , O O , , , , , , , , z z 0 0 M M 0 M M M 2 : : 2 : : 2 2 2 2 2 2 2 M M M M M M M M M M 0 0 0 M M M 0 0 0 z , % % % O O % X $ $ $ $ - - - - - - - - - - $ $ X X X , , , , $ $ $ $ $ $ $ $ $ $ $ $ $ $ z z z z z $ $ $ , , O O O % % % X , , X X X O X O , , , M 2 : : : = : : . : 2 2 2 M 0 0 0 0 , X X O % % [ X , , - 0 0 ^ ^ ^ 2 2 2 2 2 2 2 2 2 ^ ^ M 0 0 z - $ $ $ $ $ O O X X X X % % % O O O , , X #.#.#.#.o.=.5.5. . .r r r  . .r | | | r r r r r r r r |  . .r  . . . .5. .5.=.=.=.o.#.X $ $ $ X $ O O O O $ $ O O X X #.#.o.o.=.5.5. .5.5. .| | r  . . . . . .5.|  .r  . . . . . . .5.o.#.X X , , O X X X X [ X X - - - #.#.#.o.o.=.5. .| r r r | r | r r r r r r r | r r r r r  .|  .5.=.o.o.=.=.5.5. .5. . . .r r  .<XVX%X%Xh.; ; ; f.; ; ; h.; ; ; ; ; f.f.; ; ; h.f.%XH.f.; ; ; ; ; ; ; ; ; ; ; ; ; ; ; ; ; ; ; ; ; ; ; ; ; ; f.; ; ; f.; ; ; ; ; ; ; ; ; ; ; ; ; ; ; f.; ; ; ; ; ; f.; ; ; f.H.l.l.H.H.H.H.l.Q F Q hXQ Q Q Q Q Q Q Q 1.1.6 Q Q Q t.t.}.OX6Xz.+.- z $ O X X - - $ O O , , , , , - X #.#.#.X ",
"$ $ O X O X X X X % % % % O O % X X , , O O O O , , , , - 0 0 M M 2 2 2 2 2 : : : = = : : : : : : : : : : : : : : : : : : : 2 2 2 2 : 2 2 2 2 M 0 , X X X O O O X $ $ - - - - - - - - - - - - - - - , , X X X - $ $ $ $ $ $ z $ $ $ $ $ $ $ $ $ z - - $ $ $ , , O O O % % % O , O X X X O X X O , , M 2 : : = = : . : : . : : 2 ^ 2 2 2 0 , X X X X X , , , , - - - - 0 0 0 0 0 0 M M ^ 0 0 0 0 - - - $ $ $ $ $ O X X X X X X % % X X X O , , $ - X - - X #.o.=.=.=.5.5.5. . . . . .| | | | | | | | |  .5.5. .5.5.5.=.=.=.o.#.#.#.[ X O O O O O O O O % O $ , O O , z 0 - - #.#.o.=.=.=.=.=.5. . .5.5.5.5.=.5.5.5.5.5.5.=.=.=.o.=.=.o.X , , , O , O % [ X X [ [ X - - z z z - - - o.=.5. .r r r r r r  . . . .r r r r r r r  . . .5.=.o.#.#.#.#.o.o.=.=.=.=.=.5. .r | <XVX%Xh.h.; ; ; ; ; ; h.; ; h.; ; ; ; ; ; ; ; ; ; f.f.f.h.; ; ; ; ; ; ; ; ; ; ; ; ; ; ; ; ; ; h.f.f.; ; ; ; ; ; ; ; ; f.; ; ; ; ; ; ; ; ; ; ; ; ; ; ; ; ; ; ; ; f.f.f.f.; ; f.H.H.H.H.f.@.l.Q Q Q F Q Q Q Q 1.Q Q Q Q 1.Q l.@.l.1.t.V.R.`.6Xz.+.z , O O X X X X X $ , X [ #.o.#.o.o.o.o.o.",
"$ $ $ O O O O % % % % % % % % % X X O O O O O O O O X X - 0 ^ 2 : : : : : = 2X= . @ @ @ = = @ . @ @ @ @ . . . . = : : : : = : = = : : : : : 2 2 M z X X $ $ z $ $ $ - - - - +.- - - - - - - - - - 0 0 0 , X - X - - $ $ $ $ $ $ $ $ $ $ $ $ $ $ $ $ $ $ $ X X , , , , X X X O , O X O X X X O O , , M 2 : : = = = = = @ = = = = = : 2 2 M 0 - X O , , O X X X X X X X X X - - - - - 0 0 0 - - - - $ $ $ $ $ X X X X X X X % % % O X X X X , , z z $ $ z z $ X #.#.#.o.o.o.=.=.=.=.5.5.5. . .5.5.=.=.=.=.5.5.=.=.o.o.#.- #.X , , , O O O % % O O O O % % O O % % % O , X - - 0 , [ =.=.=.5.5.5. .5.5.5.=.=.=.=.=.o.#.X [ [ X #.X [ [ X , , O O O $ X X X , $ $ $ - - - - z $ $ - - X o.=.=.5. . . .r  . .5.=.5.5. . . . . . .5.5.=.=.o.X - z z $ X [ [ #.[ o.o.=.5. .5.<XVX%Xh.h.; ; ; ; ; h.; h.; ; f.; ; ; ; ; ; ; h.; h.h.h.; ; ; ; ; ; ; ; ; h.; ; h.; ; ; ; h.; f.f.f.; ; ; ; ; ; ; ; ; f.f.f.; ; ; ; ; ; ; ; ; ; ; ; h.; ; ; ; f.f.H.H.f.; ; f.f.H.H.H.H.f.l.Q hXF Q Q F Q Q Q Q Q l.Q Q Q l.@.@.Q 1.t.}.OX`.-X+.z O O % % [ X $ $ $ #.o.=.=.5.5.5.5.5.5.5.",
"$ $ $ O O O O % % % % % % % % O X X O O O O O O O $ X X - 0 2 : = = = = = = 2X@ . . @ @ @ @ @ @ @ @ @ . @ @ @ . . . : = : : : = = . . . : : : 2 2 M z - - z z - - - 0 0 0 0 ^ 0 0 +.0 0 0 0 0 0 0 0 M 0 0 - - - - - z $ $ $ $ $ $ $ $ $ , $ $ $ $ $ $ $ $ X X , , , , , , , O O O O O % X X X , , , 0 2 2 : : = = = @ @ @ @ @ 2X= : : 2 2 M 0 - z z , O X X X X $ $ $ $ $ X $ $ $ $ - - - - - - $ $ $ $ $ $ X X X O O X X % % O O X X X X O , $ $ $ $ $ $ $ $ $ $ $ $ $ $ $ #.#.o.o.o.o.o.=.o.#.o.#.#.o.o.#.#.#.- - - z $ , , O O , O % % [ % % % X X , , O % [ % O $ #.- 0 - #.=.5.5.5. .| |  . . . . .5.5.=.=.#.- z z $ X , , , , , , O , X X X X X X z z z 0 0 - - - $ $ $ - z z X [ o.o.=.=.5.5.5.=.o.o.o.o.=.=.=.=.=.=.o.o.o.o.X $ z z z $ $ $ $ $ $ X X [ o.=.=.HXVX%Xh.; ; ; ; ; ; ; ; ; ; ; ; ; ; f.; ; ; f.; ; ; ; ; ; h.; ; ; ; ; h.; ; ; h.; ; h.; ; ; ; H.H.H.f.; ; ; ; ; ; f.f.f.H.f.f.; ; ; ; ; ; ; ; ; ; ; ; ; ; ; ; f.f.l.H.H.f.; f.f.f.f.H.H.H.l.Q Q Q Q 6 Q Q Q Q Q l.l.l.Q Q Q l.@.l.Q 1.V.@X`.-Xz.+.$ % % % [ % , , #.=.5.5. . . .| |  . . .",
"O O , , , , O % % % % % % % O O O O X X X O O O O $ $ - - 0 2 : = = = = : : = @ . . . . . . . @ @ . . . @ @ @ @ . . . . = . . . . @ @ @ @ = : : : 2 M - - - - z - 0 ^ ^ ^ 2 2 : 2 2 2 2 2 2 2 2 2 2 2 ^ ^ 0 0 0 0 0 z $ $ $ $ $ $ $ O O , , z z z z $ $ $ $ , , , , , , , , O O X X O O X X O , , , 0 M 2 : : : = = @ . . . . . . : : : : 2 M 0 0 $ , , O O O O O $ $ $ $ $ $ $ $ $ $ z z $ - - $ $ $ $ $ $ $ $ $ $ $ O X X X O , , X X O , $ $ $ $ $ $ $ $ $ X X X - - - - 0 - - - #.+.9X+.+.#.#.#.- - - 0 - $ $ X $ $ $ , O X % O % % % [ % O X X , z z z $ X $ z - +.+.9X9X=.5.| | | | |  .r r r r | r  . .5.=.o.#.$ O O , , , , , , O O , , , X X X , - 0 0 0 - - - X X X $ 0 z O % [ [ [ o.o.o.o.o.#.X X #.#.#.#.[ [ [ [ [ [ [ X X , , $ $ $ $ $ $ $ X O , X #.+.HXVX%Xh.; ; ; ; ; f.f.f.f.; ; ; ; f.f.f.; ; ; h.; h.; h.; ; ; ; ; h.; ; ; ; h.; ; ; ; ; ; h.f.H.l.H.f.; ; ; ; ; ; ; f.f.H.H.f.; ; ; ; ; f.; ; ; ; ; ; ; ; ; ; f.f.l.l.H.f.; ; ; ; ; f.f.H.H.l.5 l.B Q Q Q Q Q Q l.H.H.l.Q Q Q l.l.Q 1.S.S.OX6X-X+.#.% % % % % % [ =.5. . .r r  . . . . . .",
"O O , , , , , O O O O O O O O O O O X X X O O O $ $ $ $ - 0 M 2 : = = = = : = @ @ . . . @ . . . @ @ @ @ @ @ @ @ @ @ @ @ @ @ . @ @ @ @ @ @ @ . : : : M 0 - - - 0 0 ^ 2 : : . = = : : : : : : . : . : : 2 2 ^ M M M 0 z $ $ $ $ $ $ $ O O , , z z z z z $ $ $ , , , , , , , , X X X O O O O , , , , , - 0 M 2 2 : : = = = @ @ . . : . = : 2 0 - - - $ $ , , , , , , $ $ $ $ $ O O O $ , , , , , , , , , $ - - - $ $ $ $ $ O O O X , , O O , $ $ $ $ $ $ $ X X $ X - - 0 +.+.+.z.z.+.+.z.9X9X9X<X9X9Xz.^ +.- 0 - $ $ X $ $ - $ - $ , , X , O X O , $ $ - 0 0 +.+.+.+.9X9X<X1X1XFX1X1X1XFX| FX| | r r r r  .r r  . .5.5.=.[ O , O , , X X X O O X , , , - , X X , , , , , , X X X O , , O % % O X X #.#.#.#.$ $ $ $ $ $ $ O O O X X X X X X , , $ $ $ $ $ $ $ X O , - +.z.VXNX%Xh.; ; ; ; f.f.f.f.h.f.; ; ; f.H.H.f.; ; ; ; ; ; ; ; h.; ; ; h.; h.; h.; ; h.; h.; ; ; f.H.l.H.f.f.; ; ; ; ; ; f.f.l.H.f.; ; ; ; ; ; ; ; ; ; h.; ; ; ; ; ; f.H.l.H.H.f.; ; ; ; ; f.f.f.H.f.H.l.Q F Q Q Q Q l.H.H.l.Q Q 1.F Q 1.1.t.S.@X`.6Xz.+.X % % % % % [ =. .r r r r | | | | | | ",
"O , , , - , , O O O , , O O O O O O O O O % O O , , $ $ - 0 M 2 2 : = = = = = @ @ -.@ @ @ @ . . @ e.e.e.e.e.e.@ e.@ . . . @ @ @ @ @ @ @ @ @ . = = : 2 0 0 - 0 M 2 2 = = = = = = = = = . . . = = @ = = : : : 2 2 M M z z $ $ $ $ $ O O O , , , z z z z z z z z z , , , , , , - $ $ $ $ $ $ $ $ $ - - - - 0 M M 2 : : = = = = = . . = : 2 0 #.o.#.- $ $ , , , , , , , O X X X X O O O O , , O O O O O O $ - - - - - - $ $ $ $ $ X X O , , , $ $ $ $ $ $ $ X - - - - 0 +.+.9X<X<X` <X<X` aXFXFXFX&X<X` ` 9X9X- 0 $ $ $ #.- - 0 +.+.0 0 - 0 0 - - 0 - +.+.9X9X` ` ` ` <XFX;X;X;X;XFXaX1XFXFX1X1X| r r r  . .r r r r r  .5.o.O O O X X X X X O O O X X , , X X [ [ [ X , , % % % % % , , O X O O O , $ X X X $ $ O O O $ $ $ , , , , X X X X , , , , $ $ $ $ X X X , - z.-X`.NX%Xh.; ; ; f.H.H.f.f.f.; ; ; ; f.H.H.f.; ; ; ; h.; h.; ; ; ; ; ; ; ; ; ; ; ; ; ; ; ; ; f.f.H.l.H.f.; ; ; ; ; ; ; f.f.l.H.f.; ; ; ; ; f.; ; ; ; ; ; h.; ; ; ; ; H.l.l.H.f.; ; ; ; ; ; ; f.h ; X.H.l.Q Q Q Q Q Q l.H.l.l.Q 1.1.x.x.t.t.t.V.OX`.6Xz.+.$ % % % % [ =. .r r r r | | | | | | ",
"O , , 0 0 , , O X O , , , , O O X O O O % % % O , , , , X - z M 2 : = 2X2X@ @ e.e.e.~.e.~.3 e.~.e.~.~.-.-.-.e.e.e.@ . . . . @ @ @ . @ = @ . = = = 2 M 0 - 0 M M 2 : = 2X@ @ . . . . . . . . @ . @ @ = = = : : 2 2 M z - $ $ $ $ O O O O , , , $ $ $ $ $ $ $ $ $ X X X X - - - X X $ $ $ $ $ $ $ $ $ X X , 0 0 0 ^ ^ 2 : : : : . : 2 ^ #.=.5.=.o.X $ z , , , , , , , , , X X X O O X O O X O O O O O , - - - - - - - - - - $ $ $ X , z z z $ X $ - - - - - - 0 - - +.+.9X1XFX&X&XxXxX&X;XT..X.XT.;X&X&XFX<X+.0 - $ - - +.z.z.` z.` ` ` ` z.` ` ` ` ` ` 1XFX&XaXaXaX&XT..XZ..X.X0XAX&X&XaXaX1XFX| | r r r | | | | r r r 5.o.[ % [ #.- z $ $ $ $ X #., , z O O % % X X % % % % X , , 0 - - z z $ $ - X X - $ $ X X X X X X X X - - - - - - z z z , , , O X X X X X +.z.6X`.OX%Xf.; ; f.H.H.f.f.; ; f.; ; f.H.H.H.f.; ; ; ; ; ; ; ; ; ; ; h.; h.; h.; ; ; h.; ; ; f.; f.H.H.f.; ; ; ; ; ; ; ; ; f.H.H.H.; ; ; ; ; ; ; ; h.; h.; ; ; ; ; ; ; f.H.l.l.H.f.; h h.h h.h h.; h ; X.l.Q F Q Q Q Q l.H.H.l.l.Q 1.x.x.t.t.t.V.@XOX`.6Xz.+.#.X , X [ o.5. . . .|  .| | | | | ",
"% O , - - - , O O X , , , , , O O X O % % % % O O , , X X X - 0 ^ 2 . e.e.~.~.~.~.|.|.|.|.|.y.y.!.!.~.!.~.~.~.e.e.@ . @ = = = = = = = = = = = @ = 2 M - - 0 0 ^ 2 2 = = @ @ @ @ @ @ @ @ @ @ @ @ @ @ = = = : : 2 2 M 0 - - $ $ $ O O X X O O , $ $ $ $ $ $ X X X X - X - - - - - - - - - - $ - - $ $ $ , , , X X #.#.#.- - #.- #.#.#.o.o.=.=.o.#.$ $ $ $ $ , , O O , , , O O , O O O O O O O O O O , , , - - $ $ $ $ $ $ $ $ $ O O O , , , $ - - 0 0 0 0 0 0 0 - +.+.` 1XFXT.T..XD.+X*X*X*XT.D.B..XT.;X;X1X9X+.- - 0 ^ z.` <XaX&X;X;X&X&XaXaX<XaXaX&X&X*XT..XT.T.*X*X+XD.D.D..XD.T.T.;X&X&X&XFXFXFXFXFXFX1X1X1X1X| | |  .5.o.- 0 +.z.z.+.+.0 0 - - 0 0 z O $ z - - - - - - 0 0 0 0 +.+.+.0 z z $ $ - - 0 0 0 z z z z - - - - - - - - - - $ $ , , , O O % % % X $ +.z.6XNXOX%Xf.; ; f.H.H.f.f.; f.f.f.; f.H.H.H.f.; ; ; ; ; ; ; ; ; h.f.; ; ; ; ; f.f.f.f.f.; ; ; ; ; f.f.f.; ; ; ; ; ; ; ; ; f.H.H.H.f.; ; ; ; ; ; ; ; ; ; h.; h.; ; ; ; ; f.H.l.H.f.; ; ; ; ; ; ; ; ; ; f.H.l.Q Q Q Q l.l.l.l.l.Q Q 6 6 6 x.t.t.t.V.@XOX`.6X-Xz.+.+.- - #.=.5.5. . .| | | | | | ",
"% O , - - , O O O X , , - , , , , O O % % % % % O , % % % X - 0 ^ 2 -.-.~.!.|.} aXAX&X&X&XAX|.} } AXaXaX} |.|.-.e.@ @ = = = : : = = = : : : = = = 2 0 - - - 0 0 ^ ^ 2 . . @ @ @ @ @ @ @ @ @ @ @ @ @ : : : : : 2 M 0 z - $ $ $ $ O X X X O , , $ $ $ $ $ $ $ $ - - - - - - - - - - - - - - - - - $ $ , z , , , [ [ #.[ #.o.o.o.o.o.=.o.o.o.o.#.X $ $ $ $ $ X X O O O O O O , , , , , , O O O O O , , , , , X X X X X X X X O O O O O , , $ $ - M M 2 2 2 2 2 ^ 0 0 ^ z.aX;XT..XB.B.B.D.T.T.D.D.B.B..X;X&X<X9X+.+.+.9X9X<XaX&X;XT.T.T.T.0X0XxX;X0XxX0X0XT..XB.Z.B.D.D.+X+XD.D.B.B.D.D.T.T.*X;X;X;X;X&XaX&X&X&XFXFXFX1X1X| | =.+.z.` ` <X<X9Xz.z.z.z.+.+.0 $ z +.+.+.+.+.+.^ z.` 9X<X9X9X+.+.0 z $ - - 0 M 2 M M M M M M M M M 0 0 0 - - $ $ $ $ O O O % % % % % - +.-X6XNXOXh.h.; ; f.f.f.f.H.f.H.H.f.f.f.H.H.f.f.; ; h.; ; h.; ; ; ; ; ; h.; h.; f.f.f.f.f.; ; ; ; ; ; f.; ; ; ; ; f.; ; f.; ; f.H.f.f.; ; f.; ; ; ; ; h.; ; ; ; ; ; ; ; ; ; H.H.H.f.f.; ; ; ; ; ; ; ; h f.X.H.l.Q Q Q l.l.l.l.Q Q Q F 6 6 x.t.t.t.t.V.@XOX`.6X-X-X-Xz.z.+.#.o.o.=.=.5.5. .| |  .",
"% O , - - , X % % % O , - - - , , X X O O % % O % % % % % X - 0 ^ z.` |.|.|.} 0XT..X.X.XT.*XxX0XT.T.T.T.T.&XaX|.e.e.. : 2 : : : : : 2 2 2 2 : : 2 2 0 - +.- 0 0 0 +.^ 2 . . @ . . . @ @ @ @ . . . . : : : : : 2 M 0 - - $ $ $ X X X X X , , , z z z z z z z z 0 0 0 0 0 0 0 0 0 0 - - - - - - - $ $ $ $ , , , X X , , X X #.#.#.#.o.#.#.X X X X $ $ $ $ O X X X X X X X X X O , , , , , , X X X X X , , X X X X X X X X X X X O O O O , $ - 0 2 : : = = = : : 2 : @ e.|.&X+XD.D.JXD.+XT..X.XB.B.JX0XaX<X` +.z.+.9X1XFX;X;XT.D.D.D.D.D.D.T..X.X.XT.0XxX0X+XD.B.B..XD.D.D.B.B.B.D.0X0X+XB.B.B..XB.T.0XxX0XT.T.T.T.FXFX1XFXFX<X9X<X&X&X&X&X&X<X` z.` ` ` 9X#.+.z.` ` ` ` ` ` ` <XaXFXFX1X9X+.+.+.- - 0 2 : : : : : : : : : 2 2 M M 0 0 - $ $ $ X X O O % % % % % - z.6X`.NXNXh.; ; ; f.f.H.H.H.H.l.l.f.f.f.H.H.f.; ; ; ; ; ; ; ; ; h.; ; ; ; ; ; h.f.f.f.f.f.; ; ; ; ; ; ; ; ; f.; ; f.; ; ; h ; ; f.f.f.; ; ; ; ; ; ; ; ; f.; ; ; ; ; ; ; ; ; f.f.H.f.f.f.; ; f.; ; ; ; ; ; f.H.H.l.Q l.H.H.H.l.Q Q Q B F 6 6 t.t.t.t.t.V.}.R.OX`.6X6X-X-X-X^ 0 0 - #.o.=.=.=.=.=.",
"O X - - 0 0 $ % [ % O $ - 0 0 0 +.+.- z z , O O % % % % % [ X +.` <X&XxXxX0X0XD..X.X.XT..XT.*X.XW.W.W.Z..XT.&X` . 2 0 M M M M M M M M ^ ^ ^ ^ z.^ 0 0 - - 0 0 0 ^ ^ 2 2 . . . . . @ @ @ @ . . 2 ^ ^ 2 2 2 2 M M 0 - - $ X X $ $ O O O $ $ - - 0 0 0 M M M 2 2 2 2 2 2 2 2 2 2 2 2 M ^ 0 0 0 - - - - - - $ , , , , , , , $ $ - - #.#.X , , , , O , O O O % % X X X X X X , , , , , , , , , , X , , , , , X X X X , , , , O O X % X O O $ - - 0 2 : = = @ . @ @ @ @ 2X3 -.aX&X;XxXxXGXxX0X+XT.+X0XxXaX` ` +.+.^ z.9X<X;XT..XB.B.D.D.D.D.B.B.Z.Z.Z.*XxXAX0XT..X.X.X0X0X0XB.B.W.B.0XGXGX+XW.W.W.W.{ W.D.+XD.W.W.B..X;X&XaX1X1XaXaX;XT..X.X.X*X&X} } aX&X&XFX1X<X<XaX&X;X&X&XaX&X;XT.T.T.;X&X<Xz.z.0 0 M : = = . : : = = = = = = : : 2 M $ O O % % % % % % % O $ - +.-X6XNXNXh.h.; ; ; ; H.H.l.hXl.l.H.f.; f.H.H.; h.; ; ; ; ; ; ; ; ; ; h.; h.; ; ; f.f.%Xf.f.f.f.H.f.H.f.f.f.; ; ; ; f.; ; f.; ; ; f.f.; ; ; ; ; ; ; h.; ; f.f.; ; ; ; ; h.; ; ; ; f.f.f.f.; f.; ; h.; ; ; ; h f.H.@.H.H.f.f.f.H.l.Q B Q F F 6 1.t.t.t.t.t.S.V.R.R.OX`.`.6X6X2X= : 2 ^ 0 0 - 9X#.#.",
"- #.9X` ` 0 - X % O $ - 0 +.z.` 9X<X9X9X+.- 0 - $ O % % % % - +.` FX;XT.D.D.B.B.B.D.*X*X*XT.D.B.W.W.W.B..X;XaX` ^ z X $ z $ - - - 0 0 0 +.+.+.0 0 +.0 0 ^ ^ 2 2 2 2 : . . . . . . @ e.@ @ . -.^ ^ ^ ^ ^ 0 0 0 0 - - , , X X O $ $ $ $ $ - 0 0 0 ^ ^ 2 : : : : : : : : : : : : : : 2 2 ^ ^ ^ 0 0 0 0 0 - - X , , , , , , $ z z - - X , , , , O O O O O % % % X X , , , , , , , 0 - , , , , , , - 0 0 0 0 0 0 0 , , , , , X X X X X O $ $ - - 0 2 : = @ @ @ @ @ . @ e.3 -.` <X} |.!.y.ZXZX} } } } ` -.^ +.- $ M +.` } &XT..X.X.X+X0X+X+XT..X.X.XT.;XaX} &X;X;X;XaXZXZXgXxX+XD.B.+XGXGX+XW.W.Z.W.W.B.B.B.B.W.B.D.+XxX&XaX&X&X&X;XT.Z.Z.Z.B..X+X0X0X+XT.T.T.*X&X&X0XT..XT.*X*X*X*XB.W.W..X&X} ` z.^ M 2 : = @ @ = : = = . = = = 2X: : M O % % O % % % % O $ - +.+.z.6XNXOX%Xh.h.; ; ; ; H.l.l.l.H.H.f.; ; f.H.f.; ; ; ; ; ; ; ; ; ; f.; ; h.; ; ; ; ; f.f.f.H.H.H.l.l.l.l.H.H.f.; ; ; f.; ; ; ; ; ; ; ; ; ; ; ; ; ; ; ; ; ; f.f.; ; ; h.h.h.; h.; ; ; f.f.; ; ; h.; ; ; ; ; ; ; f.H.H.H.f.f.; X.f.H.l.l.Q Q Q 1.1.1.1.1.1.t.t.t.t.S.R.OXOX`.`.] ] XX2X= : : : 2 2 ^ ",
"<X1X1X<X<X9X9X- - +.+.+.z.` <XaXFXFXFXFX1X9Xz.z.+.- X X O z M z.` FX;XT.D.B.W.W.B.D.+X*X*X+XD.B.B.B.B.D.0XaX|.z.0 $ $ $ $ $ - - - - - 0 0 0 ^ ^ ^ ^ 2 2 2 : : : : : : . . . @ . . @ @ @ e.. . ^ ^ ^ 0 0 0 - - - - , , , , O $ $ $ z z z M M 2 2 2 : : : : : = = = = = = = = = = : : : : 2 2 2 2 2 M 0 - - - , , , , , , $ z z - , , , , , , O O O O % % O , , , 0 0 0 0 0 0 0 0 0 0 0 0 0 - 0 0 M M M 2 2 M M 0 0 , , X X X X X O $ $ $ $ - 0 2 : = = @ @ @ @ @ . @ e.e.-.-.~.x <._ _ _ tXx 3 e.. ^ 0 X X $ z +.` ` &X;XT.T.;X} } } AXxX&X&X&XFXaX` ~.-.-.J.J.tXr.r.r.lXAX0XD.D.D.D.D.W.W.B.D.+X+XD.W.W.B.D.+X0XxXxX&X;X;X;XT..XZ.B.B.B.D.D..XB.W.W.W.W..X+X+XD.B.B..XT.*X*X*X.XW.W..X0X} |.z.z.^ 2 : . @ @ = = = = @ . = = : : 2 M , % % , O O $ z z +.z.z.-X6XNXNX%Xh.h.; f.f.; f.H.H.H.H.f.f.f.; ; f.f.f.; ; ; ; ; ; f.; ; ; ; f.; ; ; h.; ; ; ; f.H.l.l.Q Q Q Q Q l.l.H.f.; ; ; ; ; ; ; ; f.; ; ; ; ; ; ; h.; ; ; f.f.; ; ; ; h.h.h.f.; ; f.; f.; ; ; ; ; ; h.; h.; ; ; f.H.l.H.H.f.; ; f.f.f.H.l.Q Q Q Q Q l.l.l.Q 1.t.t.t.V.R.R.OX`.`.'.] ] XXXXXX2X2X2X= ",
";X;X;X;X;XFX<X` ` z.` ` ` 1X;X;XT.T.T.T.;XaX} ` ` ` +.- - z z +.z.<XaX&XT.W.W.W.W.B.D.D.D.+X+XD.D..X.XT.&X} z.+.- $ $ $ - - - - - - 0 0 ^ 2 2 : : : : : : = = = = . . . . @ @ . @ @ e.@ @ . . . 2 ^ 0 +.0 - - - - , z , , , $ $ $ z z M 2 2 : : = = = = . . . . . . . . . @ @ = = = = = = : : : : 2 ^ ^ 0 0 , , , , , , $ $ $ - - , , , $ $ $ $ $ O , , z z M M M 2 M 2 2 2 2 2 2 2 ^ ^ ^ ^ ^ ^ 2 2 : 2 2 ^ ^ 0 0 0 - - - - - $ $ $ $ $ $ - 0 2 2 : : = @ @ @ . . @ e.e.e.e.3 x x ].<.<.<.3 @ 2 0 , % % % O $ - +.9X<XFXFXaX|.(._ _ tXtX!.-.` <X` z.. @ 3 tXbXbXnXnXP (.AX+XB.W.W.K.K.W.W.B.+X0X0XD.B.W.W.D.+X0X0X0XT..XJX.XB..X.X.X*XT.*XD.B.W.W.K.W.W.D.+X0X+XD.D.D.*X*X*X*XD.B.W.D.+X&XaX` z.^ 2 : . @ @ = = = @ @ = = = : : 2 M , X , - 0 +.+.z.z.-X6X6X`.NXOX%X%Xh.h.; ; f.; ; f.H.f.f.; ; ; ; ; f.f.f.; ; ; ; ; f.f.f.; ; ; h.; ; ; ; ; ; ; ; X.H.Q F Q F Q Q Q l.l.H.H.; ; ; ; ; ; ; ; ; ; ; ; ; ; h.; ; ; ; ; f.f.; ; ; f.; h.f.h.; ; ; f.; ; ; ; ; ; ; ; ; ; ; ; f.f.H.l.B H.@.f.; h ; ; f.H.l.Q Q Q Q l.H.H.l.Q 1.t.t.t.V.V.@XR.OXL.`.`.'.'.] ] ] XXXX",
"B.W..X.X.XT.;X&XaXaXAXaXAX;X.X.XZ.W.Z.B..X0XAXAXaX<X` +.+.- #.+.z.z.|.} ;XB.W.W.K.K.W.B.D.0XxX0X*X*X*X;X&X<X` +.#.[ $ - 0 0 - - - - 0 M 2 : : = = = = = = = = 2X= = . . @ @ @ . @ @ @ @ e.@ . : : 2 2 ^ 0 0 - - $ , , , , X $ $ $ $ z M 2 : = = = @ @ @ . . . . . . . . . . . . . @ = = = = = = = = : 2 2 M 0 , , , , X $ $ X X - - - - - - - - - - z M M 2 2 2 : : : : : : 2 : : : : : 2 2 2 : : : : 2 ^ ^ ^ ^ ^ ^ M M M M M M z z $ $ $ z 0 M 2 2 : : : . @ = = @ @ @ . @ e.@ : : : 2 M 0 - #.[ [ % % % X $ $ - - +.` -.3 <.k.q.P P A q.<.-.` +.0 ^ ^ 2 . a 3 3 bX3 -.&XT..XB.W.W.B.W.B.D.+X*X*XD.B.{ W.K.W.D.+XD.B.W.W.W.B.D.*X*X*X*X*X*XD.B.B.B.D.+XxXGXGX0X+XD.+X*X*X*X*X*XB.W.B..X*X&X<X+.^ 2 : = = -X= e.= = = = = = = : 2 2 0 - 0 +.z.-X-X6X6X`.`.`.OX@X%X%Xh.h.; ; ; ; ; f.H.H.f.; ; ; f.; ; f.; ; h.; ; ; f.H.H.f.; ; ; ; ; ; ; f.f.; ; h H.l.Q F Q F Q Q l.l.hXl.H.f.; ; ; ; f.; ; ; ; ; ; ; ; ; ; ; ; ; f.H.f.; ; ; f.; ; ; ; ; f.; f.; ; ; ; ; ; ; ; ; ; ; ; ; f.H.l.hXl.l.H.f.; ; ; ; f.H.H.l.Q Q Q l.H.@.H.B 6 t.t.t.t.V.V.R.OXOXOX`.`.'.'.] ] ] ",
"W.W.W..X.X.XT.T..XT.T.T.*X*XT.D..XW.W.W.B.B.T.*X;XFX1X9X+.0 - #.+.^ ^ ` aX;XT.JXJXJX3X+XxXZXDX!.|.|.} <X` z.^ 0 , O , 0 0 - - - - - - 0 ^ 2 : = = = = = = = = = . . . . . @ . . . @ @ @ @ @ @ = = = : : 2 M z z $ , O O X X $ $ $ - z M M : : = 2X= @ @ @ @ @ @ @ . . . . . . . . . . @ @ = = @ = = = : : 2 M M , , X X O $ - - 0 0 0 0 0 M M M M M M 2 2 : : = = = @ @ . = = = = = = = . . . . . . . . . . . : : 2 : : : 2 2 M z z - - - z z 0 M M 2 2 : : = = = 2X= = = -X2X= : 2 2 M 0 0 0 z z z $ $ $ $ z z z 0 0 0 ^ -.-.-.~.J.~.J.J.~.-.-.-.^ ^ -.^ ^ M M , 0 ^ -.<X&X*X+X+X+XD.W.W.B.D.D.D.B.W.W.K.K.W.JX+X0X+XD.W.W.D.+X*X*X*X*X*XD.B.D.+XxX} !.DXlXAX0XD.B.D.D.D.D.D.B.W.W.W..X;XaX` 2 ^ 0 ^ 2 : : = -X= @ = @ @ : . 2 ^ ^ ^ z.z.-X6X6X`.OXOXOX@XOXOX%X%X%X%X; ; ; ; f.f.l.l.l.H.H.H.H.f.; ; ; ; ; ; h.; ; ; H.l.f.; ; ; ; ; ; ; ; ; ; f.f.H.l.Q F Q F F Q l.l.l.l.H.f.; ; ; ; ; ; f.; ; ; ; ; h.; h.; h.f.H.H.H.f.; f.; ; h.; ; ; ; ; ; ; ; ; ; ; f.; ; ; ; f.; ; ; ; H.H.l.hX5 H.f.f.f.; f.f.H.H.l.l.Q Q Q H.H.l.F 6 t.t.t.t.t.V.S.@X@XOXOXOX`.`.`.`.",
"W.W..X+X0X0XT..XB.B.B..X+X*X*X*X*XD.B.B.W.B.D.T.;X&X<X` +.0 - $ X 0 2 . -.ZXZXZXZXdXZXZXtXP A _ x ~.-.` z.z.M z , O , , - - 0 - - - - 0 ^ 2 : : = = = = = = = = : : . . . . . . @ -.@ @ @ . = = = = = : 2 2 M z , X X X O O $ $ $ $ - 0 M M 2 : = = = @ @ @ @ @ @ @ . . . . . . . . . . @ @ @ @ @ . . . : : 2 M , , , , , z 0 M M 2 2 2 2 2 2 2 2 2 : : : = @ @ @ @ @ @ @ @ @ @ @ @ @ @ @ @ @ @ @ @ @ @ @ @ @ @ = = = = : : : 2 M z - - - z z - - 0 M M 2 2 : : : : : = = = = : 2 M 0 - - $ - z z z 0 0 0 0 M M M M ^ 2 -.-.-.|.} aX&X&X&XaX} |.} <X<X<X` +.0 0 0 , - z.` } AXxX0X0XD.W.W.W.B.D.D..XB.W.JXJX3XcXgXgXGX+XB.W.B.D.T.T.T..XB.W.W.D.0X} y.r.vXtX} 0XD.D.D.D.B.B.W.W.W.JX0XAX} ~.2X: , X , 0 2 2 : = : = = : = . . -X-X-X-X6X6X6XNXNXOXOX@X@X%X%X%X%X%XH.H.f.; ; ; f.H.l.Q Q l.l.H.H.H.f.; ; ; ; h.; ; ; h.H.l.f.; ; ; ; ; ; ; ; ; f.f.H.H.Q Q F Q F Q l.H.H.l.l.l.H.f.; ; ; ; ; ; ; ; ; ; ; ; ; ; ; ; %Xl.l.H.f.; ; ; ; ; ; ; ; ; ; ; f.f.; ; ; ; f.; ; ; ; ; ; h ; f.f.H.H.5 H.H.f.; ; f.f.H.l.l.l.Q Q Q B B B F 6 6 1.t.t.t.t.t.S.S.@X@XR.OXOXOXOX",
"W.B.T.0XAXAX0X+XB.W.W.B.+X*X*X*X*X0XD.B.B.B.D.+XxXaX` ` 0 0 0 , [ , M : 3 bXbXP bXP P P nXnXbX<.3 e.^ +.+.0 0 , , , 0 , 0 0 ^ ^ 0 0 ^ 0 ^ 2 : : = = = = = = = = = . . . . . . . @ @ . . . . = = = = = : : 2 M z O X X O , , $ $ $ $ - - 0 0 ^ ^ 2 : : : = = = = = = = . . . @ @ . . . . . . . . . . . : : : : M , , X , , z M 2 : 2 : : : : = = = = = = = @ @ @ @ @ @ @ @ @ @ . . . . @ @ @ @ @ @ @ @ @ @ @ @ @ @ = = = = = : 2 M 0 z - $ $ $ $ X , z z M M M M 2 2 2 2 : : 2 ^ M 0 - $ X #.$ - - 0 M 2 ^ 2 2 : : : : . e.-.|.} &X;XT..X.XT.xXAX&X&X;X&XaX` z.^ z.` ` ` } } AXxX0X0XD.W.W.W.D.0X0X0X;XkXkXcXuXZXSXDXgX+XB.W.W.W.B..X.XW.W.W.W..X0X|.<.q.nXtXZXxX0X+X+XD.W.W.W.W.JXxXZX(._ qXXX2 % [ [ X 0 M 2 2 2 2 2 : : . -X-X-X6X6X`.NXNXOX%X%X%X%X%X%X%XH.H.l.l.l.f.; ; f.H.H.l.Q Q Q Q l.l.H.f.f.; ; ; ; ; ; ; ; H.H.f.; ; ; ; ; f.f.f.; f.f.H.l.Q Q Q Q F Q l.H.H.l.Q l.H.H.f.; ; ; ; ; ; ; ; ; ; h.; h.; ; H.l.H.H.f.; ; ; ; ; ; f.; ; ; X.f.f.f.f.f.f.f.f.f.; ; ; ; ; ; ; X.f.H.H.H.f.; ; ; f.H.l.l.hXl.l.l.Q Q Q Q Q F 6 6 1.t.t.t.t.t.t.t.t.S.S.@X@X@X",
"W.W..X*XAXAX0XD.B.W.W.W.B..X.XT.T.T..XW.W.W.B.T.&X} -.-.^ 0 M M , X , M : @ a 3 bXbXbX3 3 @ . : 2 ^ ^ ^ ^ M M 0 0 0 M ^ 2 2 2 2 2 2 ^ 2 2 2 : = = : : : : : = = = = = = @ @ @ @ @ @ . . . . . . . = = = : 2 M z O % % % O , $ $ $ $ - - - - - 0 0 ^ ^ 2 2 2 2 : : : : = = = = @ @ @ @ . . . . . . . . . = : 2 M , X X X , , M 2 2 : : : : : : = = = = = = @ @ @ @ @ @ @ @ @ @ @ @ . . . . . @ @ @ @ e.@ . . . . . : = = = = = : M z z - $ $ $ $ $ $ z , O % O , , 0 0 0 0 0 - #.- 0 0 0 0 0 - - 0 0 ^ 2 : : = 2X= = @ e.~.|.} &X*X.XB.B..XD.+X+X.XB..XT.&X} ~.|.} aXaX} &X0XT.D.D.D.D.B.B.D.0XAX|.!.ZXZXmXtXG.vXvX!.xX.XW.{ W.W.JX+X+XW.W.W.W..X;X<X-.<.P P P lXgXGX0XD.B.B.W.W.T.AX!.(.3 @ M % % % % , - - - - 0 ^ ^ 2 . e.6X6X`.`.NXOXOX%Xh.h.%Xh.f.f.H.H.l.Q Q l.H.f.; f.H.l.Q Q Q Q l.l.l.H.f.f.; ; ; ; ; ; f.h.f.%XH.f.; ; ; f.f.H.H.f.f.f.H.H.l.Q Q Q 1.Q Q l.H.H.l.Q Q l.H.H.; ; ; ; ; ; ; ; ; ; ; ; ; ; f.H.l.H.f.f.; h ; ; ; ; h ; ; X.f.H.H.@.H.H.H.H.H.f.f.; ; h ; ; h ; ; ; f.; ; h ; ; ; H.H.l.l.hXQ l.Q Q Q Q F Q Q F 1.F 1.1.t.t.t.t.t.t.t.t.S.S.",
".XT.;X&XaXAXxX+XJXW.JXJX.XT.T.;X&XAX+XD.D..X.X;XaX|.-.@ : ^ 2 2 M M M ^ ^ 2 : : @ = 2Xa : 2 2 2 ^ ^ 2 2 2 2 2 2 2 2 2 : = . : : : : : : : : : = : : 2 2 2 : : : : : : = = . @ @ @ @ . . . . . @ . = 2X: : M M z O O O % O , z $ - - - #.+.#.#.+.- 0 0 0 0 ^ ^ ^ 2 2 2 : : : = = = = = @ @ @ @ @ . . . . = : 2 M , X [ X , , , M M M M M 2 2 2 : : : : : = = = @ @ @ . . = = @ = @ @ @ . . . . . @ @ @ @ @ @ . . . : = = : = = 2 M z z z $ $ $ $ $ $ $ $ O % % , % X X , , 0 - - - , , , , , 0 0 0 ^ : . : : = @ @ e.e.~.|.aX;XT.D.B.B..X.XD.+XD.B.W.B.T.xX} |.AX;X;X*X*X*X*X.XD.D.B.B.W.W.D.0X} !.(.P vXP s.nXP x ` &XT.T.T.JX+XxXuXdXxXcXxXxX;XaX` ` |.~.tX(.ZXxX+XD.B.B.+X+X+XxXAX|.~.-.^ , % % % % , - +.+.+.z.-Xe.6X6X`.`.`.NXOXOX%X%Xh.h.h.; ; f.H.H.5 Q Q Q l.H.sXH.l.l.Q Q 1.1.Q Q Q l.H.H.H.f.; ; ; h.; ; ; ; f.f.; ; f.H.H.H.H.H.f.H.H.l.l.Q 1.1.1.1.1.1.1.l.l.Q Q Q Q l.H.f.; ; ; ; ; ; ; ; h.; h.; h.f.H.l.H.f.; ; ; ; f.@.f.f.X.f.H.l.l.Q Q l.Q l.l.l.l.H.H.H.H.H.f.; ; ; X.; h ; ; ; ; ; f.f.H.H.l.l.l.l.l.l.Q Q F Q Q l.l.l.Q 1.t.t.t.t.t.t.t.t.t.",
"&XaXaX` |.|.aXxX;X;X;XxXxXaXaXZXZXJ.} xXxXxX&XaX} -.@ @ = 2 . . : : : : . . . 2 : : = = : : . : 2 2 : = : : : . . . . . @ . . . = = : : : : : . . : 2 ^ ^ ^ 2 2 2 2 : : : : . = = = . . . @ @ @ @ = = : 2 M z O O O % % O , - - - - - - - +.- 0 0 +.0 +.0 0 0 0 0 ^ ^ 2 2 2 : : : : = = @ @ @ @ @ @ @ . = : 2 0 , X X X , #., , , , , 0 0 M M M M M 2 2 2 : : = = = = = : = = = = = @ . . . . . . @ @ @ @ @ = = = = = = = : : 2 M M z z $ $ $ $ $ z z $ , O O % % % [ , , , 0 0 , , #., , , , 0 M 2 : = : : : . @ e.e.~.} &XT..XB.B..XD.T.T.+XD.B.B..X*XAX|.} xXT..X.X.XT.T.*X*X*XD.D.D.+X+XxX} |.~._ P nXnXbX3 -.` aXaXaXAXAXaXZXtXG.tXJ.ZX|.} } aXaX&X&XAXAXxXT.D.D.D.B.+X0X0X0XxX} } ` +.0 O % % , - +.z.-X-X6X6X`.`.NXNXOXOXOX%Xh.h.h.; ; f.f.f.f.H.l.Q F Q Q Q l.Q Q Q Q 1.1.1.1.1.1.1.Q l.l.H.f.f.f.; ; ; ; ; ; h.f.; f.f.H.l.l.H.H.H.H.l.Q 1.1.1.t.t.t.t.t.1.1.Q Q Q 6 hXQ H.f.; ; h.; ; ; ; ; ; ; ; ; ; f.H.H.f.; ; X.f.H.H.H.H.f.f.H.l.Q 1.1.1.1.6 1.Q Q Q l.l.l.l.H.H.H.f.f.f.; ; ; f.f.; ; ; ; ; f.H.H.H.H.H.H.H.l.Q Q Q l.H.X.l.Q Q 6 x.x.t.x.t.t.t.",
"J.J.e.@ -.-.-.` } ZXZXJ.J.tXbXbXbXP J.!.|.} |.|.-.e.@ @ = . @ @ @ . = @ . . . . . . . . @ @ . . = = . = = @ @ . . @ @ @ . . . . = = = = = = = . . : 2 ^ 0 0 0 0 0 ^ ^ ^ 2 2 2 : = = = = = = @ @ @ : : 2 0 z O O O O % % O , - 0 0 0 0 ^ 0 ^ ^ ^ ^ ^ ^ 0 0 0 +.0 +.0 0 0 ^ ^ ^ 2 2 2 : : = @ @ @ @ @ . : : 2 M 0 , X , , - - , , , , , % , , , , 0 0 0 0 M 2 2 2 : : : : 2 2 : : : : . . . . . . . . . . . . . = = = = = : : : 2 M M z $ $ $ $ $ $ z z $ $ $ O O % % , [ X , , , , , X X O , , , , M M 2 2 : : . . e.~.~.|.AX*X.XB.B.T.0XxX0X+X+X+X+X0X&X} |.|.AX+XB.B.D.T.*X*X*X*XT.*XxXgXgXAXAXaXaX|.J.bXbX3 . ^ ^ -.3 <.tXtXtXbXP nXP P bX-.` aX;XT..X.XT.*X*X*X*X0X+XB.D.D.D.D.T.;XaX-.^ 0 , O , 0 +.z.-X6X`.`.OXOXOXOXOX%X%Xh.h.h.; ; ; f.f.@.H.H.l.Q F F 6 6 1.Q 1.1.t.t.t.t.t.t.t.t.1.1.Q hX5 f.; ; ; ; ; ; h.; ; ; ; h.f.H.H.l.l.l.l.Q 1.1.t.t.x.t.x.t.x.t.t.t.1.Q 1.Q Q Q l.H.f.f.; ; ; ; ; h.; h.; h.; ; f.f.f.; f.f.H.l.l.Q l.f.H.l.Q 1.t.t.6 t.t.t.6 Q Q Q Q Q l.Q l.l.H.H.H.f.f.; ; ; ; ; ; ; f.; ; f.f.f.f.f.f.H.H.l.Q l.H.f.@.@.l.Q Q F 6 6 1.1.1.",
"bXbXXX2X= @ @ e.J.tXbXnXnXnXnXnXbXbXtX3 3 e.~.~.e.e.@ = = @ @ e.@ @ @ @ @ @ . . @ @ . . @ e.@ @ @ @ . . @ @ @ . @ @ e.@ . @ @ . . = = = = = = . : : 2 ^ 0 0 - - - - 0 0 ^ ^ ^ 2 2 2 : : : : : : : 2 M 0 , X X % O O % O X , 0 0 0 ^ ^ 2 2 2 : : : 2 2 2 2 2 ^ ^ 0 ^ 0 +.0 0 0 ^ ^ ^ 2 2 : . . . @ . . 2 2 2 M 0 , , , - - - - , , , X X X , , , , , , - - z M M M M M M M M M ^ ^ ^ 2 2 2 2 2 2 2 2 2 2 2 2 2 2 2 2 2 2 2 2 2 M z z z $ $ X X $ $ $ $ $ $ $ O O O % , % [ X , , X O $ O O O O O % O z z M M 2 : . . @ e.~.} &XT.T.*XxX} |.|.} AXdX} } } |.!.} xX+XB.B..XT.*XT.T.D.T.0XgXlXlXgX0XT.;X;XaX-.e.@ ^ 0 ^ . <.nXnXnXnXnXnXnXnXnXbX@ ` aX0XD.W.W.B.D.*X*X7X0X0XB.B.W.B.B.T.;X} ~.-.2 M M M z.-X-X6XNXOXOXOX%X%X%X%X%X%Xh.h.f.H.f.f.@.@.H.@.l.Q Q 1.1.1.t.1.1.t.t.t.t.t.t.t.t.t.t.t.Q Q Q l.f.; ; ; ; ; ; f.; f.; ; ; f.f.H.H.l.Q 1.1.t.x.t.x.t.t.x.t.x.t.x.t.1.1.1.6 Q Q Q l.H.f.h.; ; ; ; ; ; ; ; ; ; f.; ; f.h f.H.l.Q Q B B @.H.Q 1.t.x.t.t.t.t.t.1.S.S.Q S.@XQ Q Q Q Q l.l.H.f.f.f.; ; ; ; ; ; ; ; ; ; f.f.f.; ; f.H.l.5 l.H.f.X.H.H.l.Q Q F 1.1.S.",
"a : : = = = @ e.e.x bXbXbXbXbXbXbXa @ . @ e.e.e.e.e.@ @ @ @ @ = . @ @ . @ @ . . . . . @ @ @ @ @ @ @ . . . @ @ @ @ @ @ . @ @ @ . . @ @ @ @ = . . : = : ^ 0 +.0 0 - - - 0 0 0 0 0 M M M M M M ^ ^ ^ 0 , , O O O O % % O O , - 0 ^ ^ 2 : : = = = = = = = = : : : 2 2 ^ ^ ^ ^ ^ ^ +.^ ^ ^ ^ ^ ^ ^ ^ ^ ^ 2 ^ ^ ^ ^ ^ 0 0 0 0 - - - - - - - X - $ $ $ $ $ $ $ $ - - z z z z - - - - 0 0 0 0 0 0 0 0 ^ 0 0 0 0 0 0 0 0 0 0 0 0 0 0 0 0 z , , , , , , , , , , O O O O O , X % X X , , O O O O $ $ X % [ [ % , , 0 0 0 2 : 2 2 : . ` aX&X&XaX|.(.k.k.P P P r.(.~.~.|.AX0XD.B.B.D.+X+X.XB.B.D.+XGXgXGX0XD.B.B.T.;XaX} ` ` +.- 0 = bXbXnXnXnXnXnXnXbX3 . ` } xX+XJXW.B.D.0X*X*X*XD.B.B.D.+X0X&X} |.~.e.. : : 2 -X6X`.OXOXOX%XsX%XH.H.H.H.H.H.sXH.l.l.5 B 5 5 5 l.Q 1.1.t.t.t.t.t.S.S.S.t.t.t.S.t.S.1.S.Q Q l.l.f.; ; ; ; ; ; ; f.; f.; h ; X.H.l.Q 1.t.t.x.t.t.t.t.t.x.t.x.x.t.t.t.t.t.1.6 Q Q l.H.%Xh.h.h.h.; h.; ; ; ; f.; ; ; ; f.H.l.Q Q F Q l.l.B 1.t.t.t.t.S.t.V.S.S.S.S.@X@X@X@X@X@X@XQ @XQ l.l.H.H.f.f.; ; ; ; ; ; ; ; ; ; ; ; ; f.f.f.H.H.H.H.f.f.f.H.l.l.Q Q l.Q ",
"2 ^ : = 2X@ e.e.~.~.x J.J.a a @ = = = . @ @ @ e.e.@ e.@ @ @ = = @ @ @ @ @ = . . . . @ @ @ @ @ @ @ @ . . . . . @ @ @ @ @ . . . . . . @ @ @ . . . : : : ^ 0 0 0 0 0 - - - - - - - - z z - - 0 0 0 0 0 , , O O O O O O , , , 0 ^ ^ 2 : : : . . . = = = = = = . . : : : 2 2 2 ^ ^ ^ 2 ^ ^ +.9X9X9X9X` ^ ^ 2 2 2 2 ^ M M M M M M M 0 0 0 - - - - - $ X $ $ $ $ $ $ z z z z z $ , , - - - - - - - - - - - - - - - - - - - - - - - - , , , , , , , , , , , , O O O O O O , X X , , , $ O O z z $ $ X X - 0 0 +.^ z.+.^ ^ ^ ^ ^ ^ ^ ` ` ` ` ~.3 <.bXbX_ _ (.~.~.|.} &XT.D.D.+X0XGX+XB.B.B.B.W.B.+X+XD.B.W.B.B.D.+X;X;X&X9X+.0 0 2 a 3 bXa bXbXa @ 2 ^ z.` &X+XB.W.B.D.+X*X.X.XB.W.B.0XAX} |.|.-.e.@ : : : . 6X6XOXOX@XsX@Xl.l.l.l.l.l.l.l.l.Q Q Q 1.6 F Q l.Q 1.t.t.t.t.S.S.S.@X}.@X@X@X@X@X@X@XS.S.Q Q Q H.f.; ; f.; f.f.f.f.f.; ; ; f.H.l.Q 1.t.x.t.t.t.t.t.t.t.t.t.t.t.t.t.t.t.t.x.hXQ Q Q H.%Xh.; ; ; h.; h.; ; ; ; ; ; ; f.X.H.Q Q Q Q F F F 6 x.t.t.t.S.V.V.@XR.@XR.@XR.@X@X@X@X@X@X@X@XS.S.Q Q l.H.%X%Xf.; ; ; ; ; ; ; ; ; ; ; ; ; f.f.f.H.f.f.f.yXf.%XH.H.H.H.l.",
"-.^ -.. @ e.~.-.|.} } } aXaX` -.@ @ @ @ @ @ @ @ @ @ @ @ @ @ = = @ @ @ @ @ = . @ . . @ @ @ @ @ . . @ . . . . . . @ @ @ @ . @ . . . . @ @ . . . . = = : 2 0 0 - 0 z z - - - - $ $ $ $ X X X , , , 0 , , , , O O O O , z 0 0 ^ 2 2 : . . . . . . . @ @ @ @ @ @ @ . . . . . . . . : . 2 ^ 0 9X9Xo.9X0 ^ 2 : . : : 2 2 2 2 2 2 2 2 2 ^ M M 0 0 0 0 0 - - - $ $ $ $ $ z z z $ $ $ O X X X X X - - - - - - - X X $ $ $ $ $ $ - - X X X X X X X X X , , , z , O O O O O , O , O , , , O $ $ z - +.+.+.+.+.z.` ` <X` ` ` ` z.+.+.+.+.^ ^ -.^ . . . -.-.ZXZX} } } aX&XT..XB.B.+XGXGX0XB.D.+XD.B.K.W.B.D.D.D.D.B.B.B.JXT.;X<X` 0 #.#.0 M 2 2 2 M M 0 0 ^ z.|.aX;X.X.XD.+X0X0X.XB.B..X+XxX!.y.~.e.e.@ : : : : -X6X`.OX@X@X@XQ 1.1.1.6 6 1.1.1.S.1.1.t.1.t.1.1.1.1.t.t.t.S.S.@XR.R.OXOXOXOXOXOXOXOX@X@X@XS.Q l.H.f.; ; ; f.f.H.H.H.f.f.h f.H.Q 1.1.t.x.t.t.t.t.t.V.t.V.t.V.t.V.t.V.t.t.t.t.t.1.Q Q l.%Xf.; h.; ; ; ; h.f.; ; ; ; ; ; H.l.Q Q Q Q Q 1.x.x.x.t.t.V.@X@XR.OXOX`.OXL.OX`.OX`.OXOXOXOX@X@X@X@X@X@XQ @XH.%X%X%Xh.h.f.; ; ; ; ; ; ; ; ; ; h.h.f.yXh.h.h.h.h.f.%X%X%X",
"` ` ` ` ` |.|.} &X0X+X+X+X+X&X} e.3 @ . @ @ @ = @ @ @ @ = = = @ @ @ @ @ @ . . @ . . @ @ @ @ . . . @ . . . . . . . . . . @ @ @ @ @ @ @ . . . . = = : : 2 M 0 - - - $ $ $ $ $ $ $ $ X X X X , , , , , X X , O O X - - 0 0 ^ ^ . . . @ @ @ @ . . . @ @ . . . . . . . . @ @ @ @ . : = = : 2 ^ 0 ^ ^ 2 . @ . . = : : : : : : : : : : : 2 2 2 2 2 ^ ^ 0 0 0 z $ $ $ $ $ $ O O X X X X $ $ $ $ $ $ $ - X X X X $ $ $ $ $ $ $ $ $ X X #.#.#.#.#.- - X , , , , , $ $ , X X , , , , , O X X - 0 9X9X` ` ` ` ` aX&X&XaX<X` ` ` ` 9X+.+.+.- 0 0 ^ ` ` aX&X;X;X;X;X&X*XT.Z.W.B.B.D.GXGX+XD.0XGXGX+XW.B.D.*X*X*XD.B.W.K.W..X;X<Xz.^ $ #.[ #.[ , , , 0 0 0 +.z.z.<XaX&XxXxXAX} AX+X+X+X0XxX} y.~.e.@ = : 2 2 2 2 -X6X`.OXV.t.t.t.t.x.x.x.t.1.t.t.t.t.t.t.t.t.t.t.t.t.V.S.@X@XOXOXOX`.`.`.(.`.`.`.`.OXOXOX@X@XQ l.f.f.; ; ; f.H.H.l.l.H.f.f.H.l.1.t.t.t.t.#Xt.{.V.V.}.}.}.}.}.@X}.@X}.V.V.t.t.1.Q Q Q l.H.f.f.; ; ; ; h.; ; ; ; ; ; ; ; H.l.Q Q Q Q Q 1.x.t.x.t.t.@X@XOX`.`.'.] ] `.'.`.'.`.`.`.`.`.OXOXOX@X@X@X@X@X@X@X%X%X%X%X%X%Xh.h.h.f.h.h.h.h.h.h.h.h.h.yX%XyX%X%X%X%X%XOX",
"&X;X;X;X&XaXAXxXT..XB.W.B.B.T.&X|.y.~.e.e.@ : : : . . . . = @ @ @ @ @ @ @ @ @ @ @ @ @ @ @ @ @ @ @ @ . . . . . @ @ @ @ . . : : . . @ @ @ . . : : 2 ^ ^ M 0 0 z $ $ $ $ $ $ O O O O O O O O O O , , , , , , , z - - 0 0 ^ ^ 2 . @ @ @ @ @ @ @ @ @ @ . . . . . . . . . . . . . . . = = = . : . : . . . @ @ @ @ @ = = = = = = = = = = = = = : : : : 2 2 ^ M z z $ $ $ $ z $ O $ $ $ $ $ $ $ $ $ $ $ $ $ $ $ $ $ $ X X X $ $ $ $ z , , , , - , 0 0 , , , , , $ , , X X X X O O O O X #.- ^ ` ` <XaXaXaX&X*XT.T.T.*X&X&XaX1X<X9X+.- z 0 ^ ^ ` aX;XT.B.W.B.B.D.D.D.D.D.D.D.B.D.D.D.0XGXGXGXD.W.B.D.*X0X*XT.D.B.D.T.;XaX9X+.z z z $ X #.- , , , 0 0 - +.M +.z.` -.~.~.!.!.ZXZX!.y.y.~.e.-.^ ^ M M 0 M 0 0 z.-X`.OX@Xt.t.t.t.t.t.t.t.t.t.V.t.V.t.V.S.V.V.V.}.R.R.OXOXOX`.`.`.(.] ] y.] '.(.'.`.`.OXOX@X@Xl.f.; ; ; X.H.H.l.Q 5 H.H.@.l.Q 1.t.t.t.t.t.S.V.@XR.R.OXOXOXOXL OXL OXR.R.@XS.S.Q Q Q l.%X%X%Xf.; ; ; ; h.; ; ; ; ; f.; f.l.Q Q l.l.l.1.x.x.t.t.S.@XOX`.`.] ] ] ] ] ] ] ] ] ] '.'.`.`.`.`.`.OXOXOXOXOX@X@X@X@X@X@X%X@X%X%X%X%X%Xh.h.%XyX%X%XOX%XOXOX@XOX@XOX@XOX",
"T.T..X.XT.0X0X*X.XB.B.W.W.W.D.*X&XaX} -.e.@ . : . . . . . @ @ @ @ @ @ @ @ @ @ @ @ @ @ @ @ @ @ @ . . . . . . @ = = = = = : : : : 2 2 2 ^ ^ 0 9X9X9Xo.o.#.#.- z $ $ X $ $ $ O O O O O O O O O , z , , 0 0 M M M M ^ ^ ^ ^ . . . @ @ @ @ @ @ @ @ @ . . . . . . . . . . . . . . . @ . . . . . . . . = . . @ @ @ @ @ @ = = = = = = = = = = = @ @ @ = . : : 2 M 0 - $ $ $ $ $ $ $ $ $ $ $ $ $ $ $ $ $ $ - - - $ $ $ - X $ - 0 M M M M M M M ^ ^ M M M M M M 0 0 0 - - X X X X O O O $ - +.9X1X&X;X*X*X0X*X*X.X.X.X.XT.*X*X;XFX9X+.z M 2 2 -.` <X&XT.B.W.W.B.B.D.*XD.D.D.B.W.W.B.+XGXGX0X+XB.W.B.D.D.*XD..X.X+XxX&XaX` 9X- $ z z z $ #.z , X % , , - $ z z M : 3 <.<.bXk.k.q.P q.<.@ ^ 0 0 - 0 , , % , , +.-X6X`.OX@X@X@XS.S.S.t.V.S.V.}.}.V.V.@X@XR.R.R.R.OXL.`.`.(.'.(.] ] ] ] ] ] ] ] ] ] `.`.OXOX@XH.f.f.f.X.H.l.l.Q B l.H.@.H.l.1.t.t.t.t.V.V.@XR.OXOX`.L.`.E `.E `.L.L.OXOXOX@X@X@X@X@X%X%X%Xf.f.f.f.; ; ; ; ; f.; ; ; h f.l.Q Q l.H.l.1.t.t.t.t.S.@XOX`.] ] ] 3 3 3 XX3 ] ] ] ] ] '.'.'.`.`.'.`.`.L.OXOXOXOXOXOXOX@X@XOXOXOXOXOXOXOXOXOXOXOXOXOXOXOXOXOXOXOXOXOX",
".XB.W.W.B.D.*X*X*XD.B.B.W.W.B.D.T.*X&X` e.@ @ . . . . . . . @ . @ @ @ @ @ @ @ @ @ @ @ . . = = : . : : . . : : : : : : : : : : ^ 0 9X9X9X=.=.5.5. . .5.=.o.#.X $ $ $ X X O O O O O O O O O z z z M M M M 2 2 2 2 2 2 : . . . @ @ . . . @ @ @ @ . . . . @ @ @ @ . . . . . . . . . . . : : . . = = = = . . . . . . . . . . . . = = = . @ @ @ @ @ @ @ @ : : 2 0 0 - - - - z - - - - - $ $ $ $ $ - - - - - - - - - - 0 0 M M 2 2 : : 2 : : 2 : : : : 2 2 2 2 M M 0 0 - X X X X X O $ 0 +.<X;XT..XB.B..XD.+X*XD.D.B.B.B..X;XFX9X+.z M 2 : : . ` aX0XD.B.B.B.D.D.D.*XD.B.W.W.W.D.xXgXGX+XD.B..XD..XB.B.W..XT.aX|.-.@ @ 0 #.$ z z $ $ $ $ O % % % % X O % O O 2 3 <.bXqXbXnXk.bXbX2X^ , [ X X - #.[ [ X , 0 z.-X6X`.`.OXOXR.R.R.R.}.R.p.R.G R.R.L OXOX`.`.`.`.] y.] ] ] ] ] ] 3 3 XXXX3 XXXX] ] '.`.OXOX@X%Xf.f.@.H.Q Q Q l.5 H.l.l.Q 1.t.t.t.t.}.R.OXOX`.`.`.'.] '.'.'.'.] `.(.`.`.`.OXOXOX@X@X%X%X%X%XH.f.f.; ; ; f.f.; ; ; ; f.l.Q l.H.l.l.1.t.t.t.t.@XOX`.`.] ] ] 3 XX3 XX3 XX3 XX3 ] ] ] '.'.] ] '.'.'.'.`.`.`.`.`.OXOXOXOXOXOXOXOXOXOXOXNXNXNXNX`.NX`.`.`.`.`.'.'.",
"+XD.W.W.B.D.*X*X*X*X*XD.W.B.B.D.D.0X&X|.e.3 @ . . @ @ @ @ @ . . . @ @ @ @ . . . . . : : 2 2 2 2 2 2 2 2 2 2 2 2 2 ^ ^ ^ 0 0 #.o.=.5. . .| | | | | r r  .5.=.o.X O O X X X X X X X X X O z z M 2 2 2 2 : : : = = . . . @ @ @ @ -.. . . . @ @ @ @ . . . @ . . . . . . . . . . . . : : : . . = = = = @ @ . . . . . . . . . . . . . . . . @ @ @ @ @ @ @ . : 2 ^ 0 0 - 0 0 0 0 0 0 0 0 0 0 0 0 0 0 0 0 M M 0 0 0 M M 2 2 2 : : : : : : : = = = = = : = : : : : 2 2 M 0 - X X X X X $ +.z.` aX;XT.B.W.W..XD.T.D.B.W.W.W.T.&X` z.^ M z z 0 2 : -X|.aXT..XB.B.+X+XT..XB.W.B.B.B.+XAXDXZXxX0X0XxXxX+XB.W.W.JX;XZXtXbXbXXXM X , 0 - - z z X % % % % % % [ [ % % % ^ . @ = 2X2X2X: = M [ =.=.o.o.o.o.o.o.o.[ #.+.z.z.-X-Xe.6X] ] '.E L.f f f k.r.E (.y.~.~.~.] ] ] ] ] ] ] XXXXXXXXXX2XXX2XXXXXXXXX] '.`.OX@X%Xf.f.f.l.Q B B l.l.H.l.Q 1.t.t.t.V.@XR.OXOX`.`.] ] ] ] ] XX] ] ] ] ] '.(.`.`.`.OXOXOXOX%X%X%X%Xf.f.f.; ; ; ; ; ; ; h f.H.l.l.H.l.Q t.x.t.t.V.@XOX`.'.] ] XX3 XX3 XX3 XX3 3 3 3 ] ] ] ] XXXX] ] ] ] ] ] '.`.'.`.`.`.`.`.`.6X6X6X6X`.6X'.6X6X6X6X6X6X] ] ] ] 3 ",
"+XB.W.K.B.D.D.D.D.*X+XD.W.W.B.D.0XAX} |.e.e.@ . . . . . . . . . @ . . . . . . . . 2 ^ ^ ^ ^ ^ M M ^ M M M M 0 0 0 - #.#.o.=.5. .| r | | | | | | r r r r r  .=.[ X O X X X X X X X X , z M M 2 : : : : = = = @ @ @ @ @ @ @ e.@ . . . . . . : = . . . . . . . . @ @ @ @ @ @ . . : . . = = = = @ = @ = @ @ . . . . . . . . . . . . . . . @ @ @ @ @ @ @ = = : 2 2 ^ ^ ^ ^ ^ ^ 2 2 2 ^ ^ ^ ^ ^ ^ ^ 2 2 2 2 2 2 2 2 : : : : : = = = = = = . . @ @ @ = = = = = : : : 2 2 M 0 , X X X $ +.z.-.|.&XT..X.X.XT.T.T..XB.W.JX+XAX|.-.^ 0 z z , X 0 M 2 -.} ;X0X;X0XAXAXAX;X;X;XxXxXxX} ZX(.y.|.} } |.|.AX;X0XcXuXZXtXbXnXbX2X0 , , - - - 0 M X % % % % % % % % % % [ #.0 0 , , M , , 0 [ o.=.=.5.5.5.5.5.5.=.=.=.o.o.#.9Xo.#.+.+.z.^ e.<.q.nXnXq.k.k.x -.` ` z.-Xe.e.e.@ = = = = . . . = = 2X2X2X2X2XXX] `.OX@X%X%XH.H.l.Q Q Q Q l.Q Q S.t.t.t.V.@XR.OX`.`.'.] ] ] 3 XXXXXXXX3 3 ] ] '.] ] ] ] ] `.`.OXOXOX%X%X%Xf.f.; ; ; ; ; ; ; ; @.H.Q l.l.l.1.t.t.t.t.S.@XOX`.'.] ] ] 3 3 3 3 3 XX3 XXXXXX3 XXe.e.2XXXXXXXXX3 XX] XX] ] ] ] XX6X-X-Xz.z.-X-X-X-X-X-X6Xe.e.e.@ @ @ @ 2Xe.",
".XB.K.K.W.B.B.D.*X0XD.B.W.W.B.D.xX!.!.~.e.e.@ e.@ @ @ @ @ @ . @ . . = = . @ . . : 2 ^ ^ 0 0 0 0 0 0 0 0 0 - - - #.#.#.o.o.5.5. . .| | | | | r r r  .r r r  .=.[ X X X X X , , , , z M M 2 2 : : = = . . . . @ @ @ @ @ @ @ @ @ @ @ . : : 2 2 2 : : : : = = = = = = = = = = = . . = = = = = . = . . . . . . . . . . . . . . . . . . . @ @ @ @ @ @ @ @ = = = = : : : : : : : : : : : : : 2 : : : : : : : : : : : : = = = = . . . . . . . . . . . @ @ @ . . = = = : : 2 M 0 - - X $ ^ = e.|.aX;XT.;XxXAXAX;X;X+X0XxXAXZX~.e.^ 0 0 0 0 , , 0 ^ -X` aXaX} |.y.tXtXZXZXZXJ.J.tXtXtXx ~.-.-.e.e.~.|.} ZXJ.tXP nXnXnXXX2 , , , - - 0 M M $ , , % % % O , , , , [ , , [ % , % , , , , [ o.o.5. . . . . . . . . .5.=.5.5.=.=.=.=.9X0 @ qXnXnXnXnXnXqX. 9X9X9Xz.z.z.+.^ 0 0 0 ^ ^ z.z.^ ^ 2 2 : : : : -X6X`.OX@Xl.l.l.Q 1.1.1.1.1.1.t.t.t.V.V.@X@XOX`.'.'.] ] ] 3 XX3 3 XX3 XX3 ].] ] XX2X@ e.e.-X6X6X`.OXOX%X%Xh.h.f.; f.; f.; ; X.f.H.Q Q l.F 1.x.t.t.t.}.R.OX`.'.] ] x ] 3 XX3 XX3 2X3 @ e.@ @ . . @ @ 2Xe.XX2Xe.2Xe.2X2X= : 2 ^ ^ +.+.+.+.z M ^ 2 2 : 2 : : = = @ @ @ @ ",
"+XT.JX3X3X3X+XxXAXAX0XB.W.W.B.T.AX!.~.~.e.@ @ . @ e.@ @ @ @ @ @ @ = = = @ @ @ . . 2 ^ 0 0 - - - - - , $ - - - - X - #.#.#.o.=.5.5. .| r r r r r r r r r r 5.o.X , , O O O X - - 0 M 2 2 : : : : = . . . . . @ @ @ @ @ . . . . @ @ . : 2 2 ^ ^ 2 2 : : : : : : = = = = = = = = = = = . . = . . = . . . . . . . @ . . . . . . @ @ @ @ @ -.@ @ @ @ @ @ = = = = = = = = : : : = = = . : . = . : . : = = = = = : = = = = = = . . . . @ @ @ @ @ @ @ @ . . . . . = = = = : 2 M 0 - $ z 2 = e.~.|.aX} |.!.y.y.ZXZXZXZXJ.J.x 3 @ . 2 ^ ^ ^ 0 0 0 M 2 z.` |.-.~.x bXbXbXbXbXbXbXbX<.x 3 e.@ e.e.e.e.-.-.tXbXnXnXnXbXbX: % , , #.- 0 M M M 2 2 ^ 0 M M z 0 M 0 0 , - % % % % % % , , , - X X o.o.=.5.5. . .| r  . . . . . .5. . .5.5.[ : XXbXbXbXbX2X2 - 9X+.z.+.+.- - - - - +.+.+.+.z.+.^ 0 0 , 0 M ^ -X`.@X@XQ Q 1.1.t.t.t.t.t.t.t.t.V.@X@XOXOX`.'.'.] ] 3 XX3 XX3 XX3 3 3 ] e.XX2X= : 2 2 ^ -X-X-X6X`.OXOX%X%Xh.h.f.H.H.H.f.f.; H.5 Q Q F 1.x.x.#Xt.S.S.OX`.'.'.] 3 3 3 ] ] 3 3 e.@ @ @ . . @ . . @ . . . . . : : 2 2 ^ ^ 0 0 - - $ - $ $ $ - - 0 0 0 0 0 ^ 2 : . @ @ e.",
"aXaXuXuXuXaXZXJ.tX(.} 0X+X+X*X;XaX|.~.e.e.e.@ . @ e.e.e.e.e.e.@ = = : = @ e.@ . . : 2 M - X $ $ $ $ $ $ X $ $ $ $ $ $ - $ - #.o.=.5. .| r r r  . .r r r  .=.[ , z z , , , - - 0 0 M 2 : : : : : . . . . . . -.@ @ @ @ . . . . @ = = : 2 M 0 0 ^ ^ 2 2 : : : : : : : : : : : = = : : : : . = = @ @ @ @ . . . . @ . @ . . . . @ @ @ @ @ @ @ @ @ @ @ @ @ = = . = = = = = = . = @ @ . @ . . = . @ . . @ @ = = = = = = = = = . . @ @ @ @ @ @ @ @ @ @ @ @ @ . . @ = = = = 2 M 0 0 z M 2 = e.e.~.~.x <._ q.A P A nXq.k.<.3 @ @ @ . . : 2 2 ^ 2 2 2 ^ z.-.. @ @ 2X3 bXbXbX<.tX3 e.@ @ @ @ @ @ . -.@ @ 3 bXbXbXbX2X: , [ , , , 0 0 M 2 2 = : : 2 : 2 2 ^ ^ ^ M 0 z O O % [ % % % , 0 z - - z - #.o.=.=.5.5. . . . .r  .5.5. . .5. .5.[ 0 : 2X2X: 2 0 - - 0 M 0 - X , , , - - +.+.+.+.+.- - X [ X - +.-X`.R.@XS.1.t.t.t.t.t.t.t.V.V.V.R.OXOXNX`.`.'.] ] ] XX3 3 3 3 3 3 XXe.e.e.@ . 2 ^ ^ ^ ^ 2 ^ z.-X6X`.OXOX%X%X%X%Xl.hXl.H.H.X.@.5 F 6 6 x.t.t.x.t.S.@XOX`.'.] 3 3 XX3 3 e.e.e.@ @ . . . . = = @ = . : 2 ^ ^ ^ 0 0 - #.#., , X X O , O O X X $ , , X X - - ^ 2 2 : . . ",
"J.tXbXJ J J J s.9 P tX|.} } } |.-.-.-.e.e.e.@ @ e.e.] ~.~.~.e.e.2X= : . @ e.-.. . : 2 M $ X $ $ $ z $ $ $ $ $ $ $ $ $ $ $ $ , - #.o.=.=.5. .r r r r  .5.=.[ , z z z , - - - - 0 0 2 : = = = = = = @ . . @ . . @ . . . . . . . @ = = 2 M z z - - - - 0 M M M 2 2 2 2 2 2 2 : : : 2 2 2 2 : = = @ @ . . . . . . . . . . . . . . . . . . . . . . . . . . . . . @ @ @ @ @ . . @ @ @ @ @ @ e.@ e.@ @ e.@ @ @ @ = @ @ @ @ @ @ @ @ @ @ @ @ @ @ @ @ @ @ @ @ @ @ . @ = = : : M M 0 0 0 ^ : = @ @ e.@ e.e.3 3 x x <.x 3 3 @ @ . . . @ @ @ . . : = = = . . 2 2 ^ ^ 2 @ @ = @ @ @ @ @ @ @ . . . . . . @ . : : 2 2 M M 0 , , , , , , 0 M 2 : = = : = = : . . : : : 2 M 0 , X X % % % % O O , X , z z - X #.#.o.o.=.=.=.=.=.=.=.=.o.o.o.o.[ % , z , , , , X X , , , , , , , $ $ z - - - - , , % % [ [ - z.-X`.OX}.S.t.t.t.t.t.t.t.V.V.}.R.OXL.`.'.'.] ] ] ] 3 3 XXe.2Xe.2Xe.@ @ @ @ . . . . : : : : : 2 ^ z.-X6XNXOXOX%X%Xl.Q Q l.l.l.l.B F 6 t.t.x.t.t.t.V.@XOX`.'.] XX2X@ = @ = @ @ @ @ @ @ @ @ . @ = = = : : 2 M 0 - - X X , X , , O X O O $ $ $ $ $ X X X - - 0 ^ ^ ^ 2 2 ",
"x bXnXnXnXnXnXnXnXbXx ~.~.|.-.~.e.e.@ . = . @ e.e.~.~.!.!.y.~.e.e.e.e.e.e.e.-.@ . : 2 z $ X $ z z O O X X X X X O O O O , , , , , #.#.o.=.=.5.=.5.5.5.o.[ X , , , , - - - - - 0 ^ 2 : = = = = . = @ . . . . . @ . @ @ . . . . . = : 2 0 - - - 0 - - - - - - 0 0 0 0 0 0 0 M M M ^ ^ ^ ^ 2 : = @ . . . . . . . . . . . . . . . . . . . . . . . . . . . . . . . . @ @ . . . = = @ = . @ = @ @ . @ . @ . . @ @ @ @ @ @ @ @ @ @ @ @ . . . @ @ @ @ . . . . @ @ = = : 2 M 0 , , - 0 ^ : = @ @ @ @ @ @ @ @ @ @ @ @ @ @ @ . . . @ = @ @ . . @ @ @ @ @ @ . . . : . . . @ @ @ @ @ @ @ . @ . . . . . . . . 2 2 2 ^ M 0 0 , , , , , 0 0 M 2 2 : : = = = . : : : : 2 M 0 , , X % % % % % % O , , z z z - - - - - #.#.#.#.#.#.- #.#.X X X O O O O O O % O , , O , , , , , , X $ $ X , , , , % % % % % 0 ^ -X`.OXR.@XS.V.t.V.V.}.}.}.R.L OX`.`.'.] ] ] 3 XX3 XXe.e.e.@ e.@ @ @ e.@ @ @ @ @ @ = = = = : 2 : . -X-X6X`.OXOX@X@X@X@XQ Q Q Q Q 1.t.t.t.t.t.t.V.}.R.OX`.] XXXX@ = = @ @ @ @ @ @ @ @ @ . . . . = = = : : 2 M 0 - , X X , , , , O O O $ $ $ $ $ $ $ - - - - - - 0 0 0 ",
"3 bXbXnXnXnXbXbXbXx 3 e.e.e.e.e.e.2X= = : . e.e.~.|.} } } |.!.!.~.~.~.~.~.~.e.e.. 2 M z O X $ $ $ X % X X X X O O O O O O , , , , , X #.o.o.o.o.[ o.[ [ X O , , X X X - - 0 0 0 ^ 2 : : = = . . @ . . . . @ . @ . @ . . . . . . . 2 ^ - - - - 0 0 0 - - - - - - - - - - - - 0 0 0 0 ^ ^ 2 . = @ @ . . . . . . . . . . . . . . . . . . . . . . . . . @ . . . . . = = : : : = = = : : : = = . . . . . . . @ @ @ . . . . . . . . . : = . . . . . . . . . = = = : 2 M 0 , X X - - ^ : = @ @ @ e.@ @ @ @ . @ @ @ @ . . . . = @ @ @ . . . . @ @ @ @ @ @ @ . . . . . @ . @ @ @ @ . @ . @ . . . . . . . : : 2 2 2 2 2 M 0 0 , #.- - 0 0 M 2 : : : : : : : : : 2 M 0 , , O % % % % % % O , , , , $ - - 0 0 0 0 0 0 0 ^ 0 0 - - , , , , , O O % % % O O O , , , , , , , X X , , , , , , % % % % , z 0 z.6X`.OXOXOXR.R.R.R.R.R.OXOX`.`.] ] e.] XX3 3 e.e.e.2Xe.@ e.@ @ . @ @ @ @ @ @ @ @ @ @ @ = : : = = 2X-X-X6X`.`.OXOX@X@X@X@X@X@X@XS.S.t.V.V.V.V.V.R.OX`.] e.2X2X@ = . @ @ @ @ @ @ . . . . . . . . . = = : : 2 2 0 , X X , , , O $ O $ $ $ $ $ $ $ $ $ - - - - - - - - ",
"~.3 x 3 J.a a @ @ 2X@ . @ e.. e.e.2Xe.@ @ e.~.|.} &X0X0X0XxX} !.!.!.!.|.|.-.~.e.. ^ 0 , O X X X X X X X X X % % % X X X X X , , , z , , , X X $ X X X O O O O X X X - 0 0 ^ ^ ^ ^ 2 : : . . . . . . . . . . @ . @ . @ . . . @ . : ^ 0 - #.- - 0 0 0 z z z z z z z $ - - $ - - +.0 ^ ^ 2 : . = @ @ @ . . . . . . . . . . . . . . . . . . . . . . . . . . . . = = = = : : : : : : 2 2 : : : : : = = = = @ @ @ @ @ @ . . . . . . . : : : = = = = = = = = = = : : 2 M , X [ X $ - M : = @ @ @ @ @ . . . @ . @ . . . @ @ @ @ @ @ . . . . . . . . . . . . @ @ @ @ @ . . . . . . @ @ @ @ @ @ . . . . . . : : : : : : : 2 0 - X X - - - - 0 M 2 2 2 2 2 2 2 2 M 0 , , O O O % % % % % % O O , X X - - 0 M 2 2 2 2 2 2 ^ ^ 0 - - , , O X % % % % O O O O , z $ , , , , , , , , , , , X % % % % [ $ - +.z.-X6X6X`.`.`.`.`.`.`.`.'.6X6X-X-X. = @ @ e.e.2X@ e.@ @ @ @ @ @ @ @ @ @ @ @ @ @ @ @ @ @ = = = : = = e.e.6X6X`.`.OXOXOX@X@X@X@X@X}.}.}.}.}.R.R.OX`.6X6Xe.= @ = . @ . . . . . . . . . . . @ . . . . . = = : : M 0 - #.X X X $ $ $ $ $ $ $ - X X X X X X #.- - - - z ",
"aXaXaXaX` -.-.a . @ @ = = @ @ -.-.-.` ` |.|.} AX0XT..X.X.XT.0XxXGXxX0XxX&XaX` -.^ +.- X O X X X X X O O O O O O O X X X X X X O , , , , O O O , O X % % O O O $ $ - 0 M M 2 2 2 : : : . @ . . . . . . . @ . @ . . @ . . . . . . . 2 0 0 - - 0 0 0 - - - - - - - - - - X - - 0 ^ 2 2 : : . = @ @ @ @ @ . . . . . . . . . . . . . . . . . . . . . . . . : : : : : : : 2 2 M M M M M M M 2 2 : : : : = = = @ @ @ @ . . . . . . . : : : : : = : : : : : : : : 2 M M z , X X $ - z M 2 = = @ @ @ . . . . @ @ @ @ @ @ @ @ @ @ @ @ . . @ @ @ @ @ . . . . . . . @ @ @ @ . . . . @ . @ @ @ @ . @ . . . . . . . . . = : : : M 0 , X X X , , z 0 M M M M M M M M z , O O X O O O % % O O O O O , X X - 0 M 2 : : : : : : 2 2 ^ 0 - - X X X % % % % % O O O $ z $ $ , , , , , , , , , , X X % % X O z z +.+.z.z.z.-X-X-X6X-X6X6X-X-X-X2 -X. 2 2 : @ @ e.@ @ @ @ @ @ @ @ @ . . . . . . . . . . . . @ @ = : = = 2X= . -X-X6X] `.`.`.`.`.`.OX`.OXOXOXOXOXL.`.'.6X-X. = = = = @ @ = = = . . . . . = = = . . . . . = = : : M 0 - #.$ $ z z M M M M 0 0 0 M 0 0 0 0 0 0 0 0 0 z z ",
"T.+X;X;X;XaX|.-.-.@ @ @ : @ @ e.|.aX&XxX0X0X0X0XD.D..X.X.X.XD.D.D.B.B..XT.;X1X` z.+.- , , , , , , , , , , X X X X X O O , X X % O , , O X X X X X % % O O O O $ - - 0 M 2 : : : . . . @ . . . . . . . . . @ . @ . @ . @ . . . . 2 2 2 ^ M M M M M 0 0 0 0 0 0 0 0 0 0 0 0 M 2 : : : = = = = @ @ @ @ . . . . . . . . . . . . . . . . . . . . . . . . . : 2 2 ^ ^ ^ M 0 0 , , 0 - 0 0 0 0 M M 2 2 2 2 : : : : : : : : : : : : : : : = : : : : 2 2 2 2 2 2 M M 0 z , , $ $ $ z z 0 ^ 2 : . . . @ @ . @ @ @ @ e.@ @ @ @ @ @ @ @ @ @ @ @ e.. @ -.@ . . -.. @ @ @ @ @ . . . . . . @ @ @ . @ . @ . . . . . . @ . = = : : 2 M , X X O , , , $ z z z z z z z z , X X X O O O O O O O O O O O O , - 0 M 2 : = = = = = . : : 2 ^ 0 - - , O O O % % O O O O $ z - - - - , , - - - - - - - , , , z z M M 0 0 ^ z.z.z.z.z.z.z.z.z.z.z.z.z.^ 2 2 : : . @ @ @ @ @ @ @ . @ @ @ . . . . . . . . . . . . . . . @ = = = = . . -X-X-X-X-X6X6X6X6X6X6X6X] 6X'.6X] 6X6X-X: : : = = = = 2X@ = = = = = = = = = . @ . . . . : : : 2 M 0 - - - z M M 2 2 2 2 2 2 2 2 2 2 2 2 2 2 M M 0 0 z ",
"W.B.B.B..X;XaX|.-.e.@ . : = @ e.|.&XT.D.B.B.B.D.D.*X*X*X*XD.B.W.W.W.W.B..XT.FX` z.^ M M M 0 , 0 , , , , , X X X X X , , , , X , O O O X X X X X X % % O O O O $ - 0 M 2 : : = = @ @ @ @ . . . . . . . . . . . -.@ . @ . . . . . . . 2 2 2 : : 2 2 2 2 2 2 2 2 2 2 2 2 2 2 : : = = = = = @ @ @ @ . . . . . . . . . . . . . . . . . . . . . . . . . . @ = : 2 ^ ^ 0 0 - - - X - - - - - - - z z 0 0 M M ^ ^ ^ 2 2 2 2 2 : : : : : : : : 2 2 ^ ^ ^ 0 0 0 0 0 0 - $ $ $ $ $ $ - z 0 0 ^ 2 : . @ @ = = @ . . @ @ @ @ @ @ . @ . @ @ @ @ -.. @ @ @ @ e.@ @ @ e.@ @ @ . . . . . . . . @ . . . @ . . . . . @ @ @ @ . . = : 2 M z , X X O , , $ $ $ $ - $ $ $ $ O X X O O O O O $ $ O O O O O , , z 0 M 2 : = = = = . . . . : 2 ^ 0 , , , , O % % % O O $ $ $ - - - - - - - 0 0 0 0 0 0 0 0 M M 2 : 2 2 2 2 2 M 2 2 M ^ ^ +.+.+.+.+.^ 2 2 : : : . . . @ @ @ . . @ @ @ @ @ . @ @ @ @ @ @ @ @ @ @ . @ @ @ @ . . . = = . z.z.z.z.z.z.z.z.-X2 z.-X-X-X-X-X= -X2 ^ 2 2 2 2 2 : = = = = = = = = = = = = = . @ @ = : : 2 2 M 0 - - - z M : : : : : : : : : : : : : 2 : 2 2 2 M M ",
"{ W.W.W..X;XaX|.e.e.@ = : : . e.|.AX0XD.B.W.W.B.D.0X*X7X*X*XD.W.B.B.B.D.T.;X<Xz.. : 2 2 2 2 M M 0 0 0 0 , , X X X X X , , , , , , , % X X X O O O O O O O O $ $ $ 0 M 2 : = @ @ @ @ . . . . . . . . . . . . . . . @ . @ . . . . . . . : : = = : : : = = : : : : : : : : : : = = @ @ = @ . . . . . . . . . . . . . . . . . . . . . . . . . . . . . . = = = : 2 2 ^ ^ 0 0 - - - - - - X X $ X $ - - - - 0 0 0 0 0 0 M M M M M 2 2 2 2 M ^ ^ ^ 0 0 0 0 0 - - - - $ $ $ $ $ $ - - - 0 0 ^ 2 : = = = = = = . . . @ . . @ @ . . . @ @ @ . . . @ @ @ @ @ e.@ @ @ . @ . . . . . . . . . . . . . . . @ @ @ @ @ @ . . . = : 2 M , , X X X , , $ $ $ $ $ $ $ $ $ O X X , X X X X $ $ $ X X O , , X - 0 M 2 : : = = . . . . . : : 2 M 0 , O O O % % % O $ $ $ - - - - 0 0 0 0 ^ ^ ^ ^ ^ ^ 2 2 2 : : : : : 2 : : : : : 2 2 2 2 ^ +.+.^ ^ : : = = = @ . . . . . . . . @ . @ @ @ @ @ @ @ @ @ @ @ @ @ @ @ @ . . . . . @ @ @ -Xz.+.+.+.+.+.+.$ +.- +.+.+.z.z.M +.0 0 0 0 0 0 ^ ^ 2 2 2 : : : = = = = = = = = = = = = : 2 M 0 - - - - M 2 : = = . . : . . @ . . . . = = : : : 2 2 ",
"W.W.B.T.*X&X|.~.e.e.2X2X= : : e.~.|.AXcX+XW.W.W.D.+X*X*X*X0XD.B.JXD.D.0XAX} |.e.@ = : = = : : 2 2 ^ ^ M 0 0 - - X - - #.- , , , , , X O O O , , , , , O $ O X X $ 0 2 : = = . @ @ . . . . . . @ . . . . . . . . @ . @ . . . @ @ . . . . = = = = = = = @ @ @ @ @ . . . . . . . = @ @ @ . . . . @ @ @ @ . . . . . . . . . . . . . . . . . . . . . . . = = = = : : : : : 2 M 0 0 0 - - - - $ $ $ $ - - - - - z z z - z z z z z z 0 0 0 0 0 0 0 0 ^ 0 0 0 0 0 - - - - $ $ $ - - - - - - 0 ^ ^ 2 2 : : : = = . . . @ @ @ @ @ @ . . . -.. @ . -.. @ @ @ . . @ . . . . . . @ @ . . . . . . . . . @ @ @ @ @ @ @ . . @ = = : M , , X X O , , $ $ $ $ $ $ $ $ $ , X , X X X - X X X - - - , , X X - 0 M 2 : : : : : . . . . = : : 2 0 - X X X % % O $ $ $ - - - - 0 0 M 2 2 2 : : : 2 : : : . . = = = : : : : : = = : : : : 2 2 2 2 : . = = . . . . . . . . . . . . @ . @ @ @ @ @ @ @ @ @ @ @ @ @ e.@ -.. @ @ @ . @ @ = : ^ 0 0 +.- $ X X X X - - +.+.z - - - - - #.- - 0 0 ^ M ^ 2 2 2 : : : : : : : = = = : : 2 M 0 - - - z M 2 : = . . . . . . @ . . . . @ = = = = = = ",
"B.D.0XAX} |.~.e.e.: = = = = . e.~.!.AX0XJXW.K.W.W.B..XT.*X*X.XB.B.B.T.xX} ~.~.e.. : : @ @ @ = : : : : 2 2 2 M 0 0 0 - 0 0 0 - , , , , , , , , z , , , , $ $ X $ - 0 2 : = = . . . . . . . . . @ . . . . . . . . . @ . @ . @ @ @ . . . . . . . . . . @ @ @ @ @ @ @ @ @ . . . . @ @ @ @ . . @ @ @ @ @ @ . . . . . . . . . . . . . . . . . . . . . . . @ = = = = = = = = : 2 ^ ^ 0 0 0 - - - $ $ $ - - - z z $ $ $ $ $ $ $ $ $ $ - - - 0 M M 2 2 2 2 2 2 2 M M M 0 0 0 - - - 0 0 0 0 - 0 0 ^ ^ ^ ^ 2 2 : . . . @ @ @ @ @ @ @ @ . . . @ @ @ @ . @ . @ . . -.. . . . . . . . . . . . . . . . . @ @ . @ @ @ @ @ @ @ = : 2 M , , , O O , O $ $ $ $ $ $ X X X , , , - - - - 0 0 0 0 0 - - , , , - 0 M 2 2 : : : : = . . = = = : 2 M 0 , $ $ X X , , $ - - - - 0 0 M 2 : : : = = = : . . . @ = @ = . . . . . = = = : : : : : . . . . = = . . . . @ @ @ @ @ @ @ @ @ . @ @ @ . @ . . . . . @ @ @ @ @ . @ @ e.@ . @ @ = . 2 0 0 - - $ $ , X % X $ z z z z z - - , - - - - 0 - - - 0 0 0 M M 2 2 2 2 2 : 2 2 : 2 2 M 0 0 - X $ z M 2 : : @ @ . . . @ @ . . . @ @ @ = = = : : ",
"B.D.0X} !.~.e.e.= : : = = @ @ e.x (.ZXxXJXJXW.W.W.B..X+XxXAX0XT.T.T.;XAX|.~.e.e.. . . @ @ @ @ = = @ @ . : : 2 2 2 2 ^ ^ ^ ^ 0 0 0 0 , , , , , 0 , , , , $ $ $ $ - 0 2 : = = . . . . . . . . . @ . . . . . . . . @ . @ . . . @ . . . . . . . . . . . . . . . . @ @ @ . . . . . . @ @ . . . . @ @ @ . . . . . . . . . . . . . . . . . . . . . . . . . @ = = = = = 2X= = = : : 2 ^ ^ ^ 0 0 - - $ z z - - - $ $ $ $ $ $ $ $ $ $ $ - - - 0 M 2 : : : : : : : : 2 2 2 M M M M M M M M M M M ^ ^ ^ M M M 2 2 : . . . @ @ @ @ e.@ . @ . . @ @ @ . @ . @ . . . . . @ . . . . . . . . . . . . @ @ @ @ @ . @ @ @ @ @ @ @ . 2 M , , X , , , , , X $ $ $ $ $ - X , , , , 0 0 0 M ^ 2 M ^ M 0 0 , , , - 0 M M 2 2 2 : : : = = = = : : 2 M 0 $ $ $ O , , , z - - - - 0 M M 2 : : = = = = @ . . @ . e.= @ @ @ . . @ @ = = = = = = . = = @ @ @ @ . . . . @ . @ . @ . . . @ @ @ . @ . @ @ . . . . @ @ @ . . . . @ @ @ . @ @ = : ^ 0 - - - , , , % % % O O $ $ $ $ , , , 0 - - - 0 - , , , , , , 0 0 z 0 M M M M M M M M 0 - - $ $ $ z z M 2 : . . . . . . . @ @ @ @ @ @ . . = : : ",
"B..X;X} ~.e.e.@ = = = = @ e.e.e.x _ J.} xXkXkX3XT.T.0XAXZXy.|.AXaX&XaX|.~.~.e.@ = @ @ . @ . @ @ @ @ @ @ = = = : : : : : 2 2 ^ M M 0 0 0 0 0 0 0 0 , , , $ $ $ $ - 0 2 : = = . @ @ . . . . . . . . . . . . . . . . @ . @ . . . . . . . @ @ @ @ . @ . . . . . @ @ @ @ @ @ @ @ @ . @ . . . . . @ @ . . . . . . . . . . . . . . . . . . . . . . . . . . @ @ = = . . . = @ @ = = . 2 2 2 ^ M 0 0 z z z z 0 - $ $ $ $ $ $ $ $ $ z z z - 0 M 2 : : = = = = : : = : : : : 2 2 2 2 2 2 2 2 2 2 2 2 2 2 2 2 2 2 2 : : . . . @ @ = @ @ @ @ @ @ @ @ . . . . . . . @ @ . . . . . . . . . . . @ @ @ @ @ @ . . @ @ @ @ @ @ . : 2 0 , X X , , , , , , - - - - - - , , 0 , 0 0 ^ ^ 2 : : : : 2 ^ 0 - - , - - 0 0 0 ^ ^ ^ 2 : : : : : 2 2 M 0 - - $ $ , , , z - - - - 0 0 M M 2 2 2 : : : : . . . . . . = = @ @ @ @ . @ @ . = @ @ = @ @ @ @ @ @ @ = = @ . . . . . . . @ . @ @ @ @ @ . @ . @ @ . @ @ @ @ . . . . @ @ @ . @ = : 2 0 - - - - , , % % % % % O $ $ $ , , , , , , #.- - , , , , , , , , , , % , , , 0 , , , , , $ $ $ $ $ $ z z M 2 2 : : : : : : = @ @ @ @ @ . . : : : ",
";X&XaX` -.e.. = = @ e.@ e.@ @ @ 3 bXbXtXtXJ.ZXZXZXZXJ.tXP r._ (.~.|.~.~.e.e.@ e.@ @ @ @ @ @ e.e.@ @ . . . . . @ @ @ @ @ . 2 2 2 2 2 2 M M M M M M 0 0 0 z - - $ - 0 ^ 2 = = = @ . . . . . . @ . . . . . . . . . @ . @ . . . . . . . @ @ @ @ @ @ @ @ @ @ @ @ @ @ @ @ @ @ @ . . @ . . . . . . . . . . . . . . . @ @ @ @ @ @ . . @ @ @ @ @ . . @ @ @ @ @ @ @ @ @ @ . . @ @ @ @ @ . : : : 2 2 ^ ^ ^ ^ 0 0 0 - - - - X X - $ $ $ z z 0 0 M 2 : : = = = @ . . . : : : : : 2 2 2 : 2 2 2 2 2 2 2 2 2 2 2 2 : : : : : : . . @ @ = @ @ @ @ = = = @ @ . . @ @ @ @ @ @ . . . . . . . . @ @ @ @ . . . @ . . @ @ @ @ @ . : : 2 ^ 0 0 , , , , , , 0 0 0 0 M M M M M M M 2 : : : : = = = : 2 ^ 0 - - - - - - - - 0 0 M ^ ^ 2 2 2 2 2 2 M 0 - - - - - - - - - - - - - - 0 0 0 ^ ^ ^ 2 2 : : : : : : : : = = = = = = . . @ . . . @ @ @ @ @ @ @ @ . . . : . . @ . . . . . . . @ @ @ @ @ @ @ @ = = = = = @ . . @ @ @ . : : 2 2 ^ 0 0 - - - - , , , , , O O z z z , , , , , , , X $ , O X X , X X X % X % , % , % % , X , O $ $ $ $ $ $ - - z 0 M M M 2 2 : : = = = = = = = = = = = ",
"} } |.-.-.. . = 2X@ @ e.@ . . . . @ tXbXbXG.bXbXbXbXP P q._ <.x ~.e.e.e.e.@ e.= @ @ @ . @ @ e.@ e.@ @ @ @ @ @ @ @ @ @ @ @ = : : : : : 2 2 2 2 2 2 M M M M M z - - 0 0 2 : = = @ @ @ @ @ @ @ @ @ . @ . . . . . . . @ . @ . . . . . . @ @ @ @ @ @ @ @ @ @ @ @ @ @ @ @ @ @ @ @ @ @ . . . . . . @ @ @ @ . . . . . @ @ @ e.@ @ @ @ . . . . . . . . . . . @ @ @ @ @ @ @ @ @ @ . @ @ . . . = : : 2 2 2 2 2 ^ ^ 0 0 0 0 0 0 0 0 0 0 0 M M M 2 2 : : = = @ @ @ @ @ . : : : : 2 2 2 2 M M M M M 0 0 0 M M M 2 2 2 2 ^ 2 2 2 : : : : = = = = = = = = = = = @ @ @ @ @ @ . . . . @ @ . . . . @ . . . @ . . . . @ @ @ @ @ . : 2 2 ^ ^ ^ M M M M 2 2 2 2 2 2 2 2 2 : : : : = . . . @ = = = : 2 ^ 0 - - - - - - - - 0 0 0 0 0 0 0 0 M M 0 - - - X - - - - - - - - - - - - - - 0 0 0 0 ^ ^ M ^ ^ ^ ^ ^ 2 : : : : = = = . @ @ @ @ @ @ @ @ @ @ . . . . . . . @ @ @ . . . . . . = @ = = = = = = = = = = = : : : : : 2 2 2 2 ^ ^ ^ 0 0 0 0 0 0 0 0 0 z , , X - - - , X , , , , , , $ O X X X O , % , , , % X % , % , , , , , , $ $ $ $ - - - - - z 0 M M M 2 2 2 : : : = = = = = = = ",
"~.~.~.e.. . . @ 2X@ @ . . . 2 ^ ^ 2 . 3 tXbXbXbXbXbXbXbXbX3 3 e.e.@ e.@ @ e.2X@ @ @ . . . @ @ @ @ @ @ @ @ @ @ @ @ @ @ @ @ @ = = = = : : : : : : : : 2 2 2 2 M z 0 - 0 0 ^ 2 = . . . @ @ @ e.@ . @ . . . . . . . @ . @ . . . . . . @ @ @ @ @ @ @ @ @ @ @ @ . . . @ @ @ @ @ = @ @ . . . . @ @ @ . . . . . . . @ . e.@ @ @ @ @ @ @ @ @ @ @ . . . . . . . @ @ @ @ @ @ @ @ . . . . @ @ = = . . : : : : : 2 2 2 2 2 2 2 ^ ^ M M M M 2 2 2 2 : : = = = @ @ @ @ @ = . = : : 2 M M 0 z , z z - , , , - - 0 0 0 0 0 ^ ^ ^ ^ ^ 2 2 2 2 2 2 : : : = = = = = = = . . . . . . . @ @ @ . . . . . . . . . . . . . . @ @ @ @ @ . . : : : 2 2 2 2 2 2 : : : : : : = : : : : = @ . . . @ @ @ = : 2 2 ^ 0 0 0 0 0 - - - - - 0 - - - - - 0 z z - - - - - - - - , - , , , , - - - - - - - - 0 0 0 0 0 0 0 0 M 2 2 2 2 : : : . @ @ @ @ @ @ @ . . . : = = = = = . . . . . : : : : . = = = = = : : : : : : : : 2 2 2 2 ^ ^ ^ ^ ^ ^ ^ ^ ^ 2 2 2 ^ ^ M M M 0 0 , , - - - X X X , , , , , $ O X X O O O , O % O O X X % X O O O , , , $ $ $ $ - - - - - - z 0 0 0 0 M ^ 2 2 2 : : : : : : 2 ",
"~.e.e.@ @ . = = = = : 2 2 ^ ^ M 0 0 0 ^ 2 . @ @ = : : : : : = @ = @ = @ 2X@ @ @ @ . . . . = @ @ @ 2X= = @ @ . . . @ @ @ @ @ @ @ @ = = = = = = = = = = : : : 2 M 0 0 - - 0 ^ 2 2 2 . . @ @ @ @ @ . @ . . . . . . . @ . @ . . . @ @ . . . . . . . . @ @ @ @ @ . @ = = = = : : = = : : : : : = : : : . . . . @ @ @ @ @ @ @ . . @ @ @ @ @ @ @ @ @ . . . . . @ @ @ @ @ @ @ . . . . . @ @ @ @ @ @ @ @ . . . . : : : : : : : : : : : : : : : : . . . = @ @ @ @ @ . . = : 2 ^ 0 0 z $ X X X X X X X X X X , , , , , - - 0 0 0 0 M M M M M 2 2 2 : : : = = = = = . . . . @ @ . . . . . . . . . . . . . . . . . @ @ . . . @ @ . . . . . . . . . . . . = @ = @ = @ = @ @ @ . @ @ @ @ . : : : 2 2 ^ ^ ^ ^ 0 0 +.- +.- - - - - - - z z z z - - $ - - X X , , , , , , , , , , , - - - - - - - - - - 0 0 0 0 M 2 2 2 : = = @ = @ . . . : : : : : : : : : : : : : : : : : : : : 2 2 2 2 2 2 2 ^ ^ ^ ^ M M M M 0 0 ^ ^ ^ 2 2 2 2 : : : : : : : : 2 2 2 M 0 0 - - #.X X , , , , $ X X X X O O O O O O O X X X X X X X X $ $ $ $ $ $ - - - - - - - - - - - - - 0 0 0 ^ ^ ^ ^ ^ ^ 0 ",
". . . . : : : 2 2 2 ^ ^ +.+.- - , , , , , , , , , , , , 0 ^ ^ 2 : : : : : . = = = = = : = = @ 2X= @ = = @ . . . . @ @ @ @ @ @ @ @ @ @ @ @ @ @ @ @ @ = = = = : 2 M - - +.- +.^ ^ ^ ^ . . . @ @ @ @ . . . . . . . . . . . . . . @ . . . . . . . . . @ @ @ . . : : : : 2 2 2 2 2 2 2 2 2 2 2 2 : 2 : 2 : : : : . = @ = = = = = . @ @ @ @ @ @ . . . . . . . @ @ @ @ @ @ @ . . . . . . . . . . . . . . . . . . @ @ @ @ @ @ @ @ @ . @ @ @ @ @ . . . . . . . @ @ . . . : 2 M 0 - , , O O X X X X X X X X X X X , , , , $ $ $ - z z z z 0 0 0 M M 2 2 2 : : : : : = = = @ . . . . . . . . . . . . . . . . . . . . . . . . @ @ . @ . @ . . @ @ . @ . @ @ @ @ @ @ @ @ @ . . . . . . . . = = : : : : 2 2 ^ ^ 0 0 +.- +.- - 0 0 M M M M M z - - - X X X , , , , , , , , , , , , , , $ $ - - - - - - - z - z 0 0 M 2 : = = = = = = = : : : : 2 2 2 2 ^ ^ ^ ^ ^ ^ ^ ^ ^ 2 2 ^ ^ 0 0 0 0 0 0 0 0 - - - - - 0 0 M 2 2 2 : : . . . = = = = = = = = : : : 2 ^ 0 0 - X , , , , $ $ $ O O O O O O O O O O X X X X X X X $ $ $ $ $ $ $ - - - - z $ $ $ $ X X #.- X - - - 0 0 0 0 0 0 ",
"^ ^ 2 2 2 M 0 0 0 0 0 0 - - $ X X X , , 0 , , , , , 0 0 , ^ 0 0 0 0 ^ ^ ^ 2 2 2 : : : : = . = @ -X= = = . . @ @ @ @ @ @ @ @ . . . . @ . . . . . @ @ @ = = = = 2 M 0 - - +.+.0 ^ ^ ^ ^ . . . @ @ @ @ . . . . . . . . . . . . . . . . . . . . @ @ @ . . : : 2 2 2 2 2 M M M M M M M ^ M ^ M M M ^ ^ M M 2 2 2 : : : : : : : : : . . . . . . . . . . . . : = = = = = @ @ @ @ . @ . . . . . . . . . . . -.. . . @ @ @ @ @ @ @ @ . @ @ @ @ @ . . . . . . . @ @ . . = : 2 M 0 - z z , , O O O O O O O O X X X O , , , , $ $ $ $ $ $ $ - - 0 0 0 0 0 M M 2 2 2 : : = = @ . . . . . @ @ @ . . . . . . . . . . . . . . . . . . . @ . @ . @ . . @ . @ . . @ . @ . @ . . . . . . . . . . = = = = = = = : : 2 2 ^ ^ ^ ^ M M M 2 2 2 : 2 2 M 0 - X X , , , , O O , O X X X O , , , , $ $ $ $ z z - $ $ $ $ $ - - 0 M 2 : = = = = = = : : 2 2 2 ^ ^ ^ 0 ^ 0 0 0 0 0 0 0 0 - 0 0 - - - - - - - - #.#.- X , M 2 2 : : = = @ @ . . . . . . . = = = = = : 2 2 2 M 0 0 , , , , $ $ $ , , , , , , , , O O O O X X O , , $ $ $ $ $ $ - - - $ $ $ $ $ $ $ $ X X X X - - - - 0 0 ^ ^ ^ ",
"M z z z z , , - - - - z z z $ X X X , , 0 - - - 0 0 0 0 0 0 - - 0 0 0 ^ M 0 0 M ^ 2 2 : . . . . @ @ = . . @ @ @ @ @ @ e.@ @ @ @ @ @ @ @ @ @ @ @ @ @ @ @ = = = : 2 ^ 0 0 0 ^ ^ ^ ^ ^ . . . @ . @ . . . . . . . . . . . . @ . @ . . . . . . . @ @ @ . . 2 2 ^ ^ ^ M 0 0 z z z z z - - - - - 0 0 , 0 , 0 0 0 M M 2 2 2 : : : : : : : : : : : = = : : : : : : : = = = = = = = = = = . . . . . . . . -.. . . . . . . . . . . . . . @ @ @ @ @ @ . . . . . . @ @ @ @ = : 2 0 - , , , , O O O O O O O O X X X X O , , , , , $ $ $ $ $ $ - z - - - - - - 0 0 M M ^ 2 : = . . . . . @ @ @ . . . . . . . . . . . . . . . . . . @ @ @ @ @ @ @ @ @ @ @ @ @ @ @ @ @ @ @ . . . . @ @ . . . . @ @ @ @ = = = = = : : : : 2 2 2 2 2 : : : : : 2 2 0 - - , , , , O O O O O X X X X X O O , $ $ $ $ z z $ $ $ $ $ $ $ - - 0 2 : = = = : : : 2 2 2 ^ ^ 0 0 ^ ^ 0 0 0 0 0 - - - - - - - - - $ $ $ $ $ X X X X , , M 2 : : = = @ @ @ @ . . . . . . . . @ @ @ . : : : 2 M 0 - X , $ $ $ $ $ $ $ , , , , , , $ , $ $ $ X $ $ $ z - - - - - - - $ $ $ $ $ $ $ $ $ $ $ - - 0 0 0 M 2 2 2 : ",
"O O O X O , , , , $ $ $ z z z z z 0 0 0 ^ ^ ^ ^ 0 ^ 0 0 0 ^ 0 0 ^ 0 0 0 - - - - 0 0 ^ 2 2 . . . . = = = @ @ @ @ -.@ e.@ @ @ @ @ @ @ @ @ . . . . . . . . = = = : : 2 2 2 2 2 2 . : : . . . @ @ . . . . . . . . . . . . . . @ . -.@ . . . . @ @ @ @ . : 2 ^ ^ 0 - - - - - - - - - - - - X , , , , , #., , , , z z 0 M M M M 2 2 : : : : : : : : : : : : : : : : : : : : : = = = = = = = = = @ . . . . . . . . . . . . . . . . . . @ @ @ @ @ @ @ @ . . . @ @ @ @ = : 2 0 - - , , , O O O O O O O X X X X X O , , , , , , $ $ $ X X $ $ $ $ $ $ X - - - - - 0 ^ 2 : : . . . @ @ @ . . . . . . . . . . . . . . @ @ @ . . @ @ @ @ @ @ @ @ @ @ @ @ @ @ @ @ @ @ @ . . . . @ @ @ . . . . @ . . . . @ @ = = = = = = = : : . : : = = = : 2 2 M 0 - $ $ , , O O X X X X X X X X O O , $ $ $ $ $ - z z z $ $ X - - 0 2 = = : : 2 2 ^ ^ ^ ^ 0 0 0 0 - 0 0 ^ M 0 0 - X X X X $ , , , $ $ $ O $ $ $ $ , , z 2 : : = = @ @ @ -.@ @ @ . . . . . . . . . . . = : : 2 0 - X - $ $ - - - - - - - - - - - - - - - - - - - - - - - - - 0 0 0 z $ $ $ O $ $ $ $ - 0 0 M M ^ 2 2 : : : = ",
"[ [ % O O z z z , O X X X z M M 2 : : : . : : : ^ ^ ^ ^ ^ 2 M M M z - - - - - - - - 0 ^ 2 : . . . = = = = @ @ . . . @ -.@ @ @ @ @ @ @ . . . . . . . . . . @ = = : : : : : : . . . . . @ @ @ @ @ @ @ . . . . . . . . . . @ . @ @ . . . @ . . . . . . 2 2 ^ 0 - #.#.X X $ - $ $ $ , , , , , , , , , , , X X X $ $ $ z 0 0 0 0 M 2 2 2 2 2 2 2 2 2 : : : : 2 2 2 2 2 : : : : : : : : : : = = = = = = = = = = = : . . . . . . = = @ . . . . . @ @ @ @ @ @ @ @ @ @ @ : 2 ^ 0 - - , , , O O X X X X X X X X X O , , , , , , , , , , , $ $ $ $ $ $ $ $ $ $ X X - 0 ^ 2 : : . @ @ @ @ . . . . . . . . . . . . . @ @ @ @ . . . . . @ @ @ @ @ @ @ . . . . . . . . . . . . @ @ @ @ . . . . . . . . . . @ = = = = = = = . . @ . . . . . = : : 2 M 0 - - $ $ O X X X X X X X X O O , , , $ $ $ X - - z z $ $ X X - 0 2 : = : 2 ^ 0 0 - - - - +.- - #.#.- - - - - #.#.[ [ X , , O O O O O O $ $ $ $ , , 0 M 2 : : : . @ @ @ @ @ @ @ . . . . . @ @ @ @ @ . = : 2 M - X X $ $ - - - - - - - - - - - - - - - - - - - 0 0 0 0 0 0 0 M M 0 z z z $ $ z - - 0 M ^ 2 2 : : : = = = = ",
"O O O O O O X X X X X , , 0 M 2 : = : = . . . . = : : 2 2 2 2 2 2 2 M M M ^ ^ 0 ^ ^ ^ 2 2 . : . . = = = = = = . . . @ @ . . @ . . . . . . . . . . . . . . @ = = . : : = = @ . . . . . @ @ @ @ @ @ @ . . . . . . . . . . . @ @ @ . . . @ . . . . : . . : 2 ^ 0 - - X - - - - , , , , , , , , , , , , , , $ $ $ $ $ - z 0 0 0 0 ^ ^ ^ ^ ^ 0 0 0 ^ ^ 0 ^ ^ M M M M M 2 2 2 2 2 2 2 2 2 2 2 : : : : : : : : : : 2 2 2 2 : : : = = = = = @ @ @ @ . @ @ @ @ . . . . . : 2 ^ 0 0 - $ $ $ , , , , O O O O O X X O O O O O O , , , O O O O X X X X X X X O O O O - 0 ^ 2 : = . . @ @ @ . . . . . . . . . . . . . @ @ @ @ @ . . . . . @ @ @ @ . . . . . . . . . . . . @ @ @ @ @ @ @ @ @ @ @ @ @ @ @ . . @ @ @ @ . . . . @ @ @ . . @ . = = = : M 0 0 - $ $ $ $ , , , , O O , , , , , , , - - - - - 0 0 - , , - - 0 2 : : 2 ^ ^ 0 +.- +.0 0 0 0 0 - - 0 - - - X X X X O , O X % % % % % % O O O $ X , , 0 M 2 2 : . @ @ @ e.@ . . . . . . . . . @ @ . . = : 2 0 - X - - - - - - - - - 0 0 0 0 M M M M M M M M M 2 2 2 2 2 2 2 2 2 2 M M M M M M M M ^ : : : = = @ @ @ @ @ = ",
"O , O O O X X X , X , , , 0 M 2 : : : . @ @ @ = = = = . : : : : : : : : 2 : 2 2 2 2 : : : : : : : : : : : : : : : : = = = @ @ @ @ @ @ @ @ @ . . @ @ @ @ . @ @ @ . . . @ @ @ . . . . @ @ @ @ @ . . . . . . . . . . . . . @ . @ @ . . . @ . . . = . . . : : 2 M 0 0 z z - - - , , X X X X , , , , , , , , $ - $ $ - z 0 M M M 2 2 2 ^ 0 ^ ^ 0 0 0 0 0 0 0 0 0 0 0 0 0 0 M M M M M M M M M M M M M M M M M M M M M M M M 2 : : : = = = = = . . . . @ @ @ . . . . @ = : 2 0 0 0 - - X X X X X X X X X O O O O O O O O O , , O O O O , , , O O X X X X X X O z M 2 : : = . . . @ @ . . . . . . . . . . . . . @ @ @ @ @ @ . . . . @ @ @ . . . . . . . . . . @ @ @ @ @ @ @ @ @ @ @ @ @ @ @ @ @ @ . . . . . . . . . . @ @ @ @ . . @ = = = : M 0 0 - - $ $ $ $ , , z , , , , , , , , - - - - - - 0 0 - - , 0 - 0 2 : : 2 2 ^ ^ ^ 0 ^ ^ ^ M M M 0 0 0 0 - - X X X X X O % % % % % % % % O O O $ X X , z 0 M 2 : : = @ @ @ @ @ . . . . . . . . . . . @ = : 2 0 - - - - - - - 0 0 0 M M M 2 2 2 2 2 2 2 2 2 2 2 : 2 : : : : : : 2 2 2 2 2 2 2 2 : 2 : . @ @ @ @ @ @ @ @ @ @ ",
"X , , , O X O , , , , , , 0 0 M 2 : : = @ @ = = . . @ @ @ @ @ @ @ @ @ @ @ . @ . = = = = = = : : : 2 2 2 2 2 2 2 : : : = = @ @ @ @ @ @ @ @ @ @ @ @ @ @ @ . . @ . . . . . @ @ . . . . @ @ @ . . . . . . . . . . . . . . . . @ -.. . . . . . . = . = = = = = : 2 2 M M 0 0 0 - , , , , , , , , - , - , - , - z z 0 M M M 2 2 : : : : : 2 2 ^ ^ ^ ^ ^ ^ ^ 0 - - - - 0 - - - - - - - - - - - z z - z z z z z - - - - 0 0 0 M M 2 2 : : = : : : . . . . . @ @ . . . @ = : 2 ^ M 0 - - - - - - - X $ X X X $ $ , O O O O O O O O O O , , z , , X X X [ X X O O z 2 : : = = . . . . @ . . . . . . . . . . . . . @ @ @ @ @ @ @ . . . . . . . . . . . . . . . . @ @ @ @ @ @ . . . @ @ @ @ @ @ . . . . . . . . . . . . . @ @ e.@ . . = = = : : M 0 0 0 - - $ $ $ , z z , , , , , , - , - 0 0 0 0 0 0 ^ M M M 0 M ^ 2 : : : 2 2 2 2 2 2 : 2 2 2 2 2 2 M 0 0 - X X X X X X % O O O O % % % % O O , O X $ - - 0 M 2 : : : . . @ @ @ @ . . . . . . . . . = = : 2 M 0 0 0 0 0 0 0 M M 2 2 2 2 : 2 : : : : : : : : : : : : = : . = . . . : : : : : = . . . @ . . . . @ @ @ @ @ @ ",
"X , , , , , , , , 0 , , , , 0 0 ^ 2 : @ @ @ @ @ . . @ @ @ @ . . . . @ @ @ . . @ @ = = = = : 2 2 M 0 0 0 0 0 0 M M 2 : = @ @ . . . . @ @ @ @ . . . @ @ . . . . . . . . . @ . @ @ @ @ @ @ . . . . . . . @ @ @ @ @ @ @ @ . . . . . . . . . . . @ . . . @ @ = = : : 2 2 2 2 ^ ^ 0 0 0 0 0 0 0 0 0 0 0 0 M M M M 2 2 : : : : : : : : = = = : = . . : 2 2 2 2 - - +.0 M - #.- - - #.#.- - X X - - - - $ $ z $ - X , , - z z 0 - z M 2 2 : : : : . @ @ . . . . . . . . = = : : 2 M M 0 0 0 - - - , , O X , , , , , O O O O O O O X , z z z , X X #.#.#.X , z M 2 : : = = . . . . . . . . . . . . . . . . @ @ @ @ . @ @ @ @ @ @ . . . . . . . . . . . . . . . . @ @ @ . . . . . @ @ . . . . . . . @ @ @ @ . . . . . . . @ @ . . = = = = : 2 ^ 0 - - $ $ O O O , , z 0 0 0 0 0 0 ^ ^ 2 2 2 : : 2 2 2 2 2 2 2 : : : : = : . : : : = = = = : : : : : : : 2 M 0 , , , , % , , O O % % % % % % % O O , , , X - 0 M 2 : : 2 2 . @ @ @ @ . . : : . @ @ @ = = : 2 2 2 2 2 2 2 2 2 : : : : : = = = = . . : : : : : : : = = = = = = . . . . . . = = @ @ @ @ @ @ . . . . . @ . . . ",
", $ $ $ , , , , , , , 0 , , , 0 0 ^ : = @ e.@ @ @ @ @ . . @ . @ . . . . @ @ @ @ . . : : : 2 M 0 z , , X , , z z 0 M 2 : @ . . . . . . . . . . . . . . . . . . . . @ @ @ @ . @ . . . . . . . . @ . @ . . . . . @ . . . . . . . . . . . @ @ @ . . . . . @ @ . : : : : : : 2 ^ 2 2 2 : 2 2 2 2 2 2 2 2 2 2 2 : : : : : : : : : : : : = = = = @ @ . . : : 2 2 ^ ^ 2 ^ ^ M 0 0 0 - - 0 , X X 0 - - - - - $ - - X , , , - - - - $ z M M 2 2 : : = = = . . . @ . . . . = = = = : 2 2 2 M M 0 0 - X , , X , , , , , O X % % O , , , $ z z $ - - X X - - 0 M 2 2 : : = = . . . . . . . . . . . . . . . . . . . @ . @ . . . . . . @ . @ . . . . . . @ @ . . . . . @ @ . . . . @ @ @ . . . . . . . . . . . @ . @ . . . . @ @ . . = = = = = : 2 0 - +.- $ O O O O , z M M M M ^ ^ 2 2 : : : = = = = = = : : : : = = = . . . . . @ = = = = = = = = = : : : : : 2 M M 0 , X X , , O % % [ [ % % % O O O , z X - - - 0 M ^ ^ ^ 2 : : = = = : : : : = = = = = : : : : : : : : : : : : = = = = @ @ @ @ . . = : : : : . = = = = @ @ . . . . . . @ @ @ @ @ . @ . . . . -.. @ . . @ ",
"$ $ $ $ $ , $ $ , - , $ , , , - 0 ^ 2 : = @ @ e.@ . . @ @ . @ . @ . . . @ = . : : 2 2 2 M M , , O X X X O , O , z 0 ^ 2 . . . . . . . . . . . . . . . . . . . . . . . . . . . . . . . . @ . @ . -.. . . . . . . . . . . . . . . . . . @ @ @ @ . . . @ @ . . : : : : : 2 2 2 : . : . : : : : 2 : : : : : : : : : = . : : = = : : . = @ = . : . = = = = . . . . -X. . : 2 2 M M M ^ 0 0 0 M M 0 - - - - - - X - , X X - - 0 0 - 0 M ^ ^ ^ 2 2 : : : : : . = = = = = @ @ @ @ . . : 2 2 2 ^ 0 0 0 0 z , , - - - , X #.X , , - z z z $ - - 0 0 0 M M 2 2 : : = = . . @ @ @ @ . . . . . . . . . . . . . . . @ . @ . . @ @ . @ . @ . . . . . . . . . . . . . . @ @ . . . . . . . . . . @ . . @ @ . @ . -.@ . . . . @ @ @ . . = = 2X= : 2 M 0 - - - $ O O X O z M M 2 2 2 2 : : : : : = = = = = = = = = = = = . . @ . . . . . @ @ = = = = = = : : : . = = = : 2 M 0 , , X X X % % % % % % O O O O O O O $ $ $ - #.#.0 M 0 ^ ^ : : : : : : : : : = = : = = = . . . . . : . . . . . . @ @ @ @ @ @ @ = = : : . . @ @ . . @ @ @ . . . . . @ @ @ @ @ . @ . . . . . @ @ . . . ",
"$ $ $ $ $ $ $ $ $ $ $ $ $ O X - z M 2 : = @ @ @ @ @ . @ . @ . @ @ . . . : : : 2 ^ ^ 0 0 0 , , X % % % % O O O O , - 0 2 : . . . . . . . . . . . . . . . . . . . . . . . . . . . . . . . . @ . @ . . @ . @ @ . . . . . . . . . . . . . @ @ @ @ . . . @ . . . . : : : : . ^ : . . . . . . . : . . = = = @ = @ @ @ . . . . @ = . . . @ @ = . : . = = = @ 2Xe.@ -X-.@ @ . : : : : 2 ^ ^ 2 : 2 2 ^ ^ ^ ^ ^ M M 0 0 0 0 - - 0 0 M - - 0 0 0 0 0 0 M 2 2 2 2 : : : : = @ @ . . . @ @ @ : : : : : 2 2 2 ^ ^ 0 0 0 0 - - - - 0 0 0 0 z - z 0 0 M M 2 2 2 : : = = = . . @ @ @ @ @ e.@ e.@ @ @ . @ @ @ . . @ @ @ . . @ . . . @ . -.. @ . @ . . . . . . . . . . . . @ @ @ . . . . . . . . @ @ . @ . . @ -.. . . . @ @ @ @ . . : : : = = : : M 0 - - - - $ $ X , z M 2 2 : : : . . . . . . . . = @ @ . . . . . . . . @ . . . . . . @ @ @ @ @ @ @ @ . . . @ @ @ = : : 2 2 M 0 0 , X X X X X , , O X X $ $ $ X X $ z $ - #.- 0 0 0 0 ^ ^ 2 2 2 2 2 2 2 2 : : : : : . . . . . @ . . . . . . . @ @ @ @ @ = = = = = . @ . . . @ @ @ @ . . . . @ @ @ @ @ @ . . . . . . @ @ . . . . ",
"$ O O $ $ $ $ $ $ $ $ $ O O $ $ - 0 M 2 : = @ @ @ @ . @ . . @ @ @ @ . : : 2 ^ ^ 0 - - - X X X X % % % % % O O O O , 0 ^ 2 . . . . . . . . . . . . . . . . . . . . . . . . . . . . . . @ . @ . @ @ @ @ @ . . . . . . . @ @ @ . . . . . . . . . . . @ @ @ . . . . . . . 2 . . : . = = . . . . . . @ @ @ @ @ @ @ @ @ @ @ @ @ @ @ . @ @ . . . = = . . @ e.e.e.e.-Xe.e.e.-.-.e.e.-.` ` ` ` -.-.. 2 2 2 2 2 : : 2 2 2 2 M 0 0 ^ 2 ^ 0 0 ^ 0 0 #.#.- 0 0 0 ^ M M 2 : : . . . . @ = 2X= = . @ @ @ @ . . . ^ -.-.-.^ ` ^ ^ ^ ^ ^ ^ ^ ^ 0 M M 2 2 : : : : = = = = @ @ @ @ @ @ @ -.@ e.@ @ @ @ . . . . . . . . . . . @ . . . @ . . . . . . . @ @ @ . . . . . . . . . @ @ @ . . . . . . . @ @ . @ . @ . . . . . @ . = = . : : : : = : : 2 M 0 - - - 0 - - - - 0 M 2 : : : . . @ @ @ @ . . . . . . . . . . . . . . . . . . . @ @ @ @ @ @ @ @ @ @ @ e.@ -.@ @ 2X@ . : : : : 2 M 0 , , , 0 - - - $ $ X $ $ X X X X z M - - - - - - - - 0 0 0 z +.M ^ ^ ^ ^ 2 2 : : : . . @ @ @ @ @ @ @ @ . . . . . . . . = @ @ @ @ @ @ @ @ @ @ @ @ @ . . @ @ @ @ . . . . . . . . @ @ @ . . . . ",
"O O O X X X X X X X O O O O $ $ - 0 ^ 2 : . . @ . @ . . . . @ @ = @ : : 2 M 0 0 - - X X X X % % % % % % O O O O X X - ^ 2 . . . . . . . . . . . . . . . . . . . . . . . . . @ @ . . . . @ . @ @ @ @ . . . . @ @ @ @ @ @ @ @ @ . . . . . . . . . . @ @ @ . . . . @ . . . . . . : : . : : : . . . . . . . . @ @ @ @ @ @ @ . @ . . @ @ @ . . @ @ @ -.e.~.~.6X~.~.-X|.-.~.~.y.|.aX;X;X;X;X&XaX|.~.-.-.-.e.e.e.@ = : : : 2 2 2 : 2 2 2 : 2 ^ 0 0 0 , 0 , #.0 M M 2 2 . . . @ @ = : : : @ @ . . . . e.e.~.~.~.|.|.` ` |.-.z.-.. : 2 : : : : : : : : : : = = = @ @ @ . . @ @ @ @ @ @ @ @ . . . . . . . . . . . . @ . . . . . . . . . . . @ @ . . . . . . . . @ @ . . . . . . . . . . . . . @ . @ . @ . . . . = = = = : : = : : : 2 2 M - - 0 0 M 0 0 0 0 M 2 : = : . . . @ @ . . @ . . . @ . . . . . . . . . . . . . @ @ @ @ @ @ @ @ @ @ @ . @ @ @ . . @ = = = = : 2 2 M M M M M ^ 0 0 0 ^ M z - - - 0 0 - , 0 0 , , 0 0 0 - - #.- - - - +.0 0 0 0 M 0 M M ^ 2 2 . . . @ = = = . . . . . . . . . . . . . . . . . . . : : . @ . . . . . . . . . . . . . @ @ @ @ @ . . @ ",
"% % O O X X X X X % % , z $ X X - 0 2 2 . @ . . . @ . . . . . = @ . : 2 ^ M 0 - - - X , O O O % % % O O % O O O X - 0 ^ 2 . . . . . . . . . . . . . . . . . . . . . . . . . . . . . @ @ . . @ . . . . . . . . . . . . . . . . . . @ @ @ @ @ @ @ @ @ = = . . . = = . . . . . . = = = = . : : : . . . . . . . @ @ @ @ @ . . . . = @ @ . . . @ @ e.~.~.!.|.} AXAX&X&XAXAX} } AX*X.X.X.X.XT.*XAX|.!.!.!.~.~.e.e.@ . : : = : : = : : : . : : 2 ^ 0 - #.#.- - 0 0 ^ ^ 2 2 2 : = : : . @ e.e.e.-.. e.~.-.|.} AXAXxX;X&XaX} -.-.@ = : = = = = = : = : = : = = = . . . . . . . . . . @ . . . . . . . . . . @ @ @ . @ . . . . . . . . . . . @ @ @ @ @ @ @ @ @ = = = @ @ @ @ @ @ @ @ @ @ @ @ @ . @ . @ . . . . . . = = = = = = : : 2 M M z - - 0 2 2 2 2 M 2 2 : = = . . . . . . . @ . . . . . . . . . . . . . . . . . . @ @ @ @ @ @ @ @ @ @ . . . @ = . = = = : = @ . . : 2 2 ^ ^ 2 ^ ^ z.. . . 2 ^ ^ ^ ^ M 0 - - , 0 , , X , #., - , , , $ - - 0 0 0 0 , z , 0 0 ^ ^ 2 2 2 : : : : : : : : . . . . . . . . = : : : : : : : . @ . . . . . . . . . . . . @ @ @ @ . . @ @ @ ",
"% % % % % % % % % % % , z - - - - 0 2 : = @ . . @ @ . . . . @ @ . : : 2 ^ 0 0 - - - $ , , O O % O X O O X % X X X - 0 ^ 2 . . . . . . . . . . . . . . . . . . . . . . . . . . . . . . @ @ @ @ . . . . . @ @ @ @ . . . . . . . . @ @ @ @ @ @ @ = = = : : 2 2 2 : : : 2 : 2 . : : : : = = : : : : = = . @ . . . @ @ @ . . @ . . . @ @ @ @ @ . @ e.~.~.} xX0X+XD.D.D.+X0X0XxX0X.XB.B.W.W.W.B.0XAX} } } } } |.e.e.. : : = 2X= = = : : . @ . . : ^ 0 - - 0 0 - - 0 0 0 M 0 ^ 2 -.-.-.|.-.~.-.-.~.~.~.|.AX0X+XD.D.B..X*XaX|.~.e.@ @ @ @ = = = = = : = : = = . : . . . . . . . . . . . . . = . . . . . . . . @ . . . . . . . . . . . . . @ @ @ @ @ @ @ = = = = = = @ @ @ @ @ @ @ @ = = = = @ . . . . . . @ . . = = = = = : 2 2 M 0 - , z 0 M 2 2 : : : : : : = @ . . . . . . . . @ . @ . . . . . . . . . . . . . . . @ @ @ @ @ @ @ @ @ @ . . : : : = = = = . @ e.e.-.@ . . . . -.-.` ` -.-.-X-.. : 2 2 2 ^ 0 0 z z , % % , % , , O O O O O $ , 0 0 , O O O , z 0 0 0 0 0 M M M M 2 2 2 2 : : . : : : : : : : : : : : : = = . . . . . . . . . . . . @ @ @ @ . . . @ @ @ ",
"[ % % % % % % O , , , , - - - - 0 ^ 2 . @ @ @ @ . @ . . . @ . . . : : 2 ^ 0 0 - - - $ , , , O , O X , , X X X , , 0 ^ ^ 2 . . . . . . . . . . . . . . . . . . . . . . . . . . @ @ @ @ @ @ @ @ @ @ @ = = = = = = = @ @ . . @ . . @ @ @ @ @ @ @ = = : 2 ^ ^ ^ ^ 0 ^ ^ ^ ^ ^ M 2 2 2 : : : = = = = = = = = = = @ . . . . @ . = = = . . @ @ @ . @ e.y.} ;X.XW.W.W.W.{ W.B.B.D.*X*X*XD.D.D.B.W.+X0X+XT.T.*X;XaX-.e.e.. : = = = = . . : @ @ e.-.-.-.-.-Xz.+.9X#.- z $ $ z $ +.z.` |.} } AX} } |.!.y.|.AX+XB.W.W.K.{ W.B.xX|.!.~.e.e.@ . . . . . . . . . . : = . . . . : : : : : : : : : : . . . @ . . . . . . . . . . . . . . . . . . . @ @ @ @ @ @ @ = = = = = = @ @ @ @ @ @ @ = = = = = @ . . . . . . . @ . . = = = : 2 ^ 0 - - X X , 0 M 2 : = = = = : . . . @ @ . . @ . @ . @ . . . . . . . . . . . . . . . . . . . @ @ @ @ @ @ @ @ @ @ = : : 2X2X= @ e.-.~.~.~.~.~.~.y.x ~.|.} aX} } |.|.e.e.-.. . : 2 M M M z O O O O % % % % % % % % X , , O X % O O $ z z $ $ $ - - - 0 0 0 0 ^ ^ ^ 2 2 ^ 2 2 2 2 2 2 2 : : : = . @ @ @ @ @ . . . . . @ @ @ @ @ . . . . @ . . ",
"X X X X X , , , , , , , - - 0 0 ^ 2 : = @ @ @ @ @ . . . . . @ . . . : : 2 ^ 0 0 - - $ $ , , , , , , , , X , , , 0 M ^ 2 . . . . . . . . . . . . . . . . . . . . . . . . @ @ @ @ @ @ @ @ @ @ . . . : : : : : : : : = = = @ = . . @ @ @ . . . . : : 2 0 - 0 0 - - - - 0 0 0 0 0 M M M 2 2 : : : = = 2X= = = = = = . . @ . @ @ = = . . @ @ = : @ e.y.} ;X.XW.W.{ { K.W.B.D.*X*X*X*X*X*XD.D.W.B.B.B..X.XT.;XaX-.e.e.@ = = = e.e.e.@ @ e.-.` aX&X&X&X&XaX<X` z.^ +.+.+.z +.z.` aX&X0X+X+X+X+X0XxXAXxX+XB.W.W.{ W.W.W.D.xXgX!.!.~.~.e.~.~.~.e.e.@ @ @ @ @ @ . . . . . . . : . : : : : : . . @ @ . @ @ @ @ @ @ @ . . . . = = = = . . . . @ @ @ @ @ @ @ @ @ @ = = = @ @ @ @ @ @ @ @ = = = = = . . . . . . . . . @ @ . . 2 ^ ^ 0 - - - - - 0 0 M 2 : = = = = . . . @ @ @ @ @ @ @ @ . . @ . . @ . . . . . . . . . . . . = = = = = = = @ @ . . @ = = : = @ e.e.~.|.} } AXAXAX} |.!.} AX*XT.T.*X;X&X} ~.~.~.e.e.. . 2 2 2 2 M M z z , O X % % X O , , X O O O O O z z z - , - - - - - - 0 0 0 0 ^ 0 ^ 0 0 ^ ^ ^ ^ ^ ^ 2 2 : . . @ @ @ @ . @ @ . @ @ @ @ @ @ . . . . . @ . . ",
"X X X X X , , , , - - - - 0 0 ^ 2 : : = @ . . . . . . @ @ @ @ @ @ . = = : 2 2 ^ 0 0 - - - , , , , , - , - , , z M 2 2 . . . . . . . . . . . . . . . . . . . @ . . . . = = = = = = = = = = : : 2 2 2 2 ^ ^ ^ 2 2 2 2 : : = = = = @ @ . . . . 2 ^ ^ 0 - - - - - - - - - , 0 - 0 0 0 M M M 2 2 2 : : : : = = = = = @ @ @ @ . @ @ = @ @ . = = = @ e.~.|.&X0XD.B.B.B.W.W.B.+X*X*X*X*X*X*XD.B.K.W.B.D.T.*X;XaX} ~.e.e.@ 2Xe.. e.e.e.e.~.|.aX&X*XT..X.XT.T.;XaX|.-.` 9X` z.` } aX0XT.B.B.W.W.B.B.D.+X+X.XB.Z.B.Z.B.W.B.D.+XGXAXAX} } !.y.~.y.~.~.~.e.@ @ @ @ @ . . @ . : . . = : . : . . : . . . @ @ @ @ @ @ @ @ @ . . = = = = = = . . . @ @ @ @ @ @ @ @ @ @ @ @ @ @ @ @ @ @ @ @ @ @ = = = = . . . . . . . . . . . . . : ^ ^ ^ M 0 0 - - 0 , 0 0 ^ 2 : = = @ . . @ @ @ @ @ @ @ @ . . . . . @ @ . . . . . = = . . . . = = = = = = = = . . . . = = . @ e.~.|.} &X0X0X+X+X+X0XxXAXxX+XB.B.B.B..XT.xX} !.!.!.~.~.e.e.. = = : 2 2 2 2 M 0 0 0 0 0 0 - $ $ O O O O $ , - 0 0 0 0 0 0 0 0 0 0 0 0 0 0 - +.- 0 +.^ ^ z.z.-X-.-.-X@ @ e.@ @ @ . . . . @ @ @ @ . . . . . @ . . 2 ",
"- - - - - - 0 0 0 0 0 0 0 0 ^ 2 : : = = . . . . . . @ @ @ @ @ @ . @ = = = = : 2 ^ M 0 0 - - - - - - , - , 0 0 M 2 : : . . . . . . . . . . . . . . . . . . @ . . . = = = : : : : : : : : 2 2 ^ ^ ^ 0 0 0 0 0 0 +.^ ^ 2 2 : : = = = @ . . . 2 ^ ^ 0 - - - - $ $ $ X $ $ z z z z 0 0 0 0 0 M M M M 2 2 2 2 : : = = @ @ @ @ . . . . @ @ . : = = = e.~.!.|.AX0X+XD.D.JXW.D.+X*X*X*X*X*X.XB.W.K.K.D.0XxXAX} |.~.~.e.. @ @ e.e.e.~.~.~.|.aX;X.XB.W.W.W.W.W.D.0XAX} aXaXaXAX&XxXxX+XB.W.W.W.{ W.W.W.D.+XT.*X*X*XT.T.D.B.B.B.D.D.D.*X0X} !.y.!.!.~.~.~.e.e.e.@ e.@ @ @ @ @ @ @ . . = . . : . @ . @ @ @ @ @ @ e.= e.= = . = = = = = = = @ . . @ @ @ e.@ e.@ @ @ @ @ @ @ @ @ @ @ @ @ @ @ @ = = = . @ . . . . . . . . @ @ @ . : 2 2 : 2 2 M 0 0 0 - - 0 ^ 2 . @ @ @ @ . @ @ @ @ @ @ . @ . . . . @ . . @ . = = = = = = = = = = = = = = = : : : : : . . . e.e.~.aX;XT.B.W.W.W.W.W.D.+X+XD.W.B.W.W.W.B.+XAXgXgX|.|.|.~.~.e.e.@ . @ . @ @ . : 2 ^ ^ ^ ^ ^ M z z z z z $ - 0 0 ^ 0 ^ ^ ^ ^ ^ ^ M M M M M 0 0 0 ^ ^ z.z.` z.-.-.-X~.e.@ @ @ @ . @ . . @ @ = . . @ . . . @ @ . . ^ ",
"M M M M M M M 2 2 2 2 2 ^ 2 : : : : . . . . . . . @ . @ @ @ @ @ @ @ @ @ 2X= = : : 2 2 M M M M M M M M M ^ M 2 2 : : = = @ @ . @ . . . . . . . . . . . . @ @ . . : : = : : : : : : 2 2 2 ^ M 0 0 0 - +.- - - - - 0 0 ^ ^ ^ 2 : : = = = = : : 2 ^ 0 0 - $ $ $ $ $ $ $ $ $ $ $ z z z - - - - - 0 0 0 0 M ^ ^ 2 2 : = @ @ . . . . . @ @ . . @ @ e.e.~.!.} xX+XD.B.JXW.B.B.D.D.D.D..XB.W.W.K.K.K.JXxX} !.!.~.~.3 -.-.. e.e.~.|.|.} } AXxX+XB.W.W.W.W.W.B.B.D.0X0X+X+X+X+XT.T.+X0X+XB.W.W.W.W.{ W.D.0X*X*X*X*X*X*X*XD.W.K.{ { W.W.D.GXgX} AXAX} } |.~.~.~.e.e.e.~.~.~.3 e.e.@ @ @ @ @ @ . @ @ = @ @ e.-.. @ = = = = : : : 2 : : : . @ . . @ 2X@ @ . . @ @ @ . . . = @ @ . . @ @ @ @ . @ @ @ @ @ . . @ @ @ . @ . . @ @ . = = = = = : : 2 2 ^ ^ 0 ^ ^ 2 . = @ @ . . @ @ @ . @ . . . . . @ @ . . . @ = = = = = : : : : : : : : 2 2 2 2 2 : : : : : . . e.~.aXT.Z.W.{ W.{ { K.W.D.D..XD.T.D.D.B.W.B.+X0X0X0X0XxXaX|.~.~.e.e.@ . @ @ @ @ . . . -.-.. . . : : : 2 ^ ^ ^ ^ 2 2 2 . : . . . : . = : : 2 2 : -Xz.` <XaXaXaXaX} ~.~.e.. = = @ . . @ @ = : = = @ @ @ @ @ . . . 2 ",
": 2 : : : : : : : : : : : = = = . . . . . @ @ . . . . @ @ -.@ @ @ @ @ @ = = = = = : : : : : 2 2 2 2 2 2 2 : : : : = = @ = . . @ . . . . . . . @ @ @ . . @ @ = : : : : 2 2 M M M M M M M 0 0 0 - - - - - - - - - - 0 0 0 0 ^ 2 : : : = = = = : 2 ^ 0 - - $ $ $ $ $ X $ $ $ $ $ z $ $ $ $ $ $ $ z - - 0 0 0 0 ^ 2 = = @ . . . . @ @ @ . . . e.e.~.~.|.AX0XB.B.W.B.JX+XD.B.W.W.W.W.{ { { K.W.W.D.xX|.y.~.e.@ @ . . @ e.~.|.aXxX0X0X+X+X+XD.B.B.B.D.D.D.D..XB.W.W.W.W.B..XT.0XAXGX+XD.B.W.W.W.W.D.0X*X*X*X*X*X*X*XD.B.W.W.W.W.W.B.+X0X0XD.T.*X0XAX} !.y.y.!.!.|.|.|.!.~.~.~.e.e.e.@ e.e.e.e.@ @ e.e.e.e.e.e.= : 2 2 2 2 M 2 2 2 : . @ . = 2X2X@ . . @ @ . . . : = = . . -.e.@ 3 @ . @ e.e.@ @ @ @ e.@ @ @ @ . . @ @ @ @ = = = = = = = = . : : 2 2 . : = = . : = = = = @ . . . . . . . @ . . . = = = = = : 2 2 2 2 2 ^ ^ ^ ^ ^ ^ ^ ^ 2 2 2 : : : : e.~.} ;X.XB.W.W.W.W.W.B.D.*X*X7X*X*X*X*XB.W.W.W.W.B.B..X;X} y.y.e.@ @ @ @ e.@ e.@ e.e.~.~.-.~.~.-.~.e.e.e.@ . . @ @ @ @ e.e.e.e.-.e.~.~.~.~.6X~.~.} &X;X;XT.T.;XxX} ~.~.-X= = = : = @ @ = : : = @ @ @ @ . . = : . ",
": : : : : : : : : : : : : = = = = . . . . @ . . . . . @ @ @ @ @ @ @ @ @ = = = = = = = : : : : : : 2 : : : : : . : . . @ . . @ . . . . . . . . . . . . . . . : 2 ^ ^ ^ M 0 0 , 0 - 0 0 0 - - - - - $ - - $ $ $ - - - - - - 0 ^ ^ 2 : : = = = : : 2 ^ - - - - $ $ $ $ $ $ $ $ $ $ $ $ $ $ $ $ $ - - $ z 0 - 0 0 2 : = = @ . . . . @ @ . . . @ e.~.~.|.} xX*X*X+X0XxXgXAX0X.XW.W.W.W.W.W.B.B.T.xX} y.x e.e.. . . @ e.e.|.aX*X.X.XB.B.D.D.B.D.D.*X*X*X*X*X*XB.W.W.W.JXD.0XxXAXgXgXGX+XB.W.K.{ W.B.D.D.*X*XT..XB.D.B.B.D.+X+X0X+XD.B.B.B.W.W.B.B.D.xX} !.!.|.} AXxXxXAXaX} ~.3 e.e.e.e.e.e.e.e.e.~.~.~.~.~.~.~.-.z.z.2 M M M 0 0 ^ : = = : : = = @ @ e.@ @ . = = = . . e.e.e.e.3 e.e.@ @ e.e.e.@ @ @ @ @ @ . . . @ @ @ = = = = = = = = = . . . . : . = = = = : : : = = @ . . . . . . . . . . . : : : 2 2 2 ^ M 0 0 0 0 0 0 0 0 0 0 0 0 0 ^ 2 2 2 2 e.~.|.AXxX+X+XD.B.B.B.D.*X*X7X*X*X7X*XD.B.W.K.W.B.B..XT.&X} ~.e.@ . @ XX@ @ @ e.e.~.~.|.} aXaXAXaX} |.~.~.3 e.e.e.e.e.e.~.~.~.|.} } } |.|.!.!.!.} 0XT.B.W.W.W.B..X0X} ~.e.. . = : = @ = : : 2 . @ e.@ -.. . : = = ",
": : : : : = = = : : : = . = = = = . : . = = . . . . . . @ @ @ @ @ @ @ @ . . . = = = = = = = = : : : : : : = = = . . . . . . . . . . . . . . . . . . . . = : : ^ ^ 0 0 0 - X X X X , - - $ $ $ , , X $ $ $ X X $ , , - - - - - 0 ^ 2 : : = = = : : 2 0 0 0 0 0 z z $ $ $ $ $ $ $ $ $ $ $ $ $ $ , , , z z - - 0 ^ : = @ @ @ . . @ @ @ @ . @ @ e.e.e.-.|.} } } } |.!.(.y.ZXxX0XkXkXkXkXxXxXAX} |.~.3 3 e.. : . . @ e.3 !.} xX+XD.D.D.D.B.D.D.*X*X*X*X*X*XD.B.W.K.W.D.0XAX} } } xX0XD.W.K.W.K.W.B.D.D.D.B.B.B.W.W.W.D.+XGXgXGX0XB.W.{ { K.W.{ W.W.+XAXgX} xX0X+XD.T.T.*X&X|.~.~.e.e.e.e.e.~.~.~.|.|.} } } } aX} ` z.z.+.z - +.+.^ 2 2 : : : = = @ e.e.e.e.e.= = = @ -.~.~.~.~.~.3 e.e.e.e.e.@ e.@ @ @ @ @ @ @ . @ @ = = = = = = . . . @ @ @ @ . . = = 2X= : 2 2 : = = = @ . @ @ @ @ @ @ @ = : : 2 ^ ^ ^ 0 0 0 - - 0 0 0 - - - - - - - 0 0 0 ^ ^ z.-.~.!.|.AX0X+XB.B.K.W.B.*X*X*X*X*X*XD.B.W.K.W.D.+X0XxXaX} -.e.@ . @ @ XXe.e.e.e.6X~.|.AX;X+X+X+X+X0XxXAX|.y.y.~.e.~.y.y.!.|.aX&X;X;X0X0X0XGXgXgXGXD.B.W.{ W.{ W.W.+X} !.y.~.e.@ . @ @ . : = . @ e.@ -.@ @ . : : = ",
"= = = = = = = = = = = = . @ = = = = = = = = = = . . . . . @ @ @ @ . . . . . . . . = = = = = = = = = = = = = = = @ . . . . . . . . . . . . . . . @ @ @ @ = : 2 ^ 0 - , , X [ [ X X O , , , , , , , O X X X O O O O , , , , - - - 0 2 2 : : : = = . : 2 ^ M M M M z z $ $ - - $ X $ $ , , , , , , , , z z $ - - M : = = @ @ @ @ @ @ @ @ @ @ @ @ e.e.e.-X!.y._ _ <.<.q.nXP tXZXZXdXZXZXZXtXbXk.bX3 @ . . . : = : . e.3 y.!.gXGX+X+X+X+XD.D.+X0X*X*X*X.XD.B.W.{ { W.D.0X} |.} &XT.B.W.W.K.K.K.W.+X+XD.B.W.W.W.W.{ { B.0XgXDXgX0XW.K.{ { { { { { W.B.0XGXxXD.W.W.W.W.W.W.T.} !.~.e.2Xe.e.e.~.~.|.} AXxX0X+X+X0X&X} -Xz.+.+.+.+.z.z.z.z.2 : = 2Xe.e.e.-.~.~.e.6Xe.e.e.~.~.!.!.!.!.~.~.~.e.e.e.e.@ @ @ @ @ @ @ @ . = = = = = = = : . . . . @ @ @ @ = = = = : 2 ^ ^ 2 : = = . @ @ @ @ @ @ @ = = : 2 2 ^ 0 0 - - - - , - - - - - - - - - - - - #.#.+.+.z.-.~.|.&X+XB.W.W.W.W.W.D.D.T.T..XB.W.W.{ K.B.+XGXgX!.!.y.3 2X= = @ e.e.e.e.6X~.!.|.AX0XB.W.W.W.W.W..X*XAX!.y.y.~.!.y.y.!.AX0X.XW.W.W.W.W.JX+XGX+XB.W.W.W.{ W.W.W.+XgX!.!.y.~.e.e.e.@ . . = @ e.e.@ e.@ @ . : . . ",
"+ + + + + + + + + + + + + + + + + + + + + + + + + + + + + + + + + + + + + + + + + + + + + + + + + + + + + + + + + + + + + + + + + + + + + + + + + + + + + + + + + + + + + + + + + + + + + + + + + + + + + + + + + + + + + + + + + + + + + + + + + + + + + + + + + + + + + + + + + + + + + + + + + + + + + + + + + + + + + + + + + + + + + + + + + + + + + + + + + + + + + + + + + + + + + + + + + + + + + + + + + + + + + + + + + + + + + + + + + + + + + + + + + + + + + + + + + + + + + + + + + + + + + + + + + + + + + + + + + + + + + + + + + + + + + + + + + + + + + + + + + + + + + + + + + + + + + + + + + + + + + + + + + + + + + + + + + + + + + + + + + + + + + + + + + + + + + + + + + + + + + + + + + + + + + + + + + + + + + + + + + + + + + + + + + + + + + + + + + + + + + + + + + + + + + + + + + + + + + + + + + + + + + + + + + + + + + + + + + + + + + + + + + + + + + + + + + + + + + + + + + + + + + + + + + + + + + + + + + + + + + + + + + + + + + + + + + + + + + + + + + + + + + + + + + + + + + + + + + + + + + + + + + + + + + + + + ",
"+ + + + + + + + + + + + + + + + + + + + + + + + + + + + + + + + + + + + + + + + + + + + + + + + + + + + + + + + + + + + + + + + + + + + + + + + + + + + + + + + + + + + + + + + + + + + + + + + + + + + + + + + + + + + + + + + + + + + + + + + + + + + + + + + + + + + + + + + + + + + + + + + + + + + + + + + + + + + + + + + + + + + + + + + + + + + + + + + + + + + + + + + + + + + + + + + + + + + + + + + + + + + + + + + + + + + + + + + + + + + + + + + + + + + + + + + + + + + + + + + + + + + + + + + + + + + + + + + + + + + + + + + + + + + + + + + + + + + + + + + + + + + + + + + + + + + + + + + + + + + + + + + + + + + + + + + + + + + + + + + + + + + + + + + + + + + + + + + + + + + + + + + + + + + + + + + + + + + + + + + + + + + + + + + + + + + + + + + + + + + + + + + + + + + + + + + + + + + + + + + + + + + + + + + + + + + + + + + + + + + + + + + + + + + + + + + + + + + + + + + + + + + + + + + + + + + + + + + + + + + + + + + + + + + + + + + + + + + + + + + + + + + + + + + + + + + + + + + + + + + + + + + + + + + + + + + ",
"+ + + + + + + + + + + + + + + + + + + + + + + + + + + + + + + + + + + + + + + + + + + + + + + + + + + + + + + + + + + + + + + + + + + + + + + + + + + + + + + + + + + + + + + + + + + + + + + + + + + + + + + + + + + + + + + + + + + + + + + + + + + + + + + + + + + + + + + + + + + + + + + + + + + + + + + + + + + + + + + + + + + + + + + + + + + + + + + + + + + + + + + + + + + + + + + + + + + + + + + + + + + + + + + + + + + + + + + + + + + + + + + + + + + + + + + + + + + + + + + + + + + + + + + + + + + + + + + + + + + + + + + + + + + + + + + + + + + + + + + + + + + + + + + + + + + + + + + + + + + + + + + + + + + + + + + + + + + + + + + + + + + + + + + + + + + + + + + + + + + + + + + + + + + + + + + + + + + + + + + + + + + + + + + + + + + + + + + + + + + + + + + + + + + + + + + + + + + + + + + + + + + + + + + + + + + + + + + + + + + + + + + + + + + + + + + + + + + + + + + + + + + + + + + + + + + + + + + + + + + + + + + + + + + + + + + + + + + + + + + + + + + + + + + + + + + + + + + + + + + + + + + + + + + + + + + + ",
"+ + + + + + + + + + + + + + + + + + + + + + + + + + + + + + + + + + + + + + + + + + + + + + + + + + + + + + + + + + + + + + + + + + + + + + + + + + + + + + + + + + + + + + + + + + + + + + + + + + + + + + + + + + + + + + + + + + + + + + + + + + + + + + + + + + + + + + + + + + + + + + + + + + + + + + + + + + + + + + + + + + + + + + + + + + + + + + + + + + + + + + + + + + + + + + + + + + + + + + + + + + + + + + + + + + + + + + + + + + + + + + + + + + + + + + + + + + + + + + + + + + + + + + + + + + + + + + + + + + + + + + + + + + + + + + + + + + + + + + + + + + + + + + + + + + + + + + + + + + + + + + + + + + + + + + + + + + + + + + + + + + + + + + + + + + + + + + + + + + + + + + + + + + + + + + + + + + + + + + + + + + + + + + + + + + + + + + + + + + + + + + + + + + + + + + + + + + + + + + + + + + + + + + + + + + + + + + + + + + + + + + + + + + + + + + + + + + + + + + + + + + + + + + + + + + + + + + + + + + + + + + + + + + + + + + + + + + + + + + + + + + + + + + + + + + + + + + + + + + + + + + + + + + + + + + + + "
};
