/* XPM */
static char *_75afe0067c249f7cab348e119fb01e4JvsBzeDW87h4RLki[] = {
/* columns rows colors chars-per-pixel */
"512 512 256 2 ",
"   c #C3DBFF",
".  c #A8C9FE",
"X  c #A5CAFD",
"o  c #C8DCFE",
"O  c #A4C7FD",
"+  c #78C324",
"@  c #9BC1FF",
"#  c #B9D5FE",
"$  c #C0D9FE",
"%  c #AACBFF",
"&  c #FEFFFE",
"*  c #B8D4FE",
"=  c #A2C5FD",
"-  c #CBDFFD",
";  c #9CC4FE",
":  c black",
">  c #BBD8FF",
",  c #94D44E",
"<  c #79C027",
"1  c #7AC328",
"2  c #BED8FF",
"3  c #BBD6FE",
"4  c #70AF2B",
"5  c #B0CFFD",
"6  c #ADCDFF",
"7  c #B7D1FC",
"8  c #7CC627",
"9  c #E1F5FD",
"0  c #94D24B",
"q  c #91CF4D",
"w  c #B6D2FE",
"e  c #E4F3F9",
"r  c #CFE1FE",
"t  c #33BE51",
"y  c #F5FDFD",
"u  c #39BB53",
"i  c #8ED044",
"p  c #32AD4B",
"a  c #F1F9FB",
"s  c #B1D2FC",
"d  c #C1D7FF",
"f  c #FBFDF9",
"g  c #7EC12E",
"h  c #91CC4C",
"j  c #54BFF9",
"k  c #70B426",
"l  c #8BCB40",
"z  c #079F38",
"x  c #F09BB1",
"c  c #85C935",
"v  c #FAFCEC",
"b  c #82C534",
"n  c #31C253",
"m  c #2CBD63",
"M  c #EAF6FC",
"N  c #C5DCF6",
"B  c #FBF6F8",
"V  c #B5D0F2",
"C  c #7BC927",
"Z  c #96D84E",
"A  c #ED613E",
"S  c #EFFDE9",
"D  c #78B929",
"F  c #AFCCF9",
"G  c #8FD643",
"H  c #F9FB96",
"J  c #BDD5F3",
"K  c #57C0EC",
"L  c #41B553",
"P  c #119935",
"I  c #30B565",
"U  c #88D039",
"Y  c #2AB34B",
"T  c #F9F6E6",
"R  c #AACAF1",
"E  c #E9934B",
"W  c #4EC3F7",
"Q  c #9EC8FA",
"!  c #148F27",
"~  c #9DC1F0",
"^  c #C6E3FA",
"/  c #5BBBF4",
"(  c #59BE8E",
")  c #EA6B44",
"_  c #72BC24",
"`  c #A6C5EC",
"'  c #D2E6F9",
"]  c #DA693E",
"[  c #DEF1FD",
"{  c #C0E06C",
"}  c #4BAC51",
"|  c #66B3D5",
" . c #279966",
".. c #62BAE3",
"X. c #4B8AA6",
"o. c #C8D7F6",
"O. c #34AE69",
"+. c #DB86A4",
"@. c #278429",
"#. c #3DA552",
"$. c #CEE0EF",
"%. c #A3B85F",
"&. c #F9F484",
"*. c #34A53F",
"=. c #F6F8D1",
"-. c #8DE2E8",
";. c #DAF1CF",
":. c #D7EBFC",
">. c #E1E3C4",
",. c #F1EFD2",
"<. c #F27A56",
"1. c #4E9E59",
"2. c #78A82B",
"3. c #F5EA6E",
"4. c #B7DDFB",
"5. c #29C75E",
"6. c #8CBCD8",
"7. c #F6DE5C",
"8. c #D6DBF8",
"9. c #EAF5E0",
"0. c #EE8B44",
"q. c #D18694",
"w. c #F0A2B8",
"e. c #78AECC",
"r. c #BAC1D5",
"t. c #BFD677",
"y. c #B28DC0",
"u. c #7ECD31",
"i. c #06A63B",
"p. c #EFEEB7",
"a. c #55A967",
"s. c #E2C74C",
"d. c #7BBC7B",
"f. c #A6C398",
"g. c #ADC5FA",
"h. c #91C68A",
"j. c #6BB192",
"k. c #D8D6BB",
"l. c #C7E0BB",
"z. c #A2CFFA",
"x. c #BFCFB8",
"c. c #F4EFE9",
"v. c #E0D45B",
"b. c #339A42",
"n. c #9BD277",
"m. c #A0D2A0",
"M. c #A0B68B",
"N. c #108FD0",
"B. c #1A619B",
"V. c #89B170",
"C. c #E794A9",
"Z. c #B4CBE2",
"A. c #EAE3A1",
"S. c #E6E5DB",
"D. c #488D33",
"F. c #2B952B",
"G. c #A4D256",
"H. c #6F9D61",
"J. c #42B872",
"K. c #5A9BB7",
"L. c #C2B5C8",
"P. c #8D6D95",
"I. c #72AA70",
"U. c #E5B744",
"Y. c #8EC02B",
"T. c #D2C56B",
"R. c #C6B64A",
"E. c #60B467",
"W. c #C6ECC2",
"Q. c #B8CAF4",
"!. c #8CC547",
"~. c #E58A72",
"^. c #CB7948",
"/. c #80BA41",
"(. c #DFFAD8",
"). c #2D8E34",
"_. c #E3D989",
"`. c #E0E45B",
"'. c #BD6934",
"]. c #9F94B6",
"[. c #F1E032",
"{. c #BDC59E",
"}. c #4F9C3D",
"|. c #B9D845",
" X c #EBFA87",
".X c #E87B38",
"XX c #2B8FB2",
"oX c #D95A34",
"OX c #C1D9A1",
"+X c #A8C93B",
"@X c #3D8A66",
"#X c #D7A2B5",
"$X c #C38E64",
"%X c #C75D38",
"&X c #9FB3BC",
"*X c #34B3E6",
"=X c #ACE1AF",
"-X c #95A478",
";X c #5A9255",
":X c #DAEE76",
">X c #C8B39F",
",X c #91CCE0",
"<X c #F3ADC1",
"1X c #44A7C8",
"2X c #4FBAD4",
"3X c #D0CBDE",
"4X c #73A9B5",
"5X c #ADC76B",
"6X c #A1C9C2",
"7X c #B6A090",
"8X c #DC998E",
"9X c #9BAF34",
"0X c #DFD7DA",
"qX c #B98EA1",
"wX c #958C75",
"eX c #E6A05E",
"rX c #6F9C2D",
"tX c #DAC4BA",
"yX c #689B8F",
"uX c #96C267",
"iX c #698793",
"pX c #D9A43B",
"aX c #A3D6E2",
"sX c #6DC2C9",
"dX c #9ABC44",
"fX c #B4A6BD",
"gX c #8BDA78",
"hX c #C6D7DD",
"jX c #9084A5",
"kX c #72AA50",
"lX c #D8CD93",
"zX c #C5E7EA",
"xX c #A98432",
"cX c #57A92D",
"vX c #D39124",
"bX c #84BDA5",
"nX c #8C9FA2",
"mX c #77CFDF",
"MX c #AA735E",
"NX c #6D7492",
"BX c #1A75AC",
"VX c #CBA371",
"CX c #5BB638",
"ZX c #25A658",
"AX c #BBDDDB",
"SX c #75872F",
"DX c #6DC53E",
"FX c #9E9E2F",
"GX c #74D173",
"HX c #58C665",
"JX c #BD9F38",
"KX c #B67C8C",
"LX c #D3ECA2",
"PX c #4E7D49",
"IX c #60628B",
"UX c #544D81",
/* pixels */
": : : : : : : : : : : : : : : : : : : : : : : : : : : : : : : : : : : : : : : : : : : : : : : : : : : : : : : : : : : : : : : : : : : : : : : : : : : : : : : : : : : : : : : : : : : : : : : : : : : : : : : : : : : : : : : : : : : : : : : : : : : : : : : : : : : : : : : : : : : : : : : : : : : : : : : : : : : : : : : : : : : : : : : : : : : : : : : : : : : : : : : : : : : : : : : : : : : : : : : : : : : : : : : : : : : : : : : : : : : : : : : : : : : : : : : : : : : : : : : : : : : : : : : : : : : : : : : : : : : : : : : : : : : : : : : : : : : : : : : : : : : : : : : : : : : : : : : : : : : : : : : : : : : : : : : : : : : : : : : : : : : : : : : : : : : : : : : : : : : : : : : : : : : : : : : : : : : : : : : : : : : : : : : : : : : : : : : : : : : : : : : : : : : : : : : : : : : : : : : : : : : : : : : : : : : : : : : : : : : : : : : : : : : : : : : : : : : : : : : : : : : : : : : : : : : : : : : : : : : : : : : : : : : : : : : : : : : : : : : : : : : : : : : : : : : : : : : : : : : : : : : : : : : : : : : : ",
": : : : : : : : : : : : : : : : : : : : : : : : : : : : : : : : : : : : : : : : : : : : : : : : : : : : : : : : : : : : : : : : : : : : : : : : : : : : : : : : : : : : : : : : : : : : : : : : : : : : : : : : : : : : : : : : : : : : : : : : : : : : : : : : : : : : : : : : : : : : : : : : : : : : : : : : : : : : : : : : : : : : : : : : : : : : : : : : : : : : : : : : : : : : : : : : : : : : : : : : : : : : : : : : : : : : : : : : : : : : : : : : : : : : : : : : : : : : : : : : : : : : : : : : : : : : : : : : : : : : : : : : : : : : : : : : : : : : : : : : : : : : : : : : : : : : : : : : : : : : : : : : : : : : : : : : : : : : : : : : : : : : : : : : : : : : : : : : : : : : : : : : : : : : : : : : : : : : : : : : : : : : : : : : : : : : : : : : : : : : : : : : : : : : : : : : : : : : : : : : : : : : : : : : : : : : : : : : : : : : : : : : : : : : : : : : : : : : : : : : : : : : : : : : : : : : : : : : : : : : : : : : : : : : : : : : : : : : : : : : : : : : : : : : : : : : : : : : : : : : : : : : : : : : : : : : ",
": : : : : : : : : : : : : : : : : : : : : : : : : : : : : : : : : : : : : : : : : : : : : : : : : : : : : : : : : : : : : : : : : : : : : : : : : : : : : : : : : : : : : : : : : : : : : : : : : : : : : : : : : : : : : : : : : : : : : : : : : : : : : : : : : : : : : : : : : : : : : : : : : : : : : : : : : : : : : : : : : : : : : : : : : : : : : : : : : : : : : : : : : : : : : : : : : : : : : : : : : : : : : : : : : : : : : : : : : : : : : : : : : : : : : : : : : : : : : : : : : : : : : : : : : : : : : : : : : : : : : : : : : : : : : : : : : : : : : : : : : : : : : : : : : : : : : : : : : : : : : : : : : : : : : : : : : : : : : : : : : : : : : : : : : : : : : : : : : : : : : : : : : : : : : : : : : : : : : : : : : : : : : : : : : : : : : : : : : : : : : : : : : : : : : : : : : : : : : : : : : : : : : : : : : : : : : : : : : : : : : : : : : : : : : : : : : : : : : : : : : : : : : : : : : : : : : : : : : : : : : : : : : : : : : : : : : : : : : : : : : : : : : : : : : : : : : : : : : : : : : : : : : : : : : : : : ",
"@ @ @ @ @ @ @ @ ; = ~ ~ ~ ` Z.J $.:.M y & & & & & & & & & & & & & & & & & & & & & & & f & f f & & & & & & & & & & & & & & & & & & & & & & & & & & & & & & & & & & & & & & & & & & & & & & & & & & & & & & & & & & & & & & & & & & & & y :.N Z.~ ~ ~ ~ @ @ @ @ @ @ @ @ @ @ @ @ @ ~ ~ ~ @ @ @ @ @ @ @ @ @ @ @ @ @ @ @ @ @ @ @ @ @ @ @ @ @ @ @ @ @ @ @ @ @ @ @ @ @ @ @ @ @ @ @ @ @ @ @ @ @ @ @ @ @ @ @ @ @ @ @ @ @ @ @ @ @ @ @ @ @ @ @ @ @ @ @ @ @ @ @ @ @ @ @ @ @ @ @ @ @ @ @ @ @ @ @ @ @ @ @ @ @ @ @ @ @ @ @ @ @ @ @ @ @ @ @ @ @ @ @ @ @ @ @ @ @ @ @ @ @ @ @ @ @ @ @ @ @ @ @ @ @ @ @ @ @ @ @ @ @ @ @ @ @ @ @ @ @ @ @ @ @ @ @ @ @ @ @ @ @ ~ ~ ~ ~ ~ ~ @ @ ; @ @ @ @ @ ; ; @ @ @ @ @ @ @ @ ~ ~ ~ ~ ~ ~ ~ ~ ~ ~ ~ ~ ~ @ @ ; @ @ @ @ @ @ @ @ ; ; @ @ @ @ @ @ @ @ @ @ @ @ @ @ ; ~ ~ ~ ~ ~ ~ @ @ @ @ @ @ @ @ @ @ @ @ @ @ @ @ @ @ @ @ @ @ @ @ @ @ @ @ @ @ @ @ @ @ @ @ @ @ @ @ @ @ @ @ @ @ @ @ @ @ @ @ @ @ @ @ @ @ @ @ @ @ @ @ @ @ @ @ @ @ @ @ @ @ @ @ @ @ @ @ @ @ @ @ @ @ @ @ @ @ @ @ @ @ @ @ @ @ @ @ @ @ @ @ @ @ @ @ @ @ @ @ @ @ @ @ @ @ @ @ @ @ @ @ @ @ @ @ @ @ @ @ @ ",
"@ @ @ @ @ @ @ @ @ ~ ~ ~ ` V N ' [ M a & y & f f & f & f & f & f & f & f & f & f & f & & & & & & f & f & & & & & & & & & & f & & f & f & & & & & & & & & & & & & & & & & & & & & & & & & & & & & & & & & & & & & & & & & & & & & & & & y e ' V ` ` ~ ~ ~ @ ; @ @ @ @ @ @ @ ~ @ ~ ~ @ ~ @ @ @ @ @ @ @ @ @ @ @ @ @ @ @ @ @ @ @ @ @ @ @ @ @ @ @ @ @ @ @ @ @ @ @ @ @ @ @ @ @ @ @ @ @ @ @ @ @ @ @ @ @ @ @ @ @ @ @ @ @ @ @ @ @ @ @ @ @ @ @ @ @ @ @ @ @ @ @ @ @ @ @ @ @ @ @ @ @ @ @ @ @ @ @ @ @ @ @ @ @ @ @ @ @ @ @ @ @ @ @ @ @ @ @ @ @ @ @ @ @ @ @ @ @ @ @ @ @ @ @ @ @ @ @ @ @ @ @ @ @ @ @ @ @ @ @ ; @ @ @ @ @ @ @ @ @ @ @ @ @ @ @ @ @ @ @ @ @ ~ @ ; ; ; @ ; ; ; ; ; @ @ @ ; ; @ @ @ @ @ @ ~ ~ ~ ~ ~ ~ ~ ~ ~ ~ ~ ~ 6.~ @ ~ ; ; ; @ @ @ @ @ @ @ ~ @ ; ; ; ; @ @ @ @ @ @ @ ; ; @ ~ ~ @ ~ @ ~ @ @ @ @ @ @ @ @ @ @ ~ @ @ @ @ @ @ @ @ @ @ @ @ @ @ @ @ @ @ @ @ @ @ @ @ @ @ @ @ @ @ @ @ @ @ @ @ @ @ @ @ @ @ @ @ @ @ @ @ @ @ @ @ @ @ @ @ @ @ @ @ @ @ @ @ @ @ @ @ @ @ @ @ @ @ @ @ @ @ @ @ @ @ @ @ @ @ @ @ @ @ @ @ @ @ @ @ @ @ @ @ @ @ @ @ @ @ @ @ @ @ @ @ ~ @ @ @ @ @ @ @ @ @ @ ",
"@ @ @ @ @ @ @ @ @ ~ ~ ` V N :.9 a y y y & & & & & & & & & & & & & & & & & & & & & & & & f & & B & & & & & & & & & B f & & & B & & B & & & y & & & & & & & & & & & & & & & & & & & & & & & & & & & & & & & & & & & & & & & & & & & & & y a [ N V ` ~ 6.~ @ ; @ @ @ @ @ @ @ @ ~ @ ~ @ @ ~ @ @ @ @ @ @ @ @ @ @ @ @ @ @ @ @ @ @ @ @ @ @ @ @ @ @ @ @ @ @ @ @ @ @ @ @ @ @ @ @ @ @ @ @ @ @ @ @ @ @ @ @ @ @ @ @ @ @ @ @ @ @ @ @ @ @ @ @ @ @ @ @ @ @ @ @ @ @ @ @ @ @ @ @ @ @ @ @ @ @ @ @ @ @ ~ @ @ ~ @ @ ~ @ @ @ @ @ @ @ @ @ @ @ @ @ @ @ @ @ @ @ @ @ @ @ @ @ @ @ @ @ @ @ @ @ @ @ @ @ @ @ @ @ @ @ @ @ @ @ @ @ @ @ @ @ @ @ @ @ @ @ @ @ @ @ @ @ @ @ @ ~ ; Q ; ; @ @ ; ; ; @ ; ; ; ; @ ~ ~ ~ ~ ~ ~ ~ ~ ` R V s * s F R ` ~ ~ ~ ~ ~ ~ ~ @ ~ @ @ @ @ @ @ ~ @ @ ; ; ; ; @ @ @ @ @ @ @ ~ @ ~ @ ~ @ @ @ ~ @ @ @ @ @ @ @ @ @ @ @ @ @ @ @ @ @ @ @ @ @ @ @ @ @ @ @ @ @ @ @ @ @ @ @ @ @ @ @ @ @ @ @ @ @ @ @ @ @ @ @ @ @ @ @ @ @ @ @ @ @ @ @ @ @ @ @ @ @ @ @ @ @ @ @ @ @ @ @ @ @ @ @ @ @ @ @ @ @ @ @ @ @ @ @ @ @ @ @ @ @ @ @ @ @ @ @ @ @ @ @ @ @ @ @ @ @ @ @ @ @ @ @ @ @ @ @ @ @ @ @ @ ",
"@ @ @ @ @ @ @ @ ~ ~ ~ ` J r [ a y y & y & & & & & & & & & & & & & & & & & & & & & & & & & & & & & & B & & & & & & & & & B & & & & & & & & B & y & y & f & f f f & & & & & & & & & & & & & & & & & & & & & & & & & & & & & & & & & & & & y M :.N V ` ~ ~ ~ ; @ @ @ @ @ @ @ @ @ ~ @ @ ~ @ @ @ @ @ @ @ @ @ @ @ @ @ @ @ @ @ @ @ @ @ @ @ @ @ @ @ @ @ @ @ @ @ @ @ @ @ @ @ @ @ @ @ @ @ @ @ @ @ @ @ @ @ @ @ @ @ @ @ @ @ @ @ @ @ @ @ @ @ @ @ @ @ @ @ @ @ @ @ @ @ @ @ @ @ @ @ @ @ @ @ @ @ @ @ @ @ @ @ @ @ @ @ @ @ @ @ @ @ @ @ @ @ @ @ @ @ @ @ @ @ @ @ @ @ @ @ @ @ @ @ @ @ @ @ @ @ @ @ @ @ @ @ @ @ @ @ @ @ @ @ @ @ @ @ @ @ @ @ @ @ @ @ @ @ @ @ ~ @ ~ @ @ ; ; @ ~ @ @ @ @ ~ @ ; ~ ~ ~ ~ ~ ~ ~ ` ` Q.J N N ^ ' ' ' ^ N > V R ~ ~ ~ ~ ~ ~ @ ~ @ @ ~ @ ~ ~ @ ~ @ @ @ @ ; ; ; @ ~ @ ~ ~ @ ~ @ @ @ @ @ @ @ @ @ @ @ @ @ @ @ @ @ @ @ @ @ @ @ @ @ @ @ @ @ @ @ @ @ @ @ @ @ @ @ @ @ @ @ @ @ @ @ @ @ @ @ @ @ @ @ @ @ @ @ @ @ @ @ @ @ @ @ @ @ @ @ @ @ @ @ @ @ @ @ @ @ @ @ @ @ @ @ @ @ @ @ @ @ @ @ @ @ @ @ @ @ @ @ @ @ @ @ @ @ @ @ @ @ @ @ @ @ @ @ @ @ @ @ @ @ @ ~ @ @ @ @ @ @ @ @ @ @ @ ",
"@ @ @ @ @ @ @ @ ~ ~ ` J - :.9 a y y y y & & & & & & & & & & & & & & & & & & & & & & & & & & & B & & & & & & B & & & & & & & & & & & & & & & & & & & y & y & & & & & & & & & & & & & & & & & & & & & & & & & & & & & & & & & & & & & & & y a [ ' J R ~ ~ ~ ; @ @ @ @ @ @ @ ~ @ @ @ @ @ @ @ @ @ @ @ @ @ @ @ @ @ @ @ @ @ @ @ @ @ @ @ @ @ @ @ @ @ @ @ @ @ @ @ @ @ @ @ @ @ @ @ @ @ @ @ @ @ @ @ @ @ @ @ @ @ @ @ @ @ @ @ @ @ @ @ @ @ @ @ @ @ @ @ @ @ @ @ @ @ @ @ @ @ @ @ @ @ @ @ @ @ @ @ @ @ @ @ @ @ @ @ @ @ @ @ @ @ @ @ @ @ @ @ @ @ @ @ @ @ @ @ @ @ @ @ @ @ @ @ @ @ @ @ @ @ @ @ @ @ @ @ @ @ @ @ @ ; @ @ @ @ @ @ @ @ @ @ ~ @ ~ @ ~ ~ ; ~ ; ; @ @ @ @ @ @ @ @ @ ~ @ ~ ~ ~ ~ ~ ~ ~ 6.~ ` Z.V J N ' :.[ 9 M M 9 9 [ :.' J ` ` ~ ~ ~ ~ ~ Q ; ~ ; ; ; ; ~ ~ @ @ @ @ @ ; = ; ~ ~ @ ~ ; ; ; ; @ @ @ @ @ @ @ @ @ @ @ @ @ @ @ @ @ @ @ @ @ @ @ @ @ @ @ @ @ @ @ @ @ @ @ @ @ @ @ @ @ @ @ @ @ @ @ @ @ @ @ @ @ @ @ @ @ @ @ @ @ @ @ @ @ @ @ @ @ @ @ @ @ @ @ @ @ @ @ @ @ @ @ @ @ @ @ @ @ @ @ @ @ @ @ @ @ @ @ @ @ @ @ @ @ @ @ @ @ @ @ @ @ @ @ @ @ @ @ @ @ @ @ @ @ @ @ @ @ @ @ @ @ @ @ @ ",
"@ @ @ @ @ @ @ ~ ~ ` V ^ :.9 M a a y y & y & & & & & & & & & & & & f f f f f f f f f f f f f & & & & & & & & & & & & & & & & & & & & & & & & & y & B & & & & & & & & & & & & & & & & & & & & & & & & & & & & & & & & & & & & & & & & & & y y M [ - V ` ~ ~ @ @ @ @ @ @ @ @ @ @ @ @ @ @ @ @ @ @ @ @ @ @ @ @ @ @ @ @ @ @ @ @ @ @ @ @ @ @ @ @ @ @ @ @ @ @ @ @ @ @ @ @ @ @ @ @ @ @ @ @ @ @ @ @ @ @ @ @ @ @ @ @ @ @ @ @ @ @ @ @ @ @ @ @ @ @ @ @ @ @ @ @ @ @ @ @ @ @ @ @ @ @ @ @ @ @ @ @ @ @ @ @ @ @ @ @ @ @ @ @ @ @ @ @ @ @ @ @ @ @ @ @ @ @ @ @ @ @ @ @ @ @ @ @ @ @ @ @ @ @ @ @ @ @ @ @ @ @ @ @ ; @ @ @ @ @ @ @ @ @ @ @ @ ~ @ ~ @ ; ~ ; ~ ; ; ; @ @ @ @ @ @ ; ; ; ~ ~ ~ ~ ~ ` r.` Z.V o.$.' [ M a a y y y y y 9 9 9 ' V Z.` ` ~ ~ Q Q Q Q ~ Q Q ` ~ = ~ ~ ~ ~ ~ ~ ~ ~ ; ~ Q ~ Q ; Q ; ; ; @ @ @ @ @ @ @ @ @ @ @ @ @ @ @ @ @ @ @ @ @ @ @ @ @ @ @ @ @ @ @ @ @ @ @ @ @ @ @ @ @ @ @ @ @ @ @ @ @ @ @ @ @ @ @ @ @ @ @ @ @ @ @ @ @ @ @ @ @ @ @ @ @ @ @ @ @ @ @ @ @ @ @ @ @ @ @ @ @ @ @ @ @ @ @ @ @ @ @ @ @ @ @ @ @ @ @ @ @ @ @ @ @ @ @ @ @ @ @ @ @ @ @ @ @ @ @ @ @ @ @ @ @ ~ ",
"@ @ @ @ @ @ @ ~ ` R $ :.9 M a M a a a f & & & & & & y & y & y y y y y y y y y y y y y y f y B f B & B f & & & & & & & & & & & & & & & & & & & & & & & B & & & & & & & & & & & & & & & & & & & & & & & & & & & & & & & & & & & & & & & & y y y M :.N ` ~ ~ ~ ~ @ @ @ @ @ @ @ @ @ @ @ @ @ @ @ @ @ @ @ @ @ @ @ @ @ @ @ @ @ @ @ @ @ @ @ @ @ @ @ @ @ @ @ @ @ @ @ @ @ @ @ @ @ @ @ @ @ @ @ @ @ @ @ @ @ @ @ @ @ @ @ @ @ @ @ @ @ @ @ @ @ @ @ @ @ @ @ @ @ @ @ @ @ @ @ @ @ @ @ @ @ @ @ @ @ @ @ @ @ @ @ @ @ @ @ @ @ @ @ @ @ @ @ @ @ @ @ @ @ @ @ @ @ @ @ @ @ @ @ @ @ @ @ @ @ @ @ @ @ @ @ @ @ @ @ @ @ @ @ @ @ @ @ @ @ @ @ @ @ ~ @ ~ ; ~ Q ~ Q ~ Q ~ ; ; @ @ @ @ @ ; ; = ~ ~ ~ ` ` Z.Z.Z.hXN $.:.e M a y y y y y y y y y y y 9 ^ N V ` ` ~ ,X~ ,X~ ~ ~ ~ ` ~ ` ~ ~ ~ ~ ~ ~ ~ ~ ` ~ ~ ~ ~ ; ; ; ; @ @ @ @ @ @ @ @ @ @ @ @ @ @ @ @ @ @ @ @ @ @ @ @ @ @ @ @ @ @ @ @ @ @ @ @ @ @ @ @ @ @ @ @ @ @ @ @ @ @ @ @ @ @ @ @ @ @ @ @ @ @ @ @ @ @ @ @ @ @ @ @ @ @ @ @ @ @ @ @ @ @ @ @ @ @ @ @ @ @ @ @ @ @ @ @ @ @ @ @ @ @ @ @ @ @ @ @ @ @ @ @ @ @ @ @ @ @ @ @ @ @ @ ~ @ @ @ @ @ @ @ @ @ @ ~ ",
"@ @ @ @ @ @ ~ ~ ` V ^ [ M y a a M M B y y & y & y y & y y y y y a B a a B a a B a a B a B a y y f y f & y & & & & & & & & & & & & & & & & & & y & y & y & & & & & & & & & & & & & & & & & & & & & & & & & & & & & & & & & & & & & & & & & y y y [ ^ V ~ ~ ~ @ @ @ @ @ @ @ @ @ @ @ @ ; @ @ @ @ @ @ @ @ @ @ @ @ @ @ @ @ @ @ @ @ @ @ @ @ @ @ @ @ @ @ @ @ @ @ @ @ @ @ @ @ @ @ @ @ @ @ @ @ @ @ @ @ @ @ @ @ @ @ @ @ @ @ @ @ @ @ @ @ @ @ @ @ @ @ @ @ @ @ @ @ @ @ @ @ @ @ @ @ @ @ @ @ @ @ @ @ @ @ @ @ @ @ @ @ @ @ @ @ @ @ @ @ @ @ @ @ @ @ @ @ @ @ @ @ @ @ @ @ @ @ @ @ @ @ @ @ @ @ @ @ @ @ @ @ @ @ @ @ @ @ @ @ @ @ @ @ @ @ @ @ ~ ; ~ Q ~ Q Q ; Q ; @ @ @ @ ~ = ~ ~ ~ ~ ` V J N $.$.' [ e a y y & & f f B v a a y y y y a 9 :.N V ` ` 6.~ 6.6.6.~ ~ ` ` ` g.Q.g.Q.R R ` R ` ` ` ~ ~ ~ @ @ @ @ @ @ @ @ @ @ @ @ @ @ @ @ @ @ @ @ @ @ @ @ @ @ @ @ ; @ @ @ @ @ @ @ @ @ @ @ @ @ @ @ @ @ @ @ @ @ @ @ @ @ @ @ @ @ @ @ @ @ @ @ @ @ @ @ @ @ @ @ @ @ @ @ @ @ @ @ @ @ @ @ @ @ @ @ @ @ @ @ @ @ @ @ @ @ @ @ @ @ @ @ @ @ @ @ @ @ @ @ @ @ @ @ @ @ @ @ @ @ @ @ @ @ @ @ @ @ @ @ @ @ @ @ ~ ~ ",
"@ @ @ @ @ ~ ~ ` R J ^ [ M a M M M M B B y y y y y y y y y y y a a M B a M a a M a a M a a a a B a a y y y & & y & & & & & & & y & y f f y & y f y y y y y f & & & & & & & & & & & & & & & & & & & & & & & & & & & & & & & & & & & & & & & y y y M ' J ` ~ ~ ~ ~ @ @ @ @ = @ = @ ; @ @ @ @ @ @ @ @ @ @ @ @ @ @ @ @ @ @ @ @ @ @ @ @ @ @ @ @ @ @ @ @ @ @ @ @ @ @ @ @ @ @ @ @ @ @ @ @ @ @ @ @ @ @ @ @ @ @ @ @ @ @ @ @ @ @ @ @ @ @ @ @ @ @ @ @ @ @ @ @ @ @ @ @ @ @ @ @ @ @ @ @ @ @ @ @ @ @ @ @ @ @ @ @ @ @ @ @ @ @ @ @ @ @ @ @ @ @ @ @ @ @ @ @ @ @ @ @ @ @ @ @ @ @ @ @ @ @ @ @ @ @ @ @ @ @ @ @ ; @ @ ; @ @ @ @ @ @ @ ; ; ; ; ; ; Q ~ Q ~ Q ; ; @ @ @ ~ ~ ~ ~ ` ` R J ^ ' :.[ e M a y y f f f f f v f v f v y y y y y a 9 :.$.J Z.Z.Z.Z.` ` Z.V V J J o.  o o N N N J J V R ` ~ ~ ~ @ @ @ @ @ @ @ ; ; ; @ @ @ @ @ @ @ @ @ @ @ @ @ @ @ @ ; ; @ @ @ @ @ @ @ @ @ @ @ @ @ @ @ @ @ @ @ @ @ @ @ @ @ @ @ @ @ @ @ @ @ @ @ @ @ @ @ @ @ @ @ @ @ @ @ @ @ @ @ @ @ @ @ @ @ @ @ @ @ @ @ @ @ @ @ @ @ @ @ @ @ @ @ @ @ @ @ @ @ @ @ @ @ @ @ @ @ @ @ @ @ @ @ @ @ ; @ @ @ @ @ @ @ @ @ ~ ~ ",
"@ @ @ @ ~ @ ~ ` V ^ :.[ 9 M M M c.B B a a y y y y a a a a a a a a a M a B M a B M a B M M B M a B y f y & y & & & y & y y y y y y y y y y a y B a B a B a B a f & & & & & & & & & & & & & & & & & & & & & & & & & & & & & & & & & & & & f f & y a [ N R ` ~ ~ @ @ ; @ = @ @ @ @ @ ; @ @ @ @ @ @ @ @ @ @ @ @ @ @ @ @ @ @ @ @ @ @ @ @ @ @ @ @ @ @ @ @ @ @ @ @ @ @ @ @ @ @ @ @ @ @ @ @ @ @ @ @ @ @ @ @ @ @ @ @ @ @ @ @ @ @ @ @ @ @ @ @ @ @ @ ; ; ; ; ; @ @ @ @ ; @ ; @ ; @ @ @ @ @ @ @ @ @ @ @ @ @ @ @ @ @ @ @ @ @ @ @ @ @ @ @ @ @ @ @ @ @ @ @ @ @ @ @ @ @ @ @ @ @ @ @ @ @ @ @ @ @ @ @ ; @ ; ; ; ; ; @ @ ; @ = @ @ ; @ ; ; ; ~ ; ; Q ; ~ Q ~ ~ ~ ~ ~ ~ ~ ` R V N ' [ M M a y y y f & f f f f v f f v f f f f y y y y a 9 [ ' $.$.N N N N $.' ' ' :.:.:.[ [ [ :.:.:.' N J R ` ~ ~ ~ @ @ @ @ ; ; ; ; ; ; ; @ @ @ @ @ @ @ @ @ @ @ ; ; ; ; ; @ @ @ @ @ @ @ @ @ @ @ @ @ @ @ @ @ @ @ @ @ @ @ @ @ @ @ @ @ @ @ @ @ @ @ @ @ @ @ @ @ @ @ @ @ @ @ @ @ @ @ @ @ @ @ @ @ @ @ @ @ @ @ @ @ @ @ @ @ @ @ @ @ @ @ @ @ @ @ @ @ @ @ @ @ @ @ @ @ @ @ @ @ @ @ @ @ ; ; ; ; ; @ @ @ = @ ~ ~ ",
"@ @ @ @ @ ~ ~ ` J ' :.[ 9 e e M M B a B a y y a a a a a a M a M a M a M M a M M a M a M B e a a a a a y y y & y & y & y & y y y y a a a B a a B M M M B M a B a f & & & & & & & & & & & & & & & & & & & & & & & & & & & & & & & & & & & & f & y a 9 ^ V ` ~ ~ ~ @ = @ @ @ = @ ; @ ; ; ; ; @ @ @ @ @ @ @ @ @ @ @ @ @ @ @ @ @ @ @ @ @ @ @ @ @ @ @ @ @ @ @ @ @ @ @ @ @ @ @ @ @ @ @ @ @ @ @ @ @ @ @ @ @ @ @ @ @ @ @ @ @ @ @ @ @ @ @ @ @ @ @ @ ; ; ; ; ; @ @ @ @ @ @ @ @ @ @ @ = @ @ @ ; @ @ @ @ @ @ @ @ @ @ ; ; @ @ @ @ @ @ @ @ @ @ @ @ @ @ @ @ @ @ @ @ @ @ @ @ @ @ @ @ @ @ @ @ @ @ @ @ @ @ ; ; @ ; ; @ @ @ @ @ ; @ @ ; ; @ ; ; ; ; ; Q ; ~ ~ ~ ~ ~ ~ ` ` R J r [ M a y y y y & f f f f f f v f v f f f v f f f y y y y y a y M 9 9 [ 9 [ M a y y y y y y y y y y y 9 [ ' N V ` ~ ~ @ @ @ @ ; ; ; ; ; ; ; ; @ @ @ @ @ = @ @ = @ ; ; ; ; ; @ @ @ @ @ @ @ @ @ @ @ @ @ @ @ @ @ @ @ @ @ @ @ @ @ @ @ @ @ @ @ @ @ @ @ @ @ @ @ @ @ @ @ @ @ @ @ @ @ @ @ @ @ @ @ @ @ @ @ @ @ @ @ @ @ @ @ @ @ @ @ @ @ @ @ @ @ @ @ @ @ @ @ @ @ @ @ @ @ @ @ @ @ @ @ @ @ ; ; ; ; ; @ ; @ @ = ~ ~ ",
"@ @ @ = ~ ~ ~ ` 4.:.[ 9 9 e e M B M B & a a a M a M M M M M e M e M e e e e e M M M a a a M a M M M a a a y y y y y y y a a a a M B M M M M M M c.M B e c.M M B a y y & & & & & & & & & f f & & & & & & & & & & & & & & & & & & & & & f & v f y y M [ ^ V ` ~ ; ; @ @ = @ @ @ @ @ ; ; ; ; @ @ @ @ @ @ @ @ @ @ @ @ @ @ @ @ @ @ @ @ @ @ @ @ @ @ @ @ @ @ @ @ @ @ @ @ @ @ @ @ @ @ @ @ @ @ @ @ @ @ @ @ @ @ @ @ @ @ @ @ @ @ @ @ @ @ @ @ @ @ @ @ ; ; ; ; ; ; ; ; ; ; @ @ @ ; = ; @ @ = @ @ @ @ @ ; ; @ @ @ @ ; = = ; ; ; ; ; ; ; ; @ @ @ @ @ @ @ @ @ @ @ @ @ @ @ @ @ @ @ @ @ @ @ @ @ @ @ @ @ ; ; ; ; ; @ ; ; ; ; ; @ @ @ @ ; ; ; @ ; ; ; @ ; ~ ~ ~ ` ` ` Z.J ^ :.9 M a y y & & & & & & f f f f & & & & & & & & & & & & & y & y y y y y y y y y y & y & y & y y y y y y y y 9 [ ' J R ~ ~ ~ @ = = ; Q ; ; ; ; @ @ @ @ @ @ @ @ @ @ @ @ @ @ @ @ @ @ @ @ @ @ @ @ @ @ @ @ @ @ @ @ @ @ @ @ @ @ @ @ @ @ @ @ @ @ @ @ @ @ @ @ @ @ @ @ @ @ @ @ @ @ @ @ @ @ @ @ @ @ @ @ @ @ @ @ @ @ @ @ @ @ @ @ @ @ @ @ @ @ @ @ @ @ @ @ @ @ @ @ @ @ @ @ @ @ @ @ @ @ @ @ @ ; ; ; ; ; @ @ ; @ ~ ~ ` ",
"; @ @ @ = ~ ~ ` J ' [ [ [ e e e M c.M a a M M M M M M e M e e e e c.e e c.e c.e M M M M a a a M B M M M a a a a y a a a a a a a a M a M a M B M a a M a a B M a a B a y y & & & y & & & & & & & & & & & & & f & & & & & & & & & & & & & f f f y y y 9 ' V R ~ ; ; @ @ @ @ = ; @ @ ; ; ; ; @ @ @ @ @ @ @ @ @ @ @ @ @ @ @ @ @ @ @ @ @ @ @ @ @ @ @ @ @ @ @ @ @ @ @ @ @ @ @ @ @ @ @ @ @ @ @ @ @ @ @ @ @ @ @ @ @ @ @ @ @ @ @ @ @ @ @ @ @ @ @ @ ; ; ; ; ; ; ; ; ; ; @ @ @ @ ; @ @ ~ @ = @ = @ ~ @ @ @ @ ~ @ ; ; @ @ @ ; ; ; ; ; ; @ @ @ @ @ @ @ @ @ @ @ @ @ @ @ @ @ @ @ @ @ @ @ @ @ @ @ @ @ ; @ ; ~ ; ; ; ; ; ; ; @ @ @ @ ; @ @ @ @ @ @ @ O ~ ~ ` Z.Z.V N ' [ M a y y y y & & & & & & f & f & & f & & & & & & f & & & & & & & & & & y & y & & & & & & & & & & & & & y y y y a [ r V ` ~ ~ ~ ~ ; = Q Q ; ; @ @ @ ; ; ; @ @ = @ ; @ = @ = @ = @ @ @ @ @ @ @ @ @ @ @ @ @ @ @ @ @ @ @ @ @ @ @ @ @ @ @ @ @ @ @ @ @ @ @ @ @ @ @ @ @ @ @ @ @ @ @ @ @ @ @ @ @ @ @ @ @ @ @ @ @ @ @ @ @ @ @ @ @ @ @ @ @ @ @ @ @ @ @ @ @ @ @ @ @ @ @ @ @ @ @ @ @ @ @ @ @ ; ; ; ; ; @ ; @ @ = ~ ` ",
"@ ; @ = ~ ~ ~ ` J ' [ [ e e e M M e c.e M M M M M M e M e e c.e e e e e e e e e e M M M M a M a M a a a M a M a a a a a a a M a M a M a a a a a a M a a M a a a a a a a y y y y & & y & y & & & & & & & f y & f & & & & & & & & & & & f v v v y y a M :.# R = ~ = @ @ = @ @ @ @ @ ; ; ; ; @ @ @ @ @ @ @ @ @ @ @ @ @ @ @ @ @ @ @ @ @ @ @ @ @ @ @ @ @ @ @ @ @ @ @ @ @ @ @ @ @ @ @ @ @ @ @ @ @ @ @ @ @ @ @ @ @ @ @ @ @ @ @ @ @ @ @ @ @ @ @ ; ; ; ; ; ; ; ; ; ; ; @ ~ @ ~ @ ~ ~ @ ~ @ = = ; ~ ~ @ ~ ; ; ; ~ @ ~ @ ~ @ ; ; ; ; ; @ @ @ @ @ @ @ @ @ @ @ @ @ @ @ @ @ @ @ @ @ @ @ @ @ @ @ @ ; ; ~ ; ; ; ~ ; ; ; ; ; @ @ @ @ @ @ @ @ @ ~ @ ~ = ` ` Z.J N $.:.[ M y y y y & & & & & & & f & & & & & & & & & & & & & & & & & & & & & & & & & & & & & & & & & & & & & & & & y y y a M :.- V ` ` ~ ~ ~ ~ ; = ; @ ~ @ @ ; O = @ @ @ @ @ @ @ @ @ ; @ ; ; @ @ @ @ @ @ @ @ @ @ @ @ @ @ @ @ @ @ @ @ @ @ @ @ @ @ @ @ @ @ @ @ @ @ @ @ @ @ @ @ @ @ @ @ @ @ @ @ @ @ @ @ @ @ @ @ @ @ @ @ @ @ @ @ @ @ @ @ @ @ @ @ @ @ @ @ @ @ @ @ @ @ @ @ @ @ @ @ @ @ @ @ @ @ @ ; ; ; ; ; @ @ ; = @ ~ ` ",
"@ @ @ @ = ~ ~ ` J ^ [ [ [ e e M M e c.e e e e e e e e e e e e e e e e e e e e e e e e M M M a M a a a a a M a M a M a a M a a M a a a M a M a M a a a a a M a a M M a a a y y y y y y y & & & & & & y & & & y & y & & & & & y & y f f f f v T a a y M :.> F ` = ~ = @ @ = @ ; @ @ ; @ ; ; ; ; ; ; ; ; ; ; ; ; ; ; ; ; ; ; ; ; ; ; ; ; ; ; ; ; ; ; ; ; ; ; ; ; @ @ @ @ @ @ @ @ @ @ @ @ @ @ ; ; ; ; ; ; ; ; ; ; ; ; ; ; ; ; ; ; ; ; ; ; ; ; ; ; ; ; ; ; ; ; @ ; @ @ ~ @ ~ @ ~ ~ ~ ~ ~ ~ ~ ~ ; ~ ; = Q Q ; ~ ; @ ; ; ; ; ; ; ; @ @ @ @ @ @ @ ; ; ; ; ; ; ; ; ; ; ; ; ; ; ; ; ; ; ; ; ; ; ; ; ; ~ ; ; ; ; ; ; @ @ @ @ @ @ @ @ ~ @ ~ ~ ~ ` R V N $.:.e M a y y y y y & & & & & & & & & & B & & & & & & & & & & & & & & & & & & & & & & & & f & & & B & & & & & & & & f y a y a M :.N Q.` ~ ~ ` ~ ` ~ = ~ ~ @ @ ; = = @ @ @ @ @ ; @ = @ = ~ @ ; ; ; ; ; ; ; ; ; ; ; ; ; ; ; ; ; ; ; ; ; ; ; ; ; ; ; ; ; ; ; ; ; ; ; ; ; ; ; ; ; ; ; ; ; ; ; ; ; ; ; ; ; ; ; ; ; ; ; ; ; ; ; ; ; ; ; ; ; ; ; ; ; ; ; ; ; ; ; ; ; ; ; ; ; ; ; ; ; ; ; ; ; ; ; ; ; ; ; ; ; @ ; @ @ ~ = ~ ",
"@ @ ; = @ ~ ~ ` J ^ [ 9 9 [ e e M e e c.[ e e e e e e e e e e e e e e e [ e e e e e e e e M M M M a a a a a M M a a M a M a M a M M M M M M M M M M M M M M M M M a M a a y y y y y y y a y y y y & & & y & y & & & y & y y y y a a a B v T T a M M M :.> F ` ~ ; @ = @ @ @ = @ ; ; ; ; @ ; ; ; ; ; ; ; ; ; ; ; ; ; ; ; ; ; ; ; ; ; ; ; ; ; ; ; ; ; ; ; ; ; ; ; @ ; @ ; @ ; @ ; @ ; @ ; ; ; ; ; ; ; ; ; ; ; ; ; ; ; ; ; ; ; ; ; ; ; ; ; ; ; ; ; ; ; ; ; ; @ ; ; @ @ ~ = ~ ~ ~ @ ~ ~ ~ = ~ Q ~ Q ~ Q ; ; ~ ; Q Q ; ~ ; ; ; ; @ @ @ @ @ @ ; ; ; ; ; ; ; ; ; ; ; ; ; ; ; ; ; ; ; ; ; ; ; ; ; ~ ; ; ; ; @ ; ; @ @ @ @ @ @ ~ @ ~ ~ ~ ~ ~ ` V $.:.e M y y y y y y y y & & & & & B & & & & & & & & & & & & & & & & & & & & & & & & & & f f & B & & & & & B & & f f & f f v a y y y M ' o.Z.` ~ ~ ` ~ ` ` = ; ; @ ; ; ; @ @ @ @ @ @ @ @ @ @ = @ ; @ ; ; ; ; ; ; ; ; ; ; ; ; ; ; ; ; ; ; ; ; ; ; ; ; ; ; ; ; ; ; ; ; ; ; ; ; ; ; ; ; ; ; ; ; ; ; ; ; ; ; ; ; ; ; ; ; ; ; ; ; ; ; ; ; ; ; ; ; ; ; ; ; ; ; ; ; ; ; ; ; ; ; ; ; ; ; ; ; ; ; ; ; ; ; ; ; ; ; ; @ @ @ = @ ~ ~ ",
"@ @ ; ; ; = ~ ` s ^ [ 9 9 [ [ e M M e e e e e e e e e e e e e e e e e e [ e [ e e e e e e [ e M M M M M a M a M M a M M M M M M M M M M e M e e e e e e e e e e M M a a M a a a a a a a a a B a y y y y & y & y & y y y y y a a B a B a v a c.M M a M :.> F ~ ~ ~ @ @ = @ = @ @ ; ; @ ; ; ; ; ; ; ; ; ; ; ; ; ; ; ; ; ; ; ; ; ; ; ; ; ; ; ; ; ; ; ; ; ; ; ; ; ; @ @ @ @ @ @ @ @ @ @ @ @ ; ; ; ; ; ; ; ; ; ; ; ; ; ; ; ; ; ; ; ; ; ; ; ; ; ; ; ; ; ; ; ; ; ~ ; ~ ~ ~ ~ = = = = ` ~ ` ~ ~ Q ` ~ ~ ~ ~ ~ ~ ~ ~ Q Q ; ; ; ; ; ; @ @ @ @ @ @ ; ; ; ; ; ; ; ; ; ; ; ; ; ; ; ; ; ; ; ; ; ; ; ; ~ ; ; ~ ; ; ; ; ; @ ; @ @ @ ~ ~ ~ ~ ~ ~ ~ ~ Q.N [ M y y y y y y y f a f & & & & & & & & & B & & & & & & & & & & & & & & & f & f & f & f & f & & f & & f & & & f & & f f f f f f & y y e $.J Z.` ~ ~ ` ~ ` ~ = = ; ; @ @ ; @ @ @ ; @ @ = ~ = ~ ; ; ; ; ; ; ; ; ; ; ; ; ; ; ; ; ; ; ; ; ; ; ; ; ; ; ; ; ; ; ; ; ; ; ; ; ; ; ; ; ; ; ; ; ; ; ; ; ; ; ; ; ; ; ; ; ; ; ; ; ; ; ; ; ; ; ; ; ; ; ; ; ; ; ; ; ; ; ; ; ; ; ; ; ; ; ; ; ; ; ; ; ; ; ; ; ; ; ; ; ; ; ; ; @ @ @ = ~ ",
"; ; ; = @ ; ~ ` s ^ :.9 9 [ [ e e e e e e e [ [ e [ e e e e [ e e e e [ e [ e [ [ [ [ e [ e [ e e M M M M M M M M M M M M M M 9 [ M [ e e [ e [ e e e e e e e e M M M M a M a M a M M a M M a a a y a y y y y y y y y a a a B a M M M B B T c.a M M 9 [ > R ~ ~ ; @ = @ @ @ @ ; ; ; ; ; @ ; ; ; ; ; ; ; ; ; ; ; ; ; ; ; ; ; ; ; ; ; ; ; ; ; ; ; ; ; ; ; ; ; ; ; @ ; @ ; @ ; @ ; @ ; @ @ ; ; ; ; ; ; ; ; ; ; ; ; ; ; ; ; ; ; ; ; ; ; ; ; ; ; ; ; ; ; ; ; ; ; = ~ @ ~ ~ ~ ` ` ` ` ` ~ ~ ` ~ ~ ,XQ ~ Q ~ ~ ~ Q Q Q ; ~ ; ; @ ; @ @ @ @ @ @ ; ; ; ; ; ; ; ; ; ; ; ; ; ; ; ; ; ; ; ; ; ; ; ; ; ; ; ; ; @ ; @ ; ; ; ~ = ~ ~ ~ ~ ~ r.` r.Z.N :.M y y y y y y f B f f f & & & & & & & & & & & & & & & & & & & & & & & & & & & f & & f & f & f & & & & & & & & & f & f f v f f f f y y a :.$.J Z.` ~ ~ ~ ~ ~ ` ~ = = ~ @ ; ; ; ; ; @ @ @ @ ; ; ; @ ; ; ; ; ; ; ; ; ; ; ; ; ; ; ; ; ; ; ; ; ; ; ; ; ; ; ; ; ; ; ; ; ; ; ; ; ; ; ; ; ; ; ; ; ; ; ; ; ; ; ; ; ; ; ; ; ; ; ; ; ; ; ; ; ; ; ; ; ; ; ; ; ; ; ; ; ; ; ; ; ; ; ; ; ; ; ; ; ; ; ; ; ; ; ; ; ; ; ; ; ; ; ; ; @ ; ~ ",
"; ; @ @ = @ ~ ~ 5   :.[ 9 9 [ e e e e M e [ e e [ e e [ 9 [ M 9 [ e [ e [ e [ [ e [ [ e [ e e e [ [ [ [ 9 9 9 9 M 9 9 e 9 M [ M e e e e e e [ e e [ e [ e e e e 9 M M M M M M M a M a M M a M a a a a a a a a a a a a a a a M a a M B a a B M a M y 9 :.> F ~ ~ ; @ @ ~ @ = ; @ ; ; @ ; ; ; ; ; ; ; ; ; ; ; ; ; ; ; ; ; ; ; ; ; ; ; ; ; ; ; ; ; ; ; ; ; ; ; ; ; @ @ @ @ @ @ @ @ @ @ @ @ ; ; ; ; ; ; ; ; ; ; ; ; ; ; ; ; ; ; ; ; ; ; ; ; ; ; ; ; ; ; ; @ ; ~ ; ~ ~ ~ ~ ~ ~ ~ ~ ~ ~ 6.~ 6.~ 6.~ ~ ,X~ ,X~ Q ~ Q ~ ; ; ~ ; ; ; @ @ @ @ @ @ @ ; ; ; ; ; ; ; ; ; ; ; ; ; ; ; ; ; ; ; ; ; ; @ ; ; ; ; ; ; @ ; ; ~ = ~ ~ ~ ~ ` ` Z.Z.V J N :.M y & & & f f f f & & B f f & & & & & & & & & & & & & & & & & & & & & & & f & & & f & & & & & & & f & f & & & & & & & & & f f f f f y y y M :.$.J Z.` ` ` ` ~ ~ = ~ = ; ; ; ; ; ; ; @ = ; ~ ; ~ ; ; ; ; ; ; ; ; ; ; ; ; ; ; ; ; ; ; ; ; ; ; ; ; ; ; ; ; ; ; ; ; ; ; ; ; ; ; ; ; ; ; ; ; ; ; ; ; ; ; ; ; ; ; ; ; ; ; ; ; ; ; ; ; ; ; ; ; ; ; ; ; ; ; ; ; ; ; ; ; ; ; ; ; ; ; ; ; ; ; ; ; ; ; ; ; ; ; ; ; ; ; ; ; ; ; ~ @ ~ ",
"; ; ; = @ = @ g.F > ^ :.[ 9 9 9 e e e M e e 9 [ 9 e 9 9 9 M [ 9 9 [ e [ e [ e [ e [ e [ e e e [ e [ [ [ [ [ e e [ [ e [ [ [ M [ M [ M 9 9 9 9 9 9 9 9 9 9 9 9 9 9 e 9 9 M 9 M 9 M M M a M M a M M M M M M M M M M M a M a a M a a a a a v a M a M M 9 :.3 R = ~ ; @ = @ = @ @ ; ; ; ; ; ; ; ; ; ; ; ; ; ; ; ; ; ; ; ; ; ; ; ; ; ; ; ; ; ; ; ; ; ; ; ; ; ; ; ; ; ; ; ; ; ; ; ; ; ; ; ; ; ; ; ; ; ; ; ; ; ; ; ; ; ; ; ; ; ; ; ; ; ; ; ; ; ; ; ; ; ; ; ; ; ; ; ~ = ~ ~ ~ 6.~ ~ 6.6.6.6.e.e.e.6.6.6.6.~ ~ ` Q Q ` ~ ; ~ ; ; ; @ @ @ @ @ @ @ @ @ ; ; ; ; ; ; ; ; ; ; ; ; ; ; ; ; ; ; ; ; ; ; @ ; @ ; @ ; ; ; @ ; ~ ~ ~ ` R V J N ^ ' ' :.M y & & f f f & & & f B f f f & f & & & & & & & & & & & & & & & & & & & & & & & & & & & & & & & & & & f & & & & & & & & f f f & & f f y y y y a [ ' N J V R ` ` ~ ~ ~ ~ ~ @ @ ; ; ; ; @ @ @ @ ; = @ ; @ ; ; ; ; ; ; ; ; ; ; ; ; ; ; ; ; ; ; ; ; ; ; ; ; ; ; ; ; ; ; ; ; ; ; ; ; ; ; ; ; ; ; ; ; ; ; ; ; ; ; ; ; ; ; ; ; ; ; ; ; ; ; ; ; ; ; ; ; ; ; ; ; ; ; ; ; ; ; ; ; ; ; ; ; ; ; ; ; ; ; ; ; ; ; ; @ ; @ ; ; ; ; ; ; ; ~ ",
"; ; @ @ = @ @ ~ . 7 $ ^ ' [ 9 9 9 e e M 9 [ 9 e [ 9 [ e [ [ 9 [ e [ [ [ e [ 9 9 [ e [ e [ M M [ e [ [ [ [ [ [ [ [ [ [ [ e [ [ [ M [ M [ M [ 9 9 9 9 9 9 9 9 e 9 e [ e e e 9 9 9 9 M M M M a M M M a M a M M M M M M M M M M a M a M M a a a c.M M M 9 :.s R = = ; ; @ @ @ = @ ; ; ; ; ; ; ; ; ; ; ; ; ; ; ; ; ; ; ; ; ; ; ; ; ; ; ; ; ; ; ; ; ; ; ; ; ; ; ; ; ; ; ; ; ; ; ; ; ; ; ; ; ; ; ; ; ; ; ; ; ; ; ; ; ; ; ; ; ; ; ; ; ; ; ; ; ; ; @ ; ; ; ; ; ; ~ ; ~ ~ ~ ~ ~ ~ ~ ~ ~ 6.e.e.e.4X4X4X4Xe.e.e.6.6.` ~ ~ ~ ~ ; ~ ; ~ ; @ @ @ @ @ @ @ @ ; ; ; ; ; ; ; ; ; ; ; ; ; ; ; ; ; ; ; ; ; @ ; @ @ ; ; ; @ ; ~ = ~ ~ ~ R 4.^ [ 9 9 M 9 M a y & & & f & & & f f f B f f f & & & & & & & y & & & & & & & & & & & & & & & f & & & & & & & & & & & f & & & & & & & & & & f f & f f y y y y y a 9 [ :.' N J F R ` ~ ~ ~ ~ ; @ @ ; ; ; ; = ; ; ~ ; ; ; ; ; ; ; ; ; ; ; ; ; ; ; ; ; ; ; ; ; ; ; ; ; ; ; ; ; ; ; ; ; ; ; ; ; ; ; ; ; ; ; ; ; ; ; ; ; ; ; ; ; ; ; ; ; ; ; ; ; ; ; ; ; ; ; ; ; ; ; ; ; ; ; ; ; ; ; ; ; ; ; ; ; ; ; ; ; ; ; ; ; ; ; ; @ ; @ ; ; ; ; ; ; ; @ ; ; ",
"; ; = @ = @ @ ~ g.R F J N ^ :.[ [ [ [ M 9 9 [ e [ e [ e [ e e [ e [ e 9 [ 9 9 [ 9 [ 9 [ e [ [ [ e [ [ e [ [ [ [ [ [ e [ M [ M [ [ [ [ 9 [ 9 9 [ 9 9 9 9 [ 9 [ e [ e e e e e e e e 9 9 e M M M M M M M M M M M M M a a M M M M M M M M M c.M e M M 9 9 ^ s R ~ ; ; ; ; ~ @ @ ; @ ; ; ; ; ; ; ; ; @ ; ; ; ; ; ; ; ; ; ; ; ; ; ; ; ; ; ; ; ; ; ; @ @ @ @ ; ; ~ ; ; ; ; ; ; ; ; ; ; = = = = ; ; ; ; ; @ @ @ @ @ ; ; ; ; ; ; ; ; ; ; ; ; @ ; ; ; ; @ ; ; ; ; ; ~ = ~ ~ 6.~ ` ` R ` ~ 6.e.4X4X4Xe.e.e.4Xe.e.6.~ ,X~ ~ ~ Q ; ; ; ; ; @ @ @ @ @ @ ; ; ; ; ; ; ; ; ; ; ; ; ; ; ; ; ; ; ; ; ; @ @ ; ; ; ; @ ; ; ; ; ~ ~ ` R N ' [ 9 y y y y S y y f B B & B f B & f f f f f & & & & & & & & & y & & & & & & & & & & & f & & & & & & & & & & & & f & y & & & & & & & & & f & & & & f y y y y y y y M 9 9 :.r $ V R ` ~ ~ ~ @ ~ = ; @ ; ~ ; ~ ; ; ; @ ; ; ; ; ; ; ; ; ; ; ; ; ; ; ; ; ; ; ; ; ; ; ; ; ; ; ; ; ; ; ; ; ; ; ; ; ; ; ; ; ; ; ; ; ; ; ; ; ; ; ; ; ; ; ; ; ; ; ; ; ; ; ; ; ; ; ; ; ; ; ; ; ; ; ; ; ; ; ; ; ; ; ; ; ; ; ; ; ; ; ; ; ; ; ; @ ; ; ; ; ; ; ; ; ; ; ~ ",
"; ; @ = @ = @ @ @ ~ ` R V J ^ ' ' :.[ 9 9 [ e 9 e [ e [ e e [ e [ e [ [ e 9 e 9 9 [ e [ [ [ [ M [ [ e [ [ e [ [ [ M [ M [ [ [ M [ M [ [ 9 [ 9 9 [ 9 [ [ [ 9 e 9 9 9 9 e [ [ e [ e e e e e e e M M M M M e M e M M M M M M M M e e e e e e c.e M 9 [ [ ^ 5 ` ~ ; ~ ; @ ; ; ; ; ; ; ; ; ; ; ; ; ; @ ; ; ; ; ; ; ; ; ; ; ; ; ; ; ; ; ; ; ; ; ; ; = @ @ ~ = ~ ` ` Q Q ; ~ ~ ~ ~ ~ ~ ~ ~ ` = = ; ; ~ ; ; ; ; @ @ ; ; ; ; ; ; ; ; ; ; ; ; @ @ ; ; ; @ @ ; ; ; Q ~ ~ ~ 6.~ ` z.z.z.Q ,X6.e.e.e.e.e.e.e.e.e.e.6.6.~ ~ ~ ~ ~ ; ~ ; ; ; ; ; ; ; ; ; ; ; ; ; ; ; ; ; ; ; ; ; ; ; ; ; ; ; ; ; ; ; ; ; ; ; ; ; ; ~ = ~ ~ ` V N ' [ M y y y y y y y f f & & B & B & f & f & f & & f & & & & y & y & & & & & f & & f & f f & f & & f & & & & & y & & y & & y & & & & & & & & & & f f & & & y y y y y y y y y a 9 ' N J R ` ` ~ = ~ ; ; ; ; ; ; ; ; ~ ; ; ; ; ; ; ; ; ; ; ; ; ; ; ; ; ; ; ; ; ; ; ; ; ; ; ; ; ; ; ; ; ; ; ; ; ; ; ; ; ; ; ; ; ; ; ; ; ; ; ; ; ; ; ; ; ; ; ; ; ; ; ; ; ; ; ; ; ; ; ; ; ; ; ; ; ; ; ; ; ; ; ; ; ; ; ; ; ; ; ; ; ; ; ; ; ~ ; @ ; ; ; ; ; ; ; ; ; ; ",
"; ; ; ; = @ @ = @ = ~ ~ ` R V V J N ' 9 [ [ e e e [ e e e e e [ e e [ e [ 9 9 9 [ [ [ [ [ M [ [ 9 9 [ M [ 9 [ 9 [ [ 9 [ 9 9 [ [ 9 [ 9 [ 9 9 [ 9 9 9 9 9 9 9 [ 9 e [ 9 e e e e [ e e 9 e [ e e M M e e e :.e e e e e e e e [ e e e e e c.[ e e e [ :.r 2 F ` ~ ~ ; ; ; ; ; ; ; ; ; ; ; ; ; ; ; ; ; ; ; ; ; ; ; ; ; ; ; ; ; ; ; ; ; Q ; ; @ @ ; ; @ ~ ~ ` R ` ` ` ` ~ 6.e.e.e.e.e.6.~ ` R ` ~ ~ ~ = = = = = @ ; ; ; ; ; ; Q ; ; ; ; ; ; ; ; ; @ @ @ @ ~ Q Q R ` 6.6.,XaX4.4.z.,X6.....| | ..........| | | 6.6.~ ~ Q = = ; ; ; ; ; ; = = ; ; ; ; ; ; ; ; ; ; ; ; ; ; ; ; ; ; ; ; ; ; ; ; ; ; ; ; Q ; ; = = ~ ` V - :.e M y y y y y y f f & & B & & & & & & & & & & & & & & & & & & & & & & & B & f f & f & f & f & & f & f f & f & & & & & f & & & & & f & & f & & & & & & f & & y y & y y y y y y y M [ ' o.Z.` ` ` ~ ~ @ ; ; @ ; Q = ; @ ; ; ; ; ; ; ; ; ; ; ; ; ; ; ; ; ; ; ; ; ; ; ; ; ; ; ; ; ; ; ; ; ; ; ; ; ; ; ; ; ; ; ; ; ; ; ; ; ; ; ; ; ; ; ; ; ; ; ; ; ; ; ; ; ; ; ; ; ; ; ; ; ; ; ; ; ; ; ; ; ; ; ; ; ; ; ; ; ; ; ; ; ; ; ; ; ; ; ; ; ; ; ; ; ; ; ; ; ",
"; ; ; ; @ = @ = ; = = ~ ~ ~ ` ` R s ^ [ [ [ e M e [ e [ e [ e [ e e e [ [ e e e e [ [ [ 9 [ 9 [ 9 [ 9 [ [ 9 [ 9 9 9 9 9 [ 9 9 9 [ 9 9 9 9 9 9 9 [ 9 9 e 9 9 9 9 9 9 9 9 9 e 9 e 9 e e e e e e e e e e :.e [ [ e e e e e e e e e e e e [ e [ e 9 [ ' o 7 R ` ~ ~ ; ; ; ; ; ; ; ; ; ; ; = @ = @ ; ; ; = @ = ; ; ; ; ; ; ; Q ; Q Q Q ; Q ; @ ; Q ; @ ~ ` R Z.` 6X6.6.6.e.e.4X4X4X4X&X6.6.` ` ` ` ~ = O = = @ @ @ ; ; ; Q Q ; Q Q ; ; = @ ; ; ; ; @ @ @ Q Q Q ` ~ 6.6.,X4.4.z.,X......../ / / / / K K ....| | e.6.~ = = = = Q Q Q Q = = = = ; ; ; ; ; ; ; ; ; ; ; ; ; ; ; ; ; ; ; ; ; ; ; ; Q ; ; Q ; @ = g.` ` o.:.M a y y & y & & & & & & & & & & & & B & & & & & & & & & & & & & & & & & & & f & & & f & & f & f & & f & f f & f y & f & f & f & f & f & & & & f & & f & & f & & & & & & & y & y & y a e ' J Z.R R ` ~ ~ ; ~ ; ; Q O ; @ ; ; ; ; ; ; ; ; ; ; ; ; ; ; ; ; ; ; ; ; ; ; ; ; ; ; ; ; ; ; ; ; ; ; ; ; ; ; ; ; ; ; ; ; ; ; ; ; ; ; ; ; ; ; ; ; ; ; ; ; ; ; ; ; ; ; ; ; ; ; ; ; ; ; ; ; ; ; ; ; ; ; ; ; ; ; ; ; ; ; ; ; ; ; ; ; Q ; ; ; ; ; ; ; ; ; Q ; ",
"; ; ; ; ; ; ; ; @ = = = = ~ = ` ` F > ' [ 9 M M e e [ e e e e [ e e [ e e e e 9 [ e 9 M 9 [ 9 [ 9 9 [ 9 9 [ 9 9 [ 9 [ 9 9 9 [ 9 9 9 [ 9 [ 9 9 9 9 9 [ 9 9 e 9 9 9 9 e e e e e e e 9 e e e e e e e e e e e e e e e e e e e e e e e e e e [ [ [ [ :.r $ F ` ~ ~ @ ; ; ; ; ; ; ; ; ; ; ; ; ; = @ ; = = @ = @ = ; ~ = ; ~ Q ; ~ Q ; Q Q ; ; ; Q O @ @ ~ ` R Z.6X6.6.e.e.4XK.e.4X4Xe.4Xe.6.6.~ ` ` Q O = = @ @ @ = ; ; ; Q ; Q Q ; ; ; ; @ ; ; ; @ @ @ ; Q Q Q ` 6.6.aXaX4.4.aX,X....K / / / j j j K K K ....| e.6.~ = ~ = = Q Q Q ; Q ; = = @ = ; ; ; ; ; ; ; ; ; ; ; ; ; ; ; ; ; ; ; ; ; ; ; ; ; Q ; ~ ~ ~ g.Q.r e a a y & & & & f f & f & & & & & & & & & & & & & & & & & & & & y & y & y & & & B & & & & & & & & & & & f & & f & & & & & & f & & & & & & f & & & & f & & f & f f & y y f f & & & & & y M [ ' N J R ` ~ ; ; ; ; ; O O ; @ ; ; ; ; ; ; ; ; ; ; ; ; ; ; ; ; ; ; ; ; ; ; ; ; ; ; ; ; ; ; ; ; ; ; ; ; ; ; ; ; ; ; ; ; ; ; ; ; ; ; ; ; ; ; ; ; ; ; ; ; ; ; ; ; ; ; ; ; ; ; ; ; ; ; ; ; ; ; ; ; ; ; ; ; ; ; ; ; ; ; ; ; ; ; ; ; ; ; ; ; ; ; ; ; ; ; ; ; ",
"; ; ; ; ; ; ; ; @ ; O O = = = ~ ~ R s ^ :.9 9 9 [ e [ e e e e e e e e e e 9 e e e e 9 9 9 9 [ 9 [ 9 [ 9 [ 9 [ 9 [ 9 9 9 [ 9 9 9 [ 9 9 9 9 9 9 9 [ 9 9 9 e 9 9 e e e 9 e 9 e 9 e 9 e e e e e [ [ [ [ [ [ e e e e e e e [ e [ e [ e [ [ [ e [ [ :.' N V R ` ~ = = ; ; ; ; ; ; ; ; ; ; = = @ = = @ = @ = @ = @ = ; ; ; ; ; Q ; Q ; ; ~ ; Q ; Q X @ ~ ~ ` Z.` 6.e.4Xe.e.e.e.| e.e.e.e.e.e.6.6.~ ` R O = @ g.@ @ ; ; ; Q ; Q Q ; Q ; ; @ = ; = ; @ @ @ = Q Q ` ~ 6.6.aX4.-.z.,X6......./ / j / j j j K K ......e.6.~ = = = ; ; Q Q Q Q = ~ = = ; ; ; ; ; ; ; ; ; ; ; ; ; ; ; ; ; ; ; ; ; ; ; @ ; ; Q = ~ ~ ` ` J ' M y y & y & f & & & & & & & & & & & & & & & & B & & & & & & y & y & y & y & B & & & & & & & & & & & & & & & & & f & & f & f f f f & f & & & & & & & & & f & & & f & f & f & f f & & & y y M e :.N R ` ~ ~ Q ; ; ; O = ; @ ; ; ; ; ; ; ; ; ; ; ; ; ; ; ; ; ; ; ; ; ; ; ; ; ; ; ; ; ; ; ; ; ; ; ; ; ; ; ; ; ; ; ; ; ; ; ; ; ; ; ; ; ; ; ; ; ; ; ; ; ; ; ; ; ; ; ; ; ; ; ; ; ; ; ; ; ; ; ; ; ; ; ; ; ; ; ; ; ; ; ; ; ; ; ; ; ; Q ; Q ; ; Q ; ; ; Q ; ",
"; ; ; ; ; ; ; ; ; ; O O = = ~ ~ ~ ~ R 3 ' [ 9 9 9 9 e 9 9 e e [ 9 9 9 9 9 e e e [ [ 9 9 9 [ 9 [ 9 [ 9 [ 9 [ 9 [ 9 [ 9 [ 9 9 e 9 e 9 e e 9 e 9 9 e 9 e e 9 e e 9 e 9 e e e 9 e 9 e 9 e 9 e [ e [ :.e [ [ [ [ [ [ [ [ [ [ [ [ [ [ [ [ [ [ M [ [ ' o V R ` ~ ~ = O = ; ; ; ; ; ; ; ; = ; = = @ = = @ = @ = ; = @ = ; ; = ; ; ; ; Q ; Q ; ; ; Q X = ~ ~ R ` 6.e.4X4Xe.| | | ..| | | | e.e.e.6.6.~ ` Q = ~ @ @ = = = ; Q ; Q ; Q ; ; ; ; @ = = ; ; @ ; = Q Q ~ 6.6.6.s 4.aX,X6.......K / K j j j j K W K ....| e.6.~ ~ = = = Q Q Q ; ; = = = = ; ; ; ; ; ; ; ; ; ; ; ; ; ; ; ; ; ; ; ; ; ; ; @ @ ; X = = ~ ` Q.o.:.a y y & & & & f & f & & & & & & & & & & & & & & & f & y f y & y y y y y y & y & y y y & f & f & f & & & & & & & & & f & f & f f & f & & & & & & & & & & & & f & y f f f & f & & f & & & y y a 9 ' V R ~ ~ ; ; ; ; Q = ; @ ; ; ; ; ; ; ; ; ; ; ; ; ; ; ; ; ; ; ; ; ; ; ; ; ; ; ; ; ; ; ; ; ; ; ; ; ; ; ; ; ; ; ; ; ; ; ; ; ; ; ; ; ; ; ; ; ; ; ; ; ; ; ; ; ; ; ; ; ; ; ; ; ; ; ; ; ; ; ; ; ; ; ; ; ; ; ; ; ; ; ; ; ; ; ; ; ; ; ; ; ; ; ; ; ; ; ; ; ",
"Q ; ; ; ; ; ; = ; ; O = = = = ~ ~ ~ ` 5 ^ :.[ 9 9 9 9 9 9 9 9 9 9 9 M 9 M 9 e e [ [ [ e 9 9 e 9 [ 9 9 [ M [ 9 e 9 9 e 9 9 e 9 e 9 e e 9 e e e e e e 9 e e e 9 e e e 9 e 9 e 9 e 9 e 9 9 9 9 [ e [ [ [ [ e [ 9 9 9 9 9 9 9 [ 9 [ 9 [ 9 9 9 9 :.- J R ` ~ ~ ~ O X = ; ; ; ; ; ; ; = ; = = = = @ = = = = = @ = = ; ; ; Q ; Q Q ; ; Q ; Q ; ~ ; . = ~ ` R ` &X4XK.K.| ..../ ............| | e.6.6.~ ` ~ = ~ = = = = = ; Q Q Q Q Q ; = = = = @ = = @ ; = Q ~ ~ 6.6.` aXaX,X,X6.......K K j j j j j j K K ......e.e.~ ~ = = ; Q ; Q Q Q = = = ; = ; ; ; ; ; ; ; ; ; ; ; ; ; ; ; ; ; ; ; ; ; ; @ ; ; X X O ` ` Q.o.:.M y y y y & f & f & f & & & & & & & & & & y & y y y y & y y y y y y y y B a y y y y y B y y y y & & & & & & & & & & & f & f f f f f f f f & f & & & & & & & f & & y & f f & & f & f & & & y y a :.J F Q = ; ; ; ; = = = ; = ; ; ; ; ; ; ; ; ; ; ; ; ; ; ; ; ; ; ; ; ; ; ; ; ; ; ; ; ; ; ; ; ; ; ; ; ; ; ; ; ; ; ; ; ; ; ; ; ; ; ; ; ; ; ; ; ; ; ; ; ; ; ; ; ; ; ; ; ; ; ; ; ; ; ; ; ; ; ; ; ; ; ; ; ; ; ; ; ; ; ; ; ; ; ; ; Q ; ; ; ; ; Q ; ; ; ; ",
"; Q ; ; ; = ; ; ; = O = = = = = ~ ~ ~ R J ^ :.[ 9 9 9 9 9 9 9 9 9 9 9 9 9 9 9 9 e e e [ 9 9 e e e e e 9 [ e e [ e e e e e e e e e e 9 e e e e e e e e e 9 e e 9 9 e 9 9 9 9 e 9 9 9 9 9 9 9 9 9 9 9 9 9 9 9 9 9 9 9 9 9 9 9 9 9 9 9 9 9 [ :.- J R ` ~ ~ ~ = = O ; ; ; ; ; ; ; ; ; = = ; = = = = @ = ; = = ; = ; ; ; ; ; ; ; ; ; ; ; ; ; ~ = X = ~ ` ` 6.e.K.K.K.| ..../ / / K ../ / / ..e.e.6.6.~ ~ ~ = g.= = = = Q ; Q ; Q ; = = @ = @ = @ = ~ ; ~ ` ~ 6.6.6.aXaXz.,X6......./ K j / j j j j W K K ....| e.e.~ ~ = = ; ; Q Q ; ; = ~ = = = ; ; ; ; ; ; ; ; ; ; ; ; ; ; ; ; ; ; ; ; ; ; @ ; ; = O = ` g.Q.- :.M a y y y f f f f y y y y & & & & & & & y & y y y y y a y y a a a a a a y a a B a B y a y y B y y y f f & & & & & f & f & f & f & f & & & & & & & & f & y & & y & & & y & & v & v & & f y y y a [   s R = Q ; @ ; = O = = = ; ; ; ; ; ; ; ; ; ; ; ; ; ; ; ; ; ; ; ; ; ; ; ; ; ; ; ; ; ; ; ; ; ; ; ; ; ; ; ; ; ; ; ; ; ; ; ; ; ; ; ; ; ; ; ; ; ; ; ; ; ; ; ; ; ; ; ; ; ; ; ; ; ; ; ; ; ; ; ; ; ; ; ; ; ; ; ; ; ; ; ; ; ; ; = ; = ; O ; ; ; ; ; = ; ",
"Q ; Q = ; ; ; ; = = = = ; = = O = ~ ~ ` R J N ' [ 9 9 9 9 9 9 9 9 9 9 9 9 9 9 9 9 9 9 e 9 9 e [ 9 e [ e e e 9 e e e 9 e 9 e 9 e e e e e e e e e e e e e e e e e e 9 e 9 [ 9 9 [ 9 [ 9 9 9 9 9 9 9 9 :.[ :.:.:.:.[ [ [ [ [ [ [ [ [ [ [ :.^ N J R ` ` ` ~ = = ; ; ; Q ; ; ; ; = ; = ; = = ~ = @ = = = = @ = ; = ; ; ; = ; = ; = ; ; ; = ; ~ = X = ~ ` ` 6.4XK.K.4X| ../ / / j K K j / / ..| e.e.6.~ ~ ` ~ = ~ = = = ; ; ; Q ; = = = @ g.@ g.@ = ~ ~ ` ` ~ 6.6.,XaX4.z.,X......../ K j j j j j j j W K ....| e.e.6.~ = = = ; Q Q Q ; = g.= = = = = = = = = = = = = = = = = = = = = = = ; ; ; ; ; = ~ = ` ` V r [ M a a y y S y f a a y y y & y y & y & y y y y B y a a y a a a a a a a a M a M a M a a a a a a a a B y y f & & & & & f & f & & & y & & & & & & & y & y & y & y & & y & & & & & & f & f f y y y a [ - s F = = ; @ @ = O = ; = = = = = = = = = = = = = = = = = = = = = = = = = = = = = = = = = = = = = = = = = = = = = = = = = = = = = = = = = = = = = = = = = = = = = = = = = = = = = = = = = = = = = = = = = = = = = = = = = = ; = ; ; ; ; = ; ; ; ",
"= ; Q ; Q ; = = = = = = @ ; = O = = ~ ~ ` ` V N ^ ' :.[ [ 9 9 9 9 9 9 9 9 9 9 9 9 9 9 [ e 9 e e e e e 9 e [ e e e e e e e e e e e e e e e e e e e e e e e e e e 9 [ 9 9 9 9 [ 9 9 9 9 9 9 9 [ [ :.:.^ ^ ^ ^ ^ ^ ^ ^ ^ ^ ^ ^ ^ ^ ^ ^ ^   J V R ` ` ~ ` O = ; @ @ ; ; Q ; ; ; = ; = = Q = = = = = @ = ; = = = ; = = = = = = = = = = = = ; ~ Q X ~ ~ ~ ` e.K.K.K.| | ../ j j j j W j j / / | | e.6.6.~ ~ Q ~ ~ ~ ; ~ = Q ; = ; = = = = @ g.@ @ = ~ = ` ` ~ 6.6.z.4.4.,X6...| ....K / j j j j j j j W K ......e.e.~ ~ = = ; Q Q Q Q ; = ~ = @ = ; = ; = ; = ; = ; = ; = ; = ; = ; = ; = = = O = @ ~ ~ ~ ` ` J ' [ M a a a S a v a a B a a y y y y y y y y y y a a a a a a a a a M M M M M M M M M M a M a a a a a B a a B y y & & & & & & & y & y & & y & y & y & y y y y y y y & y & & & & f v f v & f f f y y a [ - * F = = ; @ @ = = = = = ; ; = ; = ; = ; = ; = ; = ; = ; = ; = ; = ; = ; = ; = ; = ; = ; = ; = ; = ; = ; = ; = ; = ; = ; = ; = ; = ; = ; = ; = ; = ; = ; = ; = ; = ; = ; = ; = ; = ; = ; = ; = ; = ; = ; = ; = ; = ; = = = = ; = = ; = ; = ; = ",
"Q = = Q = = = = = = = = ~ @ = = = @ ~ ~ ~ ~ ` V V 4.^ ^ :.:.:.:.[ [ [ [ :.:.[ 9 9 9 9 9 [ e 9 9 9 9 9 e 9 9 9 e 9 9 9 9 e 9 e 9 e 9 e e e e 9.e e e e e e e 9 e [ 9 9 9 [ 9 9 [ 9 [ 9 [ [ :.:.^ ^ 4.J J V V V R V V V V V V V F V V V V ` ` ~ ~ ~ = Q Q Q ; @ @ ; Q Q ; ; O ; = = ; = = = = = = = = = = ; = = = ; = ; = ; = ; = ; = = = Q R X ~ ~ ~ ` e.K.X.4X..../ j j W W W W W j j / ..| e.e.6.~ ~ Q ` ~ ~ ~ = = = = = = = @ = = g.@ ~ = = ~ ` ` R ~ 6.6.aX4.z.z.6.| ..../ / / j j j j j j j W K ....| e.e.~ ~ = = = ; Q Q Q = = g.= = = = = = = = = = = = = = = = = = = = = = = ; = Q = @ ~ = ~ ` ` J :.9 M M a S a S a a a a a B a a y y y y y y a a a a M a M a M M M M M M e e e M e M M M M M M M a M a a a a y y y & f & & y & & y & y & y & y y y y y y a y y y y y y & y & & f & f f f f f y a y M [ - 7 . = = = = = = = @ = = = = = = = = = = = = = = = = = = = = = = = = = = = = = = = = = = = = = = = = = = = = = = = = = = = = = = = = = = = = = = = = = = = = = = = = = = = = = = = = = = = = = = = = = = = = = = = = = = = = = = = = = = ; = = ",
"Q Q ; = Q = = = ; = O = @ @ ; = ; @ @ g.~ ` ` ` R R V J > 4.4.N ^ ^ N N N $.' :.9 9 9 9 9 9 9 e 9 [ 9 9 9 e 9 e 9 e 9 e 9 9 e 9 e e 9 e e e e e e e e e e [ e [ 9 9 [ 9 9 [ 9 9 [ 9 9 [ :.^ 4.# V R R ` R ` ` ` ` ` ` ` ` ` ` ` ` ` ` ` ~ ~ ~ ` = ` Q = ; ; ; ; ; Q ; = Q ; O ; = = = = = = = = = = = = = = = = = = = = = = = = = = = = Q Q ` ~ ~ ` ` e.K.X.K...../ j j W W W W W W j / ..| e.e.| ~ Q ` Q ~ = = Q O = = = = = = = = = g.@ g.~ ~ ~ ` R ` 6.6.aX4.z.,X..| ..K / / / j j j j j j W j K ....| e.e.~ = = = ; ; Q ; Q ; ~ = = = = = = = = = = = = = = = = = = = = = = = = = O O = ; ~ O g.` ` J :.[ 9 M a a S M S M M M a a a a a y a y y a a M M M M M M M M M M e e e e e e e e e M M M M a a M a M M a a a y y & & y & & y y y y y y y y y y y a a a a a a a y y y y & y & f f f f v f B a a a M :.  5 g.= = = = @ = @ g.= = = = = = = = = = = = = = = = = = = = = = = = = = = = = = = = = = = = = = = = = = = = = = = = = = = = = = = = = = = = = = = = = = = = = = = = = = = = = = = = = = = = = = = = = = = = = = = = = = = = = = ; = = ; = = = ",
"Q Q = = = = = = @ = O = ; = @ = ; @ @ = = = ` ~ ~ ` ` R F V V R V Z.V Z.Z.V J ^ :.[ 9 9 [ 9 [ 9 [ [ [ [ [ [ 9 9 9 [ 9 9 e 9 e 9 9 9 [ e e [ e e e e e e 9 9 9 9 9 9 9 9 9 9 [ [ [ :.:.'   # s R ` ` ` ` ` ` ` ` ` ` ` ~ ` ~ ` ` ~ ` Q ~ ` ~ = = = Q = ; ; ; ; ; Q ; Q = ; = ; = = = = = = = = = = = ; = ; = ; = ; = = ; = = ; = = = = = = ` Q ~ ~ ` ` e.K.X.K...../ j j W W W W W W j j / | | | e.6.~ Q Q ` ` O = = = = = ; = = @ g.@ g.@ g.~ ~ ~ R Z.` 6.,XaX4.,X6...| ..K / j / j j j j j j j W j ......e.e.~ = = = = ; Q Q Q = = ~ = = = = = = = = = = = = = = = = = = = = = = = O ; = = = = O R ` R J :.[ 9 M M a M S a M B M M M M a M M a a M a M M M e e M M M M e e e 9 9.e e e e e e e e e M e M M M M a M a a B y y y & y y y y y y y y y a a a a a a a a M a a y a y y y y f f f f f f B a a M M 9 :.2 F O ~ = = = = g.@ @ = = = = = = = = = = = = = = = = = = = = = = = = = = = = = = = = = = = = = = = = = = = = = = = = = = = = = = = = = = = = = = = = = = = = = = = = = = = = = = = = = = = = = = = = = = = = = = = = = = = = = = = ; = = = ; = ",
"Q = = ; Q = = Q = ; = = = @ = @ = = = = = ~ = = ~ ~ ` ` R ` R ` ` ` ` ` ` Z.Z.J N ' [ 9 9 [ [ [ [ [ [ [ [ [ [ 9 9 9 9 9 9 [ 9 [ 9 9 [ 9 [ [ [ [ e [ [ 9 9 9 9 9 9 9 9 9 9 9 [ :.' ^ N J V R R O ` ` ~ ` ~ ~ ~ ~ ~ ~ = ~ = = ~ = = = ~ = = ~ = = Q = ; Q ; ; ; ; ; Q ; ; ; = ; = = = = = = = = = = = = = = = = ; = = = = = ; = O = = = ; ; Q Q ~ ~ R ` 4XX.X.4X| ../ j j W W W W W W j j / ..| | e.| 6.~ R R Q ` = = = = ; = @ = = @ g.= g.~ ~ ~ ` ` ` 6.6.,X-.aX,X6.| ..K / j / j / j j j j j W W K ....| e.6.~ = ~ = = ; Q Q ; ; = g.@ = = = = = = = = = = = = = = = = = = = = = = = = = O O O = ` ` R J ' [ 9 9 e e 9.M a M M e e M M M M a M M M M M 9 M e e e e e e e e e e 9 e e e e e e e e e e e M e M M M a M a a a y a y y y y y y y y a a a a a a a a M a a M a a a M M a a a f f f f B a M M M M [ r V F = ~ @ = = = = g.@ = @ = = = = = = = = = = = = = = = = = = = = = = = = = = = = = = = = = = = = = = = = = = = = = = = = = = = = = = = = = = = = = = = = = = = = = = = = = = = = = = = = = = = = = = = = = = = = = = = = = ; = @ = = = ; = = = ",
"= = Q = = = ~ = = = = = = = = = = = @ = = = = = O = = = = = ` O ` ` ` ` ` ~ ` Z.V N ' :.:.:.[ [ [ 9 [ 9 9 9 9 9 9 9 9 9 9 9 9 9 9 9 9 9 9 e 9 e 9 9 9 9 9 9 [ 9 9 9 9 9 [ :.' ^ N V R ` ` ` = = = = = = O O O = = = = = = = = = = = = = = = ; = Q ; Q = ; Q ; Q ; O ; Q ; = = = = = = = = = = = = = = = = = = = ; = = = = ; = = O = = ; ~ Q Q ; Q ` ` e.X.X.K.| ../ / j W W W W W j j / / ....| e.e.| ~ R R ` ` = ~ = = @ = @ = = g.@ = = ~ ~ ~ ` R ` 6.6.aX-.aX6.| | ..K K j j / j j j j j j W K K ....| e.6.~ = g.= = ; Q Q Q = = ~ g.= = = = = = = = = = = = = = = = = = = = = = = = ; O O O = ~ ` R J ^ [ 9 9 e e e e e M e e [ M M M M 9 M M M 9 M e e e e e 9 e e 9 e e 9 e e e e e e e e e e e e e e c.e M M M M M a a a B a a a a a a a a a a a a M M M M M M M M a M M M M M a a y f a M M M M M [ :.o F R = ~ @ @ = g.@ g.@ g.= = = = = = = = = = = = = = = = = = = = = = = = = = = = = = = = = = = = = = = = = = = = = = = = = = = = = = = = = = = = = = = = = = = = = = = = = = = = = = = = = = = = = = = = = = = = = = = = = ~ = = = = = @ = = @ = ",
"= Q = = Q = = = = = = = = = = = @ = = = = = = = = = = = = = = = ` ` ` ` ` ` ` ` R V >   ^ r ' :.[ 9 9 9 9 9 9 9 9 9 9 9 9 9 9 9 9 9 9 9 9 M M 9 9 9 [ [ [ [ :.[ :.:.:.' ^ N J V R ` ` ` ` = = = = = = = = = = = = = = = = = = = = = = = = = = Q = = ; Q Q Q Q = Q ; O ; O ; = = = = = = = = = = = = = = = = = = = @ = = @ = = ; = = ; ; Q Q Q ~ ~ Q ` 4XX.X.K.| | ../ j j W W W W j j / / K ..| | | | 6.,XR ` Q = = = = = = = = = = g.= ~ ~ ~ ` R R ` 6.` aXaX,X6.| ....K j j / j / j j j j j W K K ....| e.6.~ = = = = Q Q Q ; Q = g.@ g.= = = = = = = = = = = = = = = = = = = = = = = = O O O ` ~ ` R V ^ [ 9 9 9 e e e e e e e [ e [ e M M 9 M 9 M 9 e e e e e e e e e 9 e e 9 e 9 e 9 e 9 e e e e e e e e e M M M M M M M a a a a a a M a M M M M M M M M M e e e e M M M M e M M a y y a a M e e M M [ ' $ R R = = @ ; = = = g.@ g.@ = = = = = = = = = = = = = = = = = = = = = = = = = = = = = = = = = = = = = = = = = = = = = = = = = = = = = = = = = = = = = = = = = = = = = = = = = = = = = = = = = = = = = = = = = = = = = = = = = = = = = = = = = = = ",
"= = = = = = = = = = = = = = = = = = = = = ; = = = = = = = = = = = = = = ` ` ~ ` ` ` R V V J J N ^ ' :.:.[ [ [ [ [ 9 9 9 9 9 9 9 9 9 9 9 9 [ [ [ :.:.' ' ^ ^ ^ ^ ^ N 4.J V V R ` ` ` ` ` = = = = = = = = = = = = = = = = = ; = = @ = ; = = = = = ; Q = = ; = ; O ; O ; O ; O = = = = = = = = = = = = = = = = = = = = = ~ = = ~ = ~ = ~ = = Q = @ ~ Q ` e.X.X.K.4X| ../ / j K K K K K / / K K ....| | | 6.,XR ` ` ` = g.= = = = = = = g.@ g.~ ~ R R ` r.6.` aXaX,X..| ../ K j j j j j / j j j j j K K ..| | | ~ = = g.= O ; Q Q Q = = g.= = = = = = = = = = = = = = = = = = = = = = = = = = = O O O = ` ` V N :.9 9 9 9 e e [ [ [ [ [ [ [ e e 9 9 9 9 9 e e e [ e 9 e 9 9 e 9 e 9 9 9 9 9 9 e 9 e 9 e e e e e e e e e e e M M M M M M M M M a 9 M M 9 M M 9 M e e e e e e M 9 M M e M M 9 M M M e e e e e [ :.- J R R = = = = = = = = = = g.= = = = = = = = = = = = = = = = = = = = = = = = = = = = = = = = = = = = = = = = = = = = = = = = = = = = = = = = = = = = = = = = = = = = = = = = = = = = = = = = = = = = = = = = = = = = = = = = = = = = = = = = = = = ",
"= = = = ` = = = = = = = = = = = = = @ = = = ; = = = = = = = = = = = g.= g.` ~ ~ ~ ` ` ` ` ` Z.V J $ N ^ ^ ^ ^ ^ :.:.:.:.:.:.:.^ ' ^ ' ^ ^ ^ ^ N N N 4.$ J J J J V V R R ` ` ` ` ` ` ` Q = = = = = = = = = = = = = = ; = @ = = @ = = = = = ; = ; O ; O ; O Q = Q = Q O O = Q = O = = = = = = = = = = = = = = = = ~ = ~ = = g.= = ~ ~ ~ = Q Q ; @ ; Q ` e.K.X.X.4X| ../ / K K W K W K / / j K K ....| | 6.6.Q R Q = = = @ = = @ = = = = = ~ = ` R ` ` 6.6.Z.aXaX,X..| ../ j j j j / j j / / j j / K K ..| | 6.~ = g.= = = Q ; Q ; = = = = = = = = = = = = = = = = = = = = = = = = = = = = O Q = O O O ` ` R > ^ [ [ 9 9 9 9 [ [ [ [ [ [ [ [ e e e e e e e 9 e [ e e 9 e 9 e 9 9 9 9 e 9 9 e 9 e 9 9 e e e e e e e e e e e e e e M M M M M 9 M 9 M 9 M 9 e e e e e e e [ e e e [ e e 9 M e [ [ 9 e [ [ [ [ :.- $ V ` O Q O = = @ = g.= g.= = = = = = = = = = = = = = = = = = = = = = = = = = = = = = = = = = = = = = = = = = = = = = = = = = = = = = = = = = = = = = = = = = = = = = = = = = = = = = = = = = = = = = = = = = = = = = = = = Q = = = = = = = = = = = ",
"= = = = = = = = = = = = = = = = = = = = = = = = = ; = ; = = = = @ = = = = O g.~ ~ ~ ~ ~ ` ` ` ` ` R R V V * 3 >   4.  4.4.4.4.$ 4.J > J V V V V V V Z.R R R R R ` ` ` ` ~ ` ` ` ~ ` O O = = = = = = = = = = = = ; = = = = = = = = @ = ; = ; O = ; Q = Q O ; = = Q = = Q = O = = = = = = = = = = = = Q = Q = Q = O = = = ` . O = ~ = ~ = O = ; @ ~ O ` e.K.X.K.K.| ../ / j K K K K K j / j j K ....| | | 6.Q Q Q Q = = = = = = = = = = = O O O R ` 6.&X6.` aXaX,X......K j j j j j j / j / / / / K K ..| | 6.~ O g.g.= = ; O Q Q = = = g.= = = = = = = = = = = = = = = = = = = = = = = = Q ; ; = X X O ` R V N ' :.[ 9 9 9 [ [ [ e [ [ :.[ e e e e e e e e [ e [ e e 9 e 9 e 9 9 9 9 9 9 e 9 9 e 9 e 9 e e e e e e e e e e e e e e e e e M 9 M e 9 e e e e e e e e e e [ [ e [ e [ e 9 [ [ [ [ 9 [ [ :.:.r d V R ~ = O O O = = = @ = = g.= = = = ~ = = = ~ = = = ~ = = = ~ = = = ~ = = = ~ = = = ~ = = = ~ = = = ~ = = = ~ = = = ~ = = = ~ = = = ~ = = = ~ = = = ~ = = = ~ = = = ~ = = = ~ = = = ~ = = = ~ = = = ~ = = = ~ = = = ~ = = = = = = O = = = = = = = = ",
"= = = = = = = ` Q = Q = = = = = = = @ = = = = = = = = = = @ = = @ @ = = = = = = ` = ` ` ` R ` ` ` ~ ` ` ` R R R F V V F F R R R R R R ` ` ` ` ` ` ` ` ` ` ` ` ` ~ ~ ~ ~ ~ ~ ~ = = = Q = = = = = = = ; = ; = = = = = @ = = @ = = = = = = = = ; = = = = = = Q = O = = = = = = = = = = = = = = = = = = = = = = ` = ` O ` O X X R ` ` ` ` = Q = ; @ @ O R 6.K.X.X.K.| ../ / j K K K K j j j j j K K ....| | 6.,XQ Q O = = = = @ = = = = = Q Q Q O ` ~ 6.&X6.aXaXz.mX..| K K j j j j / / j / / / / ..K ....| | ~ ~ g.g.~ g.= = Q Q ; O = = = = ` = = = = = = = = = = = = = = = = = = = = = Q Q Q ~ ; O X X = ` R s $ ^ :.[ 9 9 9 9 9 9 9 [ [ [ e [ e [ 9 9 e 9 e e e 9 9 9 e 9 9 e 9 e 9 e 9 [ 9 [ 9 e 9 [ 9 e [ e e e [ e e e e e e e M e M 9 e e e e e e e e [ e e 9 e [ [ :.[ [ e [ [ [ [ [ 9 9 9 [ :.' - J V ` ` ~ = Q O Q O = = = g.= O = = = = = = = = = = = = = = = = = = = = = = = = = = = = = = = = = = = = = = = = = = = = = = = = = = = = = = = = = = = = = = = = = = = = = = = = = = = = = = = = = = = = = = = = = = = = = = = Q = Q = Q = = = = = = = = ",
"= = g.= = = O = O O O O = = O = = = = = = O = = = = = = = = = = = ; = = = = = = = ` = = O . . O = ` ~ ` ~ ` ` ` ` R R ` ` R ` ` ` ` ` ` ` ` ~ ` ` ~ ` Q ` Q Q = = ` = ` ; Q = = Q = O O = = = O = O = = = = = = = = = = = = = = = = = = = = = O = O = O = = = Q O Q O = = = = = = = = = = = = O O O O O Q O O O O O X X R ` ` ` ~ ` = ` O = = ~ = O ` 6.4XX.X.K.| ../ / j j K K K j j j j W j K K ..| | 6.,XQ R O = = = = = = = = Q Q Q Q Q Q ` ~ 6.&X,XaXaX,X6.....K j j j j j j j / / / / / ..K ....| 6.~ Q g.g.g.= = O Q Q Q O = = = = = = O = O = O = O = O = O = O = O = O = Q = O Q Q ; Q Q X X O = ` R V J N ^ :.:.[ [ 9 9 9 M 9 e [ e e 9 e 9 9 9 e 9 9 9 e 9 e 9 [ 9 9 9 [ 9 9 9 e [ 9 [ 9 9 e 9 9 e [ e e e e e e e e 9 e e e 9 9 9 9 9 9 e [ e e [ e e 9 e [ e [ [ [ M [ [ [ :.[ [ :.' - $ V R ` ` ~ ~ ; Q O O = = = = = O g.O = O = O O = O O = O = O O = O O = O = O O = O O = O = O O = O O = O = O O = O O = O = O O = O O = O = O O = O O = O = O O = O O = O = O O = O O = O = O O = O O = O = O O = O O = O = O Q = Q Q Q ; Q O = = = = = g.= ",
"= = = = O O = O Q O O = O O = O = O = O O = O O = O = O = O = = = = = = = = = ~ = = Q ` O O R O O O O O O O = Q Q = ` O ` O Q ` = ` Q Q ` Q Q Q Q Q Q Q Q O R Q = = = = ; ; = = Q O X O O = = O = O = O = O = = O = O = O = = = = = = = = = = = = O = O = O O R = R O O O = = = = = = = = = O O O O O O O O Q ` O R X R ` ~ ~ ~ ` ` ` Q O O = @ = = ` ~ e.K.X.K.| ../ j j j K j K j j j j W W j K ..| | 6.6.~ Q O = = = = = = O O Q Q Q = ` Q ` ` 6.6.,XaX,X6.| | ..K j j j j j j / / / / / ............6.Q R g.` g.g.= O Q X ; O = g.= O O = O = O = O = O = O = O = O = O = O = O = O Q Q ~ ; Q X X = = = ` R R V J N ^ ' ' :.[ [ 9 9 [ e e e 9 9 e 9 9 9 e 9 [ 9 9 [ 9 9 e 9 [ 9 9 [ e [ 9 e [ e 9 9 e [ e 9 e [ e [ 9 e 9 9 9 9 9 9 M 9 9 9 e 9 e e e [ [ e 9 9 e e [ e e 9 [ [ :.' ^ ^ ^ ^ $ J V R ` ` ` ~ ; Q Q Q Q O = = = g.= O = O = O = = O = O = Q = O = O = Q = O = O = Q = O = O = O = Q = O = O = O = Q = O = O = O = Q = O = O = O = Q = O = O = O = Q = O = O = O = Q = O = O = O = Q = O = O = O = Q = O = O = O = O O Q O Q O Q O = = O = O O ",
"= O = g.= O g.= O O O Q O = = O = O = O = O = O O = O = O = = = = = ; = = = = = = = ~ = = = = = O O X O O O O ` O O O O O O O O Q O O Q Q Q R Q Q Q Q Q Q Q Q Q Q = ; = ; = = = O X X O O = O O O O O O O O O O = O = O = O O = = O = = = = = O = = O O O O ` O ` Q O O = = = = = O = = = = = O O O O O Q O Q O O R R R ~ 6.6.6.~ ` ` ` = O . = g.= ` ` e.K.X.K.1X../ j j j j K j j j j W W W W K ..| | | 6.~ Q Q O = = = = = O O Q Q Q Q Q ~ ` ` r.6.Z.aX,X6.e.....K j j j j j j / / / / / ..K ......6.,Xz.R ` g.g.g.O O Q Q Q O = = = O O = O = O = O = O = O = O = O = O = O = O = Q Q Q Q Q Q Q O = = = = ` ` ` R V J J N N ^ ' :.[ [ e e 9 e e 9 9 e 9 9 e 9 e [ 9 e [ 9 [ 9 9 9 9 [ 9 9 [ 9 [ 9 [ 9 9 9 9 e 9 e e 9 9 9 e 9 9 e 9 9 9 9 9 9 9 9 [ e [ [ [ [ 9 9 9 9 [ 9 [ [ :.' N J J s V V R ` ` ` ` ` = ; Q ; O Q ; = = = = = g.O O = O = O Q = O = O = O = O = O = O = O = O = O = Q = O = O = O = Q = O = O = O = Q = O = O = O = Q = O = O = O = Q = O = O = O = Q = O = O = O = Q = O = O = O = Q = O = O = O = O = O = Q = Q X Q Q = O = = O O O O ",
"= = = = = O = O ` O O O = O = O = O = O = O g.O = g.= O = O O = = = = = O Q O Q Q Q Q = Q = O = O O O O O O O O O O Q O Q O Q O Q O = Q Q Q Q Q Q Q Q Q = ; ; ; ; ; = O Q X X O O O = = = O O O O O O O O O O O O = O = O = = O O = O = = = = = g.= O = g.= O O O = = Q O O = = = = = = O O O O O O O O Q Q R Q ` R F ` ~ &Xe.6.~ ` ` ` ` = . g.@ g.R R 6.K.X.X.1X| / / j j K W j j j j j W W W K ....| e.| 6.~ Q O = = = = = O O Q Q Q Q Q ~ ` ` 6.6.aXaX6.e.4X..K K j / j j j j j / / / ........| ..,Xz.z.` ` g.g.= = O Q O Q O = = g.O O = O = O = O = Q = O = O = Q = O = O = O = Q Q Q Q X Q = ; = = = = Q ` ` ` ` Z.Z.Z.V V N ^ :.[ 9 [ 9 9 9 9 9 [ 9 [ 9 [ 9 [ 9 [ 9 [ 9 9 [ 9 9 e e e e e e e e [ e 9 e 9 9 9 9 e 9 e 9 9 9 9 9 9 9 9 9 9 9 9 [ 9 [ 9 [ [ [ 9 9 9 9 [ [ ' $.J V R R R ` ` ` ` ` ` = = Q Q Q Q ; ; ; = = = g.= = O = O = O = g.Q = O = O ` = O = O = ` = O = O = O = g.Q = O = O = O = O ` = O = O = g.Q = O = O = O = O ` = O = O = g.Q = O = O = O = O ` = O = O = g.Q = O = O = O = O ` = O = O = O = O O O Q Q Q O Q O Q = = = O O = ",
"= O = = = = O O O = Q = O = O = O = O = O = O = O O O = O = O = O O O = O O O O O O = = O O O O = = = = = = = = = O O = = = = = = = ~ = O Q Q Q Q Q Q ; ; ; ; ; ; = = O X X X X O = ; ; = = O O O O O O O O O O O O O O = O O = = O = O O O O = O O g.O ` = ` Q O Q Q O O O O O = = = O Q Q Q Q O O Q Q Q Q Q R R ` ` r.&X&XfX&Xr.r.` ` ` ` . g.g.= ` R 6.4XK.X.K.1X| / K K K j j j j j j W W j K ....| | e.6.~ Q Q = O = = = O Q Q Q Q z.Q ` ` ` r.6.Z.aX6.e.| ..K K j / / j j j / / / / ........| ..,Xz.R ` ` g.` g.= Q Q Q O = g.= = = = = O = O = O = O = O = O = O = O = O = Q = = Q Q X X O ; ; ; = = O O = ` ~ ~ ~ ` ` ` ` V J - :.:.[ [ [ [ [ [ [ [ [ [ [ [ [ [ 9 [ 9 9 9 9 9 [ e e e e e e e e e e e 9 e 9 e e 9 [ 9 9 e 9 9 9 9 9 9 [ [ [ [ :.:.:.:.:.:.:.:.:.:.:.' r N J Z.` ` ~ ~ ` ` R . R O O = = O = Q = ; = = = = = = g.= O = O = Q = = O = O = = = O = O = = = O = ` O = Q = O = O = ` O = O = = O = O = Q = O = O = ` O = O = = O = O = Q = O = O = ` O = O = = O = O = Q = O = O = ` O = O = = O = O = ` O = O = O O O Q X ; Q O = = = = O O ",
"= = = = = = = = = = O = = = = = = = = = = = ` = = = = = = = = = = = = = = = = = = O = = = = = = = = = = = = = = = = = = = = = = = = = = = O O = = = = = = = = = = Q = = ; O O = = = = = = = = = = = = = = = = = = = = = = = = = = = = = = O Q Q ` Q ` O = Q Q Q Q = Q Q Q Q = = = = = Q Q Q ~ Q Q X X Q Q Q Q Q ` r.fXfXfXfXfXL.L.L.r.r.` ` g.g.` g.~ ` ~ 6.K.X.X.K.| ....K K / j j W W j j W j K K K ..| | e.6.~ Q O O O = = O Q Q Q Q Q Q ` ` 6.&X6.aX,X6.| ../ K j j j / K / / j / / K ......| | 6.~ Q ~ ` ` g.= = Q Q Q O = = g.g.= g.= = = = = = = = = = = = = = = = = = = = = = Q = Q O O = = = = = = = O = ` ` ` ` ` ` ` ` R R V $ N ^ ^ ' :.:.:.:.:.[ :.:.:.:.:.:.[ 9 9 9 9 [ [ e e e e e e e e e e M M e 9 9 9 e 9 [ e [ 9 [ 9 [ [ :.:.' ^ ^ -       $ $ $ $ 2 3 # 7 7 F R ` ` = ` = = = O = O O = = = Q = ; = = = = = = = g.= = = = = = = = = = = = = = = = = = = = = = = = = = = = = = = = = = = = = = = = = = = = = = = = = = = = = = = = = = = = = = = = = = = = = = = = = = = = = = = = = = = = = = = = = = = = = = = = = Q O Q = O = = = = = = = ",
"= = = = = = = = = = = = = = = = = = = = = = = = = = = = = = = = = = = = = = = = = = = = = = = = = = = = = = = = = = = = = = = = = = = = = = = = = = = = = = = ; = = = = = = = = = = = = = = = = = = = = = = = = = = = = = = = = = = = = = ` Q ` Q O ` ` = ` Q = Q Q Q ; O ; = = = ` = ` z.Q ~ Q Q X O ; Q z.Q ` r.fXfX].qXfXfXL.L.L.L.L.r.` ` ` g.g.~ Q Q ~ e.X.X.K.K.| ....K / j j W W j W j K j K K / ..| | | 6.~ ` R O = = Q X Q Q ; Q Q R ` 6.6.r.aX,X| | ../ j W j K K K K / j j K K ....| e.| ~ Q ` ~ ` g.` ` Q Q Q Q = = @ g.@ g.= = = = = = = = = = = = = = = = = = = = = = = = = = = = = = = = = = = = = = = = = = ~ = = = = R R V V 3 4.4.4.N N   ^ o ^ N N ^ ^ ' :.[ 9 9 9 e e e e M e e e e e e e 9 e 9 9 9 9 9 9 [ [ [ [ :.' ^ ^ 4.4.3 s s V F V 5 F F F F F R . g.g.g.= = = = = = = = = = = = = = = = = = = = = = = = = = = = = = = = = = = = = = = = = = = = = = = = = = = = = = = = = = = = = = = = = = = = = = = = = = = = = = = = = = = = = = = = = = = = = = = = = = = = = = = = = = = = = = = = = = = = = = = = = = ; = ; = = = = = = = = = ",
"= = = = = = = = = = = = = = = = = = = = = = = = = = = = = = = = = = = = = = = = = = = = = = = = = = = = = = = = = = = = = = = = = = = = = = = = = = = = = = = = = = = = = = = = = = = = = = = = = = = = = = = = = = = = = = = = = = = = = Q Q Q ` Q O O O = Q Q Q ; O Q ; O = = = g.g.` R R ` = = = @ @ ; Q Q ` L.fXqXqXqXqX#X#X#XL.fXL.r.` ` g.R O = O X ~ e.X.X.X.K.4X| ....K j j W W W j j W j K K / ..| | e.6.~ ~ ` ` ` ~ O X Q Q Q Q Q R ` 6.r.` Z.6.| | / j j j K j K / / K j j K K ..| | | e.~ = g.~ ` g.g.= Q Q Q Q = = g.g.g.g.= = = = = = = = = = = = = = = = = = = = = = = = = = = = = = = = = = = = = = = = = = = = = = = ` Q ` R R R R F F F F 5 F V V V V J N ^ :.[ 9 9 9 e e e e e e e [ [ [ [ [ [ 9 9 9 9 9 [ :.:.' ^ N > # s s F R R ` ` ` ` ` = ` = = = = g.= = O O = = = = = = = = = = = = = = = = = = = = = = = = = = = = = = = = = = = = = = = = = = = = = = = = = = = = = = = = = = = = = = = = = = = = = = = = = = = = = = = = = = = = = = = = = = = = = = = = = = = = = = = = = = = = = = = = = = = = = = = = = = = = = = = = = = = = = ",
"= O = O O = O = O = O = = = = = = = = = = = = = = = = = = = = = = = = = = = = = = = = = = = = = = = = = = = = = = = = = = O = Q = O = = = = = = = = = = = = = = = = = = = = = = = = = = = = = = = = = = = = = = = = = = = = = = = = = = O O O = O = = g.= = = = = O ; = = = = g.g.g.g.g.g.` ` g.g.g.g.@ g.g.g.L.fXqXqXKXqXqX#X<X<X<X#XL.L.r.` ` O R O O . ~ e.K.X.X.K.K.e.| ..K W j j j j W j j j j K K / ..| | e.6.~ ` ` ` ~ O X X Q ; Q R ` ` 6.6.Z.,X6.| | / j j j j j / K K / j j K K ..| 1X| 6.~ O g.` ` ` = ` Q Q Q Q O O = g.@ g.= = = = = O = O = O = O = O = O = O = O = O = O = = = = = = = = = = = = = = = = = = = = O = Q = ~ ~ ` ` ` ~ ~ ~ ~ ` ` ` ` ` ` ` Z.Z.J ^ ' [ 9 9 9 e e e e e e e e e 9 [ [ [ [ [ [ :.' ^ N J J V R R R R ` ` ~ ` ~ ~ ~ ~ ~ ~ = ~ g.~ = = = = = = = = O = O = O = O = O = = = O O = = = = = = = = = = O = O = O = O = O = = = = = = = = = = = = = = = = = = = = = = = = = = = = = = = = = = = = = = = = = = = = = = = = = = = = = = = = = = = = = = = = = = = = = = = = = = = = = = = = = = = = = = = = = = = = = = = = = ",
"= = = = = O = O = O = O = = = = = = = = = = = = = = = = = = = = = = = = = = = = = = = = = = = = = = = = = = = = = = = = = = O = O = O = = = = = = = = = = = = = = = = = = = = = = = = = = = = = = = = = = = = = = = = = = = = = = = = = = = = = = g.= = = = = = = = = = = = = = g.@ g.g.` g.g.g.g.g.@ g.g.g.r.fXy.+.q.q.q.q.#Xw.<X<X<XL.L.~ ` ` O O = O O ` 6.4XX.X.X.X.K.| ..K W j j j j j j K W K j K / ..| | e.6.~ ` Q ` = O O X O Q Q z.R ` 6.r.,X,X6.| ../ j j j j K K / / j j j K K ..| 1X| ~ Q O g.g.g.g.O O Q Q Q Q O O = g.g.= g.= = = = = O = O = O = O = O = O = O = O = O = O O = = = = = = = = = = = = = = = = = O = O O O ` Q ` = ` = ~ g.= = g.g.` ` ` ` ` R V J N ' :.[ [ [ [ [ [ [ 9 9 9 9 [ [ :.:.:.' ^ ^ N J V Z.Z.R ` ` ` Q ` Q ` ~ ` = ~ = O . = = O = = = = = = = = O = O = O = O = O = O = = = = = = = = = = = = = O = O = O = O = O = O = = = = = = = = = = = = = = = = = = = = = = = = = = = = = = = = = = = = = = = = = = = = = = = = = = = = = = = = = = = = = = = = = = = = = = = = = = = = = = = = = = = = = = = = = = = = = = = = ",
"= = = = O = O = O = O = = = = = = = = = = = = = = = = = = = = = = = = = = = = = = = = = = = = = = = = = = = = = = = = = = O = O = O = = = = = = = = = = = = = = = = = = = = = = = = = = = = = = = = = = = = = = = = = = = = = = = = = O = O = O = = = = = O = O = O ; O = = = = = = g.g.` g.g.g.g.g.g.g.g.~ L.fXy.+.+.q.q.q.C.#X<X<X<XL.fX&X~ ` O O ` = O O ~ e.K.X.X.X.K.1X..K W j j j j j j j j j j K K / ..| | | 6.~ Q ` ` O O . O Q Q R R ~ 6.6.R 6.e.| ../ j j j j j j / K j j j K ....| 1X| ~ Q O g.g.` g.` O Q Q Q Q O = = = g.= = = = = O = O = O = O = O = O = O = O = O = O = O = = = = = = = = = = = = = = = = = O = O = Q X O R O O = ` = O g.O . g.g.g.` ` ` ` ` V J N ^ ' :.' ' ' ' :.:.[ :.[ :.' ^ ^ N $ J V V R R ` ` ` ` Q ` Q R R O Q O O R O R O O O O = = = ~ = = = = = O = O = O = O = O = = = = = = = = = = = = = O = O = O = O = O = O = = = = = = = = = = = = = = = = = = = = = = = = = = = = = = = = = = = = = = = = = = = = = = = = = = = = = = = = = = = = = = = = = = = = = = = = = = = = = = = = = = = = = = = = = = = = = = = = = ",
"= = = = = O = O = O = O = = = = = = = = = = = = = = = = = = = = = = = = = = = = = = = = = = = = = = = = = = = = = = = = = = O = O = O = = = = = = = = = = = = = = = = = = = = = = = = = = = = = = = = = = = = = = = = = = = = = = = O = = = = g.= = = = O O O O ; Q X Q Q X Q Q O Q Q = g.` g.. X O = = g.~ fX].qX+.+.q.q.qX8X#X#Xw.#X#XfX&X~ ~ ` O = = O X Q 6.4XK.X.X.X.K.| K K W j j j j j j j W K j K / ....| | 6.~ Q Q O ` O O O = ` R R ` 6.` ,X6.| | ../ j j W j j j j j j j j K ....| e.6.Q Q ` ` g.g.. O O Q Q Q Q O = = = g.= = = = = = O = O = O = O = O = O = O = O = O = O = O = = = = = = = = = = = = = = = = = O = O O O O Q O O O O O O O O g.= = = g.g.` ` ` ` R V J $ N N N $ N o ^ ^ ^ ^ ^ 4.* s V R R ` ` ` ` ` R ` ` Q Q Q X Q R X R Q O O = Q = O Q = = = O = = = O = O = O ` = O = O = O O = = = = = = = = = = = = O = O = O = O = O = O O = = = = = = = = = = = = = = = = = = = = = = = = = = = = = = = = = = = = = = = = = = = = = = = = = = = = = = = = = = = = = = = = = = = = = = = = = = = = = = = = = = = = = = = = = = = = = = = ",
"= = = = O O = O = O = O = = = = = = = = = = = = = = = = = = = = = = = = = = = = = = = = = = = = = = = = = = = = = = = = = O = O = O = = = = = = = = = = = = = = = = = = = = = = = = = = = = = = = = = = = = = = = = = = = = = = = O O = g.= g.= = = O O O O Q Q X Q Q Q Q z.Q z.Q z.z.Q X . O Q Q Q Q O ` ~ fX].qX+.+.C.8X8XqX8X#X#X#XfXfX&X~ ~ g.O = ~ Q z.z.` 6.4XX.X.X.K.1X..K K K K j j j W j W W W j K K ..| | 6.6.~ Q R g.g.g.g.Q ` ` ,X` ,X` ,X6.| ..../ j j j j W j K j j j j / ..| | | 6.Q Q g.~ g.g.g.O O Q Q X Q O O O = = = = O O = O = O = O = O = ` O = O = ` O = O = O = O = = = = = = = = = = = = = = = = = O O = O O O O Q O = = = O = = = = @ g.= = O g.g.g.` R R F V V F V V 5 V s s s s s F R R R ` ` ` ~ ` ` R R Q Q ` Q R Q X Q X Q O Q = Q = = ` = Q O O O O O O = O = O = = = O = O = O = = = = = = = = = = = O O = O = O = ` O = O = O = = = = = = = = = = = = = = = = = = = = = = = = = = = = = = = = = = = = = = = = = = = = = = = = = = = = = = = = = = = = = = = = = = = = = = = = = = = = = = = = = = = = = = = = = = = = = = = = ",
"O O O O O O O O O O O O O O O O O O O O O O O O O O O O O O O O O O O O O O O O O O O O O O O O O O O O O O O O O O O O O O O O O O O O O O O O O O O O O O O O O O O O O O O O O O O O O O O O O O O O O O O O O O O O O O O O O O O O g.= O O g.O O O Q X Q Q z.Q z.z.z.Q z.Q z.z.Q z.O g.= ; Q Q Q Q R ` &XfXqX+.C.8X#X7X7X#XfX#XfXfXL.~ ` ` O O O ~ Q Q R ` 6.e.K.X.X.X.K.| ....K K j K j j W W j W K K / ....| ..6.~ Q X R g.~ g.` ` ~ ` ,X` ,X6.e.| ..../ j j W W j j j j j j j K ..| e.| ~ Q R ~ ~ g.g.. O O X Q Q X Q O O O O g.O O O O O O O O O O O O O O O O O O O O O O O O O O O O O O O O O O O O O O O O O O O O O O O O O O = Q = = = = = @ @ @ = O O . . O R g.` ` R R R R ` ` ` ` R R R ` Q ` ` Q ` Q Q ~ Q Q Q Q Q Q Q Q Q Q Q Q Q Q Q = = Q O Q O O O O O Q O X O O O O O O O O O O O O O O O O O O O O O O O O O O O O O O O O O O O O O O O O O O O O O O O O O O O O O O O O O O O O O O O O O O O O O O O O O O O O O O O O O O O O O O O O O O O O O O O O O O O O O O O O O O O O O O O O O O O O O O O O O O O O O O O O O O O O O O ",
"O O O O O O O O O O O O O O O O O O O O O O O O O O O O O O O O O O O O O O O O O O O O O O O O O O O O O O O O O O O O O O O O O O O O O O O O O O O O O O O O O O O O O O O O O O O O O O O O O O O O O O O O O O O O O O O O O O O O O g.R O O O X Q Q X Q z.Q z.Q z.Q z.Q z.z.Q z.Q g.g.~ ~ ; Q Q Q R R r.fXqXqXqX7X7X7X7X7X7XfXfX&Xr.` R g.O . O Q ~ Q Q ` ` 6.4XX.X.X.XXK.| ..K K K j j j W W W W j K K / ....| ..6.Q z.R g.~ g.` ` ,X` ,XR ,X6.| | ../ / j j j W j W j j j j j ....| e.6.~ Q Q ` ` g.g.O O O O X X Q X O O = O = O O O O O O O O O O O O O O O O O O O O O O O O O O O O O O O O O O O O O O O O O O O O O O O O Q X Q = = = O = = = @ @ O O . . . g.O O = O ` ` ` Q O ` ` = ` ~ = = = Q = Q Q Q Q Q Q Q Q Q Q O Q = O O O O Q = = = Q O O O O O O O O O O O O O O O O O O O O O O O O O O O O O O O O O O O O O O O O O O O O O O O O O O O O O O O O O O O O O O O O O O O O O O O O O O O O O O O O O O O O O O O O O O O O O O O O O O O O O O O O O O O O O O O O O O O O O O O O O O O O O O O O O O O O O O O O O O O O O O O O O ",
"O O O O O O O O O O O O O O O O O O O O O O O O O O O O O O O O O O O O O O O O O O O O O O O O O O O O O O O O O O O O O O O O O O O O O O O O O O O O O O O O O O O O O O O O O O O O O O O O O O O O O O O O O O O O O O O O O O O O O R R R R Q Q Q X z.Q Q z.Q Q Q Q Q Q Q Q z.Q X g.g.= = O X Q Q z.R ` &XqXqXqXqX7X7X7XnXfX&X&X&X` R F ` = O X Q ~ Q ` ` ` 6.e.K.X.X.X.X.K.| ..K K / j j j W j W j j K K K ..| | 6.Q z.X ` ~ g.` ` ~ 6.,X,X,Xe.| | ..K / j j W j W j W j W j j / ..e.e.6.~ Q Q O ` g.= g.O O O Q O X Q O O O O O O O O O O O O O O O O O O O O O O O O O O O O O O O O O O O O O O O O O O O O O O O O O O O O O O Q Q ; = = = O = = = = O O O O O O O g.` O O O = = R O O = = = ` Q Q O Q O = Q O Q Q X Q Q = O O O Q O Q O = Q = Q = O Q O O O O O O O O O O O O O O O O O O O O O O O O O O O O O O O O O O O O O O O O O O O O O O O O O O O O O O O O O O O O O O O O O O O O O O O O O O O O O O O O O O O O O O O O O O O O O O O O O O O O O O O O O O O O O O O O O O O O O O O O O O O O O O O O O O O O O O O O O O O O O O O ",
"O O O O O O O O O O O O O O O O O O O O O O O O O O O O O O O O O O O O O O O O O O O O O O O O O O O O O O O O O O O O O O O O O O O O O O O O O O O O O O O O O O O O O O O O O O O O O O O O O O O O O O O O O O O O O O O O O O O O R R Q R Q Q Q X Q Q Q X R R R R R R R R Q O O O . O O O X X X Q R R r.&XqXKXKXKXwXqX7X7X7X&X&Xr.` R R ~ ~ O X X Q Q Q Q R ~ 6.4XK.X.X.X.K.1X2XK ../ K j j j j W j W j K K ..| | ..,Xz.X ` ` ` ` ` ,X` ,X,X6.e.| ..K K j j j W j W j W j j j / ..| e.e.6.~ Q R R g.= ~ = O X O X O Q X O O O O = O O O O O O O O O O O O O O O O O O O O O O O O O O O O O O O O O O O O O O O O O O O O O O O O O Q ; ; ; ; = O O = = = = = = = = = = O O O O O ` = O X X O O = = O . O = Q = = = = Q Q Q O O O O O O O O O Q = = O O O = = = O O O O O O X X O O O O O O O O O O O O O O O O O O O O O O O O O O O O O O O O O O O O O O O O O O O O O O O O O O O O O O O O O O O O O O O O O O O O O O O O O O O O O O O O O O O O O O O O O O O O O O O O O O O O O O O O O O O O O O O O O O O O O O O O O O O O O O O O O O O O O ",
"O O O O O O O O O O O O O O O O O O O O O O O O O O O O O O O O O O O O O O O O O O O O O O O O O O O O O O O O O O O O O O O O O O O O O O O O O O O O O O O O O O O O O O O O O O O O O O O O O O O O O O O O O O O O O O O O O O O X X R R Q Q z.Q z.X X X O g.g.g.g.g.g.g.g.g.g.g.= = ; ; Q Q X Q X z.R ` &XqXqXq.KXq.qX7X#XL.fXL.r.` R R O Q X X X Q R R R ,X,X6.e.K.X.X.X.XXK.| | ..K / / / j j W W j j K K ..| | | 6.~ Q R g.g.` ` 6.,XaX6.| | | ../ / / j j j W j W j W j j K ..| e.6.~ ~ Q R O O = ` g.O O O Q O X ; X ; X = . O O O O O O O O O O O O O O O O O O O O O O O O O O O O O O O O O O O O O O O O O O O O O O O O Q Q Q Q Q Q O X O O O O O O O = O O O O X O X O O O O O O O O O O O O O O O O O O Q O O O X O X O O O O O O O O O O O O O O O O O O O O O O O O O O O O O O O O O O O O O O O O O O O O O O O O O O O O O O O O O O O O O O O O O O O O O O O O O O O O O O O O O O O O O O O O O O O O O O O O O O O O O O O O O O O O O O O O O O O O O O O O O O O O O O O O O O O O O O O O O O O O O O O O O O O O O O O O O O O O ",
"X X X X X X X X X X X X X X X X X X X X X X X X X X X X X X X X X X X X X X X X X X X X X X X X X X X X X X X X X X X X X X X X X X X X X X X X X X X X X X X X X X X X X X X X X X X X X X X X X X X X X X X X X X X X X X X X X X X Q R z.Q z.Q z.Q X Q X O O g.g.g.g.g.g.g.g.g.g.g.O O Q Q Q X X X X z.R ` &XqXqXq.q.q.C.#X<X<XL.L.L.r.g.O X X X Q R O Q R Q Q Q ` 6.e.K.X.X.X.K.K.1X....K / K / j j j j K j K K ..| | ..6.Q R g.R ` ` ` ,X,X,X| | ....K / K / j j W j W W j W j / ..e.e.6.~ Q ` O . O = = = O O X O X Q X X X O O O O O X X X X X X X X X X X X X X X X X X X X X X X X X X X X X X X X X X X X X X X X X X X X X X X X X X X Q X Q X X O X O X O X O O X X O X X O O O O O g.O O O O O O O O O O O O X O X O O O O O O O O O X X X X X X X X X X X X X X X X X X X X X X X X X X X X X X X X X X X X X X X X X X X X X X X X X X X X X X X X X X X X X X X X X X X X X X X X X X X X X X X X X X X X X X X X X X X X X X X X X X X X X X X X X X X X X X X X X X X X X X X X X X X X X X X X X X X X X X X X X X X X X X X X X X X X X X X ",
"X X X X X X X X X X X X X X X X X X X X X X X X X X X X X X X X X X X X X X X X X X X X X X X X X X X X X X X X X X X X X X X X X X X X X X X X X X X X X X X X X X X X X X X X X X X X X X X X X X X X X X X X X X X X X X X X X X O X Q ` Q Q Q Q z.Q Q Q O O g.g.g.g.g.g.g.g.g.g.= O X z.z.X X O = X z.R ` &XqXqXq.+.C.x w.<X<XL.L.L.g.g.. X Q X X X O O X X Q z.R ~ e.4XK.X.X.X.K.K.| ....K / K / j j j j K K K K ..| | 6.~ R F R ` ` ,XaX,X6.| ..../ / K j j j j W j W j j j j K ..e.6.6.~ Q Q R X O = = O O O O O X X O X Q X X O X O X X X X X X X X X X X X X X X X X X X X X X X X X X X X X X X X X X X X X X X X X X X X X Q X Q X Q X X X X X Q X X X O X X X X X X X X X X . . . . . . . . . . . . . . . . O . O O X O X X X O O O X X O X O X O X O X O X O X X X X X X X X X X X X X X X X X X X X X X X X X X X X X X X X X X X X X X X X X X X X X X X X X X X X X X X X X X X X X X X X X X X X X X X X X X X X X X X X X X X X X X X X X X X X X X X X X X X X X X X X X X X X X X X X X X X X X X X X X X X X X X X X X X X X X X X X X X X ",
"X X X X X X X X X X X X X X X X X X X X X X X X X X X X X X X X X X X X X X X X X X X X X X X X X X X X X X X X X X X X X X X X X X X X X X X X X X X X X X X X X X X X X X X X X X X X X X X X X X X X X X X X X X X X X X X X X X X O = = = Q X Q Q Q Q ; Q O = g.g.~ g.g.g.= O O X X X X X . O = ~ = R R ` fXqXq.+.+.C.w.<X<X<X#XL.L.r.g.O X X X Q X X R O X Q Q R R 6.e.K.X.X.X.X.XXK.1X....K / / / j j j j W K K K | | | 6.Q F R ` ` aXaX,X....../ K / K K K j W j j W j j j K / ..e.6.~ Q Q R X R O = = O O . X O X O X X X O X O O O X X X X X X X X X X X X X X X X X X X X X X X X X X X X X X X X X X X X X X X X X X X X O X X z.R X R Q z.Q X X X X O X X X X X X X X X X X . . . . . . . . . . . . . . . . . O . O X . O O X X X X X O X O X X O X X O X X X X X X X X X X X X X X X X X X X X X X X X X X X X X X X X X X X X X X X X X X X X X X X X X X X X X X X X X X X X X X X X X X X X X X X X X X X X X X X X X X X X X X X X X X X X X X X X X X X X X X X X X X X X X X X X X X X X X X X X X X X X X X X X X X X X X X X X X X X X X X ",
"X X X X X X X X X X X X X X X X X X X X X X X X X X X X X X X X X X X X X X X X X X X X X X X X X X X X X X X X X X X X X X X X X X X X X X X X X X X X X X X X X X X X X X X X X X X X X X X X X X X X X X X X X X X X X X X X X X O O = = O O Q Q Q ; Q ; ; O O O g.` g.g.. X X Q Q Q Q R R . g.~ ~ = R z.` fXqXq.+.+.C.w.<X<X<XL.L.L.g.g.X X X X X X X X X X R X X R ~ 6.e.K.X.X.X.X.XX1X1X....../ K j j j K K W K K ..| | 6.Q z.R ` Z.aXaX6......./ / / K j K j j j W j j W j K ....e.6.~ X R X Q O Q = = O O O O . O O X O X X O X X X X X X X X X X X X X X X X X X X X X X X X X X X X X X X X X X X X X X X X X X X X X X X X O R Q X X Q X X X X X Q X X X Q X X X X X X X X X . . O . . O . . . . . . . . . . . . . . O . X O O X O O X X X X O O X X O X X X X X X X X X X X X X X X X X X X X X X X X X X X X X X X X X X X X X X X X X X X X X X X X X X X X X X X X X X X X X X X X X X X X X X X X X X X X X X X X X X X X X X X X X X X X X X X X X X X X X X X X X X X X X X X X X X X X X X X X X X X X X X X X X X X X X X X X X X X X X X X ",
"X X X X X X X X X X X X X X X X X X X X X X X X X X X X X X X X X X X X X X X X X X X X X X X X X X X X X X X X X X X X X X X X X X X X X X X X X X X X X X X X X X X X X X X X X X X X X X X X X X X X X X X X X X X X X X X X X X . O O O O O X Q Q ; ; ; Q O X R R ` R R R z.z.z.z.z.Q R R F R = = Q z.z.` fXqXq.+.+.C.w.<X<X<X#XL.L.g.g.X X X X Q X Q X O . O R . Q ` ~ 6.4XK.X.X.X.X.K.1X| ..../ / j j j j j K K K ..| | ..~ ~ ` ` aX4.aX6...../ K j K j K j K K j j W j j K K ..| e.~ ` X R X R Q O Q O O O . O X O . O X X O X X O X X X X X X X X X X X X X X X X X X X X X X X X X X X X X X X X X X X X X X X X X X X X O X X Q X X X X X R X Q X X X X X X X X X X X X X X X X X O O . X O . . . . . . . . . . . . . . O X X O X O O O X O X X O X O O O X X X X X X X X X X X X X X X X X X X X X X X X X X X X X X X X X X X X X X X X X X X X X X X X X X X X X X X X X X X X X X X X X X X X X X X X X X X X X X X X X X X X X X X X X X X X X X X X X X X X X X X X X X X X X X X X X X X X X X X X X X X X X X X X X X X X X X X X X X X X X X ",
"X X X X X X X X X X X X X X X X X X X X X X X X X X X X X X X X X X X X X X X X X X X X X X X X X X X X X X X X X X X X X X X X X X X X X X X X X X X X X X X X X X X X X X X X X X X X X X X X X X X X X X X X X X X X X X X X X X X . g.g.O O O ; ; Q Q Q X X R ` ` r.r.Z.Z.R R z.z.R ` ` R R z.R Q z.z.aX6.&Xy.q.+.+.C.w.<X<X<X<XL.L.g.g.X O X X X Q X X X X g.g.g.Q Q ` ~ 6.4XK.X.X.X.X.K.1X| ..../ / / j j j K K K ....| | 6.6.6.,XaXaXaX| | ..K j j j K K K K j j j W W j K ....| 6.~ ` X R X Q O Q O O X O O . O . . O O X X O X X X X X X X X X X X X X X X X X X X X X X X X X X X X X X X X X X X X X X X X X X X X X X X O R X X Q X Q X X Q X X X Q X Q X X X X X X X X X X X X X O X X X O O O O O O O O O O O O O O O X X X X O O . . O X X O . O O O . O X X O . . . . X X X X X X X X X X X X X X X X X X X X X X X X X X X X X X X X X X X X X X X X X X X X X X X X X X X X X X X X X X X X X X X X X X X X X X X X X X X X X X X X X X X X X X X X X X X X X X X X X X X X X X X X X X X X X X X X X X X X X X X X X X X X X X X X X X X X X ",
"X X X X X X X X X X X X X X X X X X X X X X X X X X X X X X X X X X X X X X X X X X X X X X X X X X X X X X X X X X X X X X X X X X X X X X X X X X X X X X X X X X X X X X X X X X X X X X X X X X X X X X X X X X X X X X X X X X X . . O O O = = Q Q X X R R ` r.r.L.L.&Xr.r.r.Z.Z.Z.Z.6XZ.aXR z.Q ,Xz.,X` &Xy.q.+.+.C.w.<X<X<X#XL.L.r.g.X X Q X X X z.X X . g.g.= ` Q z.R ~ 6.4XK.X.X.X.X.K.1X| ../ / / / / K W K K K ....| | e.6.6.aXaX,X| ....K j W j K / K / K K j W W j K ..| | 6.~ O X X Q X X O O O X X . . . O . . . O X X O X X X X X X X X X X X X X X X X X X X X X X X X X X X X X X X X X X X X X X X X X X X X X X X X O X X X X X X X X X X X X X X X X X X X X X X X X X X X X X X X X X X X X X X X X X X X X X X . . . . . . . . . . . . . . . . . . . . . . . . . X X X X X X X X X X X X X X X X X X X X X X X X X X X X X X X X X X X X X X X X X X X X X X X X X X X X X X X X X X X X X X X X X X X X X X X X X X X X X X X X X X X X X X X X X X X X X X X X X X X X X X X X X X X X X X X X X X X X X X X X X X X X X X X X X X X X ",
"X X X X X X X X X X X X X X X X X X X X X X X X X X X X X X X X X X X X X X X X X X X X X X X X X X X X X X X X X X X X X X X X X X X X X X X X X X X X X X X X X X X X X X X X X X X X X X X X X X X X X X X X X X X X X X X X X X X . . O O = = O X X . R Q.r.r.L.fXfX7XfXfX>XL.L.L.r.r.r.r.Z.R aXR R ,XR ` fXy.q.+.+.C.<X<X<X<XL.L.L.g.g.X X X X X X X X X . g.g.g.= Q F F R ~ e.4XK.X.X.X.X.K.| | ../ / / j j K K K K ....| | e.e.6.,X,X6.| ..K j W j j K / K K / K W W j K K ..| | 6.~ R . O Q Q X X O X X . . . . . . . . . X X X X X X X X X X X X X X X X X X X X X X X X X X X X X X X X X X X X X X X X X X X X X X X X X X . . . . . . . . X . . X X X X X X X X X X X X X X X X X X X X X X X X X X X X X X X X X X X X X . . . . . . . . . . . . . . . . . . . . . . . . . X X X X X X X X X X X X X X X X X X X X X X X X X X X X X X X X X X X X X X X X X X X X X X X X X X X X X X X X X X X X X X X X X X X X X X X X X X X X X X X X X X X X X X X X X X X X X X X X X X X X X X X X X X X X X X X X X X X X X X X X X X X X X X X X X X X X ",
"X X X X X X X X X X X X X X X X X X X X X X X X X X X X X X X X X X X X X X X X X X X X X X X X X X X X X X X X X X X X X X X X X X X X X X X X X X X X X X X X X X X X X X X X X X X X X X X X X X X X X X X X X X X X X X X X X X X X R R Q Q Q Q X % R ` r.L.fX#X7X8XqX8X8X8X8X#X#X#XL.L.L.r.r.Z.` ` R R Z.L.y.+.+.q.C.<X<XtXL.#XL.L.` . X X X z.X X X X . . O g.= g.g.R R z.R 6.e.4XX.@XX.X.XXK.| | ../ / j j K W K K K ..| | e.e.6.6X6.4X| ..K j j j j / K ../ K K j W j K K ..| | ~ Q . R O Q Q X X X X X . O . . . . . . . X X X X X X X X X X X X X X X X X X X X X X X X X X X X X X X X X X X X X X X X X X X X X X X X X X . . . . . . . . . . . . . . . . . . . . . . . X X X X X X X X X X X X X X X X X X X X X X X X X X . . . R . R . . . . . . . . . . . . . . . . . . X X X X X X X X X X X X X X X X X X X X X X X X X X X X X X X X X X X X X X X X X X X X X X X X X X X X X X X X X X X X X X X X X X X X X X X X X X X X X X X X X X X X X X X X X X X X X X X X X X X X X X X X X X X X X X X X X X X X X X X X X X X X X X X X X X X X ",
"X X X X X X X X X X X X X X X X X X X X X X X X X X X X X X X X X X X X X X X X X X X X X X X X X X X X X X X X X X X X X X X X X X X X X X X X X X X X X X X X X X X X X X X X X X X X X X X X X X X . . . . . . . X X . . . . . . X X R R R Q Q X % F Q.r.L.L.#X8X8X~.~.~.~.8X8X8X8X8XC.#X#XfXL.L.r.r.r.r.r.L.#X+.q.q.8X#XtXtXtXL.L.L.` . X X X X X X O . . g.O O g.g.~ ` R z.aX,X6.e.yXX.X.X.X.K.K.| ../ / / K K W K K K K ..| | | e.6.4X4X| ..K j j j K K K K K K / j K j K ..| | e.~ X % % O = O X X X O O . . . . g.. g.. X R X X X X . . . . . . . . . . . . . . . . . . . . . . X X X X X X X X X X X X X X X X X X X X X X X . . . . . . . . . . . . . . . . . . . . . X . . X X X z.X X X X X X X X X X X X X X X X X X X X . . R . . . . . . . . . . . . . . . . . . . . . . . X X X X X X X X X X X X X X X X X X X X X X X X X X X X X X X X X X X X X X X X X X X X X X X X X X X X X X X X X X X X X X X X X X X X X X X X X X X X X X X X X X X X X X X X X X X X X X X X X X X X X X X X X X X X X X X X X X X . . X X . X X X X . X X X X X X ",
"X X X X X X X X X X X X X X X X X X X X X X X X X X X X X X X X X X X X X X X X X X X X X X X X X X X X X X X X X X X X X X X X X X X X X X X X X X X X X X X X X X X X X X X X X X X X X X X X X X . . . . . . . . R . . g.g.. . . R X R R Q R O . % Q.` L.fX#X8X~.~.~.~.~.~.~.~.~.~.~.8Xq.8X8X7X#XfXfXfXfXL.#X8Xq.q.qX8X#XtXtXtXL.L.r.` . X X X X X . g.g.g.g.g.= g.g.g.~ ` R z.R Z.6.4XyXX.X.X.XXK.1X| ..../ K W K W K K K K / ......e.4XK.| K j j j j K K ..K K K K / j / / ..| e.6.~ X % . O O X X X X O O . . O . . . . . X X R X R . R g.. . . . . . . . . . . . . . . . . . . . . . X X X X X X X X X X X X X X X X X X X X . . . . . . . . . . . . . . . . . . . X . X . O X X X X X Q X X X X X X X X X X X X X X X X X X X . . . . . . R . . R . . R . . . . . . . . . . . . . . X X X X X X X X X X X X X X X X X X X X X X X X X X X X X X X X X X X X X X X X X X X X X X X X X X X X X X X X X X X X X X X X X X X X X . . . . . . . . . . . X X X X X X X X X X X X X X X X X X X X . . . . X X . . X X X . . X . . . . . X . . X . . X X X X X ",
". . . . . . . . . . . . . . . . . . . . . . . . . . . . . . . . . . . . . . . . . . . . . . . . . . . . . . . . . . . . . . . . . . . . . . . . . . . . . . . . . . . . . . . . . . O X X X X X X X O . g.g.g.. g.. . R g.R g.g.g.. . X R R ` = = g.g.g.r.L.qXKXKX<.<.<.<.<.<.<.<.~.~.~.~.~.~.~.8X8X8X8X8X8X8X8Xq.q.q.q.8X#X<XtX<XL.L.L.` O Q O O O O g.g.g.g.g.@ g.g.g.g.g.g.R R R Z.` 6.4XK.X.X.X.XXK.K.| ....K K W K K K K K K j j ..| 4X| ../ / j j K K K K 2XK K K j j / ..| e.e.6.` . . . . X . X X X X . X X X . X R X R X R R R R g.g.g.g.g.O O O . O O g.O O O . O g.O g.= O O O . . . . . . . . . . . . . . . . . . . . . . . . . . . . . . . . . . . . . . . . . O . O . . O O X X O X X O X X O X X X X X X X X X . X X X O . . O . O . . . . . . . . O . . . . . . . . . . . . . . . . . . . . . . . . . . . . . . . . . . . . . . . . . . . . . . . . . . . . . . . . . . . . . . . . . . . . . . . . . . . . . . . . . O O O O O O O O O O O X X X X X X X X X X X X X X X X X X X O O O O O X . . . . . . . O . . . . O . O . O . O . O . O . O ",
". . . . . . . . . . . . . . . . . . . . . . . . . . . . . . . . . . . . . . . . . . . . . . . . . . . . . . . . . . . . . . . . . . . . . . . . . . . . . . . . . . . . . . . . . . O X X z.Q X X X g.O O g.g.g.. . . R g.R g.Q.g.g.. . R ` ` = g.g.g.g.r.fXqXKX^.] ) ) ) ) ) ) <.<.<.<.<.<.<.~.<.~.~.~.~.~.~.~.~.~.~.$Xq.8X#X#X>X#X>XL.r.R X X . . . g.g.g.g.g.g.g.g.g.g.g.` R R R R ` r.&X4XK.X.X.X.XXK.K.| ..K K K K K W W W W W W 2X1X| | ../ / / j K K K K K K K K j / / ..| e.&X6.R . . . . . . . X . . . O O O . g.O R O R X O R g.g.g.. g.O g.O O g.. O O . . . O g.O g.= g.g.g.. . . . . . . . . . . . . . . . . . . . . . . . . . . . . . . . . . . . . . . . . . . . O . O . O O O O O O O O O O O O O O O O O O O O O O O . . O . O . O . . . . . . . . . . . . . . . . . . . . . . . . . . . . . . . . . . . . . . . . . . . . . . . . . . . . . . . . . . . . . . . . . . . . . . . . . . . . . . . . . . . . . . . . . O . O O O O O O O O O O X X X X X O X O X O X X O O O O O O O O . . . O . . O O O O O g.O O g.X g.X g.. R g.. R g.O R . O ",
". . . . . . . . . . . . . . . . . . . . . . . . . . . . . . . . . . . . . . . . . . . . . . . . . . . . . . . . . . . . . . . . . . . . . . . . . . . . . . . . . . . . . . . . . . O X X X z.X X X . g.g.g.O . . . . g.R R g.g.g.. . . R ` ` O . . g.g.r.L.7XKX^.] A ) ) ) ] ] ) ) ) ) <.<.<.<.<.<.<.~.0.~.~.~.~.~.~.~.~.8X8X8X8X8X#XL.r.Z.Q.R ` Q.R g.F F F F 6 % . . O = = O O R R R Z.r.&X4XX.X.X.X.X.X.K.4X| K K W j j j W W j K | | | 2X..j / j j K K K K K K K W j / / | e.e.6.` R X X X . . . . . . . . . . O . g.. g.g.g.g.g.g.O O O . . O . O O O O . O . . g.. . . g.O g.O O . O . . . . . . . . . . . . . . . . . . . . . . . . . . . . . . . . . . . . . . . . . . . . . . . . . . . . . . . . . . . . . . . . . . . . . . . . O . . O . . . . . . . . . . . . . . . . . . . . . . . . . . . . . . . . . . . . . . . . . . . . . . . . . . . . . . . . . . . . . . . . . . . . . . . . . . . . . . . . . . . . . . . . . . O O . O . O . O . O O X X X X X X X X O X X O X . . . . . . . . . . . . . O g.. g.. . . . . O R . . O . . . . . . O O . ",
". . . . . . . . . . . . . . . . . . . . . . . . . . . . . . . . . . . . . . . . . . . . . . . . . . . . . . . . . . . . . . . . . . . . . . . . . . . . . . . . . . . . . . . . . . . X X X X X X . . . . g.g.g.. . . . . . . g.. . . O ` ` ` O . % X R r.L.7X$X^.] ] A ) ) ) ] ] ) ) A A ) ) ) ) <.<.<.<.<.~.~.~.~.~.~.~.~.~.8X8X8X8X#XL.L.r.r.r.r.r.Z.Z.Z.R R R R R R ` O ` Q X X z.z.R Z.` e.K.X.X.X.X.X.yXK.e...K j j j j j K ..| 1X1X| ..K / j j j j K K K K K K j j / ..| e.6.6XZ.R X X X X X X . . . . . . . g.g.. g.g.g.g.g.g.. . X X X X . O . . . X . X X X . R R . . . . g.. . . . . . . . . . . . . . . . . . . . . . . . . . . . . . . . . . . . . . . . . . . . . . . . . . . . . . . . . . . . . . . . . . . . . . . . . . O . . O . . . . . . . . . . . . . . . . . . . . . . . . . . . . . . . . . . . . . . . . . . . . . . . . . . . . . . . . . . . . . . . . . . . . . . . . . . . . . . . . . . . . . . . . . . . . . O O O O O O O O X X X X X X X X X X X X X . . . . . . . . . . . . . . . . . . . g.. g.. . . O . . . . . . . . . . . ",
". . . . . . . . . . . . . . . . . . . . . . . . . . . . . . . . . . . . . . . . . . . . . . . . . . . . . . . . . . . . . . . . . . . . . . . . . . . . . . . . . . . . . . . . . . . X R X R X R . . g.g.. . . O . X X X . . . . . . O ` ` ` O % z.z.R Z.r.>X7X$X^.] ] ] ] ] oX] A A ) A A A A ) ) ) <.<.<.<.<.<.~.~.~.~.~.~.~.~.~.~.8X8X#X>X>X>XL.&Xr.6X6XZ.Z.Z.Z.R R R R X X X X z.z.R R ` 6.e.K.X.X.X.iXiXiX4Xe...j j j / j / | 4X4X| | ..K / j j j W K K K K K K W j / ..| e.6.` R R R z.R X R X X . . . . g.g.. g.g.. g.g.. g.g.. X X X X Q X X X X X X X X R R R X R R R R R X X . . . . . . . . . . . . . . . . . . . . . . . . . . . . . . . . . . . . . . . . . . . . . . . . . . . . . . . . . . . . . . . . . . . . . . . . . . . . . . . . . . . . . . . . . . . . . . . . . . . . . . . . . . . . . . . . . . . . . . . . . . . . . . . . . . . . . . . . . . . . . . . . . . . . . . . . . . . . . . . . . . . . . . . . . . . . . . . . . . . . X X X X X X X X X X X . . . . . . . . . . . . . . g.. g.. g.. . . g.. . . . . . . . . . . . . . ",
". . . . . . . . . . . . . . . . . . . . . . . . . . . . . . . . . . . . . . . . . . . . . . . . . . . . . . . . . . . . . . . . . . . . . . . . . . . . . . . . . . . . . . . . . . . . X R X X X . . . . g.O . . X X X X X X X X X . . ` ` ` R X z.z.z.aXZ.r.>X7X$X^.^.^.^.] ] ] ] A A A A A A A A A A ) <.<.<.<.<.<.<.<.<.~.~.~.~.~.~.8X$X8X8X7X7X>X>X>XL.L.r.r.r.Z.Z.R F R z.X Q Q Q R ` ` Z.6.e.K.X.X.X.iXiXK.4X| K j j / / ..e.4XK.| ..K K / j W W W W K K K K K W j / | | 6.~ R R R z.R X X X X R X . . . . . . . . g.. . g.g.. . X X z.z.X z.X X X X X X z.X R z.R z.R z.R z.R R X . . . . . . . . . . . . . . . . . . . . . . . . . . . . . . . . . . . . . . . . . . . . . . . . . . . . . . . . . . . . . . . . . . . . . . . . . . . . . . . . . . . . . . . . . . . . . . . . . . . . . . . . . . . . . . . . . . . . . . . . . . . . . . . . . . . . . . . . . . . . . . . . . . . . . . . . . . . . . . . . . . . . . . . X X . . . . . . . . . . X X X X X X X X X X . . . . . . . . . . . g.. g.. . . . . . . g.. . . . . . . . . . . . . . . . ",
". . . . . . . . . . . . . . . . . . . . . . . . . . . . . . . . . . . . . . . . . . . . . . . . . . . . . . . . . . . . . . . . . . . . . . . . . . . . . . . . . . . . . . . . . . . . X R R X . . g.. . . . . . O X X X X X X X O . . R ` ` Q X X z.z.z.R Z.r.&XfX7XqXqXq.KX^.^.) A A A ) A A A A A ) ) ) ) ) ) <.) <.) <.<.<.<.<.<.~.~.~.~.8X~.8X8X8X8X7X7X7XfXL.L.r.r.Z.R R R F F R R ` ` ,X,X6.4XK.X.X.X.X.X.K.| K W W j / ..e.4X4X| ..K / K j W W W j W K K K K W j ..| e.6.` R R R z.R z.R X R X X X X X X . . O . . . . X X X X X z.X X X X X X X X X X R R X R R z.R R z.R z.z.X . . . . . . . . . . . . . . . . . . . . . . . . . . . . . . . . . . . . . . . . . . . . . . . . . . . . . . . . . . . . . . . . . . . . . . . . . . . . . . . . . . . . . . . . . . . . . . . . . . . . . . . . . . . . . . . . . . . . . . . . . . . . . . . . . . . . . . . . . . . . . . . . . . . . . . . . . . . . . . . . . . . . . . . X X X X X X X X X X X X X X . . . . . . . . . . . g.. g.. . g.. . . . . . g.. g.. g.. . . . . . . . . . . . . . . . . . ",
". . . . . . . . . . . . . . . . . . . . . . . . . . . . . . . . . . . . . . . . . . . . . . . . . . . . . . . . . . . . . . . . . . . . . . . . . . . . . . . . . . . . . . . . . . . R X X R . . g.. . . . . . O X X X z.Q z.X X . . . R R ` O O X Q Q z.z.aX` r.r.L.&XfXfX7X8Xq.~.) ) A A A A A A A A A A ) A ) A ) A A ) ) ) ) <.<.<.<.<.~.<.~.~.~.~.~.~.q.8X7X7X7XfX&XL.r.r.r.Q.Q.Q.` R V aXaX,Xe.4XX.X.XXX.X.K.1X2XK W K ..| e.4Xe.| / j K / j W W W W j K K K K K / ..| e.6.` R F R X X X X X X X X X X X X X X X X X X z.X X z.X z.X X X X X X X X . . . . X R R z.R z.z.z.z.z.R X . . . . . . . . . . . . . . . . . . . . . . . . . . . . . . . . . . . . . . . . . . . . . . . . . . . . . . . . . . . . . . . . . . . . . . . . . . . . . . . . . . . . . . . . . . . . . . . . . . . . . . . . . . . . . . . . . . . . . . . . . . . . . . . . . . . . . . . . . . . . . . . . . . . . . . . . . . . . . . . . . . . . . . . X X X X X X X X X X X X X X X X . . . . . . . . g.. . g.. g.. g.. g.. . . . . . . . . g.. . . . . . . . . . . . . . . . ",
"% % % % % % % % % % % % % % % % % % % % % % % % % % % % % % % % % % % % % % % % % % % % % % % % % % % % % % % % % % % % % % % % % % % % % % % % % % % % % % % % % % % % % % % % % % . % X R F . F . . . . . . . X X X X Q z.z.X X g.g.g.F R g.g.= = Q Q z.z.z.,XV Z.Z.` r.r.L.L.#X8X~.] oXoXoXoXA ] A ) A A A A A A A ] A ) ) ) ) ) ) ) ) <.) <.<.<.<.<.~.~.~.~.~.8X8X7X#XfXfXL.L.L.L.r.r.Z.J V aX,X6.e.K.XXXXXXX.X.K.2XK W K ..| e.4X| ..j j / / W W W W j j K / K K K ..| | 6.~ ` . . . . X X X X X X X X X z.X z.z.z.z.z.z.z.z.z.z.X X X X . % . . . . g.F . F . . . R X z.z.z.z.z.z.X . % % % % % % % % % % % % % % % % % % % % % % % % % % % % % % % % % % % % % % % % % % % % % % % % % % % % % % % % % % % % % % % % % % % % % % % % % % % % % % % % % % % % % % % % % % % % % % % % % % % % % % % % % % % % % % % % % % % % % % % % % % % % % % % % % % % % % % % % % % % % % % % % % % % % % % % % % % % % % % % % % % % % % . X X X X X X X % % % % % % % . . . . . . . . % . . . . g.% . . % . . % . . . . . . . . . . . % . . . . . . . % % % % % % ",
"% % % % % % % % % % % % % % % % % % % % % % % % % % % % % % % % % % % % % % % % % % % % % % % % % % % % % % % % % % % % % % % % % % % % % % % % % % % % % % % % % % % % % % % % % % . % X F X . . . . . . . % % . . X X X z.X X . g.g.Q.Q.g.g.g.g.= = Q z.z.z.R R R R R R R Z.r.r.#Xq.MX%X%XoXoXoXoXA oXoXoXoXoXoXA ] A ] ) ) ) ) A ] ] ) ) ) ) ) <.<.<.<.<.<.<.~.~.~.~.~.8X8XC.C.#X#X#XL.r.Z.Z.Z.Z.Z.6.4XK.XXXXXXXXK.1X2XK K / | 1X| | / j j j K j W W W j j j / K K ....| 6.6.` R g.g.. . . . . . . X X X X X X X X z.X z.X z.X z.X z.F F F F g.Q.g.g.Q.g.g.g.g.g.g.. . X X X z.z.z.z.X . % % % % % % % % % % % % % % % % % % % % % % % % % % % % % % % % % % % % % % % % % % % % % % % % % % % % % % % % % % % % % % % % % % % % % % % % % % % % % % % % % % % % % % % % % % % % % % % % % % % % % % % % % % % % % % % % % % % % % % % % % % % % % % % % % % % % % % % % % % % % % % % % % % % % % % % % % % % % % % % % % % % % % . . % . . . . . . . . . . % % % % % % % % % % % . . . . % % . . . . . % % . % % % % . . . . . . . . % . . . . . . . . . . ",
"% % % % % % % % % % % % % % % % % % % % % % % % % % % % % % % % % % % % % % % % % % % % % % % % % % % % % % % % % % % % % % % % % % % % % % % % % % % % % % % % % % % % % % % % % % . % X X X . . g.% . % % X % . . . X X z.X X R Q.r.r.Q.r.g.r.g.g.g.` R R R ` R R R R R R R Z.r.L.qXMX%X%XoX%XoXoX%XoXoXoXoXoXoXoXoXoXoXoX] A ] ] A ) ) ) ) ) ) A ) ) ) <.) <.<.<.<.<.~.~.~.+.8XC.8X8X#XfXL.L.r.r.Z.` 6.4XK.XXK.XXXXK.| ..K ..1X1X| ../ j j / j W W W W j j / / ......| | 6.` R g.g.g.. . . . . . . . . . X X % % X % X % X X X % X . F g.g.Q.g.g.Q.g.g.g.Q.g.g.g.. g.. . X X X z.z.X X . % % % % % % % % % % % % % % % % % % % % % % % % % % % % % % % % % % % % % % % % % % % % % % % % % % % % % % % % % % % % % % % % % % % % % % % % % % % % % % % % % % % % % % % % % % % % % % % % % % % % % % % % % % % % % % % % % % % % % % % % % % % % % % % % % % % % % % % % % % % % % % % % % % % % % % % % % % % % % % % % % % % % % . . % . % . . . . . . . . % % % % % % % % % % % % % % . % . % % % % . . . . . . . % . . . X X X X % X X . . % . . . . . . ",
". . . . . . . . . . . . . . . . . . . . . . . . . . . . . . . . . . . . . . . . . . . . . . . . . . . . . . . . . . . . . . . . . . . . . . . . . . . . . . . . . . . . . . . . . . . . z.R X . . . . X X X X . . . % X X z.z.R Z.r.L.L.L.L.#XL.L.L.L.r.r.Z.Z.Z.Z.Q.g.g.` R Z.Z.r.fXqXMX'.%XoXoXoXoXoXoXoXoXoXoX%XoXoXoXoXoXoXoXoXoX] A A A A A A A A A ) A ) ) ) ) <.<.<.<.<.~.~.~.~.q.8XqXqX#XL.L.L.r.r.e.K.K.XXXXXXK.K.| | | | 1X| / / j j j K j W W W j j / / ....| e.6.6.Z.Z.Q.g.g.. . X X . . . . . . . . % . % . g.. g.. g.. g.g.F g.R g.R Q.g.Q.g.g.g.g.g.g.g.g.. . . X X X X X . . . . . . . . . . . . . . . . . . . . . . . . . . . . . . . . . . . . . . . . . . . . . . . . . . . . . . . . . . . . . . . . . . . . . . . . . . . . . . . . . . . . . . . . . . . . . . . . . . . . . . . . . . . . . . . . . . . . . . . . . . . . . . . . . . . . . . . . . . . . . . . . . . . . . . . . . . . . . . . . . . . . . . . . . . . . . . . . . . . . . . % % % . . . % % % % . . . . . . . % % . . . % % % X % % % X X X X X X X . . . . . . . . . . ",
". . . . . . . . . . . . . . . . . . . . . . . . . . . . . . . . . . . . . . . . . . . . . . . . . . . . . . . . . . . . . . . . . . . . . . . . . . . . . . . . . . . . . . . . . . . X X X X . g.. . . X X X R g.g.F % % F 5 V r.L.fXqX8X#X8X#X#X#X#XL.L.L.r.L.r.r.Q.` ` Z.Z.r.L.7X$X$X] ] ] A ] ] ] A ] oXoXoXoX%XoXoX%XoXoXoXoXoXoXoXoXoXA A A A ] A ] ] ) ] A ) ) ) ) <.<.<.<.~.~.~.+.q.8X8X8X8X#XL.L.&XnXK.X.X.X.X.yXK.K.4X| | / / / j j j j j W W j j j j / ..| e.e.6.,XZ.Z.Q.g.Q.g.F F F F . . . . F g.F g.g.g.g.g.g.g.g.g.g.g.g.% . O O . F F . g.. g.g.g.g.g.g.= g.O . . X X . . . . . . . . . . . . . . . . . . . . . . . . . . . . . . . . . . . . . . . . . . . . . . . . . . . . . . . . . . . . . . . . . . . . . . . . . . . . . . . . . . . . . . . . . . . . . . . . . . . . . . . . . . . . . . . . . . . . . . . . . . . . . . . . . . . . . . . . . . . . . . . . . . . . . . . . . . . . . . . . . . . . . . . . . . . . . . . . . . . . . . . % % . . . . . % % % . . O O O X X % % X X X % % % % % X % % % % X X O X . . . O O . . . . . ",
". . . . . . . . . . . . . . . . . . . . . . . . . . . . . . . . . . . . . . . . . . . . . . . . . . . . . . . . . . . . . . . . . . . . . . . . . . . . . . . . . . . . . . . . . . . X X X X . . . O X X X R R ` g.Q.F R R V Z.L.fXqXKXq.~.~.~.8X8X8X#X#X#X#XfXL.L.L.L.L.r.r.L.>XVX$X~.) ) ) A A ) A ) A ] oXoXoXoXoXoXoXoX%XoX%XoXoXoXoXoXoXoXA oXoX] A ] ] ] ] ] ) ] ) ] ] ) <.<.<.<.~.~.~.~.~.~.8X#X#XfX].].iXX.X.X.X.X.yXK.| ../ / / j j j j j K K j j j j / ..| e.6.6XAXN J Q.Q.Q.R R F V F R R R ` g.g.g.g.Q.g.g.g.g.g.g.g.g.g.g.g.. Q Q X X % X . . % % g.g.g.= g.= g.. O . . . . . . . . . . . . . . . . . . . . . . . . . . . . . . . . . . . . . . . . . . . . . . . . . . . . . . . . . . . . . . . . . . . . . . . . . . . . . . . . . . . . . . . . . . . . . . . . . . . . . . . . . . . . . . . . . . . . . . . . . . . . . . . . . . . . . . . . . . . . . . . . . . . . . . . . . . . . . . . . . . . . . . . . . . . . . . . . . . . . . . . % % % % % . . . . % % % % X X O X X X z.X X X X X X X X X X X X X X X X F 6 6 6 . O = O . . O . ",
". . . . . . . . . . . . . . . . . . . . . . . . . . . . . . . . . . . . . . . . . . . . . . . . . . . . . . . . . . . . . . . . . . . . . . . . . . . . . . . . . . . . . . . . . . . X X z.X . g.O O X X X R R ` ` Q.g.` ` Z.r.L.7XKXMX^.~.~.~.~.~.~.8X8X8X8X8X#X#X#XfXfXL.>X>X7X8X~.<.) A A A A A ) A ) A ) ] A ] oXoXoXoXoXoXoXoXoXoXoXoXoXoXoXoXoXoXoXoX] oX] ] ] ] ] ] ] ) ] ) ) ) <.) <.<.<.~.~.8X8X8XqXqXiXiXX.X.X.X.yXK.| ../ / j / j j j W K K K j j j K ..| 6.6XAX:.:.' 8.o.o.o.J N N J J V V R Z.R Q.F Q.g.g.g.g.g.g.g.g.g.g.. X z.z.z.z.z.X X X % . O O O g.= g.g.O g.. . . . . . . . . . . . . . . . . . . . . . . . . . . . . . . . . . . . . . . . . . . . . . . . . . . . . . . . . . . . . . . . . . . . . . . . . . . . . . . . . . . . . . . . . . . . . . . . . . . . . . . . . . . . . . . . . . . . . . . . . . . . . . . . . . . . . . . . . . . . . . . . . . . . . . . . . . . . . . . . . . . . . . . . . . . . . . . . . . . . . . % % % 6 6 6 % % . . . . % % % X X X X % X z.X X O Q O O O X O O O Q O X % 5 s s 5 . O = O O . . . ",
". . . . . . . . . . . . . . . . . . . . . . . . . . . . . . . . . . . . . . . . . . . . . . . . . . . . . . . . . . . . . . . . . . . . . . . . . . . . . . . . . . . . . . . . . . X X X z.X O O O O X X X R R ` ` Q.g.` ` Z.r.fXqXMXMX^.^.^.<.<.~.<.~.<.~.~.~.~.q.8X8X#X7X7X8X8X~.<.) A A A A A A A A A A A ) ) ) A oXoXoXoXoXoXoXoXoXoXoXoX%XoXoXoXoXoXoXoXoXoXoXoX] ] ] ] ] ] A A ) ] ) ) <.<.<.<.~.~.~.q.qXjXiXX.X.X.X.K.K.| 2XK K / j j j j j K K / j j / / | e.6XAX:.M M e :.:.:.[ [ [ [ :.:.' ^ N J J J V F R ` . 6 6 . O O . % z.z.z.z.z.z.z.z.z.z.X X X . O . g.. g.. g.g.R g.. . . . . . . . . . . . . . . . . . . . . . . . . . . . . . . . . . . . . . . . . . . . . . . . . . . . . . . . . . . . . . . . . . . . . . . . . . . . . . . . . . . . . . . . . . . . . . . . . . . . . . . . . . . . . . . . . . . . . . . . . . . . . . . . . . . . . . . . . . . . . . . . . . . . . . . . . . . . . . . . . . . . . . . . . . . . . . . . . % % % % % % % % % % . . . O X X X X X X X X X X X Q O X X X X O X X X X X X R F 5 5 F F R O g.. . . . ",
". . . . . . . . . . . . . . . . . . . . . . . . . . . . . . . . . . . . . . . . . . . . . . . . . . . . . . . . . . . . . . . . . . . . . . . . . . . . . . . . . . . . . . . . . . X X X z.X O g.O O X X z.R R ` Q.Q.g.R R Z.r.fXqX^.'.^.^.] .X) ) <.) <.<.<.<.<.~.~.q.q.q.8X8X~.~.<.) A A A A A A A A A A A ) <.<.) A A A A A A oXoX] oX%X%X%XoXoXoXoXoXoXoXoXoX%XoXoX] ] A oXA A A A ] A ) ) ) <.<.<.<.~.~.KXwXiXiXX.X.XXK.1X2XsXK K K j j j j j / / / j j j ..| 6.6XzXM y y a a B M a a a a M 9 9 [ [ :.:.^ J V R R R z.F z.X X z.z.z.z.z.z.z.z.z.z.z.z.z.X X X X . O . g.g.g.Q.R R . . . . . . . . . . . . . . . . . . . . . . . . . . . . . . . . . . . . . . . . . . . . . . . . . . . . . . . . . . . . . . . . . . . . . . . . . . . . . . . . . . . . . . . . . . . . . . . . . . . . . . . . . . . . . . . . . . . . . . . . . . . . . . . . . . . . . . . . . . . . . . . . . . . . . . . . . . . . . . . . . . . . . . . . . . . . . . . . . % % % . . . . F . . R . R . X X z.X X X X % % X X X X X X X X X R X R X R R R R R R V F F F . . . % . ",
"% % % % % % % % % % % % % % % % % % % % % % % % % % % % % % % % % % % % % % % % % % % % % % % % % % % % % % % % % % % % % % % % % % % % % % % % % % % % % % % % % % % % % % % % % % . X z.z.X . g.O X X z.z.R R ` Q.Q.g.F R V r.L.7X^.^.] '.] ] ] ] ] ] ] ] ) <.) <.<.<.~.~.$X~.~.~.) ) A A A A A A A A A A ) A <.) A A A A ) A A A A A ] ] ] ] ] ] ] oXoXoXoXoXoXoXoXoXoXoXoXoXoX%XoX] oXoXoX] A ) A ) <.<.~.KXwXiXX.X.XXK.1X2X2XsX2XK K K j j j j K / j j j / ..| 6.aXzXa y y y f y y a y y y y y y y y y 9 9 ^ J V R R R z.z.z.z.z.z.F F F R Z.R Z.R aXR z.z.X X . . . . . F g.R Q.R R % % % % % % % % % % % % % % % % % % % % % % % % % % % % % % % % % % % % % % % % % % % % % % % % % % % % % % % % % % % % % % % % % % % % % % % % % % % % % % % % % % % % % % % % % % % % % % % % % % % % % % % % % % % % % % % % % % % % % % % % % % % % % % % % % % % % % % % % % % % % % % % % % % % % % % % % % % % % % % % % % % % % % % % . . . . . . . . . % % % % . F . F . F F F F R F X X X z.% 6 6 6 6 F F F R F F F R R R R R R R R ` R R R F F F F F % g.. ",
"% % % % % % % % % % % % % % % % % % % % % % % % % % % % % % % % % % % % % % % % % % % % % % % % % % % % % % % % % % % % % % % % % % % % % % % % % % % % % % % % % % % % % % % % % % . X z.X X . g.g.X X z.z.z.Z.Q.Q.Q.F % F V Z.L.8X~.<.] ] oXoXoX%X%X%X] ] ] ] ] ] ] ] ^.^.~.~.~.<.) A A A A A A A A A A A A ) ) ) A A A ) A A A A A ) ] ) ) .X<.) ) ) A oXoXoXoXoXoXoXoXoXoX%X%X%X%X%X] oXoXoXoXoXA ] ) ^.MXKXiXiXX.X.K.1X2X2XK K K K K K j j j j / j j j j / ..| 6.6XzXM y y y a f B T T T v f f y y y y y 9 :.zXN AXaXZ.Z.aXaXaXR Z.Z.r.r.r.r.r.6XZ.Z.Z.R R F % . . . g.% g.F R R R . . % % % % % % % % % % % % % % % % % % % % % % % % % % % % % % % % % % % % % % % % % % % % % % % % % % % % % % % % % % % % % % % % % % % % % % % % % % % % % % % % % % % % % % % % % % % % % % % % % % % % % % % % % % % % % % % % % % % % % % % % % % % % % % % % % % % % % % % % % % % % % % % % % % % % % % % % % % % % % % % % % % % % % % . . . . . . . . . % % 6 6 6 . . R F F F 5 5 F F F z.F F F z.F F F R F R R R R ` R R Q.` Q.` Z.R Z.Z.R R R R F F F . . . ",
"% % % % % % % % % % % % % % % % % % % % % % % % % % % % % % % % % % % % % % % % % % % % % % % % % % % % % % % % % % % % % % % % % % % % % % % % % % % % % % % % % % % % % % % % % % % X z.R . g.g.O X X z.z.z.R Q.Q.g.. X z.V Z.L.#X~.<..X) oXoXoX%X] ] '.'.'.] oXoXoXoX] ] <.<.<.<.) A A A A A A A A A A A ) ) ) A A A A ) A A A A A A ) ) ) <.<.<.) A A A A A A A oXoXoXoXoX%X%X%X'.'.] oXoX] oX] oX] ] MXMXP.iXX.X.X.K.1X2XK K K K K K K K j j j j j j j j K ..| 4X&XhXS.v f v v y f y v f v v f f f y y y a M e :.$.hXZ.r.Z.Z.r.r.L.L.L.fXL.fXfX&X&Xr.r.Z.Z.R . . . . . . % g.F R F % . % % % % % % % % % % % % % % % % % % % % % % % % % % % % % % % % % % % % % % % % % % % % % % % % % % % % % % % % % % % % % % % % % % % % % % % % % % % % % % % % % % % % % % % % % % % % % % % % % % % % % % % % % % % % % % % % % % % % % % % % % % % % % % % % % % % % % % % % % % % % % % % % % % % % % % % % % % % % % % % % % % % % % % . . . . . . . . . . % . % . O O R R X R F R R R R R R R R R R R R R R R V V Q.V Z.Q.Z.Q.Z.Q.Z.V V Z.` ` ` R R R g.F . . ",
"% % % % % % % % % % % % % % % % % % % % % % % % % % % % % % % % % % % % % % % % % % % % % % % % % % % % % % % % % % % % % % % % % % % % % % % % % % % % % % % % % % % % % % % % % % % F F R F g.g.g.. X z.z.z.R R g.g.. X z.z.Z.L.#X~.<.<.) A A ] ] ] ^.] ] ] ] oXA oXoX] ] <.<.<.<.A A A A A A A A A A ) ) <.) ) A A A ) A A A A A A A ] ) <.<.<.) ) A ] A A A A A A A A oXoX] ] ] ] ] ] ] oXoXA ] ] ] MXMXP.NXiXX.X.K.1X2X2XK W K K K W W K j / j j j j j j K ..| 4X4X6XhXc.v v f y f f f f f f f f f f f B B B c.c.0X3XL.L.L.>XL.fX#X#X8X8X8X7X7X7X7XfXL.r.Z.Q.g.. g.. . . . . % X X % % % % % % % % % % % % % % % % % % % % % % % % % % % % % % % % % % % % % % % % % % % % % % % % % % % % % % % % % % % % % % % % % % % % % % % % % % % % % % % % % % % % % % % % % % % % % % % % % % % % % % % % % % % % % % % % % % % % % % % % % % % % % % % % % % % % % % % % % % % % % % % % % % % % % % % % % % % % % % % % % % % % % % % % . . . . . . . . . . % . . O ` ` ` R R X R F R R R R R R R R Z.R Z.V V J o.J o.o.o.o.o.o.o.o.o.J J V V Z.R Z.g.R F F % % ",
"% % % % % % % % % % % % % % % % % % % % % % % % % % % % % % % % % % % % % % % % % % % % % % % % % % % % % % % % % % % % % % % % % % % % % % % % % % % % % % % % % % % % % % % % % % % z.R R F g.g.. X z.z.z.z.R Q.g.g.X X z.z.Z.L.7X~.<.) ) A A ) ) <.<.^.] ] ] ] ) ) ] ] ] .X~.<.) A A A A ) A ) A ) ) ) ) <.) ) A ) ) A ) ) A A A A A ] ) <.<.<.) ] oXoXA A A A A A A A ) A ] ) ) <.) ) ] A A A A ] '.MXP.NXiXX.X.X.1X1X2X..K / j j W W W K j / j j j j W j K | 1X4X4X&Xr.0Xc.v S y y f B B B v B v B B c.c.c.S.S.0XtX<X#X#X#X8X8X8Xq.~.~.q.~.q.$XKX$X7XfXr.3XQ.Q.g.g.. . % X X X % % % % % % % % % % % % % % % % % % % % % % % % % % % % % % % % % % % % % % % % % % % % % % % % % % % % % % % % % % % % % % % % % % % % % % % % % % % % % % % % % % % % % % % % % % % % % % % % % % % % % % % % % % % % % % % % % % % % % % % % % % % % % % % % % % % % % % % % % % % % % % % % % % % % % % % % % % % % % % % % % % % % % % % % % % . . . . . . . . . . . R O ` R R R F s s s 5 F F V V V V V V V V J J N r ' :.' ' ' ' ' ' ' ' ' ' ' N N J J V V F R F 6 % ",
"% % % % % % % % % % % % % % % % % % % % % % % % % % % % % % % % % % % % % % % % % % % % % % % % % % % % % % % % % % % % % % % % % % % % % % % % % % % % % % % % % % % % % % % % % % % % F R F g.g.g.% z.z.z.z.z.R F % X z.z.z.Z.L.7X~.<.) ) A A ) <.<.) ) ] ] ) ) ) ) ] ] ] <.<.<.) A A A A ] A ) A ] ) ) ) <.) ) ] ] A ] A A ] A ) A ] ] ) <.0.<.) ] ] ] ] ) ] ) ) ) ) ) ] ) ) ) <.<.) ) A A A A ] ] MXMXiXiXX.X.X.K.1X2XK K / / / j j W W W K / j j j j j j ..| | e.4X4X&Xx.S.T v v v B B B c.c.c.c.S.0X0XtXtX<X<Xw.8X8X8X~.~.~.~.~.~.<.<.<.~.~.^.MXMXwX7XL.3XZ.Q.g.. . . . X X X % z.% % % % % F F F F % % % % % % % % % % % % % % % % % % % % % % % % % % % % % % % % % % % % % % % % % % % % % % % % % % % % % % % % % % % % % % % % % % % % % % % % % % % % % % % % % % % % % % % % % % % % % % % % % % % % % % % % % % % % % % % % % % % % % % % % % % % % % % % % % % % % % % % % % % % % % % % % % % % % % % % % % % % % % % % . . . . . . . . . F R F F F F 7 3 $   ^ o     $ $ $ N N N N - r ' :.[ e M M M M M M M M a M M M e [ [ :.' - J V R R F F ",
"% % % % % . % % % % % % % % % % % % % % % % % % % % % % % % % % % % % % % % % % % % % % % % % % % % % % % % % % % % % % % % % % % % % % % % % % % % % % % % % % % % % % % % % % % % % % R F F g.g.. . X z.z.z.z.F 6 6 z.z.z.R r.fX8X~.<.) A A ) ) <.<.) ) ) ] ) ) .X) ] ] .X<.<.<.) A A ) A A A A ) ) ) ) <.<.) ] ] ] ] A ] A ] A ) ) ) ) <.<.<.<.<.<.) ) ) ] ] ] A ) ) A ) ) ) <.) ) ) ) A A A A ] MXMXiXiXX.X.X.X.1X2XK K K / / / / j W W K j j j j j j / ..2X| sXsX| 4X4X&Xx.S.,.T c.,.S.0X0Xk.tXtX<X<X8Xx 8X8X8X~.~.~.<.~.^.<.^.<.) ^.<.^.~.KXKXMXMXKX7XL.3XZ.Q.F 6 . . . . . . . % % 6 F g.g.R R R R R g.. . % % X X . . g.g.g.F F R F F F F F F F % % % % . . % % % F 6 6 F F R F . F . . % . . . % % % % % % % % % % % % F F F % % % % % % % % % % % % % % % % % % % % % % % % % % % % % % % % % % % % % % % % % % % % % % % % % % % % % % % % % % % % % % % % % % % % % % % % % % % % % % % % % % % % . . % % % % % % % % % % % % % % . . g.R R F V V J N N - r ' :.[ [ [ :.:.:.:.:.:.:.:.[ [ e M a y y y y y y & y & & y & y y y y y y M [ r J V R ` R ",
". % % % . . % % % . % % % % % % % % % F F F F F F F % . . % % % % % % % . . % % X z.% X % X % % . . . . % % % . . % % % % . % % X X % X % % % % % % % % % % % % % % % % % % % % % % % % F F g.. g.. . X % z.z.z.z.z.z.z.z.R r.L.7Xq.<.) ] ] A ) <.<.) ) ] ) A ) <.) ) ] ^.<.<..X) ) A A A A A A A A ) ) <.<.) ] ] ] ] ) ] ) ] ] ) ) ) .X<.<.<.<.~.<.0.<..X] ] ] A A A A A A ) ) <.) ) A A A A A ] ^.MXwXyX4XK.K.K.1X| ..K W W j j / / j W W W W / j j j / ..| | | 2XsX2X2X| bX6Xx.k.k.k.tX<X<X>X8XVXeXE E ~.~.~.~.<.<.<.<.) ] ] ] ] ] ^.MXKXq.KXq.KXwXqX7XfXr.Z.Z.Z.R 5 % O O . g.` R F F F F g.` Z.Z.Z.Z.` g.F . . . X X . g.g.g.Q.Q.R R R R R R R F F F F % . . . F F F F 5 5 R R R R R g.R R g.g.O . . % % % . % % . . % F F g.R F . % % % % % % % % % % % % % % % % % % % % % % % % % % % % % % % % % % % % % % % % % % % % % % % % % % % % % % % % % % % % % % % % % % % % % % % % % % % % % % % . . . F . R . F % 6 6 6 6 6 % % % 6 6 F R R ` ` Q.J N - :.[ e e M M a a a a a a M a a a a a a y y y y & y & & & & & & & & & & & & y y y y y a [ ' o.V ` R ",
"% 6 6 % % % % 6 % . % F % F % F % . F . F g.F g.F g.F . . . . . % % % % % % % % % X X % z.% X % F . % % . . g.F . . % % % % X % X % X % % % . . . . . . . . . . . . . . . . . . . . . . g.F g.. . . . % % % % z.z.z.z.z.5 Z.r.L.8X~.<.) ) ] ) <.<.<.<.) A A A A <.<.] ] ^.<.<.<.] A A A A A A A A A ) <..X<.) ] ] ] ] ) ) ) ) ) ) <.<.<.<.<.<.<.<.<.~.<..X] ] ] ) A A A A ) ) ) <.) ) A A A A ] ] MXwXnX4XsX| 1X| | ..j W W W W j / / / K W W j j j j / / | e.| sXsX2XK 2X2X| 4XM.>X>X8XeX8XeX~.$X~.~.0..X<.<.<.<.) ) ) ) ] ] ] ] ] ^.^.$X8X7X7X7X7X7XfXL.L.r.Z.Z.R R 5 X . . g.` ` ` Q.Q.Q.g.` Q.r.r.r.Z.Z.Q.F g.g.. X z.% g.g.Q.Q.Z.V V V V R R R F F X F . g.. F F . R R F R R R R R ` R g.F F g.. . . . % % % % % . % % . F F g.F g.% % . . . . . . . . . . . . . . . . . . . . . . . . . . . . . . . . . . . . . . . . . . . . . . . . . . . . . . . . . . . . . . . . . . . . . . . . . . . % % . % . F F F F % % 6 6 6 6 6 % X % 6 F R R R Z.V J $.:.[ M a y y y & & & & y & y & y & & & & & & & & & & & & & & & & & & & & & & & & & & & & y M [ ' J V Z.",
"6 5 6 6 6 % % % % % % % % % % F . % % 6 F F . F . F . % F . % % % % % % % % % X % z.6 % % % F X % % F . F F F F % F . % % % % % z.% % X % % % % % % % % % % % % % % % % % % % % % % % % F F . % g.% . . % % % X z.z.z.z.s Z.r.#X8X~.<.) ] ) ) <.<.<.<.) A ) A ) <.) ) ^.<.~..X) ) A A A A A A A A A ) <.<.] ] ) ) ) ) ) <.<.<.<.~.<.0.<.<.<.<.<.<.<.<..X] ] ] ) A A A A A A ) <.) ) A A A A A ] ^.$X7X6X,XmXsX..../ / j W W W j j / j K K K W j j j j j ..| e.e.sXK K W K 2X| 4XnX-XwX$X~.<.~.~.~.0.<..X.X.X) ) ) A A A oXoX%X] ^.~.8X8X>XtXtXtXL.fXL.r.r.r.Z.V V aXR X O X F R ` r.Q.Q.` ` r.~ Q.r.&Xr.hXV V F Q.g.F . X F F Q.Q.Z.Z.V V V z.V F R F F . . R . 6 5 5 F g.` R R ` R R Q.R g.Q.F F F . R . X % % % % % % % % % X F X % % % % % % % % % % % % % % % % % % % % % % % % % % % % % % % % % % % % % % % % % % % % % % % % % % % % % % % % % % % % % % % % % % % % % % % % % % % . . % % % % % F F F % 6 6 % % % 6 6 6 % . . X F R R V V J N ' [ M a a y y & & & & & & & & & & & & & & & & & & & & & & & & & & & & & & & & & & f & & & y & y M :.' N V ",
". . . . . O O . % 6 6 % F . . % F % 6 6 % % % % % % % % % % % % % % % % % % % 6 % % F % F z.X % F . F . % g.% g.. . % % % % z.% % % z.% % % . % . % . % . % . % . % . % . % . % . % . . F . F . % . % . % % % 6 z.z.z.z.F Z.L.#X8X~.) ) ] ) ) <.<.<.) ) A A A ) <.<.] .X<.<.<.) ) A A A ) ) A A A A <.<.<.) .X<.<..X<.<.<.<.~.~.~.<.0.<.<.<.<.<.) ) ] ] ] ] ] ] ) A A A ) ) ) <.) ) A A A A ] ] MX7X{.aXaX,X....../ j j j j j j j j j j j K K K K K W K | | 4X| ..K K K / / ..| 4XnXwXMX^..X<.<.<.) ) ] A ] ] ) ) ] ] A oX%X'.$X8X>XtXtX0X0X0X0XtXL.tX3X3XZ.Q.V s V R Q Q R V ` r.` ` r.L.r.r.` Q.r.&Xr.Z.V F R Q.Z.Z.` ` Z.Z.R Z.Z.Z.Z.R F F R R . . % F % % % 5 5 F F g.g.g.g.` g.F F F F 6 5 5 6 F . R . 6 6 % % % % % X X z.z.z.z.X % % % % % % % % % % % % % % % % % % % % % % % % % % % % % % % % % % % % % % % % % % % % % % % % % % % % % % % % % % % % % % % % % % % % % % % % % % % % % % % F % . F 6 5 6 6 . % 6 6 6 6 % . R R R V J N ' :.9 a y y & y f & & & & & & & & & & & & & & & & & & & & & & & & & & & & & & & & & & f f & & & & y a M [ :.N ",
". F . R . . F 6 6 6 6 % % % % % % % % % % % % % % % % % % % % % % % % % % % % F R F X F F % % % % % % % % % % % F . % % % % % % % % % % % % % % % % % % % % % % % % % % % % % % % % % F g.F % % . . % g.% % % z.z.z.z.s V Z.L.#X8X<.) ] A ) ) <.<.<.) ) A ) ) ) <.<.) <.<.<..X) ) A A A ) ) ] ] ] ] <.~.<.<.<.0.0.<.<.<.~.<.~.<.<.<.<.<.<.<.<.) ) ] ] ] ] ] A ) A A A ) ) <.<.) ) A A A A A ] ^.$X>Xx.aXaX6...../ / K j j j W j j j j j K / K K K K K 2X| 4X| | ..K j / / / / ..e.nXnXwX^.^.] ] ] oXoXoXoX] ) .X.X) ) ) ] ] ~.8XtX0X0XS.S.S.S.0XtXL.L.r.Z.Z.Q.5 s z.z.X Q R V 6.&Xr.r.r.fXr.Z.Q.` 6.&X&XZ.V V Z.r.r.r.L.L.L.r.r.6Xr.6Xr.r.Z.` Z.` Z.` Z.Q.` Q.Q.Q.Q.Q.Q.Q.Q.Q.g.` g.Q.F 6 6 z.5 6 % . O . F 6 5 % % % % % z.X z.X X z.X % % % % % % % % % % % % % % % % % % % % % % % % % % % % % % % % % % % % % % % % % % % % % % % % % % % % % % % % % % % % % % % % % % % % % % % % % % % % % % % % % % % 6 5 6 % . F 6 6 6 6 F F R R V J - :.[ M y y y & y & & & & & & & & & & & & & & & & & & & & & & & & & & & & & & & & & & & f f f f f & y y y y M 9 :.",
"F F R F F F 5 5 5 6 6 6 6 6 6 % % % % X % % X % % % % % % % % % % % % % % % % F % F F % % % % % % % % % g.% g.% g.. % % % % % % % z.% % % % % . % . % % g.% % g.% % g.% % g.% % g.% . . F . F % % g.% % . % % % % z.z.z.Q.r.L.#Xq.<.) A ] ) <.<.<.<.) A A A ) ) <.<.<.<.0.<.) ) A A A A ) ] ^.^.~.^.<.~.~.<.0.0.0.0.<.<.<.<.<.<.<.<.<.<.) ) ) ) ] ] ] ] oXA ] A A ] ) ) <.) <.) ) A A A A ] ^.$X7Xx.Z.Z.,X6...../ K K j K j W j j j j / / K ..K K K ..2X1X1X| ../ / / / / / / / ..e.nXwXMXMX'.] oXoXA oX) ) <.<.<..X) ] ^.^.8XtX0XS.$.$.8.S.0X0X3XL.&Xr.Z.Q.F 5 F z.X z.z.R Z.&XnX&Xr.L.].&XZ.V ` 6.&X&XZ.Z.V Z.L.>X>X>X>X>X>X>X>X>X>XM.L.>XL.L.L.r.L.r.r.r.r.r.r.Z.Z.Q.Q.Q.Q.Q.Q.g.F 5 5 z.z.% % X R O R F F F F F % % X % % X z.X X X % . % . % . % . % . % . % . % . % . % . % . % . % . % . % . % . % . % . % . % . % . % . % . % . % . % . % . % . % . % . % . % . % . % . % . % . % . % . % . % % . F . 6 6 % . . F F F F F F F V J N r :.9 a y y y y y & & & & f & & & y & y & & & & & & & & & & & & & & & & & & & & & & & & & & f f f y & y & y y y a 9 ",
"F R R R F F F 5 F 6 F F 6 6 6 6 6 6 % X X % X X X % % % % % % % % % % % % % . F F g.F F X 6 X % % % % % % % % % % 6 . % % % % % % % % % % % % % % F % % 6 % % 6 % % 6 % % 6 % % 6 % % F % % . % % % . . % % % % X z.F F Q.r.L.#X~.<.) A A ) <.<.<.<.A A A ) ) <.<.<.<.<.<.<.) A ) A A A ] ] ~.8X8X8X~.~.~.0.~.0.0.<.<.<.<.<.<.) ) ) ) A ) ) ] ] ] ] oXA ] A A A oX) ) <.<.<.) ) A A A A oX%XMX7X{.hXZ.6.e.| ../ K K j K j j j j j j j / / / / K K ..| 1XK.1X1X../ / / / / / / / / 6.e.nXwXMXMX'.] A A ) ) <.<.<..X] ] ^.~.8XtX0X0X0X3XhX8.8.0X3X3Xr.&Xr.Z.Q.5 5 R z.z.s 5 R Z.nXnX&Xr.&XjX&Xr.R ,X6.nX&X6XZ.Z.x.>XVXVXVXeXVXVXVXVXVXVXVXVXVX>X>X>X>X>X>X>X>X>XL.L.r.r.r.Z.Z.V R R ` F 5 5 z.6 X z.% X X R . F F F F F F F F . % % % % % % % % % % % % % % % % % % % % % % % % % % % % % % % % % % % % % % % % % % % % % % % % % % % % % % % % % % % % % % % % % % % % % % % % % % % % F % F % % % % % . % % % % 6 . . R F F F F F V V J - ' [ M y y y & y y y & & & & & f & y & y & & & & & & & & & & & & & & & & & & & & & & & & & & & B & f f f y y y y y y y ",
"R V R R R R R ` R R F X F 6 5 6 5 5 6 % % z.6 z.% % % % % % % % % % % % % % F % F F F F 6 % 6 % % % % % % % 6 % 6 % F % F % % % 6 % 6 % 6 6 % 6 6 % 6 % 6 % 6 % 6 % 6 % 6 % 6 6 % 6 % F % F F % % % % % F . F F R X F F Z.r.L.8X~.<.) A ) ) <.<.<.) A A A ) ) <.~.0.<.<.<.) ) A A A ) ] ] ^.8X<XtX<X8X~.<.~.0.0.<.<.<.<.<.<.) ] ] ] A ) A ] A ] ] ] ] oXA A A A A ] ) <.<.<.) A A A A ) %X'.$X>Xx.AX,Xe.e.| ../ j W W K K j j j j j j / / ..../ ..| 4XK.X.K.1X2X/ / / / / / / / / / ..e.4XnXwXMX'.] ) ) <.<.) ) ) ] ] ^.8XtX0X0Xr.fXfXr.8.0X3XL.r.r.&Xr.Q.F 6 6 X z.z.s s R 6XnXnX&Xr.L.wXnX&X,XaX&XnXM.6X6Xx.>XVXeXeXE E E 0.E E eXE E eXE eXeXeXeXeXVXVXVXVX>X>X>X>XL.L.r.r.r.r.r.` Q.R R R R F 5 F F R R F F F F g.F F g.F F F g.F % % % 6 6 6 6 6 6 6 6 6 6 6 6 6 6 6 6 6 6 6 6 6 6 6 6 6 6 6 6 6 6 6 6 6 6 6 6 6 6 6 6 6 6 6 6 6 6 6 6 6 6 6 6 6 6 6 6 6 6 6 6 6 6 6 6 6 6 6 6 % F % F % F % % % % 6 g.% F 6 . . g.F F R R R V J $.:.e M y y y y y y f f & & & & f f & & y & y & & & & & & & & & & & & & & & & & & & & & & & & & & & & & f f y & y & y y y ",
"J J J J V V R R R F R R R F 5 5 5 5 6 % 6 % % % 6 % % % % % % % % % % 6 % F % F F F % F 6 % % 6 % % % % 6 % g.6 g.6 % % % 6 % 6 % % % 6 6 6 % 6 % 6 % 6 % 6 % 6 % 6 % 6 % 6 % 6 % 6 6 % F % % % % % g.6 g.F F % R R R R Z.r.#X8X~.) A A A ) <.<.<.A A A A ) ) ) <.<.<.<.<.) A A A A ] ] ] q.>XtX0XtX8X~.<.<.0.<.<.<.<.<.<.<.) ] ] ) ) A ] ) ) ] ] oXA A A A A A ] ) ) <.<.) ) A A A A ] '.MX7X{.AXaX6.e.1X| / / j W K K j K j W j j j / / / K / ..| K.yXX.X.1X1X| / / / / / / / / / / ..| 4XnXwXMX^.^.<.) ) ) ) ) ] ^.$X>X0X0XtX7XjXjXL.0X0XL.fX&Xr.&XZ.V F g.. F z.s s s R r.&XnX&Xr.L.-XnX&Xr.Z.&XnX-XM.r.L.>X$XE E E 0.0.0.0.0.E E 0.0.0.E E eXeXeXeXeXVXVXVXVXVX7X7X>X>X>XL.>XL.L.r.r.r.r.r.Z.Z.Z.Z.` g.R F F F F F % F F g.Q.% g.F % 6 6 % % % 6 % % % 6 % % % 6 % % % 6 % % % 6 % % % 6 % % % 6 % % % 6 % % % 6 % % % 6 % % % 6 % % % 6 % % % 6 % % % 6 % % % 6 % % % 6 % % F 6 6 F F F 6 6 % % 6 . 6 % 6 6 g.. F R R R Z.V J N :.M a y y y & y f f & & & & f & f & & & & & & y & & & & & & & & & & & & & & & & & & & & & & & & & & & & & & & y y y y y y ",
"^ ' ' ' ^ - N J V V V R R R R F 5 F F F F F 6 6 6 6 6 6 6 6 6 6 % 6 % % % % % % % % 6 6 % % % % % % 6 % % % 6 % 6 g.6 % 6 % % F % % % % 6 6 6 % 6 % 6 % 6 % 6 6 % 6 6 % 6 6 % 6 % 6 % 6 6 % F % % % % 6 % F F F X R R Q.r.L.#X8X~.) A A A ) <.<.<.A A A A ) ] <.<.0.<.<.) ) A ) A A ] ] ^.8XtX0XS.0X>X$X^.^.) ) ) <.<.<.<.<..X] ] ] ) ) A ) ) ) ) ] oXA A A A A ] ) <.<.<.) A A A A ] ^.MX7X>X6XaX,X| | | / / / j j j K K j W j j j j j / ......| 4XyXiXX.X.XX1X1X| ../ j j / / / / / K ..| 4XnXwXMX^.^.) ) A A ] ] KX8XtXS.k.7XP.IXP.L.0X3X&XjX].&Xr.Z.Q.g.g.R F R R s s R r.&XnXnX&X>XM.-XnX&Xr.L.M.-X-X7X7X8X~.E E 0.0..X<.<.0.0.0.0.0..X0.0.0.E E E E E eXeXeXeXeX$XVXVXVXVX8X8X>X>X>X>X>XL.tXr.r.L.r.` R F 6 % % % % % 6 % 6 g.F F % 6 6 % 6 6 6 % 6 6 % 6 6 % 6 % 6 6 6 % 6 6 % 6 6 6 % 6 6 % 6 % 6 6 6 % 6 6 % 6 6 6 % 6 6 % 6 % 6 6 6 % 6 6 % 6 6 6 % 6 6 % 6 % 6 6 6 % 6 6 % 6 F % F 6 6 % % % % % g.6 6 F F F Q.R Z.Z.J N ' e y y & & & & B & B f f & f & f & & & & & y & & & & & & & & & & & & & & & & & & & & & & & & & & & & & & & & & & f f f & y ",
"9 9 9 9 9 [ :.' N J V Q.R Z.R R Z.F R R F F F F F F F F F F F F F % F % 6 6 % % F % % % % % % % % % % % F g.6 g.6 % 6 g.6 % F % F F F F 6 6 6 % 6 6 % 6 6 % 6 % 6 % 6 % 6 % 6 % 6 % F 6 F 6 % 6 % % % g.6 g.F F R R R R r.L.#X8X~.) A A oX) <.<.) A A A ) ) ] ) <.<.<.<.A A ) A A ] ] ^.8XtX0XS.S.0X>X$X^.] ] A A A ) <.<.<.) ) ) ) ) A A A ) ) ] A A A A A A A ] ) <.<.) A A A A ] ] MX$X>Xx.aXaXsX..../ / / / j j K j K W W W j j j / / ....| | 4XyXiXiXX.XXXXK.1X| ..K K j / j j W W K ..| 4XnXwXKXMX] A A ) ] ^.q.>X0XS.tXwXIXUXP.L.0XhXfXNXjXfXZ.V Q.g.g.F F R ` F V V Z.&XnXnX7XM.>XwXwX7XfX>X7XwXwXwX$X$X~.E 0.E 0..X<.0.0.0.0.0..X0.0.0.0.0.0.0.E E E E E E E 0.E E eXeXeXeXeX8XeX8X>X>X>X>XfXfX&Xr.` F % % z.% % % % % % Q.% % % 6 6 6 % % 6 % 6 % 6 % 6 6 % 6 % % 6 % 6 % 6 % % 6 % 6 % 6 6 % 6 % % 6 % 6 % 6 % 6 % 6 % 6 % 6 % % 6 % 6 % 6 % % 6 % 6 % 6 6 % 6 % % 6 % 6 6 F F F F % F % % 6 g.6 % 6 6 F F Q.R Q.Z.V N ' e a y & f y & f & f f B f f & f & & & & & & & & & & & & & & & & & & & & & & & & & & & & & & & & & & & & & & & & f f f f f f ",
"y y y y y y a 9 :.$.N J J V Z.Z.Q.Z.Z.` R Q.Q.Q.Q.Q.R Q.R F R F F F % F % 6 6 % % % % % % % % % % 6 6 6 % % . % % g.% 6 6 % F % F F % F 6 6 6 % 6 % 6 % 6 % 6 % 6 % 6 % 6 % 6 6 % 6 6 % F 6 6 % % % % % 6 Q.F F R R R Q.r.L.#Xq.<.) A A oX) <.<.<.A A A A ) ] ] <.<.<.) A A A ) ] ] ^.~.<X0XS.S.$.S.tX7X^.] ] A A A A ) <.<..X) ) ) ) ) A A ) A ) A A A A A A ) ) ) <.) A A A A ] ] ^.$X7Xx.AXaX,XsX../ j j / / / j K W K W W j j j / / / ..| | 4Xj.nXyXiXX.X.X.XXX.1X2XK K K j j W W W W K K ..e.nXwXMX^.] ) A %X^.8XtX0X0X>XMXUXUXqXr.0XhXfXNXNX].r.Z.Z.` F 5 R ` ` R V Q.Z.r.&XnXwXwX7XwXwXwXwX7X7XwXMXMXMX$X~.E E E 0.0.0.<.0.0.0.0.0.0.0.0.0.0.0.0.0.0.0.0.E 0.0.0.0.E E E 0.E E eXeX8XVX8X7X7X7XfXfX&X` F 6 z.z.z.z.% % % 6 g.% F % 6 6 % 6 6 % 6 6 % 6 % 6 % 6 % 6 6 % 6 % 6 % 6 6 % 6 6 % 6 % 6 % 6 6 6 % 6 % 6 % 6 % 6 % 6 6 % 6 6 % 6 % 6 % 6 6 % 6 6 % 6 % 6 % 6 % 6 6 6 6 F z.F z.F 6 % % 6 % % % F 6 F F Q.Q.V J N ' [ a y y f & f & & & & f B B f & & & & & & & & & y & & & & & & & & & & & & & & & & & & & & & & & & & & & & & & & & & f v f v f ",
"y & y y y y y y M e e [ :.' N J Z.Z.r.Z.r.Z.Z.Q.Z.Q.V Q.Z.Q.` R g.F R F 6 6 6 6 % % X % % 6 % % % 6 5 6 % . . g.% % % % % % 6 F % F F F 6 % 6 6 % F 6 % F 6 F % F 6 F % F 6 % F % 6 6 6 F z.6 % % % % g.6 F F F F F R Z.r.L.#Xq.^.) A A A A <.<.) ) A A A ] ] ) <.<.<.A A A ) A ] ] ^.8XtXS.S.8.:.:.0X>X$X^.] A A A A A ) ) <.<.) ) ] A A ) A A A A A A A A A ) ) .X<.) A A A A ] ^.$X7Xx.AXaX,XsX..K j j / / / / / j W K W K j j j j j / ..| j.j.V.M.-XyXyX@XX.X.XXK.1X2XK K j j W W W K K K ..| e.nXwXKX^.] ] ] ~.#X0X8.0XL.wXP.jXfX3XS.0X&XNXIXjX&Xr.Z.Q.Q.F R Z.R Z.Q.Z.Z.r.&XnXwXwXwX7XwXMXwXwX7X7X7XMXMX^.E E E E 0.0.0.0.0.E E 0.0.0.<.0.0.0.0.0.0.0.0.0.E E E E E E E 0.0.E E ~.$X$X$X$X7X7XfXfXL.r.R F 6 z.% z.% % % % % g.6 g.% 6 6 6 % F % F % F 6 F % F 6 F % F 6 F % F 6 F % F % F % F 6 F % F % F 6 F % F 6 F % F 6 F % F % F 6 F % F 6 F % F % F % F 6 F % F 6 6 6 6 % F F F F F 6 % % % % g.6 g.6 g.Q.Q.V o.$.:.9 M y y & & f & f f f f f f f f f & f & & & & & y & & y & & & f & & & & & & & & & & & f & f & & & & & & & & & & & & f & v f v f ",
"& & & & & & y y y y y a M e :.' $.o.o.o.o.o.o.8.8.$.8.o.o.J V V Q.R F R R X X X % % 6 6 6 F . . % 6 6 6 % % 6 6 6 6 g.% 6 6 g.F F F F F 6 F 6 F 6 6 % 6 6 % 6 6 6 6 6 6 6 % 6 6 6 6 % F 6 6 6 % % % % 6 6 g.F F F V Q.Z.r.L.#Xq.^.) A A A ) ) <.<.) A A oX] ) ) <.<.) A A A A ] ] ^.~.<X0X0X3X8.:.e S.tX8X^.] A oXA A A ) ) <.<.) ) oXA A A A A A A ) A A A ) ) .X) ) ) A A A ] ] ^.7X>XhXaX,XmX....K j j j / / / j K W W K K / j j / j K | 4Xj.V.M.M.M.-XyXyXyXyXX.XX1X2XK K / K W W W W K / / / | e.nXwXMX^.^.^.~.<X0X8.8.3XL.L.L.3X0X$.0XL.jXjX].&Xr.r.Q.Q.R Z.R Z.Q.Q.Z.r.&XnXnXwXwX7X7X7XwXwX7X>X>X7XwXMX$XeXE E E E 0.0.0.E E E E 0.0.0.0.0.0.0.0.0.0.0.0.0.E 0.E E E 0.$X^.$X$X$X8X$X7X7X7X>XL.r.r.Z.R F 6 % % z.% % % 6 6 g.F F % 6 % F 6 6 6 6 % F % 6 % F % 6 % F % 6 % F % 6 % 6 F % 6 % F % 6 % F % % 6 6 6 % 6 6 6 % 6 6 6 6 6 % 6 6 6 % 6 6 6 6 6 6 6 % 6 6 6 6 F % 6 F F z.F 6 F 6 % 6 % % 6 % % F F V V o.r :.9 a y y y & f & f f f f & f f f f & f & & & & & y & & & & & & & & & & f & & & & f & & f & & f & f & & & & & & & & & & & & & & v f ",
"& & & & & y & & y y y y y a M e [ :.:.:.:.:.[ e e e [ [ :.' - N J V V F F F R X % 6 5 5 F R g.g.F % % % % % 5 s 6 % 6 6 % F 6 % F % F F 6 % 6 6 % 6 F 6 % F 6 % F 6 % F 6 F 6 % F 6 6 % F z.6 % % % % g.6 Q.F F 5 s V Q.r.L.#Xq.^.) A A A A <.<.<.) A oXoX] ) <.<.) A ) A A ] ] ^.~.w.tXtXL.r.hX:.e $.0X>X~.] oXA A A ] A ) <.<.) ) A ] A A A A A A A A A ) ) .X.X) ) ) A A A ] ^.$X>Xx.aXaX,XsX....K W j j / / / / j W W K / / / j j K ..| j.I.V.%.%.V.V.-XH.yX@XX.XX1X1X2X....K K W W W W j / / ..| 4XnXwXMXMX^.8X<X0X8.8.8.8.0XhX0X$.$.8.r.fXfX&XL.r.r.g.g.R V Z.R V V Z.&XnXnX7X7X>X>X7X7X7X>XL.L.>X7X7X$X$XeXE E E 0.0.0.0.E E E 0.0.0..X0.0.0.0.0.E E E vXvX$X$X$X$X$X$X$X$X$X$X7X>X>X>XL.L.r.r.r.Z.Q.R F 6 6 % % % 6 % F F Q.F F % 6 6 6 % F 6 6 6 6 6 F 6 6 6 F 6 6 6 F 6 6 6 F 6 6 6 6 6 6 6 6 6 6 6 6 6 % F 6 6 % F 6 6 % F 6 % F 6 % F 6 6 % F 6 % F 6 % F 6 % F 6 6 6 F % F F F F % 6 % % % g.6 g.6 Q.Q.V J r :.9 a y y y & f f f B & f f f f f f & f f & f & & & & & y & & & B & & & B & & B & f & & & & & f & & & & & & & y & & & & & f v & v & v ",
"& & & & & & & & & y & & & & & f y f f f a B B y & y y a M e [ :.' r o $ 3 s 5 F F X F X F F F F F F F g.. % 6 5 6 % % % 6 % % F % F F F 6 F % 6 F 6 6 6 6 6 6 6 6 % 6 6 6 6 % 6 6 % F 6 F 6 6 % % % 6 % % F F F V s V Q.Z.L.#XKX^.] A A A A <.<.<.) oXoXoXoX) <.) A oX) ) oX%X] ~.w.tXtX7X].fX3X' 8.$.0XtX8X) ] A A ] A A ) ) <.) ) ] A A A A A A A A A ) ) <.<.) ] A A ) ) ] '.$X>X{.x.6X,XsX..2X2XW W j / / / / j W W W K / / / / K K sXj.j.V.%.%.%.%.%.%.I.H.yXX.X.XX1X1X| ..K K W W W W K ........| 4XnXwXwX$X8XtX0X8.8.o.Q.Z.r.hX$.8.8.8.3X3XhXr.r.r.Q.Q.Q.V Z.Z.V V r.&XnXnXnX&XtX{.nXnX&Xr.x.r.&XnX7X7XVXeXE E 0.0.0.0.0.0.E E 0.0..X0.0.E 0.0.0.E eX$X$X$X$X$X$X-X7X7X7X&X>X&Xr.r.r.Z.Z.Z.Z.V V Q.R R R F F F F F F F Q.g.Q.F F F 6 F % 6 6 % 6 F % 6 % F % 6 % F % 6 6 6 F % 6 % 6 F % 6 F % 6 F % 6 % F 6 6 % F 6 6 % F 6 6 % 6 6 % 6 6 % F 6 6 % 6 6 % 6 6 % 6 6 6 F % 6 6 6 % F 6 6 6 % % 6 6 6 6 F F V J N :.9 a y y y & & f f f f f f f f f f & f f & f & f & & y y & y & & & f B & & & & & & & & & & & & & & & y & y & y & y & & & & & & v & f f ",
"& & & & & & & & y B f y & y & & & y & & & f y & f y & y y y a M 9 [ [ :.' ^   3 s R R R ` R R Q.F F F F . . % 6 6 6 6 6 6 6 F 6 F F F F 6 6 6 6 6 6 6 6 6 6 6 6 6 6 6 6 6 6 6 6 6 6 6 6 6 6 6 6 6 6 % 6 F 6 F F F V V V 3Xr.#Xq.^.] A A A ) <.<.<.) oXoXoXoX) <.) A A ) ) ] %X^.8XtXtX7XNXNXfX3X8.r.r.r.0X8X~.] ] ] ) A A A ) ) ) ) ) A A A A A A A A A ) <.<..X) ) ) A A ] ^.MX7X{.x.6X6.......K K W W W j / / / j W W W K / ../ K ..sXsXj.I.V.%.%.9X%.%.%.V.I.yXX.X.XXXX1X1X| ..K W W W W K ..........| 4XnXwXwX>X0X0X8.3XL.].].jXL.3X8.:.8.0X8.8.r.r.r.g.Q.Q.V R R 7 V r.&XnXnX&Xr.x.{.nXnX&XZ.Z.r.nX7XL.>X7X$XE 0.E E 0.0.0.0.E E E E 0.0.E E E $X^.$X$X$XVX7X7X7XM.&X&X6X6X6XZ.Z.Z.R R V s s 5 F F R R F F F F F F F F F F F F F F 6 6 6 6 6 6 6 6 6 6 6 6 6 6 6 6 6 6 6 6 6 6 6 6 6 6 6 6 6 6 6 6 6 6 6 6 6 6 6 6 6 6 6 6 6 6 6 6 6 6 6 6 6 6 6 6 6 6 6 6 6 6 6 6 6 6 6 6 6 6 6 6 6 6 6 6 6 6 6 % 6 F F F R Q.J - [ M y y y y y f & & f & & & & & & & f & f f f f & y f f & y & B & B & & f f & & & & & & & & & y y y y y y y y & y & y & & & f & & v f v ",
"f & f & & & & & f B f B f & y & B & f & & f & f f y y y y y y y y y M M 9 [ :.^ $ J V R Q.R Q.R F F F F F % % % % 6 6 6 6 6 6 6 6 6 F F 6 6 6 6 6 6 6 6 6 6 6 6 6 6 6 6 6 6 6 6 6 6 6 6 F F 6 6 6 6 6 % 6 F F F F R F V 3Xr.#Xq.^.] A A A ) ) <.) ] %X%X%XoX) <.) A A A ] ] ^.$X#XtX>XwXIXNXfX3Xo.&X].fXtX<X~.] ] A ] A A A A ) ) ) ) ) A A A A A A A ) <.<.<.<.) ] ] ] ] ^.KX7X>Xx.6X,X| | ....K W W W j / / / / j j W W K / ........2Xj.j.V.V.%.%.%.R.dX5X%.V.I.yXX.X.XXXXK.1X| ..K W W W K K ..K K ....| 4XnXiXfX0XS.8.3X].NXNXNX].3X8.8.o.L.L.r.r.L.r.Q.Q.Q.V R R 7 V r.&XnX&Xr.r.3X{.-XnX6XV Z.&XnXnXr.L.7X$X0.E E E 0.0.0.0.E E E E E $X$X$X$X$X$XVX7X7X>X>X{.L.r.r.r.Z.Z.Z.V aXs z.z.s z.5 z.R R R R F F F F F F F F 6 % 6 6 % 6 6 6 6 6 6 6 6 6 6 6 6 6 6 6 6 6 6 6 6 6 6 6 6 6 6 6 6 6 6 6 6 6 6 6 6 6 6 6 6 6 6 6 6 6 6 6 6 6 6 6 6 6 6 6 6 6 6 6 6 6 6 6 6 6 6 6 6 6 6 6 6 6 6 6 6 6 6 6 6 6 F 6 F Q.R V J r [ M a a a a a f f & f & f & f & & & & f & f & f f & y & y & y & y & B & y & & f f & & y & y y y y y y y y y y y y & y & f & & f f & f f ",
"& & & & & & & f f f B & f B & B & B & y f & f f f f y y y y y y y y y y a M [ :.' - o.J V Q.Q.Q.R R F F 5 6 6 % 6 6 6 6 6 6 6 6 6 5 5 F 6 6 6 6 6 6 6 6 6 6 6 6 6 6 6 6 6 6 6 6 6 6 6 6 6 6 z.6 6 6 6 6 6 F F F R z.F V Q.3X#Xq.^.] A A A A ) ) ] %X%X%XoX] ) <.A A A ] ] ^.^.8XtXtXqXIXUXNXfX3X8.fXNXjXL.tX8X^.] ] A ) A A A A ) ) ) ) A oXA A A A ] ) <.<.<..X) ] ] ] MXMX7X>Xr.6X,X6.| | ../ K W W W W j / / / j j W j j K ..K ..sXj.j.I.V.%.%.%.R.R.%.%.%.M.V.yXyXX.X.X.X.yX1X| / K W W W K K K / / ....| 4XK.4X6XhXS.3XjXIXUXIX].r.8.8.L.].jXnX&XL.r.Q.g.Q.R Z.R 7 V ` &X&X&Xr.r.x.{.-XnX6XJ 6XM.-X7Xr.r.7X$X$XvXE vXvX^.^.$X$X$X$X$X7X7X$XwX$X7X>X>XL.L.r.r.r.Z.r.Z.Z.Z.V V V V R z.z.z.s z.X R X R F F F F F 5 6 6 6 z.6 z.z.z.z.6 6 6 6 6 6 6 6 6 6 6 6 6 6 6 6 6 6 6 6 6 6 6 6 6 6 6 6 6 6 6 6 6 6 6 6 6 6 6 6 6 6 6 6 6 6 6 6 6 6 6 6 6 6 6 6 6 6 6 6 6 6 6 6 6 6 6 6 6 6 6 6 6 6 6 6 6 6 6 6 F F F F Z.V N ' e M a a a T a f f f f f f & f & & & & & & & y & & y & & & & & y & & & y & B & y y y y y y y y y a a a a y a y y y y y y & f & f & f f f ",
"& & & f & & & & & f f & f f f & f & B f f f & f f f f f f & y y y y y y y y a M e [ :.' - o.J Q.R ` R F 5 5 6 6 6 6 6 6 6 6 6 5 6 F 5 5 6 6 6 6 6 6 6 6 6 6 6 6 6 6 6 6 6 6 6 6 6 6 6 6 F 6 6 6 6 6 6 % F 6 F F z.V R V Z.r.#Xq.^.] A A A A ] oX%X%X%X%X] ) ) ) A A A A ] ^.$X#XtXfXNXUXUXNXfX3X8.fXIXIXqXtX#X~.] oX] A A A A ) ) ) ) A A A A A ] A ] <.<.<.<.) ) A %X^.^.qX>Xr.aX,X6.| | / / j K W W W W j j j / j j j j j K K ....| j.I.V.%.M.%.%.%.%.%.%.%.M.M.-XyXyXX.X.@XX.K.1X..K W W W W W / / / / / / ..| 4X4X&Xx.x.jXIXUXIXy.r.8.o.fXNXIXiXfXr.r.g.Q.Q.V R F s 5 ` &X&X&Xr.Z.r.{.-XnX6XV r.M.-XM.r.r.fX$X$X$X$X$X$X$X$X$XVXVX7X>X>X>X7XnX7X&Xr.3Xr.3Xr.r.r.Z.Z.Z.Z.Q.V V Q.R R 6 6 5 z.5 F F F F F F 5 5 6 z.6 z.6 z.z.z.z.z.z.6 6 6 6 6 6 6 6 6 6 6 6 6 6 6 6 6 6 6 6 6 6 6 6 6 6 6 6 6 6 6 6 6 6 6 6 6 6 6 6 6 6 6 6 6 6 6 6 6 6 6 6 6 6 6 6 6 6 6 6 6 6 6 6 6 6 6 6 6 6 6 6 6 6 6 6 6 6 6 6 F F V V V o.^ :.e M a a c.a B a y y y y a y y f y f f f & & & & & & & & & & & & & & & & y & y y y a a y a y a a a a a a M a a a y y y y y f & & & & & & ",
"& & & & & & & & & f & f & f & f f & & f f B f f f & & & f y f y y y & y y y y y y y a M [ ' - J V R ` R F F 6 % 6 6 6 6 6 6 z.6 z.6 F 5 6 6 6 6 6 6 6 6 6 6 6 6 6 6 6 6 6 6 6 6 6 6 6 6 5 6 F 6 6 6 % 6 6 F F 5 s s F R Z.r.fXq.^.] A A A oXoX%X%X%X%X] ) ) <.) A A A ] ] ^.8XtX0XfXNXUXUXjXL.3X8.fXIXUXP.7X#X8X^.] A A A A A A ) ) ) A ] A ] A ] ) ) <.<.<.) A A ] ] ^.$X>X6XaX,X6...../ / / / j K K K W K W j / / / j j j K K K sX4Xj.V.V.%.%.-X%.%.R.%.%.%.M.M.V.I.yXyXiXX.X.X.1X1X..K W W W W j / / / / / j K | 4Xj.&X&XwXIXUXUXy.r.8.3XfXIXIXNX&Xr.Z.Q.Q.F V V F s 5 ` 6.&X6.r.Z.Z.6XnX&X6.V r.&XfX&Xr.Z.L.7X7X7X7XM.7X7X7X>X>X>X{.tXx.{.>X7XnXL.L.r.L.r.Z.r.Q.Q.Q.Q.Q.F Q.F F F F R F z.5 5 5 F F z.F F F 6 5 6 6 z.6 z.s z.6 z.6 6 6 6 6 6 6 6 6 6 6 6 6 6 6 6 6 6 6 6 6 6 6 6 6 6 6 6 6 6 6 6 6 6 6 6 6 6 6 6 6 6 6 6 6 6 6 6 6 6 6 6 6 6 6 6 6 6 6 6 6 6 6 6 6 6 6 6 6 6 6 6 6 6 6 6 6 6 6 6 6 F F V V J N ' [ 9 M M a B T a a a a a a a a a a a y a y & y & & & & & & & & & & & & & y & a a B a a a a a a a a M a M M a M a S M S S y y f & & & & & f ",
"& & & & & & & & & & f f f & B f & f & f f a f y f f f f f & f f & f & & & & & & & y & y a M :.r J Q.R R R F F % 6 6 6 6 5 6 5 5 5 5 5 5 6 5 5 5 5 5 5 5 5 5 5 5 5 5 5 5 5 5 5 5 5 5 5 5 F 5 5 6 6 6 6 6 6 6 5 5 s s R R Z.r.L.qX^.] A A oXoXoX%X%X%X%X^.<.<.) A A A A ] ] ^.8XtX0XfXjXNXNX].r.3X3XfXP.UXUXjX7X8X~.] A A A A A ] A ) A ] A ] A ] ] ) <.0.<.<.) A A ) ^.$X>X{.6X6...../ / / / / / / K W K W W W j / / / / / K W K 2X| 4Xj.V.%.%.%.%.%.M.M.M.{.{.f.f.V.V.-XH.yXyXX.XXK.K.1X../ j W j / / / / j W W K 2X| 4XnXnXiXIXUXIX].r.8.8.fXNXIXjXL.Z.Z.Q.R V V V z.5 % O ~ 6.~ ` Z.V Z.6.&X` Q.Z.r.r.r.Q.3Xr.r.L.r.r.r.r.L.r.r.3Xr.{.>X{.>X7X-X7X7XM.fX&XL.r.Z.Z.Q.V V F F 5 5 5 F F F F F V R F F 5 F F % 6 6 z.5 6 5 5 5 6 6 5 5 5 6 5 5 5 5 5 5 5 5 5 5 5 5 5 5 5 5 5 5 5 5 5 5 5 5 5 5 5 5 5 5 5 5 5 5 5 5 5 5 5 5 5 5 5 5 5 5 5 5 5 5 5 5 5 5 5 5 5 5 5 5 5 5 5 5 5 5 5 5 6 6 6 6 6 6 6 6 6 5 5 5 V V V J ^ :.[ e e M M a B v B M a M a a a a a a a a y y & y y y y f y f f y f y y y y a B a a a B M a M a M M M M M M M M M M S a a S y y f & f & & & ",
"& & & & & & & & f B f B f B & f & & f & f f y f y f y f f f f f f v f f f f & f f f f y y y 9 :.- J Q.Q.F F F F 6 6 6 6 z.5 6 z.5 z.5 5 F 5 6 5 6 5 6 5 6 5 6 5 6 5 6 5 6 5 6 5 6 5 6 5 5 5 5 6 6 6 6 6 F 5 5 5 s z.z.R Q.3XL.qXKX] oXoXoXoXoX%X%X%X'.<.<.<.) A A A ) ] '.$X>X0X0X3XL.fXfXL.3X8.8.L.jXIXP.jX7X>X~.^.] A A A A A ) ) ) A ] ] ] ] ) <.<.~.<.) A ] ] ] q.>X{.6X6.| ../ / / / / / / / / K W W W W j / / / / / j K K 2X4Xj.-XV.%.%.M.{.{.{.x.x.k.k.x.f.f.M.V.-XI.yXX.X.X.XXK.| / / / j / / K K W W W W K ..| 4XyXiXNXIXNX].r.8.0XfXIXIXjX&XZ.Z.Q.R R V aXs 6 X O = ~ ` R R V R ` ` Q.Q.` ` ` Q.Q.Q.Q.Q.` ` Z.Z.Z.Z.Z.r.r.L.&X7X7X-X-XwXwX-XnXnXnXnX&Xr.Z.V V 7 5 F 5 5 5 5 5 V V Q.R F F F 5 6 6 z.6 6 5 5 6 5 6 5 F F F F F 5 5 5 6 5 6 5 6 5 6 5 6 5 6 5 6 5 6 5 6 6 6 6 6 6 6 6 6 6 6 6 5 6 5 6 5 6 5 6 5 6 5 6 5 6 5 6 5 6 6 5 6 5 6 5 6 5 6 5 6 5 6 5 6 5 6 5 6 6 6 6 6 6 6 6 6 6 6 5 5 z.V V V J ^ :.9 e e e T a B a a M M a M a a a a a a a y a y a y a y B y a y B a B a a B a a a a a a M M M M M M M M 9 a 9 a M S M S a y a y y y B y f f ",
"& & & & & & & & & & B f B f f & f & & & & y f y f y f y f f f f f f f f f f f f f f y y y y a [ ' N V V Q.5 5 F 6 6 5 5 5 z.5 5 5 5 5 F 5 5 6 6 6 6 6 6 6 6 6 6 6 6 6 6 6 6 6 6 6 6 5 6 5 z.5 5 6 6 6 Q.6 F 6 5 s s F R V 3XL.#XKX] %XoXoXoXoX%X%X%X] <.<.<.A A A A ) ] '.$XtX0XS.o.3X3X3X8.' :.8.3XfX].].fXL.tX8X~.] ] A A A A A A ) ) ] A ] ] ) <.0.<.<.] ] ] ] $X8XL.r.6.| | ../ / / / / / / / K W W W W j j / / / / / K K 2X2Xj.I.-X%.%.%.{.k.k.k.3XtXtXtXtXx.{.f.M.M.V.I.yXX.X.X.XXK.1X/ / j j K K W W W W W K K sXsXe.4XX.iXiX].r.8.3X].IXIXjX&Xr.Z.V R R V V s 6 . O . % F F F F z.% F Q.Q.g.g.Q.Q.Q.Q.Q.V F R R R R Z.Z.Z.&X&XnX-X-X-XwXSXwXwX-XnXfXnXnXr.Z.Q.V V 5 6 6 5 s s s 5 F R Q.F R F 5 5 5 6 6 6 6 6 6 6 F F V F Q.F F 5 5 5 6 6 6 6 5 5 5 6 5 5 5 5 5 6 5 6 6 6 5 5 5 6 6 6 6 6 6 6 6 6 6 6 6 6 6 6 5 5 5 5 5 5 5 5 5 6 6 6 5 5 5 5 5 5 5 5 5 5 5 5 5 5 5 6 6 6 6 6 6 6 6 6 6 6 5 6 5 V z.V V J ^ :.9 e e e M a a T M a M a M a M a a a a y a a a a a a a a a a a a a a M a M a M a M a M a M M M M M 9 M 9 M 9 9 M 9 a a y a y a a a y a a a ",
"& & & & & & & & B f f & & f & & & & & & & & & y & & & & y & & f & f & & & & & & y & y & y & y a [ ' o.V Q.7 5 F F 6 6 6 6 5 F F F V F F F 6 6 6 6 6 6 6 6 6 6 6 6 6 6 6 6 6 6 6 6 6 6 6 z.z.z.6 6 F Q.Q.Q.6 6 6 6 z.s s Q.Z.r.#Xq.MX%X%XoXoXoX%X%X] <.<.<.) A A A ) ] ] MX8XtXS.S.r.L.r.r.3X$.' :.8.0X3X0X0XS.0XtX8XMX] oXA oXA A A ) ) ] ] ] ) <.<.0.<..X] ] ^.$X7XL.&X4X4X| ..K / / / j j j j K K W W W W j j / / / / / / K sXj.I.V.%.%.5X{.k.0X3XL.].jXjX].L.3Xk.x.M.M.M.V.I.yX@XX.X.X.K.1X/ j W K K K K W W W K K K K ....| e.4XnX&X3Xr.].IXIXiX&XZ.J J V R R F F R . % 6 5 5 F F F 6 6 F F Q.Q.Q.F Q.Q.Q.Q.F 5 s F R Z.Z.Z.r.&XnXnXfX{.{.-XwXiXwX&Xr.r.&X6.~ ` R V s s 6 6 % 6 6 5 6 F F F F F F 6 6 6 6 F 5 6 F 6 F F F F F F F 5 F 5 6 F F F F 5 5 F F 5 w s 5 F 6 6 6 6 6 5 w 5 6 F 6 F 6 F 6 F 6 F F F F F F F F F F F F F F 6 6 6 6 6 6 6 F F F F F F F F 6 F 6 6 6 6 6 6 6 6 F 6 % 6 6 6 6 5 5 V V V J ^ :.[ 9 M M M a 9.M M a a a M a M a a a a a a a a a a a y a y a a y M a M a M M M M M M 9 9 e e e 9 9 e 9 9 e 9 9 9 9 M M M M a a a a a a y a ",
"f & & & & & & & & & & B & B y f f f f y y y y y y y y y y y y y y y y y y y y y y y y y y y & y M :.N J Q.7 5 F F 6 5 5 5 z.5 V F F V F F 6 6 6 6 6 6 6 6 6 6 6 6 6 6 6 6 6 6 6 6 6 6 5 z.s z.5 6 F Q.Q.g.Q.6 6 s z.s s Q.Z.3XL.8XKX%X%X%XoXoX%XoX) <.<.) A A A A ) ] ^.$X8XtX3XL.jXjXjX].fXr.$.:.8.8.3X8.$.:.S.k.>X$X] A A A A A A A A ] ] ] ) <.<.<.] ] ] ^.MX7X>Xr.&Xe.| ..K K K K K K j K K W W W W W j j j / / / / ....| j.j.V.V.%.%.5X{.k.r.fXjXP.IXIXIXjXfXtXk.{.M.V.M.d.I.H.yXiXX.X.K.1X..K W W W K K K K K K K W K K ..| e.e.e.&X].iXIXIXjX&Xr.Z.Z.Z.` V V F F F F F F 6 F F F 6 5 5 5 F F F F F F F F 5 s s V R Z.Z.Z.r.&XnXnX&X3Xx.&XnXyXnX6XZ.V ` ~ ` R F s s 5 6 % % 6 6 5 6 6 6 6 6 6 6 6 F F F F 6 6 6 6 6 6 6 6 6 6 6 F 6 6 6 6 F F F 5 5 5 F 5 5 5 F F 6 5 5 6 6 6 5 6 6 g.6 % Q.6 6 Q.6 F 6 6 6 5 5 F 5 6 F F 5 6 5 6 F 6 F 6 F 6 5 F F 5 5 5 5 5 F F F 6 6 6 6 6 6 6 6 6 F 6 6 6 F 5 5 F z.V J ^ ' [ 9 9 e e M M a M M M M M M M M 9 M M 9 M M a M a M M a M M a M a M M M M M M M 9 9 9 9 9 9 9 e 9 9 9 9 9 9 9 9 9 9 M 9 M 9 M M M a M a M ",
"& & & & & & & & & & & y & y y y a a a a a f y y y y y y y y y y y y y y y a a a a a a a a f y y a e r J Q.7 w 5 6 6 5 5 5 5 F F V F F F F 6 6 6 6 6 6 6 6 6 6 6 6 6 6 6 6 6 6 6 6 6 6 6 z.z.s 6 F F Q.Q.Q.6 6 6 z.z.z.z.V Q.3XL.#Xq.MX%X%XoXoXoX] <.<.<.) A A A ) ) ] ^.~.>XtXL.jXIXIXIXIXjXr.8.' o.r.L.r.3X$.S.0XtX8X^.A A A A A A A ] ] ] ) ) <..X) ] ] ^.$X$X>XL.&Xe.| | ..K K ../ K K K W K W K W W j j j j / / / / ..| 4Xj.V.V.%.%.%.f.{.3XL.jXIXUXUXUXUXIXjXL.k.{.M.%.%.uXV.I.H.yXiXiXX.K.1X2XK W W K K ../ / / j j W j K / ..| e.4XnXiXIXNXiX&Xr.Z.Z.Z.Z.V V V F F F F F F 6 F 6 5 5 z.5 5 5 5 F 5 5 5 5 5 5 s 5 F R Z.Z.r.r.&X&Xr.3XhXr.nXnX&Xr.V J g.` R F 5 s s 5 6 6 6 6 5 5 6 6 6 6 6 6 F 5 6 F F 6 5 F 5 6 5 6 F 6 Q.6 6 6 g.6 5 6 6 F F 6 F F F F F F F F 6 5 5 6 6 6 % 6 F 6 6 6 % 6 6 6 6 7 6 5 6 6 6 6 5 5 5 5 5 5 5 6 6 6 6 6 6 5 F 6 5 5 F 5 F 5 5 F 6 6 6 6 6 6 6 6 6 Q.6 6 6 6 5 5 5 V V V J N ' :.[ [ e e e 9.M e e e e M e e M e e e 9.9 M M M 9 M M M M M M M 9 M 9 M 9 9 9 9 9 e 9 e 9 e e 9 9 e 9 9 e 9 9 9 9 M 9 9 M 9 M 9 M M M M M ",
"& & & & & & & & & & y & y y a a B B M B a a a a a a a a a a a a a a a a M a a a M M M a a a y y y M ' o.Q.5 w 5 6 6 5 z.5 z.V 5 F 5 Q.5 F 6 6 6 6 6 6 6 6 6 6 6 6 6 6 6 6 6 6 6 6 6 5 6 s s z.5 5 F Q.F Q.F 6 6 s z.z.z.V V 3X3X>XqXMX%X%X%XoXoX) <.<.) A A A A ) A ] ^.8XtXtXL.jXIXUXUXUXjXL.o.8.Q.].jX].fXr.0XS.tX8X~.] A A A A A A ] A ] ) <..X) ] ] ^.^.7X>XL.&Xe.e.| ..K K K / K K K j K j j W W j W j j j j / / / | 4Xj.V.V.V.uX%.%.f.x.hXfXNXUXUXUXUXUXUXNX7XtXlXf.%.5X%.%.V.V.-XH.iXiXX.K.1X/ j j / / ....../ / j j j W j K K ..e.4XK.iXiXnX&Xr.r.Z.V V V Z.V V V F F F F 6 5 5 6 6 6 5 5 5 5 5 5 6 5 6 z.6 5 z.5 F V Q.Z.Z.r.r.r.Q.J r.&XnX&Xr.V 7 F g.F 5 s s 5 5 6 6 6 5 5 5 6 6 6 6 5 5 5 5 5 5 5 5 5 5 6 6 6 6 6 6 6 6 6 6 6 6 5 5 5 F F F F F F F F F F F 5 5 5 5 F 6 6 6 6 6 6 Q.6 g.6 Q.6 6 5 5 6 6 6 6 5 5 5 5 6 5 6 5 6 6 6 6 6 6 5 5 5 5 5 5 5 F 5 5 5 5 6 6 6 6 6 6 5 6 6 5 6 6 6 5 5 5 z.V V 4.^ :.[ [ e e e e e e e e e e e M e 9 9.e e e 9 S 9 M M 9 M 9 M 9 M 9 M 9 9 9 9 9 [ e e e e e e 9 e 9 e 9 9 9 9 9 9 e 9 e 9 9 9 9 M 9 9 M M e ",
"& & & & & & f y B y a y B a B a M M M M a a a a a a a a a a a a a M M M a M M M M M M M c.a a y y a :.N V 5 7 5 5 6 5 5 5 5 5 F V F F F 5 6 5 6 6 6 6 6 6 6 6 6 6 6 6 6 6 6 6 6 6 6 5 6 6 z.5 5 F Q.F Q.F 5 5 5 z.z.z.z.5 V 3X3XL.7XKXMX%X%X%X] <.<.<.) A A A A A A ] ^.8XtX0XL.jXIXUXUXUXjXL.8.8.g.jXIXIXNX].L.0X0XtX~.] A A A A A ] ] ] ) ) .X] ] ^.^.$X7X>XL.&X&Xe.| ....K K / ..K / K K K j K j j j W j j j j / ....| 4XV.V.V.%.uXV.M.{.l.hX&XNXUXUXUXUXUXUXP.nX>XlX{.5X5X%.%.%.%.%.-XH.;XiXX.K.1X/ / / / ../ ../ / / j j W W W W K ..| e.K.K.4X&X&X6.r.Z.V hXaXV aXV R V F 6 5 7 5 5 6 5 6 6 6 5 5 5 6 5 6 6 6 z.6 6 5 F V V Z.Q.Q.Q.Q.3Xr.&XnX&Xr.Q.7 F F 7 7 s 5 5 5 6 6 6 5 5 5 5 5 5 5 5 5 5 5 5 5 5 6 F 5 6 6 5 6 6 6 6 6 6 6 6 5 s s 5 5 F R R R F F 5 5 F F 5 5 5 5 6 6 5 5 5 5 6 6 6 6 6 6 6 6 6 6 6 6 6 6 6 5 5 5 5 6 6 6 6 6 5 6 6 6 5 6 5 5 5 F 5 5 5 F 5 5 6 5 6 5 6 6 5 6 6 6 6 6 5 5 z.5 V F V J ^ :.[ [ 9 e e e c.e e e e e M e 9.M 9 e 9.9 e e e e 9 M 9 M 9 M 9 M [ e e e e [ e e e e [ 9 9 e 9 e 9 9 9 e 9 9 9 e e e e e e 9 e 9 e 9 9 e ",
"& & & f & y y y y a B a a a M B M B M M a M a M a M a M a M a M M M M M M M M M M M M M M M a a a a [ N V 5 5 5 5 5 5 z.5 5 F 5 F F 5 F 5 F 6 6 6 6 5 6 5 6 5 6 5 6 5 6 5 6 5 6 5 6 6 6 5 6 6 5 F 5 Q.V F 5 5 z.s z.z.z.s V V 3Xr.L.qXMX'.%X%X] <.<.<.A A A A A A A ] ] 8X<XtXtXfXjXP.IXUXjXL.8.8.g.P.UXUXUXNX].r.0XtX8X^.oXA A A ) ) ] ] ) .X] ] ^.^.$X7X>X&X&X4Xe.| ..K / / / K / K / / / / j j j j W j W j W K K 2X| j.j.V.%.%.%.uXuX5XOXl.hX&XjXUXUXUXUXUXUXIXjX>XlX{.T.T.5X%.R.%.%.%.-XH.iXX.X.K.1X*X/ K / ../ / / / j j W W W W K K ..| e.e.e.e.e.e.6.6.Z.Z.Z.V V aXV V F F 5 5 5 6 6 6 6 6 F F F F 6 6 6 5 6 % % 6 F F V Q.V Q.Q.Q.Q.Q.r.&XnX&Xr.Q.7 7 7 7 7 5 5 5 5 6 5 5 5 5 5 5 5 5 5 5 5 5 5 5 5 5 5 5 6 5 6 6 6 5 6 6 5 6 6 6 5 5 5 s 5 5 F F F 5 s s 5 F F F F F F 5 5 5 5 5 6 5 6 6 6 6 6 6 6 6 6 5 6 6 5 6 6 5 5 5 5 6 5 6 6 6 6 5 6 6 5 5 5 5 5 5 F 5 5 5 5 5 6 6 6 6 6 6 5 6 5 6 6 6 5 5 F 5 R V J N ' :.[ 9 9 e [ :.[ [ e e e e e 9 e e 9 M 9 9.e 9 9.e e e e e e e e e e e [ e e e e 9 e e e e 9 e 9 e 9 9 9 9 9 e e e [ 9.e e e e e e e e e ",
"y y y y y y y B a a M a M a M M M M M a M M M M M M M M M M M M M M M M M M e M e M e M M M M M a a [ - J 7 5 5 5 5 5 5 5 5 5 5 5 F 5 F 5 6 6 5 6 6 6 6 6 6 6 6 6 6 6 6 6 6 6 6 6 6 6 5 6 6 6 Q.F Q.5 V F 5 s z.s z.z.s s V Z.Z.3XL.7XwXMX%X%X] <.<.) A A A A A A A A %X^.8X<XtXtXL.qXjXP.].r.8.8.L.jXIXUXUXIXiX&X0Xk.>X~.] A A A ) ] ] ] .X.X^.^.^.KX7X>XL.&X4Xe.| ..K / K / / K j / / / K / / j j j j j j W K W K 2Xj.j.V.%.%.%.uX5X5X5Xt.OXk.r.].IXUXUXUXUXUXIX].tXlX{.T.t.T.T.%.%.%.%.%.I.yXiXX.X.K.1X../ K / / / / / j j j W W W W K ....| | | | e.e.e.e.6.6.` Z.Z.V V V s z.z.z.F F F F Q.Q.Q.Q.Q.Q.Q.Q.6 5 6 % g.F F Q.Q.Q.Q.Z.Q.Q.3XQ.r.&XnX&Xr.Q.Q.7 Q.5 F 5 F 5 F 5 5 5 5 5 5 5 5 5 5 5 5 6 6 5 6 6 6 6 5 6 5 6 5 6 6 5 6 5 5 6 5 5 5 5 s 5 s s V s V V V V F F V V V F Q.F F F F 6 5 6 6 6 6 6 % F 6 5 5 6 6 6 6 5 6 6 6 6 6 6 6 6 6 6 5 6 6 6 5 5 5 5 5 5 5 5 5 F 5 5 5 5 5 Q.6 5 6 5 5 5 5 5 5 V z.F V J N ' [ 9 9 9 e [ [ e [ [ [ e e e e e e e e e e e e e e e M e e e e e [ e e e [ e e e 9 9 9 9 e 9 e 9 9 e 9 e 9 9 e e 9.[ e e e e e e e e e ",
"y y y y a a a a a M a M M M M M M M M M M M M M M M M M M M M M M e M e e e e e e e e e M 9.M M M a [ - 3 7 s 5 6 5 6 5 5 5 5 F 7 F 5 F 5 F 5 6 6 6 6 5 6 6 6 5 6 6 6 5 6 6 6 5 6 6 5 6 6 Q.6 6 Q.5 F V s s z.s z.z.s s z.V V V hXr.&X7XMX'.%X^.<.<.) A A A A A A A A ] ] ^.q.8X#X#X#X#X7XL.0X8.8.3Xy.P.UXUXUXIXnXr.0XtX8X^.] A A ) ] ] ] ^..X^.^.$X7XL.r.&X4X4X..K K K K / / j j / K / / / j / j j j j j W K K K 2Xj.j.V.V.%.%.%.5X5Xt.t.OXOXk.x.fXjXIXIXIXIXIXjXfXx.k.{.5Xt.t.t.T.%.%.dX%.V.-XyXiXX.XXK.1X*X/ K K j j / / / j W W W K K / ........| | | 4Xe.e.e.6.6.` R V s aXV z.z.F 6 Q.6 Q.g.Q.Q.g.Q.Q.g.Q.Q.g.F g.F F 7 Q.Q.Q.Q.Q.3XQ.3Xr.&XnX&Xr.Q.Q.Q.6 Q.F F F F 5 5 5 5 5 6 5 5 5 5 5 5 5 6 6 6 6 6 6 6 5 6 6 5 6 6 5 6 5 5 5 5 F F F F V V V V V V V R V V V J V 7 V V Q.R R F F F F 5 5 5 F 5 F 6 5 5 5 5 6 6 5 6 5 5 5 5 6 6 6 6 5 6 5 6 6 6 6 5 5 5 5 5 5 5 5 5 5 6 6 5 6 5 5 5 6 5 6 5 5 5 z.5 V R V V J N ' :.[ 9 [ [ [ 9 9 9 9 9 [ e e e e e e e e 9.e e 9.e e e M e e e e e e e e e e e e 9 e [ e 9 9 [ 9 [ 9 9 e 9 e e e [ 9.e e e e e e e e ",
"a a a a a M a M M M M M M M M M M e e e [ M [ 9 [ M [ M [ M [ e [ e e e e e e e e e c.e M M M M M a [ - 3 * w 5 5 5 5 s 5 5 F 5 5 6 7 6 7 6 5 6 7 6 5 6 5 5 5 6 5 5 5 6 5 5 5 6 5 5 6 7 5 F Q.5 7 F 5 s V z.s z.z.z.s s s s V V V Z.r.>X$X'.'.^.<.<.) ) ) A A A A A ) ) ] %X'.MXKX8X#X<XtXtX0X0X0X3XfXjXNXUXUXIXiX&X0XtX>X$X] ] ) ) ] ] .X^.^.^.$X7X>Xr.6.e.e.| K K j / / / j / j j / / / j / j j j j j j j K K sXsXj.I.V.%.%.%.5X5X5Xt.t.{ OXk.k.r.fX].jXjXjXjXfXr.k.OX{.t.t.{ t.t.5X%.dXdX%.V.I.yXiXX.XX1X1X*XK K j j j / / / j j W j j / / K K K ....| | | | e.e.e.6.` R R V aXV aXF 5 F F Q.5 Q.Q.Q.Q.Q.Q.Q.6 6 g.% 6 5 7 7 7 Q.Q.Q.3X3X3Xr.&XnX&Xr.Z.Q.Q.F Q.F F V 5 5 5 5 5 6 6 5 5 5 5 5 5 5 5 5 5 5 5 5 5 5 5 5 5 5 5 5 5 5 5 5 V F V V V V V R V V V J V J J N N N N o.J V Z.R R F F F F F 5 5 5 5 5 5 5 5 5 5 5 5 s 5 s 5 5 5 6 5 6 5 6 5 5 5 5 5 5 5 5 5 5 5 5 5 5 5 5 5 5 5 5 5 5 5 5 5 5 5 5 s 5 5 V F R V J N ' :.:.[ [ 9 9 9 9 9 9 9 9 9 e e e e e e e e e e e e c.e e e e e e e e e 9 e 9 9 e 9 9 9 e 9 9 9 9 9 [ 9 9 e e e e e e e e e [ e [ 9 ",
"a M a M M M M M M M M M M M e e e e [ e [ e [ e e e [ e [ e e e e [ e [ e e e e e e e e e e M M M 9 :.o * w * s 5 5 5 5 5 5 5 6 7 6 Q.6 5 6 5 5 5 5 5 5 5 5 5 5 5 5 5 5 5 5 5 5 5 5 5 6 6 Q.6 Q.5 5 V z.s aXs s z.F s s 5 F V V J aXhXL.7X^.^.<.^.) ] ) ) A A A A A A ) ] %X%X%X%X'.MX$X8XtXtXtX0XtXL.fX].NXIXIXiX&XhX0XtX8X] ] A ] ] ] ^.^.$X$X7X>X&X&Xe.......K j j *Xj K / j / / j j j j j j j j j / j W K 2XsXj.d.V.%.dX%.uX5X5Xt.t.5Xt.OXlXx.k.0X3X3Xr.r.3Xx.k.OXOXt.t.t.{ { { t.G.+XuXuX%.V.I.yXX.X.XXXX1X*X2XK K K K / / / / / / j K K K / K / ../ ....| | | | | 6.6.,X` R V V V s 5 5 5 F 5 Q.Q.Q.5 Q.F g.F 6 6 5 5 s w 7 V Q.Z.Z.hXhX{.M.nX&X6XhXJ V V V V V V V 5 5 6 6 6 6 5 5 5 5 5 5 6 5 5 6 5 5 6 5 5 6 5 5 5 5 5 5 5 s V V V V V V V V V Z.J J N N r ' :.:.:.:.:.r N J V V V V V V V Q.V V V V 7 V 5 5 5 5 5 5 5 5 5 5 5 5 6 5 5 5 5 5 5 5 5 5 5 5 5 5 5 5 5 5 5 7 F 7 5 5 Q.5 5 5 5 5 5 5 5 5 s 7 V F Q.V J N - r ' :.[ [ 9 9 9 9 9 9 9 9 9 e e 9 9.e e e e c.M e e M e e e 9 e 9 e 9 9 e 9 9 [ 9 [ 9 9 [ 9 [ 9 9 [ 9 e e e e e e [ e [ 9 [ [ 9 ",
"M M M M M M M e e e e e e [ e [ e [ e [ M [ M e e [ M e e e e e e e e [ e e e e e e e e e e M 9 M 9 ' $ 7 w w s 5 5 5 s 5 5 5 5 6 6 6 5 5 5 5 5 5 5 5 5 5 5 5 5 5 5 5 5 5 5 5 5 5 5 5 6 Q.6 Q.5 5 5 s s aXs s z.R F w 7 F F F s V V aXx.7X$X~.~.<.] ] ) ) ) A A A A A A ] ) ] ] ] %X%X'.MX$X$X8X8X<XtXtXL.fX].].nX&X$.S.tX8X^.] ] ] ] ^.^.$X$X7X>X&X&Xe.| ..K W K j j W W j / / / j j j j j j j j j / / / j K sXj.j.V.%.dXdXuXuXG.G.t.t.t.t.t.{.{.{.k.k.0X0Xk.k.x.x.OX5Xt.t.{ { { { { G.G.G.5XuXuXV.I.yXX.X.XXXX1X1X2X2XK K K K / / / / j K / K K j / / j / / / / ..| | | | 6.6.~ ` R V V s V V V V V V Q.V Q.Q.Q.F 7 s 5 F F R R R ` r.r.r.x.f.-X-XnX6XZ.J V V V V V V 5 5 6 6 6 6 5 5 5 5 5 5 5 5 5 5 5 6 5 5 s 5 s 5 5 s 5 5 V s V V V Z.V V J J J hXN $.' :.[ e M M M M M M e :.' - o.J J V V Z.Q.Q.Q.V V V Q.V V V Q.V V V V 5 5 5 5 5 5 5 6 6 5 5 6 s 5 5 s 5 5 s 5 s 5 5 V 5 5 F 7 6 5 5 5 5 5 5 5 s 5 s w 5 V V V J J J o.o r ' :.:.[ [ 9 9 9 9 9 [ [ e [ e e e e e e e e e e e e [ 9 [ 9 [ [ 9 [ 9 [ 9 [ 9 9 [ 9 9 9 [ 9 9 [ 9 [ e [ [ [ e [ [ [ [ [ 9 ",
"M M e M e e e e e e e e e e e e [ [ e [ e 9 e e 9 e e 9 e e 9 e e [ e [ e e e e e e e e [ [ 9 9 9 :.- J V 7 w s 5 6 s 5 5 5 5 6 7 5 Q.6 7 6 5 5 5 5 5 5 5 5 5 5 5 5 5 5 5 5 5 5 5 5 6 7 6 Q.5 5 5 5 aXs z.s z.s F F 7 5 F F V V z.V V 3X>X8X~.<.^.] ] A ) A A A ) A A A ) ) <.<.) oX%X%X'.'.MXMX^.$X8X#XtXtXL.L.L.3XS.S.0X#X~.] %X] ^.^.$X7X7X&X&X&Xe.| | ..W W W K W W W j / / j / j j W W W j j j j j / K ..4Xj.V.V.uXdXdXuXG.G.t.t.t.{ t.t.t.5X{.{.tXtXk.tX{.{.lXt.t.t.{ { { { { { { { t.G.5XuXuXV.I.yXyXX.X.XXK.1X1X2XK K K / / / / / K K K j j j j j j j j j / ..| | | | e.6.6.6.,XZ.aXZ.Z.Z.Z.r.Z.r.Z.Z.Z.Z.Z.Z.Z.Z.Z.` r.6.&X&X&X&X&X&X-XH.wXyX&X6XZ.V V V V V s V 5 6 6 6 6 5 5 5 5 5 5 5 5 6 5 6 s 6 5 6 5 5 s s 5 5 F V V V J J N N $.$.' ' ' ' [ e M a y y y y y y y y a M [ ' $.N o.J J V V V J J J o.J J J V Q.V Q.V V Q.F F 5 5 5 5 5 6 5 5 6 5 6 s 6 s 5 5 5 5 V 5 V F 7 5 5 5 5 5 5 5 5 5 5 5 5 s 5 7 7 7 V V V V J o.N N ^ ^ ' :.[ 9 9 9 9 9 [ e [ e e e e e e e e e e M [ 9 [ [ [ [ [ [ [ [ [ 9 9 9 9 9 9 9 9 9 9 9 9 9 9 9 9 9 9 [ [ [ [ [ [ ",
"e e e e e e e e e M [ M M 9 M [ [ e [ [ e 9 e 9 e e e e e 9 9 e e [ e [ e e e e M e e [ :.[ [ [ :.^ J V F 5 5 5 5 s 5 5 s 5 5 5 6 6 6 6 5 6 7 6 5 5 5 5 5 5 5 5 5 5 5 5 5 5 5 5 5 5 5 6 Q.7 6 5 5 s s z.s s s V F F Q.Q.7 7 F F V s V 3X#X8X~.<.) ) ] A A A ] A ) ) ] ] ) <.<.<.<.A oX%X%X'.%X%X%X'.MXMX$X8X<XtX0X0X0XS.0X<X~.^.] '.^.$X7X>X&X&X4Xe.| ..K j W W W W W K j K / j j j j j W W W j j j j / / ..| j.V.V.%.dXuXuXG.G.t.{ { { { { { t.t.T.{.T.{.>XT.{.T.lXt.t.t.t.{ { { { { { { { t.t.n.5XuXV.V.H.yXX.X.XXXX1X1XK K K K / ../ K K K j j j j j j j j j j j / / ......| e.e.e.6.6X6X6X6X6X&X&X&XL.r.L.&Xr.r.r.r.6X&X&X&X&XnXnXnXnXwXyXwX;X;XwX&X6XZ.V V V V V V 5 5 5 6 6 5 5 5 5 5 5 5 5 5 5 5 5 6 5 6 s s s s s V F R V V J ^ :.:.[ e e M a a a a y y y & y & & & & & & y y a M e [ :.' $.$.N $.$.$.' ' ' r N J J V J V Q.Z.Q.Q.F F F F 5 5 5 5 5 z.5 5 s z.s 5 s 5 5 V 5 5 F 7 F 5 5 5 5 5 5 5 5 5 5 5 5 5 V V V 7 Q.V V V V V J J N ^ :.[ 9 9 9 9 9 9 [ [ e [ [ e [ e e [ M 9 9 [ [ [ [ [ [ [ [ [ [ 9 9 9 [ 9 9 9 9 9 9 9 [ [ 9 9 [ 9 [ [ [ :.:.:.' ",
"M e M e e e e [ M [ 9 9 [ [ [ [ 9 e 9 9 9 e e e 9 e e e e e e e e e e e e e e e e [ e e [ 9 [ :.r N V F F 5 5 s s 5 s 5 5 5 5 6 7 6 Q.6 5 5 6 5 5 5 5 5 5 5 5 5 5 5 5 5 5 5 5 5 5 6 7 6 7 6 Q.5 5 s z.s s z.s 5 7 Q.g.Q.Q.7 Q.F 5 V V r.#X~.<.) ) ) A A ] A A ] ) ] ] ) ) <.<.<.) A A oX] ] %X%X%X%X%X%XMX^.~.8X<XtXtXtXtX#X~.MX'.MX$X7X7X&X&X4Xe.| ..K W W W W W W K K K / / j j j j W W W W W j j j / ..| 4Xj.V.%.%.uXuXG.G.{ { { t.{ { { { t.t.t.T.T.T.T.>XT.T.T.T.T.t.v.t.t.t.|.{ t.t.t.{ t.t.G.G.uX%.V.H.yXX.X.X.XX1X1XK K K K ..K K j K K j j j j j j j j j j / / / / / | | | e.e.e.4XnX&XnXnXnXM.&XM.&X&X&X&X&X&X&X&X&X&XnX&XnXnXnX&XnX-XnX-XnX&Xr.V V V V V V V V 5 5 5 5 6 5 5 5 5 5 5 5 5 5 5 6 s 6 s 6 z.5 5 5 V V V V N ^ :.9 M a a y y y y y & y & & & & & & & & & & & & & y y a M e e [ [ [ e e M M e [ :.r 8.8.o.o.J Z.Z.Q.Q.Q.Q.F F F 5 5 s 5 s 6 5 5 5 5 5 5 5 5 5 V 7 5 5 5 5 5 5 5 5 5 5 5 5 5 5 5 5 5 F F V 7 Q.V V V V V V N ^ ' :.9 9 9 9 [ e [ [ e [ [ [ [ [ [ [ 9 9 9 [ 9 9 [ [ [ :.:.:.:.:.:.:.:.' :.' :.' :.:.:.:.:.:.:.:.' ' ^ - N $ ",
"e e [ e e e e [ M 9 [ e [ e [ [ 9 9 9 9 e e e e e e 9 e e e e [ e 9 9 e [ [ [ [ e [ e [ 9 9 [ ' N J V F F 5 s s 5 5 5 s 5 5 5 5 6 7 6 5 5 6 7 5 5 5 5 5 5 5 5 5 5 5 5 5 5 5 5 5 5 5 6 5 5 7 5 5 5 s s z.s s V 5 7 Q.Q.Q.Q.Q.Q.7 5 5 Q.L.8X~.<.) A A A ) A A ] ] ] ] ) ) <.<.) ) A A A A ) ] ] %X%X%X%X%X%X%X'.^.~.8X8X8X8X8X^.MXMX$X7XM.&X4Xe.e.| ..K W j W j j W W K K / K / j j j j W W W W W W j / / | 4XnX-XV.%.5X5XG.G.t.{ { { { { { { { t.t.T.T.T.T.U.T.U.T.U.T.T.T.T.T.T.T.T.T.T.T.t.t.t.{ |.G.+XdX%.V.I.yXX.X.X.XX1X1X..K K K / K K j j j W W j j j j j j j / / / / / / ......| 4XyXyXnXyXyXnX&X&X&X&Xr.&Xr.&Xr.&X&X6X&X6X&Xr.r.r.r.r.&X&X&X6XZ.Z.V F F F V 5 s 5 5 5 6 5 5 5 5 5 V 5 5 5 5 6 5 5 6 5 5 6 s 5 V V R Z.J J ^ :.9 a y y y y & & & & y & & & & & & & & & & & & & & y y y y y a y a y y y y a a a M e [ :.' $.8.o.J J V V Q.Q.R F 5 5 s s 5 s 6 s 6 s 5 5 V 5 V 5 F 5 F 5 5 5 5 5 5 5 5 5 5 5 5 5 5 5 V 5 5 V V F V V V V V V J N ^ :.[ 9 9 9 9 9 [ e [ M e e e 9 [ [ [ [ 9 [ [ [ :.' ^ N N N N 4.N N 4.N 4.N 4.N N N N N ^ N N $ $ J J J V ",
"[ [ [ [ [ [ [ [ [ M 9 9 9 [ [ [ [ 9 9 [ e e e e e e 9 9 9 9 9 9 9 9 9 [ e [ 9 9 9 9 9 9 [ :.' - J V F F 5 5 s 5 s 5 s 5 5 5 5 5 5 Q.6 6 7 5 6 5 5 5 5 5 5 5 5 5 5 5 5 5 5 5 5 5 5 5 5 5 5 5 5 5 s z.s s z.s 5 5 5 Q.Q.Q.Q.Q.Q.Q.7 Q.Z.L.8X~.<.) A A A A A ) ) ] ] ] .X<.<.<.) ) A A A A A A A ) A ] %X%X%X%X%X%X%X'.^.^.$X^.MXMXKX7X&X&Xe.e.| | ..K j W W W j K j j K K ..K / j j j W W W W W W W j K ..e.nX-X-XV.%.5X5XG.t.{ { { { t.t.t.t.t.T.T.T.T.U.U.eXeXeXeXeXeXeXeXeXeXeXU.eXU.VXT.T.T.v.v.v.|.G.+X%.%.V.I.yXyXX.X.XX1X1X2XK K K / j j j W j W W W j j / / / / / / / / / / / / ..| K.K.4XK.nX4X&Xr.r.r.Z.Z.Z.r.Z.Z.Z.Z.Z.Z.Z.Z.Z.` Q.Z.Z.Z.Z.Z.V V 7 F F F 5 F V 5 5 6 5 6 5 5 5 V 5 5 5 5 5 5 5 6 s 6 s s s F V Z.V V J $.:.9 a y y & & & & & y & f f f & & & & & & & & f & & & & & & & y & y & y y y y & y y y a a M M e :.' $.N o.J V V Q.V V 5 5 s 5 6 5 6 5 5 s 5 5 5 5 F 7 5 7 5 5 5 5 5 5 5 5 5 5 5 5 5 5 5 7 F 7 F 5 5 7 s V V V Z.V J J ^ ' :.[ [ [ [ 9 [ 9 [ [ [ [ [ [ [ :.:.:.:.:.' ^ N J J V J J J J J J J J J J J J V J V J V J V V V V F V ",
"[ e [ [ e [ [ e [ [ 9 9 M 9 9 9 9 [ [ e [ e e e e 9 9 9 9 9 9 9 9 [ [ 9 [ 9 9 9 9 9 9 :.:.^ N J V V F 5 5 s 5 5 5 5 5 s 5 s 5 7 6 7 6 7 6 5 5 5 5 5 5 5 5 5 5 5 5 5 5 5 5 5 5 5 5 5 5 7 5 7 5 s s s s s 5 5 5 5 7 Q.Q.Q.Q.Q.Q.7 7 Q.r.fXq.<.) ) A A A A ) ) ] ] ] ] .X<.<.<.) A A A A A A A A A ) ) ) oXoXoXoXoXoX%X%X'.'.MXMXqX7X&X&X6.e.| ....K K j j j j j K j j K K K K / j j j W W W W W W K K ..| 4X-X-XV.%.%.5Xt.t.{ { { t.{ t.t.5X5XR.R.R.R.U.eXeXeXeXeXeXeXeXeXeXeXeXeXeXeXeXeXeXU.U.T.s.T.v.|.5X5XuX%.V.I.yXyXX.X.XXK.1X2XK K / j j W j j j j j j j / / / / / / / / j j W j / ..| e.4X4Xe.e.6.` Z.V J J V V V V V V V V J J Q.Q.Q.Q.J hXZ.J V 7 5 6 6 6 5 5 s 5 5 5 5 5 7 F 7 F 5 V 5 5 5 5 5 5 6 5 5 s s V R V V hX$.' [ a y y & & & & & & & f f f f & f & f & f & f & f & f & y & & & & & & y f B y & y & y & y y y a M e [ ' r N o.J V V R V F s 5 5 5 5 s 5 5 5 5 5 5 7 5 5 5 5 5 5 5 5 5 5 5 5 5 5 5 5 5 5 5 5 5 7 5 V 5 s s V F R R V V J N N ' :.:.:.:.[ :.[ :.:.:.:.' ' ' ^ ^ N N N J V V Z.Z.V Z.V V V V V V V V R V R Q.Q.V Q.V V V F 7 V 7 ",
"e [ e [ e [ e [ [ 9 [ 9 9 M 9 9 9 9 9 9 e e e e e e e 9 9 9 9 9 9 9 9 9 9 9 9 9 9 :.:.' N J J V V F 5 s s s 5 5 5 s s s s s 5 5 7 6 7 6 w 5 w 5 5 w 5 5 w 5 5 w 5 5 5 w 5 5 w 5 5 7 5 5 5 5 s s 5 s s 5 5 5 5 7 5 7 Q.6 Q.Q.Q.Q.7 Q.r.fXq.<.<.) ) A A A A ) A ] ] ] <.<.<.<.) A A ] A A A A A A ) ) ) A A A A oXoX%X%X%X'.MX$X7XL.6Xe.e.| ..K K K j j j j W j j j / / K K K K j j j j W K K K K K ..| 4Xj.-X%.%.%.5Xt.t.{ { { { { t.T.T.R.R.R.R.pXU.eXU.eXeXeXeXeXeXeXeXeXeXeXeXeXE eXeXeXeXpXpXR.R.T.T.T.5X5XuXuXd.d.j.yXyXX.X.K.1X| / / j W j j / / / K j / / / / / j / j j j j W j / ....| | e.e.e.6.6.` V 7 7 * 7 * * * w 7 7 V F Q.g.g.Q.V V V V 7 5 5 7 5 5 5 5 5 s 5 5 5 5 7 5 V 7 7 5 5 5 5 5 s 5 s 5 s 5 F V V J J $.' [ M y y y f & f & & & & & f f f & & v & & & f & & & f & f & & & & & & & f f y f & y & y y & y y & & y a e [ :.' N J V Q.R F 5 5 s 5 s 6 s 5 5 5 5 5 5 5 5 5 5 5 5 5 5 5 5 5 5 5 5 5 5 5 5 5 5 5 5 5 5 5 s s s s F V F V V V V $ - ^ - r r r r r r - -   N J J J V V V V V Z.V V V V V V V V V V V V V V V V F V F V F V 5 7 7 7 ",
"[ [ [ [ [ [ [ [ [ [ [ e 9 9 9 M 9 9 9 9 9 9 e e e e [ e [ e [ 9 9 9 9 9 9 [ :.:.' ^ N N J V V V F 5 w w s 5 5 s s s 5 V s 5 V 5 7 5 7 6 w 6 w 5 5 5 5 w 6 w 5 5 5 w 5 5 5 w 6 w 5 5 5 7 s V s s s 5 5 5 5 5 5 5 7 6 5 F Q.Q.F 7 7 Q.r.fXq.^.] ] A A A A A ) A ] ] ) <.<.<.) A A A A ) A A A A A ) ) ) A A A A ) ] ] '.MX$X7X>XL.&X6.e.| ..K K W j W j j j j j j / K / / j / j K j W W j K K K K K sXj.V.-XV.%.5X5Xt.t.{ { t._.t.T.T.R.R.VXpXpXpXpXpXpXeXeXeXeXeXeXeXeXE $XE $X~.E E E E pXE E JXpXVXR.T.T.5Xt.5XuXuXuXd.V.I.yXX.X.K.1X| ..K W j j / / / / / / / / j j j j j j j W j j / / ....| | e.e.e.e.6.` Q.Q.Q.7 7 7 7 Q.5 F Q.Q.g.Q.g.F F V V F F F 6 5 6 5 5 5 s 5 5 5 w 5 5 V 7 V 5 V 5 s 5 5 5 5 5 5 5 F F V J o.$.:.e a y y y & y f f f f f f f f f & f & & & f & & f & & & & f B f f f f & & & & & & & & f B f f & & y & y y y a M [ :.- J V R F 5 5 5 5 5 s 5 5 s 5 5 7 5 w 5 5 5 s 5 5 5 s 5 5 5 5 5 5 5 s s s s s s s s s s s s s s s V 5 V R R V V J J J J J J J J V V V V V R Z.R R V V V V V V 7 V s V s V s s V 5 7 s * s 7 s 7 7 5 5 V 5 5 5 ",
"[ e [ e [ e [ e e e 9 9 9 e 9 9 9 9 M 9 M 9 9 e 9 [ e [ [ [ [ 9 9 9 [ [ :.' ^ ^ N J J V V V V F V 5 5 5 5 5 s s s 5 s s V s 5 7 5 7 6 7 5 w 5 5 5 w 5 5 5 5 5 w 5 5 5 w 5 5 5 5 5 w 5 s s s s s s 5 5 5 6 7 6 7 5 7 5 7 5 7 F 7 7 Q.r.fXqXMX'.%XoXoXA A ) A ) ] ) <.<.<.) ) A A A A ) ) A A A ) ) ) A A A A A ] ] ^.MX$X7X>Xr.6X6.e.| ..K K K j W j K j j j j j / / / j j j K j j j W j K K K 2X| 4Xj.-XV.%.uX5Xt.t.t.{ t.t.t.T.T.R.R.VXeXeXeXeXpXpXE E E E E eX$XJXJX$X$X$X$X$X$X$X$XvXE E $XE $XeXpXR.R.T.t.t.G.uXuXuXV.V.I.yXiXX.X.K.1X2XK K K / / ../ / j / j j W W W W j W j j j / / / / ..| | e.e.e.e.~ F F 5 Q.5 Q.5 7 Q.7 5 Q.F 6 Q.5 V V V V F 6 6 6 5 6 5 5 s s 5 5 5 5 7 5 V 5 7 5 s 5 5 s 5 s 5 s 5 F V J N r :.e a y & y y f f f f f f f f f & f & & & & & & & & & & & & f f f f B f f f f f & & & f f f y & & & y & y & y y y a M e :.N J V Q.7 s 5 s 5 5 5 s 6 w 5 5 5 5 5 s 5 5 5 5 5 5 5 5 5 5 5 s 5 5 s 5 s 5 5 s 5 5 s s 5 5 s s s s s V F F V F V V V V V Q.V Q.Q.Q.R R Q.R V V V s 7 * w 7 7 s s s s s s s s s s w * * w s s 5 V 5 5 5 5 F ",
"9 e e 9 M e 9 M 9 M 9 9 e [ [ [ [ 9 9 9 9 M 9 e 9 9 9 9 9 9 [ [ [ :.:.^ ^ N N J J V V V V V V V 5 5 5 6 6 5 s w s s s 5 s s 5 7 5 5 7 6 w 6 w 5 w 5 5 w 5 w 5 5 5 w 5 5 5 w 5 w 5 5 s s s V s s 5 5 7 6 7 6 7 6 w 5 5 s s V V V 7 Q.Z.L.qXMXMX%X%X%XoXA A A ) ) <.<.<.<.) A A A A ) A ) A A ) ) ) ) A A A A oX] MX$X7X7X&X6X6X6.| | ..K K K K j j W j K / j / j j j j j j j j j K W W K K K ..| 4Xj.V.V.%.%.5Xt.t.{ { t.{ t.T.T.T.R.pXeXeXeXeXE E E E E E $X$X$X$XwXwXwXwXwXNXwXwXxXxX$X$X$X$XE E E $XpXpXR.T.t.5X5XdX%.uX%.V.-XyXiXX.X.K.1X| ..../ ../ / / / j j j W W W j W j j j / K j K / K ....| e.e.e.~ s 7 5 7 5 7 6 7 5 7 7 7 7 F 5 7 V V aXV s s 5 6 5 5 5 s s s 5 5 7 5 7 5 7 V 7 V 5 s 5 5 5 5 5 5 5 V 3 o ' [ 9 a y y y y f f y B & B f f f f f & f & & & & & & & & & & & & f f f f f B f f & f & f B f B & & & & & f y & & & y y y a [ ' o.V V V 5 5 5 s 5 5 5 5 5 w 5 7 5 w 5 5 w 5 5 5 5 5 5 5 5 s s s s 5 s s s s 5 s s s 5 5 5 5 s 5 s s s V V F V F V V V 7 V F F F V V V V V V s 7 * w s s s s s s s s s s s 5 w s s s s s 5 5 s 5 s V 5 5 F ",
"9 e 9 e 9 9 9 9 9 9 9 9 [ e 9 e 9 e [ 9 9 9 9 M 9 9 9 9 [ [ [ :.' ^ N N J J V V V J s V # w 7 5 5 5 5 5 6 5 s s s s s s s V s 7 7 5 w 5 w w 5 w 5 w 5 w s 5 w s w 5 w s w 5 w s 5 w s s s s s 5 7 7 5 7 6 7 6 w 5 s z.s s s V V V V Q.r.fXqXMXMX%X%X%XoXoXoXA ) <.<.<.) A A A A A A ) A ) ) ) ] .X) A A A ] ] ^.MX7X&X6X6X6.| ..........K K K K K K j j / j / / j j j j j j j W W K W j j / | 4Xj.-XV.%.%.5XG.{ { { { { t.t.T.T.R.U.eXeXeXE E E E E E E $X$X$XwXwXiXiXiXiXiXNXiXNXiXiXwXwXwX$X$X$XE E vXpXR.R.T.t.5X5X%.%.%.%.V.-XH.yXyXX.K.1X1X| ../ j j j j j j j W j j W j K K K K K W K K K K ....| e.e.` # s s s F 5 F F V s s s F F F V V aXV aXJ s s 6 6 5 s s s s w 5 7 5 7 7 5 s 7 s s w s s w s w s s 7   ' [ 9 a a y a a v a B y f y f f f f f & f & & & & & & & & & & & & & & & f f f f f f & f & f f B y f f & & f y f f & y & y y y a :.- J V V 5 5 w 5 w s w w 5 w 5 7 5 s s w 5 s s s s s s s s s s s s s s s s s s s s s 6 s s z.5 5 s s s * w s s s 7 w 7 7 7 7 7 7 7 7 7 s s s s w w s 5 F 5 s s s 5 5 5 5 s 5 s 5 5 F F F 5 5 V 5 s s s s 5 ",
"' ' ' ' ' ' ' ' ' :.:.[ [ 9 9 9 9 9 9 [ 9 M 9 9 9 9 9 [ :.' ' ^ N J J V V V V s s s V s s 7 F F 5 s s s 5 5 5 5 s s s s V s s 7 w 7 7 5 w 5 w 5 s w 5 s 5 w 5 w 5 s w 5 w s 5 w s 5 s s s V s V 7 7 7 Q.7 6 7 5 s s z.s 4.s s V V V Q.3Xr.L.7XqXMX'.%X%X%XoX] ) <.<.) A A A A A A A A A ) .X.X.X.X] ] A ] ] ^.$X7X&X6X6.6.| ..K K / / K K W W K K K / / / j / j j j j j j j j W W W K K K ..e.4X-X-XV.%.5Xt.{ { { { { t.t.T.T.R.U.eXeXeXE 0.0.0.E E $X$XwXwXiXiXiXiXX.X.X.X.X.X.X.X.iXiXNXjXwX$X$XE E E vXpXR.T.t.t.5X%.%.%.%.%.%.-XI.yXiXX.X.K.1X| K K j j j W j j j j j W K K K K K K W W W K K ....e.4Xe.,Xs s s s V s s s V z.V s F R F V aXZ.aXV J # s 5 6 s s s s s s w 5 w 5 7 7 7 s 7 s 5 s 5 s 5 s 5 5 V   :.9 a y M a a S a B a B a B y y y y y & & & & & & & & & & & & & & & f f f f f f f f B f f f y f y f y y y y a a y f f f y y y y 9 ' N V R F 5 s s 5 5 5 5 w 5 w 5 w s 5 w s w 5 w 5 w 5 s s s s s s s s s s s s s 6 6 s s s s 5 5 5 s * # s s s s s 5 5 5 7 7 5 7 7 s V 5 V 5 V 5 s 5 5 5 5 s s 5 s s s s s s s s 5 5 s 5 5 5 s s s 5 s s s ",
"o.o.o.N o.o.N N N N $.' :.:.[ 9 9 [ [ [ [ [ [ [ [ :.' ^ - N $ J J V V V V V s 5 V s 5 5 s 5 F F 5 s s s 5 5 5 5 5 s s s s s s 5 5 5 5 w 5 5 5 s 5 5 5 w 5 5 s 5 5 5 5 5 5 5 5 5 5 5 5 s s s s s 5 7 5 7 6 7 5 5 s s z.s s s s V V V J V hX3XL.fXqXKXMXMX%X%X%X] ] ] oXoXoXA A A A A A A ) .X) .X^.] ] ] ^.$X7X7X&X6X6.| | ../ K / K K W W W W W K / / / / / j j j j j j j j j j W W K K ..e.4XI.-X%.%.5Xt.{ { { t.{ t.t.T.T.R.U.eXeXeXeXE 0.0.~.~.$XwXwXwXiXiXX.X.X.XXXXXXN.XXXXXXX.X.X.NXiXjXwX$X$XE 0.E pXpXR.T.t.t.5X5X%.%.%.%.V.V.H.yXiXX.X.K.1X..K K j j j j j j j W W W K W K W K W W K K K sX..| e.e.~ z.s s aXs s V s s s s V z.F F V V aXZ.aXV s s 5 5 s s s s s 5 5 5 7 5 5 5 5 5 5 5 5 s w 5 s s s V V N :.9 M M a M S a T a a a a a a a y y y & y f & f & y & y & y & y & y a f a B a B a a a a a a y y y a y y a a a a a y a f y y y a M :.N V R F 5 s 5 w 5 w 5 5 5 5 7 5 5 w 5 5 5 5 5 5 5 5 5 5 s 5 s 5 s s s s s s s s 6 5 s s s s 5 5 5 s * s s 5 5 5 5 5 5 5 5 5 5 5 5 5 5 F F 5 5 5 5 5 5 s 5 s 5 s s s s s s 5 s 5 s s s s 5 s 5 s s s s 5 ",
"7 V V V V V V V J J J N N ^ ^ ' ' :.:.:.' ' ' ^ - N $ J J V V V s V V s 5 s 5 s 5 5 s 5 5 5 s 5 5 5 5 5 5 5 5 5 5 5 5 s s s 5 s 5 s 5 5 5 s 5 5 s 5 s 5 5 s 5 5 s 5 s 5 s 5 s 5 w 5 s 5 s s s s 7 7 5 7 5 7 5 w 5 s s s s s s s 5 7 7 V V 3X3Xr.L.fX7XqXKXMXMXMX%X%X%X%XoXoXA A A A A A ) ) .X) ] '.^.$X$X>X{.6X,X6...| ../ / j j K W W W W W W j j j j K K K K j j j / j j j j W W K 2Xe.4XI.V.V.%.5Xt.t.{ { { t.t.t.v.T.R.eXeXeXeXeXE 0.0.~.~.$XwXjXiXiXX.X.X.XXXXN.1XN.1XN.1X1XXXXXX.X.X.X.iXwXwX^.0.0.E pXpXT.t.t.{ t.5X%.%.%.uX%.I.yXiXX.X.X.K.1X| K K K / j j j W K W K W W W W W W K K K K K ..| e.6.~ R s V V s V s s V s s s s s 5 s V V V s s s s 5 s s s 5 5 5 5 w 5 5 w 5 7 5 7 5 7 5 s 5 s s s s V V N ' [ 9 9 M a a a 9.M M M M a a a a a y y y y y y y y y y y y y y y y y a a y a a a a a a M a a M a a M a a M M a a a T a a y y a M [ ' J V V V s 5 5 w 6 w 5 7 5 5 w 5 5 5 w 5 s 5 s 5 s 5 5 5 5 5 s 5 5 s s 5 s 5 s s 5 s s s 5 5 5 5 s s 5 5 5 5 s 5 V 5 5 5 5 5 7 5 7 5 5 s 5 s 5 s s s s s s s s s s s s s s 5 5 s s s 5 5 s s s s s s 5 ",
"5 Q.5 5 7 V F V F V V V * 3 $       ^ ^   $ > 3 # * s V V s s s s s s 5 s s s 5 5 5 5 5 5 5 5 5 5 5 5 5 5 5 5 5 5 5 5 s s s s 5 5 5 s 5 s 5 s 5 5 s 5 5 s 5 5 s 5 s 5 s 5 s 5 5 s 5 5 5 s s s s 5 5 7 5 5 w 5 5 s s s s s s s s s 5 7 7 V V V Q.3Xr.L.L.fXqXqXKXMXMX'.%X%X%X%XoXoXoXoXA ) ) .X] ^.^.$X7X>Xx.AXaX,X..../ / / j j j K W W W W W j j j K j K K K K K / j / j / j j K K 2X| 4Xj.V.V.dX5Xt.t.{ { { { t.t._.T.T.eXeXeXeXE E E 0.E $X$XwXiXX.X.X.K.XX1XN.1X1X*X1X1X*X1X1X1X1XXXXXXXX.X.iXwXMX^.E E eXpXR.5Xt.{ { t.5X5X5XuX%.V.I.yXnXK.X.X.K.1X| ..K / / j j W K K W W W W W W W K K K K ..| | e.6.` F V 7 V V V V s s s s s s s s s s s s s s s s s s s s 5 5 5 5 5 5 5 5 5 5 7 7 7 5 5 s s s s s V V V N ' [ 9 9 e M M S e M M a M M M M a a a a a y y y y y & y y y y y y a a a a a a a M a M M M M M M M M M M M M M M M e M a S a M y M [ ' N J V V V 7 5 5 7 5 7 5 7 5 7 5 5 s 5 5 5 5 5 5 5 5 5 5 5 5 5 s 5 s 5 s s s s 5 s 5 s 5 s s s 5 5 5 5 5 5 5 5 5 5 5 5 5 5 5 5 5 5 5 5 s s 5 s s s s s s s s s s s s s 5 s 5 5 5 5 5 5 5 s w w s s s s ",
"5 7 5 7 7 7 7 5 F F F V V 7 7 * J 3 # # * s s 5 V F V s s s s s s 7 s s s s s s s s s s s s s s s s s s s s s s s s s s s s s s s s s s w 5 w s w 5 w s w s w 5 w 5 w 5 w s w s 5 s s s s 5 s s s s 5 w w 5 w w s s s s s s 5 s 5 s s 5 s 7 7 V V Q.Z.3Xr.L.L.#XqXqXKXMXMXMX'.%X%X%X%X%X] ) ] '.^.$X>X{.x.AXaX,X....../ / / j j j K K W W W W j j j j j K K K K K K j j j j / / ..| 4Xj.j.V.V.%.5XG.t.{ { { { { t.t.v.T.U.eXeXE E E E E E $XwXwXiXX.X.XXXX1X1X1X1X*X*X*X*X*X*X*X*X1X1XN.1XN.XXXXX.iXwX$X$XE eXpXVXR.5X{ { |.T.T.5X5X%.V.M.&X&Xe.K.X.X.X.K.| ../ / / j K K K W K W W W W K K K 2X..| | e.e.~ z.* 7 7 7 7 7 7 7 s s s s s s s 5 s s s s s s s s s s s s s s s s s s s s s 7 5 7 w w s s s s V s V V 4.' [ 9 9 e e e 9.e c.M M M M M M M M a a a a a a a y a a y B a a a a a a a M a M M M M M M M M M M M M M M M 9 M M M 9.a M M a a y [ ' N J V V s 7 7 w w 7 5 7 7 7 w w s w s w s s s s s s s s s s s s s s s 5 s 5 s s w s 5 w s 5 s s s s s s s s s s s s s s s s s 7 7 s s s s s s s s s * s s s s s 5 5 5 w 7 7 5 F 5 5 5 s w w s s 5 F 5 ",
"7 7 7 5 7 w 7 7 7 F V F V V V V V V V V V V s V F s F V 5 s 7 s s s s s s w 5 w 5 w 5 s 5 s s s s s s s s s s s s s s s s s s s s s s s 5 s s 5 s s 5 s 5 s 5 s s s s s 5 s 5 s s s s s s s s s s s w s 5 w 5 s 5 s 5 s s s s s s s s s s s s 5 7 7 J J J 3X3Xr.L.L.>X#X7XqX$XMXMXMXMXMX'.'.'.MXMX7X{.hXAX,X,X6.| | ../ / / j j K K K K j j j j j j j / K K K K K K W j j j K ..| 4Xj.I.V.%.%.5XG.|.{ t.{ { { t.t.T.T.T.U.eXeXE 0.0.E eXVXwXwXiXX.K.XXN.1X1X1X1X1X*X*X*X*X*X*X*X*X*X*X*X1XN.N.XXXXX.iXwXwX$X$X$XJXVXR.|.{ { t.t.T.5XuXuXM.f.6X` 6.K.X.X.X.K.| ../ / / K K K K K K j j K K K ....| | | | 6.~ F * 7 Q.7 Q.7 Q.V 7 s s s s s s s s s s s s s s s s s s s s s s s s s s 5 s 7 7 7 w w s s s s s s V V N ' [ 9 9 e e M e e e e e e e e M M M M M M M a M a M a a a M a M M M M M M M M M M M e M e e e e e e M 9 9 9 e e e M M M e M M y M [ ' J V V V 7 7 7 w w 5 7 7 6 w 5 w s s 5 s s s s s s s s s s s s s s 5 s w 5 s w 5 s 5 w s 5 s s s s s s s s s s s s s s s s 5 s 5 w s 5 s s s s s s s s s s s s 5 w 5 5 6 F 5 7 7 7 7 7 7 7 7 7 5 F F F ",
"w 7 w w w 7 w 7 7 7 7 V 5 V F V V s V s * s s s s V s 5 V s s s 5 s s s s s s 5 w 5 w s w s s s s s s s s s s s s s s s s s s s s s s s s w 5 w s w s w 5 w s w 5 w 5 w s w 5 s s s s s s s s s s s 5 s s s s 5 w s w s s s s s s s s s s s s 5 5 5 7 7 V V Z.3X3Xr.r.r.tXL.>X7X7XwXwXMXMXMXMXMXwX>XhXAXaX,X6.| | ..../ / j / K / K / K / / / j / j / j K K K K K K W W K K ..| 4Xj.-XV.%.%.+XG.|.{ { t.{ t.{ t.T.T.s.U.eXeXeX0.0.0.E VX-XyXyXK.1X1X1X1X1X2XsXsXsX2X*X*X*X*X*X*X*X*X*X*X*X1XN.XXXXX.X.iXwX$X$XVX$XJXR.T.|.{ t.lXt.5X5X5Xf.f.Z.V ` 6.4XK.K.K.K.1X| ......sX....K K / K K K ..| | | | e.6.~ R F 7 V 7 V 7 V 7 7 7 5 7 w s s s s s s s s s s s s s s s s s s s s s s s s w 7 7 7 w w s s s V s V V V 4.' :.[ 9 9 M M e c.e e e e e e e e M e M M M M M M M M M M M M c.M M M M M M M e e e e e e e e e e e e e e e e e e e e c.e e M a M :.- J V V V s 7 s w w 7 5 7 7 7 w w s 7 s s s s s s s s s s s s s s s s 5 s w 5 s s w 5 s 5 w s s s s s s s s s s s s s s s s s s 7 7 s s s s s s s s s s 5 5 5 5 s 7 5 F F F F 7 7 7 V V V V V V V V R V ",
"w w w w w w w w 7 7 V 7 V V V 5 V V * V s * s V s s V s s V 5 7 s s s s s 5 w w s w 5 w 5 7 s 7 s 7 s 7 s 7 s 7 s 7 s 7 s 7 s 7 s 7 s 7 s s s w 5 w 5 s w 5 w 5 w 5 s w 5 s s s 7 s 7 s 7 s 7 s 7 s s s s 5 w w 5 w 5 s s 7 s 7 s 5 w s s s s 5 5 5 F 7 V V V V Z.Z.Z.3X3X3X3Xr.r.L.fX7XwXMXMXwX7Xx.AXaX,X6.| | ..../ K K K K K / / / / / / / / / / j / j K K K W W K K K 2X| 4Xj.-X-X%.%.5XG.|.{ { { t.t.t.{ t.T.R.U.U.pXeXE 0.0.0.$XVX-XyXK.1X1X*X*X2XsXsXm.m.sXsX2X*X*X*X*X*X*X2XsXsXsX2X1XXXXXXXX.iXiXwX$X$XE E pXR.T.t._.t.t.{ t.n.f.f.6XhXV R 6.e.4XK.X.XXK.1X| | | ................| | | | e.6.~ R 5 F V 7 Q.7 Q.7 Q.7 Q.7 5 7 5 s s s s s s s s s s s s s s s s s s s s s s s 5 7 7 7 w w s s s s s s s V J ^ :.[ [ 9 M M e e e e e e e e e e e e M e e M M e M M M M c.e e e c.e M e e e e e e e e e e e e e e [ e e e e e e e e e e e 9 M 9 ' N V V V V 7 7 7 w w 5 7 7 6 7 5 w s s s s 7 s 7 s 7 s 7 s 7 s 7 s 5 w s w s w 5 w 5 w s w s s 7 s 7 s 7 s 7 s 7 s 7 s 7 s 7 s 7 7 7 s s s s s s s s s 5 F F F 5 w 7 5 F g.Q.Q.Q.V V V V V V V V V V V V ",
"w w 7 w 7 w 7 w 7 7 7 V 5 V 5 V V V 7 7 V 7 V V 7 V 5 5 7 w w w w 7 7 w w w w 5 w 5 w w w w w w w w w w w w w w w w w w w w w w w w w w w w w w w w w w w w w w w w w w w w w w w w w w w w w w w w w w w w w w w w w w w w w w w w s s 5 5 6 5 6 6 6 6 F 5 7 V Q.Q.Q.Z.V V J J hXZ.Z.L.7X7X-X-X&XAXaXaX,X| | ../ K W W W W K j j / / / / / / j / / / / j j W W W W K 2X2X| 4Xj.V.V.%.%.+XG.|.{ { t.t.t.t.t.{ t.T.U.U.pXeXE E 0.0.0.JX-XyXK.1X*X2X2X2XsXmX=X=X=X=X6XsX2X*X*X*X*X..sXm.m.=XsX1X1XXXXXXXX.iXwX$XE E E pXR.T.v.lXt.t.t.{ t.f.M.&XZ.J J aX,X6.e.K.X.K.K.K.K.e.e.| | | | | e.| e.e.e.e.6.~ z.s s V V 7 V V 7 Q.7 7 7 7 7 7 7 w 7 7 w w w w w w w w w w w w w w w w w w w w 7 7 7 7 w w s s s s V s V V J N ^ :.[ 9 9 9 e [ [ e e e e e e e e e e e e c.e c.M e c.M e e c.e e e c.e e e e e e e e [ e e e [ e e e [ e 9 e e e e e e e M 9 [ ^ J V V V 7 7 s 7 w w 7 5 7 7 7 w 5 w w w w w w w w w w w w w w w w w w 5 w 5 w w s w 5 w 5 w w w w w w w w w w w w w w w w w w 7 7 7 s s V s s s s s s 5 F F F F 7 5 Q.Q.g.Q.7 Q.V V V V V J V J V V V V ",
"5 7 5 7 5 7 5 7 7 7 s 7 5 V F 5 V 5 7 V 7 7 5 7 5 7 7 w w w w w w w w w w w w w w w w w w w w w w w w w w w w w w w w w w w w w w w w w w w w w w w w w w w w w w w w w w w w w w w w w w w w w w w w w w w w w w w w w w w w w w w w 5 6 6 5 w 5 5 5 6 5 5 7 w 7 V V F V V V V J V Z.r.7X-X7XM.f.AXaX,X6.| | ..K K K K W W W W j j / / / K j j / / / / j j j W W K 2X2X| j.j.V.V.%.%.5XG.t.{ { { { t.t.t.t.t.v.R.U.pXpXE E 0.0.0.E pX7X4X1X1X*X*X2X2XsX=XW.LXLXW.=XsX2X*X*X*X2XsX=X=XW.=XmXsX1X1XXXXXX.iXwX$XE E 0.E pXT.lXlXt.t.{ { t.{.M.&Xr.Z.V J aX,X6.e.e.K.K.K.K.K.K.K.4Xe.e.e.e.e.e.6.6.~ Q z.s s s V V V 7 Q.7 7 Q.7 Q.7 7 7 7 5 w w w w w w w w w w w w w w w w w w w w w w 7 7 7 7 w w w w s s s V s V J J N r :.[ 9 M [ [ [ e e e e e e e e e e M e e e e e e e e e e e e e e e e e e e e e e e e e e e 9 9 9 9 9 9 9 9 9 [ e [ e [ 9 [ :.N J V V 7 7 7 w w w w w w 7 7 5 w w w w w w w w w w w w w w w w w w w w w w w w w w w w w w w w w w w w w w w w w w w w w w w w w s s 7 s s s s s s s w 7 5 F F Q.Q.Q.Q.g.Q.Q.7 o.N N $.- r r $.N J J V V ",
"7 7 7 7 7 7 7 5 7 w 7 7 7 7 7 5 5 V 5 5 7 7 7 w w 7 s w w w w w w w w w w w w w w w w w w w w w w w w w w w w w w w w w w w w w w w w w w w w w w w w w w w w w w w w w w w w w w w w w w w w w w w w w w w w w w w w w w w w w w w w w F F 5 7 7 7 7 5 5 7 7 7 7 7 F F F F 7 7 7 Q.Z.r.M.-X-XM.f.AXaX,XsX| | ..K K K W W W W W W j j j W W j j j / / / j j j j W K 2X4Xj.j.V.V.%.%.5XG.t.{ { { { t.t.t.t.t._.T.R.pXeXE E 0.0.E E pXU.{.bX| 1X*X*X*X2XsX=XW.LXLXW.m.sX2X*X*X*X*XsX=XW.W.=XmXsX1X1XN.XXX.iXwX$XE E 0.E eXU.T.lXt.t.{ { { t.M.&Xr.Z.V J J aXaXR ~ 6.e.e.4XK.4XK.4Xe.e.e.6.6.~ ~ Q F 5 s s V V F V 7 7 J 7 7 7 7 7 7 7 7 7 w w w w w w w w w w w w w w w w w w w w w w w w 7 7 7 7 w w w w w s * 7 7 J # J N r :.[ [ [ [ [ 9 9 e e e e e e e e e e e e e e e e e e e e e e e e e e e e e [ e e [ e e 9 9 e 9 9 9 9 9 9 9 e [ e [ [ :.' r J V V V 7 7 s w w w w 7 w 7 7 7 7 7 w w w w w w w w w w w w w w w w w w w w w w w w w w w w w w w w w w w w w w w w w w w w w w w w 7 s s * s w w s s 7 7 7 F Q.Q.F Q.Q.Q.Q.o.o r :.:.[ [ [ [ :.' $.N J J ",
"5 7 5 7 5 7 5 7 7 7 7 7 7 w 7 7 7 5 7 5 w * * # * * w w w 7 5 5 7 w w w w w w w w w w w w w w w w w w w w w w w w w w w w w w w w w w w w w w w w w w w w w w w w w w w w w w w w w w w w w w w w w w w w w w w w w w w w w w w w w w 7 5 5 5 7 7 7 7 7 7 F 7 F F F Q.7 Q.Q.7 Q.7 7 Z.r.M.-X%.-Xf.x.AX,XsX| ....K K K K K j W W W W W W W W W j j j j j / j j j ..| e.j.d.V.V.%.uX5XG.t.t.{ { { { { t.t.{ t.t.T.R.pXE E 0.E 0.E E eXs.lXx.bX1X*X*X*X*XsXaXW.LXLX=XsX2X*X*X*X*X*XsXm.=X=X-.sX2X1X1X1XXXX.iXwX$X$XE 0.0.eXU.T.lXOX{ { { t.{.M.&Xr.Z.V V J J s 4.s z.` ~ 6.e.e.e.e.6.6.` ` ~ R F s * * s V F F V V 7 V 7 7 Q.7 7 7 7 7 5 7 7 w w w w w w w w w w w w w w w w w w w w w w w 7 7 7 7 w w w w w 7 s w # * 7 J J o r :.[ [ 9 9 M 9 9 9 [ 9 [ e [ [ e e e [ e e e e e e e e e e e e e e e e e e e e e e 9 9 9 9 9 9 9 9 9 9 [ 9 [ [ [ :.r o o.J V V 7 w w w w w w w w 7 5 7 7 w w w w w w w w w w w w w w w w w w w w w w w w w w w w w w w w w w w w w w w w w w w w w w w w w w s w s s w w 7 7 7 7 7 V V Q.V J J o.o.o.8.:.[ a a a a y a M e :.' $.$.",
"7 7 7 7 7 7 7 7 7 5 7 7 7 w w w 7 7 7 7 w w * * w w w w 7 5 7 5 7 w w w w w w w w w w w w w w w w w w w w w w w w w w w w w w w w w w w w w w w w w w w w w w w w w w w w w w w w w w w w w w w w w w w w w w w w w w w w w w w w w w w s s V V V 7 V 7 7 Q.V Q.Q.Q.Q.7 Q.7 Q.Q.7 Q.Q.x.{.%.-X-X-Xf.6X6XsXsX2X..K K K / / j j j W W W W W W W W W j j j j / / ..| e.j.V.V.uXuXuXuXG.t.{ t.{ { t.{ { t.{ t.t.T.T.U.eXE E E E E 0.pXU.v.A.l.6X| 1X*X*X*X| ,X=Xl.l.6XsX1X*X*X*X*X1X2XsXmXmXsX2X1X1X*X1XK.X.iXwX$X$XE 0.0.E eXT.t.t.{ { { t.5XM.M.3XJ J V J aXV s # s s V R ` ` ` ` R V V s 7 7 5 7 7 * 7 7 V V V 7 J 7 V 7 J 7 7 7 7 7 7 w w w w w w w w w w w w w w w w w w w w w w w w w 7 7 7 7 7 w w w w w w w # * 7 V V J N r :.[ 9 9 9 9 9 9 9 9 [ [ [ [ 9 [ [ [ [ e [ e [ e [ [ [ e 9 e 9 e 9 [ 9 9 9 9 9 9 9 9 9 9 9 9 9 9 9 9 9 9 [ M :.r o.J V V V F 7 w w w w w w w w 7 7 7 w 7 7 w w w w w w w w w w w w w w w w w w w w w w w w w w w w w w w w w w w w w w w w w w w w w w w w w w s s w w 7 7 7 V V V V J o.- r ' ' :.[ M y y y y y y y y a M M e e ",
"7 7 7 7 7 7 7 5 7 5 5 7 7 7 w w 5 7 5 7 7 7 7 7 7 7 7 7 7 7 V 5 7 7 7 7 7 7 7 7 7 7 7 7 7 7 7 7 7 7 7 7 7 7 7 7 7 7 7 7 7 7 7 7 7 7 7 7 7 7 7 7 7 7 7 7 7 7 7 7 7 7 7 7 7 7 7 7 7 7 7 7 7 7 7 7 7 7 7 7 7 7 7 7 7 7 7 7 7 7 7 7 7 7 w s s V s V s V s 7 7 7 V F Q.V 7 7 7 Q.Q.Q.Q.Q.V x.{.%.9XFX-X-Xf.bX4X4X| ..K K K / / / / j j W W W W W W W W j j j / ..| | 4Xj.V.V.%.%.uX5X5Xn.t.{ t.t.t.{ { t.{ t.t.t.T.R.U.eXE E E 0.E E pXU._.LXl.6X| *X*X*X*X*X| 6X6X6XsX2X1X*X*X*X*X*X1X2XsXsX2X2X1X1X1XK.K.iXiXwXxX$XE E E E eXT.t.t.{ { { t.5XM.M.Z.o.o.V V V V V s s s s J V V Z.V V J J J # 7 7 Q.7 7 7 V 7 V * * s s J s 7 7 7 7 7 w w 7 w 7 7 7 7 7 7 7 7 7 7 7 7 7 7 7 7 7 7 7 7 7 7 7 7 7 7 7 7 7 7 7 7 w w w * w 7 V V 7 J o.- ' :.:.[ [ [ 9 [ 9 9 [ 9 [ [ [ [ [ [ [ [ [ [ [ e [ [ [ 9 9 9 [ 9 9 9 9 [ 9 [ 9 9 9 9 9 9 9 9 9 [ [ [ :.' ' r o.J V Q.V Q.V 7 w w w w w w w 7 w 7 7 5 7 w 5 7 7 7 7 7 7 7 7 7 7 7 7 7 7 7 7 7 7 7 7 7 7 7 7 7 7 7 7 7 7 7 7 7 7 7 7 7 7 7 7 7 7 7 7 w w w w w w w w s 7 s 7 V V V J N ' [ [ e M M a y y y & & & y & y & y y y y ",
"7 s 7 V 5 7 7 7 5 7 7 7 5 7 7 7 7 7 7 7 5 7 7 7 7 7 7 7 5 7 7 7 7 7 7 7 7 7 7 7 7 7 7 7 7 7 7 7 7 7 7 7 7 7 7 7 7 7 7 7 7 7 7 7 7 7 7 7 7 7 7 7 7 7 7 7 7 7 7 7 7 7 7 7 7 7 7 7 7 7 7 7 7 7 7 7 7 7 7 7 7 7 7 7 7 7 7 7 7 7 7 7 7 7 7 s s s s V s V s J s V s V V 5 7 7 Q.7 7 7 7 7 Z.x.M.%.%.%.-X%.M.-XnXyX4XsX....K ../ / / / / / W K K K K W K K K K sX| j.j.I.V.V.%.%.uX5Xt.t.{ t.t.{ t.t.t.t.{ t.t.t.t.T.R.eXE E E 0.0.E E R.v.:XLX=X,X2X2X*X*X*X*X*X2X2XsX2X2X1X*X*X*X*X*X*X2X*X2X*X*X1X1XK.yXyXiXwXxX$X$X$XE E E pXR.t.{ { { t.t.5XM.M.r.J J V V V s s V s 7 V V J V V V V V V J 7 Q.7 Q.7 V 7 V V V s V s V s s s s s s 5 7 5 w 7 5 7 7 7 7 7 7 7 7 7 7 7 7 7 7 7 7 7 7 7 7 7 7 7 V 7 7 7 7 7 7 7 w 7 7 w 7 7 7 7 V 7 J J J J N ' ' :.:.[ [ [ 9 [ [ [ [ [ [ [ [ [ [ [ [ [ [ [ e 9 9 9 [ [ [ [ [ [ 9 9 9 [ 9 9 9 9 9 [ [ :.' ' N J J J J V V V V 7 7 7 7 w w w w w 5 7 5 7 5 7 7 5 7 7 7 7 7 7 7 7 7 7 7 7 7 7 7 7 7 7 7 7 7 7 7 7 7 7 7 7 7 7 7 7 7 7 7 7 7 7 7 7 7 7 7 7 7 7 7 5 7 5 7 5 w 7 7 V V V V J N :.9 M a y y y y y & & & y & & & & y & & y y ",
"V 7 V 7 7 V 7 5 7 7 7 5 7 7 5 7 5 7 5 7 7 7 5 7 5 7 5 7 7 7 5 7 5 7 5 7 5 7 5 7 5 7 5 7 5 7 5 7 5 7 5 7 5 7 5 7 5 7 5 7 5 7 5 7 5 7 5 7 5 7 5 7 5 7 5 7 5 7 5 7 5 7 5 7 5 7 5 7 5 7 5 7 5 7 5 7 5 7 5 7 5 7 5 7 5 7 5 7 5 7 5 7 5 7 s V s J s s s s s s s s s s 5 V V 7 7 7 7 7 7 7 Z.6XM.%.%.%.%.-X-X-XnXnX4Xe.| | ....../ ....../ ......2X2XK K 2X2X| sXj.I.I.-XV.%.%.%.5X5Xt.t.t.t.t.{ t.t.t.{ t.OXt.t.t.T.R.eXE 0.E E E E eXR._.LX=X6XsX2X2X*X*X*X*X*X*X2X2X1X*X2X2X2X2X2X2X1X*X*X*X*X*X1XK.4XnX-X-X-XVXVXeX$X$XE E eXR.t.{ { { t.t.5XM.f.r.V 7 Q.F V s J s V 7 V V V V V J V V J Q.J Q.7 Q.7 7 V 7 V s V s J s s s s s s s w 5 s 5 7 7 7 7 5 7 5 7 5 7 5 7 5 7 5 7 5 7 5 7 5 7 5 7 7 7 7 5 7 5 7 5 7 s 7 7 7 7 7 7 7 7 Q.7 7 7 J J N N ^ ' :.:.[ [ [ [ [ [ [ 9 [ [ [ [ [ [ [ [ [ [ 9 9 [ 9 [ [ 9 [ 9 [ [ 9 [ [ 9 [ [ [ :.' ^ ^ N J V V V Q.V 7 7 7 V 5 7 7 w 5 w 5 w 7 7 5 7 7 7 5 7 7 7 5 7 5 7 5 7 5 7 5 7 5 7 5 7 5 7 5 7 5 7 5 7 5 7 5 7 5 7 5 7 5 7 5 7 5 7 5 7 5 7 5 7 5 7 5 w 5 w 5 7 7 s 7 7 V V V J ^ [ a y y y y y y y y f f f f & f & & & & & y ",
"7 7 7 7 7 7 7 7 5 7 5 7 7 5 7 7 7 5 w 5 7 5 7 7 7 7 7 7 5 7 7 7 7 7 7 7 7 7 7 7 7 7 7 7 7 7 7 7 7 7 7 7 7 7 7 7 7 7 7 7 7 7 7 7 7 7 7 7 7 7 7 7 7 7 7 7 7 7 7 7 7 7 7 7 7 7 7 7 7 7 7 7 7 7 7 7 7 7 7 7 7 7 7 7 7 7 7 7 7 7 7 7 7 7 7 7 s s s s J s s s s s s V s s s * s V 7 * * s Z.6XM.%.%.%.%.-X-XM.M.&X6.e.4Xe.| ..........| ..| ..sXsX| sXsX4Xj.j.j.I.-XkX9X%.%.%.5X5Xt.t.t.t.{ t.{ { { { { { { t.t.t.T.R.E 0.0.0.E E E VXVX{.m.m.sX2X2X*X*X*X*XW *XW *X*X1X2XsXsXm.mXsXsX2X*X*X*X*X*X1X4XnX-X7XVXVXeXeXeXeX$XE E pXR.T.{ { { t.t.t.f.f.r.V 7 Q.F 7 * s s 7 7 V V J V V 7 7 V V V 7 Q.7 Q.7 V 7 V 7 V s s aXs s s V s s s s s s s 7 s 7 5 7 7 7 5 7 7 7 5 7 7 7 5 7 7 7 5 7 7 7 V 7 V 7 7 7 7 5 7 7 7 w 7 7 7 7 7 7 7 7 7 Q.7 V J J J N N ^ ' ' :.:.:.:.:.:.:.:.[ :.[ :.[ :.[ :.[ [ [ 9 9 9 9 9 9 9 [ 9 [ [ [ :.:.' ^ ^ N N J J J V 7 Q.7 7 V 7 7 7 7 7 5 w w w w w 7 5 7 7 5 7 7 5 7 5 7 7 7 5 7 7 7 5 7 7 7 5 7 7 7 5 7 7 7 5 7 7 7 5 7 7 7 5 7 7 7 5 7 7 7 5 7 7 7 5 7 7 7 5 7 5 w 5 w 5 w 5 7 7 V V J N ' 9 y y y y a y y y f & f & f f f & & f & f f ",
"7 7 s 7 7 7 7 7 7 7 7 7 7 w 7 w 7 w 7 w 7 w w w w w w w w 7 7 7 7 7 7 7 7 7 7 7 7 7 7 7 7 7 7 7 7 7 7 7 7 7 7 7 7 7 7 7 7 7 7 7 7 7 7 7 7 7 7 7 7 7 7 7 7 7 7 7 7 7 7 7 7 7 7 7 7 7 7 7 7 7 7 7 7 7 7 7 7 7 7 7 7 7 7 7 7 7 7 7 7 7 7 w w 7 7 7 w s w s w w w s 5 s s s s s s s s s V 6X-X9X%.%.%.%.M.f.l.AXZ.&X4X4Xe.e.e.e.e.e.e.e.e.e.e.4X4Xj.j.j.j.I.V.V.kX-XV.%.%.5Xt.t.{ { { t.t.{ { { { { { { { { t.t.T.VXE 0.0.0.E E eXVX7XM.bXsX2X2X*X2X*X*X*X*X*XW *X*X1X2XmX=XLXLXLX=XsX2X*X*X*X*X1XnX-X7XVXVXpXeXpXeXE E E $XpXR.T.t.{ { { t.t.f.f.Z.V 7 g.F w # s s 7 7 7 V V 7 7 7 7 V J V 7 J 7 J 7 7 7 7 s # s s # s s s 4.s s s s s s s w 7 7 7 7 7 7 7 7 7 7 7 7 7 7 7 7 7 7 7 7 7 7 7 7 7 7 7 7 7 7 7 7 7 7 7 w 7 7 7 7 7 7 7 7 7 7 V V V J J N N ^ ^ ^ ^ ^ ^ ^ ^ ' ^ ^ ^ ^ ^ ^ r ^ :.:.[ [ [ [ 9 9 [ [ [ :.:.' r ^ ^ N N N J J J J V 7 7 J 7 7 7 7 7 7 7 7 w w w w w w 7 w 7 7 7 7 7 7 7 7 7 7 7 7 7 7 7 7 7 7 7 7 7 7 7 7 7 7 7 7 7 7 7 7 7 7 7 7 7 7 7 7 7 7 7 7 7 7 7 7 7 7 7 7 w w w w w w w w s 7 V J J N :.9 y y a S M a S y f & & & & & & & f & f & f ",
"7 7 7 7 7 7 7 7 7 7 7 w 7 w 5 w 7 w w 7 w 7 7 7 w w w w w 7 7 7 7 7 7 7 7 7 7 7 s 7 7 s 7 7 7 7 7 7 7 7 7 7 7 7 7 7 7 7 7 7 7 7 7 7 7 7 7 7 7 7 7 7 7 7 7 7 7 7 7 7 7 7 7 7 7 7 7 7 7 7 7 7 7 7 7 7 7 7 7 7 7 7 7 7 7 7 7 7 7 7 7 7 7 7 7 7 7 7 7 7 7 7 7 5 7 7 5 s s s s s s > 4.s V 6X-X-X%.%.%.M.{.l.W.hX&XnXiXjXe.6.e.K.X.X.iXK.4Xe.e.4XyXI.I.V.V.V.%.V.%.%.9X%.%.5Xt.{ { v.t.t.{ `.{ { |.{ { { { { t.t.R.VXE 0.0.0.E E VX$X-X4X4X1X2X*X1X2X2X2X2X*X*X*X*X*X2XsX=XLX:X X:XLXm.2X*X*X*X*X1XnXwXwX-X$X$XE E E E $XJXE pXR.T.t.{ { { t.t.f.f.Z.V 7 g.5 w # s V 7 7 7 J 7 Q.7 Q.7 7 V 7 V 7 Q.7 7 V 7 V 7 V * s s J s s s s s # s s s w w 7 7 7 7 7 7 7 7 7 7 7 7 7 7 7 7 7 7 7 7 7 7 7 7 7 7 7 7 7 7 7 7 7 7 7 w 7 7 7 7 Q.7 7 7 7 V 7 V J J J J 3 J J > J > J N N $ $ $ N $ N N N N N r ' ' :.:.:.:.:.' ' r - N $ J J J J J J J V J V 7 7 7 7 7 V 7 7 7 7 7 w w w w w w 7 w 7 w 7 w 7 7 7 7 7 7 7 7 7 7 7 7 7 7 7 7 7 7 7 7 7 7 7 7 7 7 7 7 7 7 7 7 7 7 7 7 7 7 7 7 7 7 7 7 7 7 7 w 5 w 5 w 5 w w 5 w 7 7 J J ^ ' [ M a M 9 e e M a y & f f f f f f f f y y a ",
"7 7 7 7 7 7 7 7 7 7 7 7 7 7 7 w 7 7 7 w 7 5 7 7 7 7 7 7 7 7 7 7 7 7 7 7 7 7 7 7 7 V 7 7 7 7 7 7 7 7 7 7 7 7 7 7 7 7 7 7 7 7 7 7 7 7 7 7 7 7 7 7 7 7 7 7 7 7 7 7 7 7 7 7 7 7 7 7 7 7 7 7 7 7 7 7 7 7 7 7 7 7 7 7 7 7 7 7 7 7 7 7 7 7 7 w Q.7 Q.Q.Q.7 Q.7 Q.7 7 5 7 5 w w * s s s s s V 6XM.V.%.%.5Xf.l.>.S.r.].NXNX].6.` &XK.NXIXNXiXnX&X&X&Xj.-XV.V.%.%.%.%.%.%.%.%.5X5Xt.t.{ { t.|.t.{ { |.{ { { { { { t.t.R.VXE 0.0.0.E E VXwXnXK.1X1X*X2X2X2XsXsXsX2X*X*XW *X2XsX=XLX:X X XLXm.sX*X*Xj *X1XK.iXwXwXwX$XvXE E E vXE JXpXR.T.t.{ { { t.t.5Xf.Z.V 7 g.7 # # s V 7 7 7 V 7 7 7 7 7 7 J V 7 7 7 7 7 7 7 7 7 7 s s s s s s s # s s s * s s 7 7 7 7 7 7 7 7 7 7 7 7 7 7 7 7 7 7 7 7 7 7 7 7 7 V 7 7 7 7 7 7 7 7 7 7 7 7 7 7 7 7 7 7 7 7 7 7 V V V V s J s J J V V J J V J J V J V J V V J J $ N N o - o -   o   $ $ J J J J J V V V V V 7 7 J 7 7 7 7 7 7 7 7 7 7 7 7 7 7 7 7 7 w 5 7 w 5 7 7 7 7 7 7 7 7 7 7 7 7 7 7 7 7 7 7 7 7 7 7 7 7 7 7 7 7 7 7 7 7 7 7 7 7 7 7 7 7 7 7 7 7 7 7 7 7 7 w w w w w w w w 7 V 7 J N ^ :.[ 9 9 e e M e M a y y a B a B a a a a a a ",
"w w w w w 7 7 7 7 7 7 7 5 7 7 7 7 5 w 7 7 7 7 7 7 7 7 7 7 7 7 7 7 7 7 7 7 7 7 V * 7 7 7 7 7 7 7 7 7 7 7 7 7 7 7 7 7 7 7 7 7 7 7 7 7 7 7 7 7 7 7 7 7 7 7 7 7 7 7 7 7 7 7 7 7 7 7 7 7 7 7 7 7 7 7 7 7 7 7 7 7 7 7 7 7 7 7 7 7 7 7 7 7 7 7 7 Q.7 7 Q.7 7 Q.7 7 Q.7 6 7 7 w w w * * * s V 6XM.V.%.M.f.x.>.S.3X].NXIXIX].Q.N Z.nXIXUXIXNX].r.r.6Xf.M.%.%.%.dX%.%.uX%.%.uX5Xt.t.t.v.t.{ t.{ { { { |.{ { { { { t.T.R.JXE 0.0.0.0.E $XwXyXK.1X*X*X2X2XbX6X6X6XsX2X*X*X*X2XsX=XLX:X XLX=Xm.2X*X*X*X*X*XK.X.iXiXiXwX$XE E vX$XvXeXJXR.T.t.{ { { t.t.5Xf.x.V 7 F 7 # # s V 7 V 7 7 7 Q.7 7 7 7 7 7 7 J 7 7 7 7 7 7 7 7 7 7 7 7 * s s * s s s s s * s 7 7 7 7 7 V 7 7 V 7 7 V 7 7 V 7 7 V 7 7 V 7 7 7 7 7 7 7 7 7 7 7 7 7 7 7 7 7 7 7 7 7 7 w w w 7 V s s V s V s V 7 7 V V V 7 V V V V V V V V V V V J J J J J J J J 7 J 7 J 7 7 7 7 7 V 7 7 V V 7 7 w s * s w w w w w w w 7 7 7 7 7 7 w w w 7 w 7 7 7 7 7 7 V 7 7 V 7 7 V 7 7 V 7 7 V 7 7 V 7 7 V 7 7 V 7 7 V 7 7 V 7 7 V 7 7 V 7 7 V 7 7 7 7 7 w 7 w w 5 w w 5 w 7 7 7 7 J o r :.:.[ [ 9 M M e M a a B M M M M e e e e e ",
"w w w w w w w w w w w w w w w w w w w w 7 w 7 w 7 w 7 7 7 7 7 7 7 7 7 7 7 7 * 7 J 7 7 J 7 7 J 7 7 7 7 7 7 7 7 7 7 7 7 7 7 7 7 7 7 7 7 7 7 7 7 7 7 7 7 7 7 7 7 7 7 7 7 7 7 7 7 7 7 7 7 7 7 7 7 7 7 7 7 7 7 7 7 7 7 7 7 7 7 7 7 7 7 7 7 7 7 7 7 7 7 7 7 7 7 7 7 7 Q.7 7 7 w w w w * s V 6XV.V.%.5X{.k.S.0XfXP.UXUXIX].o.' Z.nXIXUXUXIXjXfX3XhXx.f.%.%.%.dXdX%.uXuXuX5Xt.t.t.{ t.{ { { { { { t.{ { { { { { { T.R.JXE 0.0.0.E vXVX-XyX1X*X*X*X2XmX=Xl.l.l.6XsX2X*X*X1XsXm.LXLXLXW.=XmX2X*X*X*X*X*XN.X.X.X.NXwX$XE E E vXvXE pXR.t.t.{ t.{ { 5X5Xf.6XZ.7 F 7 * * V V 7 7 7 J 7 7 7 7 7 7 7 J w w w 7 7 7 7 7 7 7 7 7 7 7 7 7 7 7 * * # s * w w 7 7 7 7 7 * 7 7 7 7 7 * 7 7 7 7 7 * 7 7 7 7 7 7 7 7 7 7 7 7 7 7 7 7 7 7 7 7 7 7 7 w w w w w s 5 5 5 5 s s 7 7 V s 7 7 7 7 w * * * * * * 7 7 7 7 Q.7 Q.7 Q.V Q.7 V V 7 7 7 7 J * * 7 7 7 7 7 s w s * s * w w w w w w w w w w w w w w w w w w 7 7 7 7 7 7 7 7 7 7 7 7 7 7 7 7 7 7 7 7 7 7 7 7 7 7 7 7 7 7 7 7 7 7 7 7 7 7 7 7 7 7 7 7 7 7 7 7 7 w w w w w w w w w w 7 7 V J N - ' :.[ [ 9 M M M M M M M M M e e M e e e ",
"w w w w w w w w w w w w w w w w w w w w 7 7 w 7 w 7 w 7 w 7 w 7 7 7 7 7 J 7 7 7 7 * 7 7 7 * 7 7 J 7 * J 7 * J 7 * J 7 * J 7 * J 7 * J 7 * J 7 * J 7 * J 7 * J 7 * J 7 * J 7 * J 7 * J 7 * J 7 * J 7 * J 7 * J 7 * J 7 * J 7 * J 7 7 7 7 7 7 7 7 7 7 7 7 7 7 7 7 7 7 7 w 7 w w w * 7 V 6XV.V.%.f.x.>.0Xr.].IXUXUXP.].o.' Z.jXUXUXUXUXIX].r.0Xk.{.%.%.%.dXdXdXuX%.uX5Xt.t.{ t.t.t.n.n.OXOXt.t.{ { { { { { v.5XR.JXE 0.0.0.E E JX-XyX1X*X*X*X2X-.W.p.p.LX=XsX2X*X*X1X2XsXm.=X=XaXmX2X2X*X*X*X*X*XN.XXXXX.X.iX$XE E vXE vXE eXR.t.{ { t.{ t.t.5XM.6XZ.7 F 7 w w V V 7 7 7 7 7 7 7 7 7 7 7 * s * w w w 7 7 7 7 7 7 7 7 7 7 7 7 7 7 J 7 * 7 * * 7 J 7 * 7 J 7 * J 7 7 J 7 * J 7 7 J 7 * 7 J 7 7 7 7 7 7 7 7 7 7 7 7 7 7 7 7 7 7 w w w w w s s s s s s s s w s 5 5 5 7 w * * * * * * * 7 # J 7 7 7 7 V 7 7 7 7 7 7 7 7 7 7 7 7 * * * * * w w w * * s s s * * w w w w w w w w w w w w w w w w 7 7 7 7 * 7 * 7 * 7 * 7 * 7 * 7 * 7 * 7 * 7 * 7 * 7 * 7 * 7 * 7 * 7 * 7 * 7 * 7 * 7 * 7 * 7 * 7 7 w w w w w w w w w w w 5 F 7 3 $ o r ' :.[ [ [ [ [ [ [ e [ e e e e e e e ",
"w w w w w w w w w w w 7 w w w w w w 7 w 7 7 w 7 w 7 7 w 7 w 7 7 7 7 7 7 7 7 7 J 7 7 J * 7 J 7 * 7 7 7 7 7 7 7 7 7 7 7 7 7 7 7 7 7 7 7 7 7 7 7 7 7 7 7 7 7 7 7 7 7 7 7 7 7 7 7 7 7 7 7 7 7 7 7 7 7 7 7 7 7 7 7 7 7 7 7 7 7 7 7 7 * 7 J 7 * s * * * * * * * w * w s 7 7 7 7 7 7 7 * 7 V 6XM.V.%.{.k.S.0XL.jXUXUXUXNX].3X8.3X].IXUXUXUXUXP.fX3X0X{.M.%.uX!.uX!.dXdX%.5Xt.{ OXt.n.h.d.h.h.m.OXt.t.t.{ { |.{ { T.R.pXE 0.0.0.E vXVX-XyX1X*X*X*XsX-.W. X XLX=XsX2X*X*X*X*X2XsXsXsX2X2X*X*X*X*X*X*X1X1X1XN.X.X.jX$XE E E vXE E eXR.t.{ { { t.t.t.5XM.6XZ.7 Q.7 7 w V V 7 V J 7 7 7 7 7 7 * # s * w w w w 7 7 7 7 7 7 7 7 7 7 7 7 7 7 7 7 7 J * 7 7 7 7 J 7 7 7 7 7 * 7 7 7 7 7 * 7 7 7 J 7 7 7 7 7 7 7 7 7 7 7 7 * 7 7 7 7 7 w w w w w w w s s w w w w w w w s 5 5 5 5 w w w w w w w w w w w 7 7 7 7 7 7 7 7 7 7 7 7 7 7 7 7 w w * * * * * * * w s s * * s * * w w w w w w 7 w w w w w w w w 7 7 7 7 7 7 J 7 7 J 7 7 J 7 7 J 7 7 J 7 7 J 7 7 J 7 7 J 7 7 J 7 7 J 7 7 J 7 7 J 7 7 J 7 7 J 7 * 7 w w w w w w w w w w w 7 F 7 7 * J o.o r ' ' ' :.:.:.:.:.[ :.[ [ [ [ [ [ ",
"w w w w w w w w w w w 7 w * * * 7 * 7 w 7 w 7 7 w 7 w 7 7 7 w 7 7 7 7 7 * 7 * 7 7 7 7 7 7 7 7 J 7 * 7 J 7 * 7 J 7 * 7 J 7 * 7 J 7 * 7 J 7 * J 7 * 7 J 7 * 7 * J 7 * 7 J 7 * 7 * J 7 * J 7 * 7 J 7 * 7 J 7 * 7 J 7 * 7 J 7 * 7 7 J 7 7 * s J s 4.s 4.s J s # s s V s w w w 7 7 7 * 7 V 6XM.V.%.{.k.S.3XfXP.IXUXUXNX].r.8.3X].IXUXUXUXUXIX].3X0X{.M.%.uXuX!.dXuX+XdX5X5Xt.n.n.d.I.yXa.j.bXm.m.t.t.t.{ { { `.|.R.pXE 0.0.0.E E VX-XyX1X*X*X*XK mX=XLXLXl.m.sX2X*X*X*X*X*X*X2X*X*X*X*X*X2X2X2X2X1X1XXXXXK.X.jX$XE E 0.0.E E pXR.t.{ { t.t.{ t.5XM.{.Z.7 Q.5 7 7 V J V J 7 7 7 7 7 7 7 7 * J s * w w w w 7 7 7 7 7 7 Q.7 7 7 7 7 7 7 7 J 7 7 7 * 7 * 7 7 * 7 J 7 7 * 7 J 7 7 7 J 7 7 7 * 7 7 7 7 7 7 7 7 7 d 7 7 7 * 7 w s w w w w w w w s w w s w * s # * w w 5 5 5 w w w w w w w w w 7 7 7 7 7 7 7 7 7 7 7 7 7 7 7 7 7 7 w w w w w * * w w w s # s s * s * w w w w w 7 w w w w w w w w w 7 7 * 7 J 7 7 7 7 7 7 * 7 7 7 7 7 * 7 7 7 7 7 * 7 7 7 7 7 * 7 7 7 7 7 * 7 7 7 7 7 * 7 7 7 7 7 J 7 * J w * 7 w w w w w w 7 7 7 7 7 Q.V 7 o.o.o - - - r r r ' ' :.:.:.:.:.:.",
"w w w w w w w w w w w w * 7 w w w w w w w 7 w 7 w 7 7 w 7 w 7 w 7 7 7 7 7 7 7 7 7 * 7 J 7 * 7 7 7 7 7 * 7 7 7 7 7 7 7 7 7 7 7 7 7 7 7 7 7 7 7 7 7 7 7 7 7 7 7 7 7 7 7 7 7 7 7 7 7 7 7 7 7 7 7 7 7 7 7 7 7 7 * 7 7 7 7 7 7 7 7 * 7 w w * s 4.s J s s s 4.s * s # s w * J * 7 7 7 7 J Z.6XM.-XM.{.k.S.3XL.].P.NXNXNX].r.0X3X].NXIXIXUXIXNX].L.0Xx.f.M.uXuXuXuXdXuXdXdX5Xn.h.j.yXX.X.@XXXyXbXbXf.m.t.t.{ { { v.T.pXE E 0.E E E pX-XnX1X*X*X*X2XsXm.m.m.m.bX2X2X*X*XW *X*X*X*X*X*X*X*X*X2XsX,XsXsX1XXXN.XXX.iX$X~.E E 0.vXE pXT.t.{ t.{ t.v.t.5XM.{.r.J 7 7 7 s V J J J J 7 7 7 7 7 7 s * * * w w w w 7 7 7 7 7 7 7 7 7 7 7 7 7 7 7 7 7 7 7 J 7 7 7 * 7 7 7 7 7 7 7 7 7 * 7 * 7 7 * 7 7 7 7 7 7 7 7 7 7 7 7 7 7 * 7 7 7 w w w w w w w w w w s w s * s * * * w w w 7 7 5 7 5 7 5 7 5 7 7 5 7 7 7 7 Q.7 7 7 7 Q.7 7 7 * * w w w w w w w w w w s # s * # s * w w w w w w w w w w w w w w w w w w 7 7 7 7 * 7 * 7 * 7 7 7 7 * 7 7 7 7 * 7 7 7 7 7 * 7 7 7 7 7 * 7 7 7 7 7 * 7 * 7 7 7 7 * 7 7 * w w * w w w w w w w w 7 7 7 7 7 7 Q.Q.7 7 d d d $ $ $     o - - r ^ r ^ ",
"w w w w w w w w w w w w w w w w w w w w w w w w w w w w w w w w w * w * 7 * 7 * 7 7 7 7 7 7 * 7 * 7 7 w 7 * w w w w w * w * w w w w w w * 7 * 7 * w * w 7 * 7 * 7 * w * w 7 * 7 * 7 * 7 * w w w w * 7 * 7 * 7 w * w w * 7 * 7 7 w w w w * s s s * s # s s # s # # # * * * V V V 7 7 Z.6XM.-XM.x.k.S.0X3XL.L.fX].].fX0XS.3XL.].jXjXjXjX].fXr.0Xk.{.M.%.uXuXdX5X+XdXdXuXuXI.@XBXBXXXXXXXXX .j.j.f.{.t.{ { { v.T.R.eXE E E vXvXE $X-X4X1X*X*X2X1X2X2XsX2X2X*X*X*X*X*XW *X*X*X*X*X*X*X1XsXAXW.=Xm.4XXXXXX.X.jX$X$XE vXvXvXJXR.T.t.t.t.{ { { t.T.M.&Xr.J * w s s V J J V J 7 7 7 7 7 w * s * w w w w w w 7 7 7 7 7 7 7 7 7 7 7 7 7 7 7 * 7 w w 7 * 7 7 * 7 * 7 * 7 * 7 7 7 * 7 7 * 7 7 * 7 * 7 * 7 * 7 * 7 7 * 7 7 w w w w w w w w w w w w w w w w w w w w w w w w w w w w w w w w w w w w w 7 7 7 w w 7 w w w w w w w w w w w w w w w w w w * w * * s * * w w w w w w w w w w w w w w w w w w w * w 7 7 * 7 7 7 * w w 7 * 7 * 7 * 7 w w * w w 7 * 7 * 7 * 7 w w 7 * 7 7 7 7 * w w 7 * 7 w 7 7 * 7 7 w w w w w w w w w w 7 7 7 7 7 7 7 7 7 7 7 J 7 7 J 7 * * * * * * ",
"* * * * * * * * * * * * * * * * * * * * w * * w * * * * * * * * * * w * * * * * * * * * * * * w * * * * * * * * * * * * w * * * * * * * w * * w * * w * * * * w * * * w * * * w * * w * * * * * * w * * * w * * w * * w * * * * * * * * 7 7 # * * # s # # s # * s 7 7 7 w 7 V V J J Z.r.M.-XM.{.k.S.0Xr.L.L.L.L.L.3XS.S.S.3Xr.L.r.L.r.r.3X0XS.k.{.M.%.%.uX%.%.uXdXdX/.V.;X@XBXBXN.N.N.XXXXXXK.4XM.f.t.{ { { T.R.eXE E E E E E VX7X4X1X1X*X*X1X*X2X2X2X*X*X*X*X*X*X*X*X*X*X*X*X*X*X| mX=XW.l.m.j.K.X.X.iXwX$X$XE E vXvXVXR.T.t.t.{ t.t.t.t.t.M.M.r.J # w s s aXJ aX4.J w 7 7 7 7 w * * J * w w * * w w w w w w w w w w w 7 d 7 * 7 w * * * * * * * * * * * * * * * * * w * * * * * w * * * * * w * * * * * * * * * * * * * * * * * * w * w * w * w * w * w * * * * * * * * * * * * * * w * w * w * * w * * w * w * w * * * * * * * * * w * w * w * * w * * * * * * * * * w * * * * * * * * * w * * * w * * * * * * * w * * * w * * * * * * * w * * * w * * * * * * * * * * * * * w * * * * * * * * * * * * w * * w * w w 7 7 7 7 7 * 7 * w w w w w w w 7 7 7 7 7 ",
"* * * * * * * * * * * * * * * * * * w * * w * * w w w * w w * w w * * w * 7 * w * * w * w * w * w * w * w w * * * w w * w * w * * * w * w * w * w * w * w * w * w * w * w * w * w * * w * w * * w * w * w * w * w * w * w * w * w w * * w * 7 * * * # * * # * * s 7 7 7 w 7 V V 3 J Z.6XM.V.M.{.k.S.3XfXjX].].fXfXr.0XS.S.0X3X3X3X3X3X3X3X0Xc.k.{.M.%.%.%.uX%.dXdX9XkXI.@XB.B.BXN.N.N.N.XXXXXXX.yXj.h.m.=Xt.T.R.eXE E 0.E E E VX7XnX1X1X*X*X*X*X*X*X*X*X*X*X*X*X*X*X*X*X*X*X*X*X*X2XmXaXW.OXf.j.yXiXiXiXwX$X$XvXvXvXJXR.T.t.t.{ t.t.{ t.t.lXM.M.r.J # w * s # J 4.J s * 7 7 7 7 w * J s # * * w * w * * * * * * * * * * w w w * * * w * * w w * 7 * w * w * w * w * w * w * w * w * w * w w * * w w * w * w w * w * * * * * * * * * * * w * w * * w * * * * * * * * * * * * * * * * w * * w * w * w * w * * w * * w * w w * w * * * * * w * * w * w * * * * * * * * * w * w * w w * w * w * w * w * * w * w w * w * * w * w * w * w w * w * * w * w * w * w w * w * w * w w * * * * * * * * * * * * * * w * w * w * w * * * * * * * * * 7 * * * * * * * * * * * ",
"* * * * * * * * * * * * * * * w * w * w * w * w * * * w * * w * * w * w * * 7 * * 7 * * * 7 * * * w * w * * * * w * w * * w * * * w * w * * w * * w * * w * w * * w * * w * * w * * w * w * * w * w * * w * * w * * w * * w * w * * w * 7 7 * 7 * s * * * * * * * * s * * V V V J V Z.6XM.%.%.5Xk.>.r.jXUXUXIXNXjXfX3X8.8.3XL.fXfXfXfXfXL.3XS.k.{.%.V.%.5X%.uX%.dXdXkXI.PXB.B.B.BXN.N.N.N.N.XXXXXXK.j.( m.m.T.VXeXE 0.0.E E E pX7XnX4X1X*X*X*X*X2X2X*X*X*X*X*X*X1X*X*X*X*X*X*X*X*X2XsXmX=Xm.M.nXyXwX-XwX$X$XeXvXvXvXJXR.T.v.{ { { t.t.t.t.5Xf.f.6XJ 3 * * * # J J J J 7 7 7 7 7 w * s J * * * w * * w * w * w w * w w * w * * * w * w * w * * w * * w * w * 7 * w * * w * * w * w * * w * * * w * * w * w * * w * * * * * * * * * * * w * w * * w * * w w * * * * * * * * * * * * w * w * w * * w * * w * w * * w * w * * w * * * * * w * w * w * * * * * * * * * w * w * * w * * * w * w * * w * * w * w * * w * w * 7 * w * * w * * * w * w * * w * * w * * * w * * w * * * * * * * * * * * * * * * w * w * * w * * w * w * * 7 * 7 * * * * * * * * * * * * * ",
"* * * * * * * * * * * * * * * * * w * w * * w * w * w * w * w * w * 7 * * w * * 7 * * 7 * * w * 7 * * w * w * * * * w * w * w * * * w * w * * 7 * * w * * 7 * w * w * 7 * w * * 7 * w * * w * * w * w * * 7 * * 7 * * 7 * * w * w * * * 7 * 7 * * * * * * * * * * # # 3 # V V V J V Z.f.V.9X%.5Xl.S.r.jXUXUXUXUXIXNXfX3X0XL.jXNXIXIXIXIXjXfX0X{.f.%.%.%.%.%.dX%.dX%.V.I.@XB.B.B.BXBXN.N.N.N.N.N.BXXXXX1Xj.j.M.VX$X~.0.0.0.E E eXVX-X4X1X*X*X*X2X2X2X2X2X*X*X*X*X1X1X2X2X2X*X*X*X2X*X2XsXmXbXnXyXwX7X7XVX$X$XeXE vXxXpXR.s.v.{ { { t.OXt.OXt.f.f.6XJ 3 * s * # J J J 7 7 7 7 7 7 w # 4.s # * * w * w * w * w * * 7 d 7 * w * 7 * * 7 * * w * 7 * w * * 7 * * * * w * 7 * * 7 * * w * 7 * w * 7 * w * * 7 * * w * w * * * * * * * * * * * w * w * w * w * * w * * * * * * * * * * * * w * * w * w * w * * w * w * * w * * w * w * * * * * * * * * * * * * * * * * * * w * w * w * w * w * * w * * 7 * * w * * w * * w * * * 7 * w * w * w * w * 7 * * w * w * 7 * * 7 * * w * w * * * * * * * * * * * * * w * w * * w * w * w * 7 * * * * 3 # # # # # # # # # # # ",
"* * * * * * * * * * * * * * * * w * w * * w * w * * w * * 7 * * w * * * 7 * * w * * w * * w * w * * w * w * * * w * 7 * * w * * w * w * * 7 * * w * 7 * w * * 7 * * w * * * 7 * * w * * w * * w * * * 7 * * 7 * * w * * 7 * * 7 * * 7 * 7 * 7 * * * * * * * s * * s # 3 # V V J J V r.f.V.9X%.5Xk.S.r.jXUXUXUXUXUXIX].3Xo.fXNXUXUXUXUXUXIX].k.{.f.%.%.%.%.%.%.%.dXdXV.V.@XB.B.B.B.BXBXN.N.N.N.N.N.N.XXXXXXK.yXnXwX$X$XE 0.0.E E $X7XnX4X*X*X*XsXmXmXmXK 2X*X*X2X1XsXsXsXsX2X*X*X*X*X2X2XsX4XyXyXwX7XVXVX$XE E vX^.vXpXR.s.v.{ { { t.{ OXt.n.f.f.6XJ > * s s # # J 7 7 7 Q.7 7 7 * # J J # * w * * w * * 7 d 7 * w w * w * * * 7 * * w * 7 * * * * 7 * * w * 7 * 7 * * w * * w * 7 * * * w * * w * * w * * 7 * w * * * * * * * * * * * w * * w * * w * w * * * * * * * * * * * * * w * w * w * * w * * 7 * * w * 7 * * w * w * * * * * * * * * * * * * * * * * * * w * * w * * w * w * w * 7 * w * * 7 * * w * 7 * * 7 * w * * 7 * * w * 7 * * * w * 7 * * w * * w * * w * w * * * * * * * * * * * * * w * * * w * w * * 7 * * * w * w * * * * * * * * * * * * * ",
"* * * * * * * * * * * * * * * * * w * 7 * * 7 * * 7 * * w * * 7 * * 7 * * w * 7 * w * 7 * * 7 * * 7 * * * w * * * w * * 7 * * w * w * 7 * * w * * w * * 7 * * * w * * 7 * w * w * * 7 * w * w * 7 * w * w * * w * w * w * * 7 * * w * * 7 * 7 * w * * * * * * * s s 7 # J V J J J V r.f.%.%.%.5Xx.0Xr.].IXUXUXUXUXIX].3X3XfXNXUXUXUXUXUXP.].k.{.5X%.%.%.%.%.dX%.dX%.V.V.;XPXB.B.B.B.BXBXN.N.N.N.N.N.N.N.XXXXXXyXiXwX$XE E 0.0.E eXVX-X4X2X2X2XmX=XW.-.mX2X*X*X2XsXm.=X=XmXsX2X*X*X*X1X2X2X1XyXyXwX$X$X~.~.0.^.^.vXE pXT.v.{ { { { { t.{ OXn.h.f.6XJ > s s w * * J 7 7 7 7 7 7 7 * # J 4.s * * w * 7 * w * w w * * w * w * 7 * * w * * * * w * 7 * * w * * 7 * * * w * * 7 * * * * w * 7 * * 7 * 7 * * 7 * * * w * w * * * * * * * * * * w * * w * * w * w * * * * * * * * * * * * * w * * 7 * 7 * * 7 * * 7 * * * w * 7 * * w * * * * * * * * * * * * * * * * * * * w * * 7 * * 7 * * * w * * 7 * w * * 7 * * * w * * w * * 7 * * 7 * * * w * 7 * * * w * * 7 * w * 7 * * w * w * * * * * * * * * * * * w * 7 * * 7 * * * w * 7 * * 7 * * * * * * * * * * * * * ",
"* * * * * * * * * * * * * * * * w * * * * w * * w * * 7 * * w * * w * w * 7 * * w * * * 7 * * 7 * * 7 * w * * * w * * w * * w * 7 * * * * w * 7 * * 7 * * w * 7 * * 7 * * * 7 * * w * * 7 * * w * * * w * * 7 * * 7 * * 7 * * w * * 7 * 7 d 7 * * * * * * * # s J s * # J J J J J V 6Xf.%.%.%.%.{.k.r.].NXUXUXUXUXIX].3X3XfXNXUXUXUXUXUXjXL.k.{.%.%.%.%.%.%.%.%.dXdX%.V.H.@XB.B.B.B.B.B.BXBXN.N.N.N.N.N.N.N.XXXXX.iXwX$XE E E E E $X7XnX4X2XsXm.=XW.zXmXK *X*X2XsX=XW.W.=XmX2X*X*X2X*X2X*X1XXXyXwXwX$X~.0.<..X.X0.pXU.T.v.{ { { { t.{ t.{ t.h.f.6XAX> s s w w * * 7 7 7 7 7 7 7 * # J J # * w * w * * * w * * 7 * w * * w * * w * * 7 * 7 * w * * w * 7 * * w * 7 * * w * * 7 * 7 * w * * w * * * 7 * * w * 7 * w * * * * * * * * * * w * w * w * w * w * * * * * * * * * * * * * w * * w * * * 7 * * w * * w * 7 * w * * w * * * * * * * * * * * * * * * * * * * w * 7 * * 7 * * w * 7 * 7 * * w * * w * w * 7 * * 7 * * w * * w * * 7 * 7 * * w * 7 * * 7 * * * w * * 7 * w * * * * * * * * * * * * w * w * * w * * 7 * 7 * * 7 * * * * * * * * * * * * * * * ",
"* * * * * * * * * * * * * * * * * * * * * * d w d w * d w * d w d w d w d * * * * * * * # * * 3 * * * * * * * * * * * * * * * * # * * * * * * 3 * * * * * * * 3 * * * * * * 3 * * * * * # * * * * * * * * * * * * 3 * * * * * * * * 3 * * 7 * * * * # * # # # # # # J J J J V J J Z.6XM.5X%.%.%.f.x.r.fXjXIXUXUXUXIX].r.3XfXNXUXUXUXUXP.fX3Xk.{.%.%.%.%.%.%.%.%.dX%.V.V.I.yX@XB.B.B.B.B.BXBXN.N.N.N.N.N.N.N.N.N.XXX.iXwX$X$XE E E eXVX7X4X4XsXm.=XW.-.mXK *X*X2Xm.W.LX XW.-.sX*X*X*X*X*X*X1XXXyXwXwX~.~.<.<.0.0.vXpXR.T.t.t.t.{ t.{ t.{ =Xn.f.f.aXAX3 w s w * * * * d 7 7 7 w * # J # 4.* # * * # * * * * * * d w d w * d w * * * * * * # * * * * * 3 * * * d w 3 * * * * * d w d * * * * d w * d w # * * * # * * * * * * * * * * * * * * * * * * * # * * * * * * * * * * * * * * * * * * * * * d w * d w * d w d * * * * * * * * * * * * * * * * * * * * * * * * * * # * * # * * d w d * * * * * * * * * # * * * * * * * * * * * * * # * # * * * * # * * * * * * * * * # * * * * * * * * * * * * * * * * * * * * * * d w d w # * * * * * * * * * * * * * * * * ",
"* * * * * * * * * * * * * * * * * * * * * * w * * * * * * * * * w * * * * * w d w d * * * * * * * * * # * * * * * * * * * * # * * * * * * * * * * * 3 w d * * * * w d * * * * * * * * * * * * * * * * * 3 w d * * * * * * * # * * * * w d * d * * * # # * # # # # 3 3 > J J J J N Z.&XM.5X%.%.%.M.f.r.L.].NXUXUXUXIX].3XQ.fXIXUXUXUXIXjXr.0Xx.M.%.%.%.%.%.%.%.%.%.%.dXV.V.V.yX@XPXB.B.B.B.BXBXBXN.N.N.N.N.N.N.N.N.XXX.iXwXwX$X$XeXE ~.7XnXnX4XbXm.=XmXsX2X*X1X| m.=XLXLX=Xm.sX*X*X*X*X*X*X1XK.yXnX7X8X~.0..X0.E pXR.T.t.{ t.t.t.OX{ { { t.t.f.f.6XAXJ 7 7 w # 3 # * w 7 * 7 * * * # J J # * * * * * w d * * * * * * * * * * w d * * # * * w d * * * * * * * * * * * * * * * * * w * * * * * * * * * * * * * * * # * * * * * * * * * * * * # * * # * * * * * * * * * * * * * * * * * * * * * * * * * * * * * * * w * * * * * * * * * * * * * * * * * * * * * * * * * * * * * * * * w * * * * * * * 3 w d * * * * # w d * * * 3 w d * * * * * # w d * * * * * * * * 3 * * * * * * * * * * * * * * * * * * * # w d * * * * * * * * * * * * w w * * * * * * * * * * ",
"* * * * * * * * * * * * * * * * # * * * * * * * * * * * * * * * * * * * * * * * * w * * d w * * * * * * * # * * # * # * * * * * * * * d w d w * * * * * * * * * * * * * * * * * d w d w 3 * * # * * * * * * * * * * * d w d w # * * * * * 7 * * * * # # # # # # s # J J J J J J J Z.&XM.%.%.dX%.M.M.x.3Xr.].NXUXUXIX].3X3XfXNXUXUXIXjXL.3Xk.{.%.%.%.%.5X%.%.%.%.dXdX%.9X%.uXV.I.;X@XB.B.B.B.BXBXBXXXN.N.N.N.*XN.N.N.XXX.iXiXwX$X$XE ~.VX7XnXnXj.bXbXsX2X1X*X| 2XsX=X=X=X=XsX2X*X*X*X*X*X2X1XK.nX-XVXeXE 0.0.0.pXpXR.|.{ { t.t.t.t.{ t.t.OX{.f.f.r.hXJ 7 7 w # > # # * * * * * * * J J J # * * # * * * * * * * * * * * * * * * * * * * * d w * * * * * * * * * * * * d w d w * * * d w d w * * * * * d w d * * * * * * * * * * * * * * # * * * * * * * # * * * * * * * * * * * * # * * # * d w * * * * * * * * * * # * * # * * * * * * * * * * * * * * * * * * * # * * * * * d w # * * * * * d w * * * * * * * * * * * * * * * * * * * * * * * * * * * * d w d w * * * * # * * # * * * * * * * * * * # * * * * * * * * * * * * * d w 3 * # * * * * * * * * * * * ",
"* * * * * * * * * * * * * * * * * * 3 w d w d * * * * * * * * * * * * * * * * * * * * * * * * d w d * # * * * * * * * * # * * 3 * * * * * * w d * * * * * * w d * * * * * * * * w * * * * * * * 3 w d * * * * * * * * * * * * * * * * 3 7 d 3 * * * # # # * # J s V # J J J 4.J N Z.6XM.%.%.%.%.%.-X{.x.3XL.].jXNXNXfX3X3XL.jXNXNXjXfX3Xx.{.f.%.%.dX5X5X%.%.%.5X%.%.9XV.%.uXuXd.V.H.@X@XB.B.B.BXBXBXXXN.N.N.N.N.N.N.N.BXX.X.iXwXwX$X$XVXVX7X7X-X-Xj.4X1X1X*X*X2X2XsXmXmXsXsX2X1X*X*X*X1X| 4XnX-X7XVXeXE E 0.E pXR.|.{ { { t.t.t.t.t.{ t.t.{.>X{.r.hXo.J 7 * 3 > > # # # # # # w * J $ $ # * * * * * * * * * * * * * * * * * * * * * * * * * * * 3 w d w d * * * * * w * * * * * * w * * * * * * * * * * w * * * # * * # * * * * * * * * * * 3 * * # * * * * # * * * * * * * * * * * * * * * * * * * * * * * * * * * * * * * # * # * * * * * * * * * * * * * * * * * * # * * * * * * * * * * * * * * * * * 3 w d * * * * * * * * * * w d w d * * * * * * * * * * * * * * * * * * * * * * * * * * * * * * # * * * * * * * * * * * * * * * * * * * * * * * * * * * ",
"* * * * * * * * * * * * * * * * * * * * * * w * * * * * * * * * * * * * * * * * * * * * * * * w * w * * * * * * * * * * * * * * * * * * * * * * * * * * * * * * * * * * * * * * * * * * * * * * * * w * * * * * * * * * * * * * * * * * 7 7 7 # * * * * * s # # s * # J # J J J J Z.6Xf.%.%.dX%.%.V.M.f.{.x.x.L.fXfXL.hX0Xr.nX].fXr.3Xx.f.M.%.%.dXdXdX%.%.%.%.%.dX%.%.9X%.%.5Xn.n.h.d.yXBXB.B.B.BXBXBXBXXXN.N.N.N.N.N.N.N.XXX.X.iXwX$XVXVXVXVXVX7XnXnXK.1X*X*X*X*X*X2X2X2X2X1X1X1X1X1X| 4XM.M.VXVXE E E E E JXR.T.{ { { { t.t.t.t.t._._.lX{.>X>XtX3Xo.o.V 7 # > # s # > 4.> # w 7 3 $   # * * * * * * * * * * * * * * * * * * * * * * * * * * * * * w * w * * * * * * * * * * * * * * * * * * * * * * * * * * * * * * * * * * * * * * * * * * * * * * * * * * * * * * * * * * * * * * * * * * * * * * * * * * * * * * * * * * * * * * * * * * * * * * * * * * * * * * * * * * * * * * * * * * * * * * * * * * w * * * * * * * * * * * * * w * * * * * * * * * * * * * * * * * * * * * * * * * * * * * * * * * * * * * * * * * * * * * * * * * * * * * * * * * * ",
"* * * * * * * * * * * * * * * * * * * * * * * * * * * * * * * * * * * * * * * * * * * * * * * * * * * * * * * * * * * * * * * * * * * * * * * * * * * * * * * * * * * * * * * * * * * * * * * * * * * * * * * * * * * * * * * * * * * 3 7 3 * * * * * * * * # # * # 3 > J J J J N V Z.6XM.%.%.%.%.%.%.M.f.{.x.x.x.x.hXS.S.0XL.L.{.x.x.f.M.%.uXdX+XdX%.dX%.%.%.%.%.dX%.9X9XdX5Xt.{ t.h.bXX.B.B.B.BXB.BXBXBXXXN.N.N.N.N.N.N.N.BXXXX.iXwX$XVXVXeXeX~.7X].nXK.1X*X*X*X*X1X1X1X1X1X1X1X1XK.4XfX7XVXeXeXE E E E eXVXT.t.{ { { { t.t.T.T.T.T.T.T.>X7X>XL.r.3Xo.o.J V V s 4.4.4.4.4.> * 7 7 J J * * * * * * * * * * * * * * * * * * * * * * * * * * * * * * * * * * * * * * * * * * * * * * * * * * * * * * * * * * * * * * * * * * * * * * * * * * * * * * * * * * * * * * * * * * * * * * * * * * * * * * * * * * * * * * * * * * * * * * * * * * * * * * * * * * * * * * * * * * * * * * * * * * * * * * * * * * * * * * * * * * * * * * * * * * * * * * * * * * * * * * * * * * * * * * * * * * * * * * * * * * * * * * * * * * * * * * * * * * * * * * * * * * * * ",
"# # # # # # # # # # # # # # # # # # # # # # # # 3 # 3 # 3 # 3 # 3 # # 3 # # 3 # # # # # # # # # # # # # 3 # # 3 # # 3 # # # # # # # # # # # # # # # # # # # # # # # # 3 # 3 # # 3 # # # # # # # # # # 3 # # # 3 * 3 * # # # # # 3 * # * 3 J 7 3 J # # # J # # s J # > J J J J J J J Z.6Xf.M.%.M.%.V.%.%.%.f.{.{.OXx.k.k.>.k.{.{.{.{.>XM.%.%.dXdXdXdXdX%.%.dX%.%.%.%.9X9X9X%.5Xt.{ { t.h.yXBXB.B.B.B.B.B.B.BXN.N.N.N.N.N.N.N.N.XXXXX.iXwXwXVXeXeXeXVX7XnXnX4XK.K.4X4X4XyXj.yXyXyXnXnXnX7X7XVXeXE E 0.0.E E VXVXT.t.t.t.t.T.T.T.T.>XR.VX>XVXVX8X#X#XL.3X3X3XJ J J # 4.s 4.4.4.# # * V V V * * # # # 3 # # 3 # # 3 # 3 # 3 # 3 # # 3 * 3 * 3 * # # # # # 3 # # 3 # # 3 # # # # 3 # # # # # # 3 * 3 # # # # # 3 # # # # # J # # # # # # # # # # # # # 3 # # # # J # # # # # # # # # # # # # # # 3 # # 3 # 3 # 3 # 3 # 3 # 3 # # # # J # # # # # # # # # # # # # # # # # # # # # # # 3 # # 3 # # # # 3 # # # # # # 3 # # 3 # # 3 # # 3 # # # # # # # # # # # # # # # 3 # 3 # 3 # # # J # # # # # # # # # # # # # 3 # # 3 # # 3 # # # # # # # # # # # # # # # # # # # ",
"# # # # # J # # # J # # # J # # # J # # # # # # * # * # * # * # * # # * # # * # # # # # # # # # # # # # * # # # * J * # # # J # # * J # # # # # # # # # # # # # # # # * # * # # * # # # # # # # # J # * # # # # # # # # # # # # # # # 3 7 * 3 * # # # # # s J > # J > > J s J J J J hXZ.6Xf.M.M.M.M.M.%.V.%.%.5X{.{.f.{.{.{.M.M.M.5X%.%.%.%.dXdXdXdXdXdXdX%.%.%.%.%.%.FX%.dX5Xt.{ { t.f.yXBXB.B.B.B.B.B.B.BXBXN.N.N.N.N.N.N.N.N.XXXXX.iXwXwX$XeXeXeXVXVX7X7XnXnXnX-X-X-X-X-X-X-X-XVXVXVX$XE E 0.0.0.0.E E eX>XT.T.T.T.%.T.T.>X>X>X>X8X8X8X8X#X#X#X#XL.r.3X3Xo.J J s 4.s 4.s 4.> # 7 7 7 * # # # # # # # * # # * # * # * # * # # # # # # # # # # # # # # # # * # # * # # # # * # # # # # # # # # # # # # # * # # # # # # # # J # # # J # # # J # # * J # # # # # # # # J # # # J # # # J # # * # # # # * # * # * # * # * # # # # # # # J # # # J # # # J # # # J # # # J # # # # * # # * # # # # * # # # # # # * # # * # # * # # * # # # # # # # # # # # # # # # * # * J * # # # # # # # # J # # # J # # # J * # # * # # * # # # # # # J # # # # # # # # # # # # ",
"# # # # # # # # # # # # # # # # # # # # # J # # # # J # # # # J # # # # J # # # J # # # J # # # J # # # J # # # # # # # # # # # # # # # # # J # # # J # # # J # # # J # # # J # # # J # # # J # # # # # # J * # # J # # # J # # # J # # J * * # # # # * # # # s # 4.> > > J J J J J J Z.Z.6X6Xf.f.f.M.%.V.V.%.%.%.%.%.-X%.-X%.%.R.%.%.%.9XdXdXdXdXdXdX%.%.%.dX%.%.%.9X9X9X%.5Xt.{ t.t.f.j.X.B.B.B.B.B.B.B.B.BXBXBXN.N.N.N.N.N.N.N.XXXXX.iXiXwX$XpXpXpXeXVXVXVXVXVXVX$XJX$XVXVXVXeXeXeXeXE E 0.0.0.0.0.$X$X$XVXVX>XVXVXVXVX7X>X>X8Xx C.x w.w.#X8X#X#X#XL.r.3X3XJ J J 4.J s s # 3 3 3 7 7 # # # # # # J # # # J # # # J # # # J * # # J # # # J # # # J # # # J # # # # J # # # # J # # # # # J * # # J # # # J # # # # # # # # # # # # # # # # # # # # # # # # # # # # # # # # # # # # # # # # J * # # # J # # # J # # # J # # # # # # # # # # # # # # # # # # # # # # # # # # J # # # J # # # J # # # J # # # J # # # J # # # J # # # J # # # J # # # J # # # J # # # # # # # # # # # # # # # # # # # # # # # # # J # # # J # # # # # # # # # # # # # # # # # # ",
"# # # # # # # # # # # # # # # # # # # # # # # # # # # # # # # # # # # # # # # # # # # # # # # # # # # # # # # # # # # # # # # # # # # # # # # # # # # # # # # # # # # # # # # # # # # # # # # # # # # # # # # # # # # # # # # # # # # # * * J # # J # # # # # # * # > > 3 # J J # J J J hXhXZ.x.x.x.f.f.M.M.M.M.M.M.-X-X-X-X%.-X%.%.R.%.%.%.dXdX%.dX%.dX%.%.%.%.%.%.9X9X%.5X5Xt.{ t.t.f.nXNXB.B.B.B.B.B.B.B.B.B.BXBXN.N.N.N.N.N.N.N.XXBXX.iXiXwXJXJXpXpXpXeXeXeXeXeXeXeXpXeXpXeXeXeXE E E ~.0.~.0.~.E ~.$X$X8X8X8X8X8X8X8X8X8X#Xx x x x x w.w.x #X#X#X#XL.L.3X3Xo.J J 4.J J V * # * 7 7 # # # # # # # # # # # # # # # # # # # # # # # # # # # # # # # # # # # # # # # # # # # # # # # # # # # # # # # # # # # # # # # # # # # # # # # # # # # # # # # # # # # # # # # # # # # # # # # # # # # # # # # # # # # # # # # # # # # # # # # # # # # # # # # # # # # # # # # # # # # # # # # # # # # # # # # # # # # # # # # # # # # # # # # # # # # # # # # # # # # # # # # # # # # # # # # # # # # # # # # # # # # # # # # # # # # # # # # # # # # # # # # # # # # # ",
"# # J # # # # # # # # # # # # # # # # # # # # J # # # # # J # # # # J # # # # # # # # # # # # # # # # # # # # # # # # J # # # # # # # # # # # # # # # # # # # # # # # # # # # # # # # # # # # # # # # # # # # # # # # # # # # # # # # J * 3 * 3 * # # # # # # # s # > > > 3 # * * 7 J V J J hXAXhXAXx.x.x.{.{.f.M.-X-X-X%.VX%.R.9XR.%.R.%.%.%.%.%.%.%.%.%.%.%.%.%.%.9X9X%.5X5Xt.{ t.t.5XnXNXB.B.B.B.B.B.B.B.B.B.B.BXBXN.N.N.N.N.N.N.N.XXXXX.X.yXwXFXJXpXE eXeXeXE eXE E E E E E E 0.0.0.0.^.~.~.~.~.8X8X8X8X8Xx x x x x x w.w.w.x x x x x 8Xx #Xx #X#X#X#XL.L.3X3Xo.o.J J J s J 7 7 7 7 # # J # # # # # # # # # # # # # # # # # # # # # # # # # # # # # # # # # J # # # # # J # # # # J # # # # # # # # # # # # # # # # # # # # # # # # # # # # # # # # # # # # # # # # # # # # # # # # # # # # # J # # # # # # # # # # # # # # # # # # # # # # # # # # # # # # # # # # # # # # # # # # # # # # # # # # # # # # # # # # # # # # # # # # # # # # # # # # # # # # # # # # # # # # # # J # # # # # # # # # # # # # # # # # # # # # J # # # # # # # # # # # # # # # ",
"3 3 3 3 3 3 3 3 3 3 3 3 3 3 3 3 3 3 3 3 3 3 3 3 3 3 3 3 3 3 3 3 3 3 3 3 3 3 3 3 3 3 3 3 3 3 3 3 3 3 3 3 3 3 3 J 3 3 3 3 3 3 3 3 3 3 3 3 3 3 3 3 3 3 3 3 3 3 3 3 3 3 3 3 3 3 3 3 3 3 3 3 3 3 3 3 3 3 3 3 3 3 3 J 3 3 3 3 3 3 3 3 3 3 3 3 # 3 3 J 3 # # # # > # # w # 3 > > 3 # * 7 7 7 V V J J J N AXhXhXhXhXx.{.&X7X-X-X7X-X7X-XVX-XR.%.%.%.%.%.M.%.%.%.%.%.%.%.%.%.%.9X%.5X5Xt.{ { t.{.I.NXB.B.B.B.B.B.BXBXB.B.B.B.B.BXN.N.N.N.N.N.N.N.N.XXXXX.yXwX$XJXE E E E E E E E E E E ~.~.0.0.E eX~.~.~.~.8X8X8X8XC.C.x x x x x x x w.x x x x x x 8XC.8XC.w.w.w.#X<XL.L.3X3X3XJ J J J J w w w * # # 3 3 3 3 3 3 3 3 3 3 3 3 3 J 3 3 3 3 J 3 3 3 3 3 3 3 3 3 3 3 3 3 3 3 3 3 3 3 3 3 3 3 3 3 3 3 3 3 3 3 3 3 3 3 3 3 3 3 3 3 3 3 3 3 3 3 3 3 3 3 3 3 3 3 3 3 3 3 3 3 3 3 3 J 3 3 3 3 3 3 3 3 3 3 3 3 3 3 3 3 3 3 3 3 3 3 3 3 3 3 3 3 3 3 3 3 3 3 3 3 3 3 3 3 3 3 3 3 3 3 3 3 3 3 3 3 3 3 3 3 3 3 3 3 3 3 3 3 3 3 3 3 3 3 3 3 3 3 3 3 3 3 3 3 3 3 3 3 3 3 3 3 3 3 3 3 3 3 3 3 3 3 3 3 J 3 3 3 3 3 3 3 3 3 3 3 3 3 3 3 3 3 3 3 3 3 3 3 3 3 3 3 3 3 3 3 3 3 3 3 3 3 3 3 3 3 ",
"3 3 3 3 3 # 3 # 3 # 3 # 3 # 3 # 3 # 3 # 3 # 3 3 3 3 3 3 3 3 3 3 3 3 3 3 3 3 3 3 3 3 3 3 3 3 3 3 3 3 3 3 3 3 3 3 3 # 3 3 3 3 # 3 # 3 # 3 # 3 # 3 # 3 # 3 # 3 # 3 # 3 # 3 # 3 # 3 # 3 # 3 # 3 # 3 # 3 # 3 # 3 3 3 3 # 3 J # 3 # 3 # 3 3 3 3 J 3 3 3 3 3 # > # # > * # 3 3 3 3 # * 7 7 7 7 V J > $ $ J J o.hXhXhXr.L.fXnXnX7X7X7X7X-X7X-X7X-XVX-X7X-X7X-X%.%.%.%.%.5X%.%.dX%.5X5Xt.t.{ { t.V.@XB.B.B.B.BXBXX.X.X.BXB.B.B.BXBXN.N.N.N.N.N.N.N.N.BXXXX.yXwX$X$XE ~.E E ~.E ~.~.~.~.~.~.~.~.~.8X8X8X8X8Xx x x x x x x x x x x x x x x C.C.x x x C.8XC.w.w.<X<X<X<X<XL.L.L.r.Z.J J N 3 * w * # 3 3 3 # 3 # J # 3 # J # 3 3 # 3 3 # 3 3 3 3 # 3 J # 3 # J # 3 # 3 # 3 3 # 3 3 3 3 3 3 3 3 3 3 3 3 3 # 3 # 3 # 3 # 3 # 3 # J 3 # 3 3 3 3 3 3 3 3 3 3 3 3 3 3 3 3 3 3 3 3 3 3 3 # 3 # 3 # 3 # 3 # 3 # 3 # 3 3 # 3 # 3 # 3 # 3 # 3 # 3 # 3 # 3 # 3 # 3 # 3 # 3 # 3 # 3 # 3 # 3 # 3 # 3 # 3 # 3 # 3 # 3 # 3 # 3 # 3 # 3 3 # 3 3 3 3 3 3 3 3 3 3 3 3 3 3 3 3 3 3 3 3 3 3 3 3 3 3 3 3 3 3 3 3 # 3 3 3 3 # 3 # 3 # 3 # 3 # 3 # 3 3 3 3 3 3 3 3 3 3 3 # 3 # 3 # 3 3 3 3 3 3 3 3 ",
"3 3 3 # 3 3 3 3 3 3 3 3 3 3 3 3 3 3 3 3 3 3 3 3 3 3 3 3 3 3 3 3 3 3 3 3 3 3 3 3 3 3 3 3 3 3 3 3 3 3 3 3 3 3 3 3 3 3 3 3 # 3 3 3 3 3 3 3 3 3 3 3 3 3 3 3 3 3 3 3 3 3 3 3 3 3 3 3 3 3 3 3 3 3 3 3 3 3 3 3 3 3 # 3 3 3 # 3 3 3 3 J 3 3 # 3 3 3 J # 3 # > # # > # # 3 # # * # 3 * 3 3 * 7 * 7 # > > 3 3 J J o.o.Q.3X3XL.fX].].].].].qXqXqXwX7X-X-X7X7X7X7X-X-X%.%.%.%.%.%.%.dX5X5X5Xt.{ { OXV.@XB.B.B.B.BXXXK.j.j.yX@XB.B.B.BXBXN.N.N.N.BXN.N.N.N.XXXXXXyXwX$X$X~.~.~.~.~.~.~.~.~.~.8X8X8X8X8Xw.x x x x x x x w.w.w.w.w.w.x x x C.8XC.C.C.#X#X#Xw.<X<X<X<X<X<X<X<X<X#XfXL.L.3XJ o.$ 3 # > > 3 # 3 3 3 3 3 3 3 3 3 3 # 3 3 3 3 3 3 # 3 3 3 # 3 3 3 3 3 3 3 3 J 3 # 3 3 3 3 3 3 3 3 3 3 3 3 3 # 3 3 3 3 3 3 3 3 3 3 3 3 3 3 3 3 3 3 3 3 3 3 3 3 3 3 3 3 3 3 3 3 3 3 3 3 # 3 3 3 3 3 3 3 3 3 3 3 3 3 3 # 3 3 3 3 3 3 3 3 3 3 3 3 3 3 3 3 3 3 3 3 3 3 3 3 3 3 3 3 3 3 3 3 3 3 3 3 3 3 3 3 3 3 3 3 3 3 3 3 3 3 3 3 # 3 3 3 3 3 3 3 3 3 3 3 3 3 3 3 3 3 3 3 3 3 3 3 3 3 3 3 3 3 3 3 3 3 3 3 3 3 # 3 3 3 3 3 3 3 3 3 3 3 3 3 3 3 3 3 3 3 3 3 # 3 3 3 J 3 3 3 3 3 3 3 3 3 3 ",
"# 3 3 3 3 # 3 # # 3 # # 3 # 3 # 3 J # 3 # 3 # 3 3 3 3 3 3 3 3 3 3 3 3 3 3 3 3 3 3 3 3 3 3 3 3 3 3 3 3 3 3 3 3 3 3 3 3 3 3 3 # 3 # 3 J # 3 # J 3 # 3 # 3 # 3 # 3 # 3 # 3 # 3 # 3 # 3 # 3 # 3 # 3 J # 3 3 # 3 3 3 # 3 3 3 # 3 # > # 3 3 3 J 3 3 3 J # # # > # # > > 3 # w * * * 3 d # 3 # 3 > 3 # # * 7 7 7 7 o.Q.Q.L.fX].].].].].].].].qXqX7XqX].qX7X7X7X-X-X-X-X-X%.%.%.%.%.M.5Xt.t.OXOXM.iXB.B.B.B.BXXXK.bXm.bXyX@X@XB.B.B.BXBXBXN.N.N.N.N.N.N.N.XXX.iXwXqX8X8X8X8X8XC.C.C.x x x x x x x w.w.w.x x x x x 8Xw.#X#X#XC.C.C.C.x x x w.<X<X<X<X<X<X<X<Xw.w.w.w.w.w.#X#XfXL.r.3Xo.J J J 3 2 3 3 J > # # 3 # 3 # 3 3 # 3 3 # 3 3 J 4.> > 3 3 3 3 # 3 # 3 # 3 3 # 3 3 # 3 3 3 3 3 3 3 3 3 3 3 3 3 # 3 # 3 # 3 # 3 # 3 # 3 # 3 3 3 3 3 3 3 3 3 3 3 # 3 3 3 # 3 3 3 3 3 3 3 3 # 3 J # 3 J # 3 # 3 J 3 3 3 3 # 3 # 3 # 3 # 3 # 3 # 3 # 3 # 3 # 3 # 3 # 3 # 3 # 3 # 3 # 3 # 3 # 3 # J 3 # 3 # 3 # 3 # 3 # 3 3 # 3 3 3 3 # 3 3 3 3 3 3 3 3 3 3 3 3 3 3 3 3 3 3 3 3 3 3 3 3 3 3 3 3 3 3 3 3 3 3 3 3 3 # 3 # 3 # 3 # 3 # 3 # 3 # 3 3 3 3 3 3 3 3 3 # 3 3 # 3 # 3 3 3 3 3 3 3 ",
"* * # 3 3 3 # # * # # > > > 3 # # # 3 3 3 3 3 # 3 3 3 3 3 3 3 3 3 3 3 3 3 3 3 3 3 3 3 3 3 3 3 3 3 3 3 3 3 3 3 3 3 3 3 # 3 # # > # # > # > # > # > # 3 # > # 3 # > # 3 # > # 3 # > # 3 # > # 3 # > # 3 # 3 # 3 # # > # # > # 3 # # 3 # # # 3 # # > # > # # > # # # 3 # * * * 3 * # 3 3 3 > 3 # # * # 7 d 7 d 7 Q.Q.g.fX].].].].y.y.y.y.].].].].qX].].qXqX7XwX7XwX-X-X7X-X-X7X-X7XM.{.{.{.M.iXB.B.B.B.B.XXK.bXm.m.f.V.yX@XB.B.B.BXBXBXBXN.N.N.N.N.N.N.XXX.iXjXqX8X#Xx C.C.C.x x x x x x #Xx w.w.w.x x x C.C.8XC.x #X#X#Xx x x x w.<X<X<X<X<X<X<X<Xw.w.x x x x x w.#X#X#X#XL.r.r.3XZ.V J J J J 4.# 4.> > > # * 7 7 * 3 3 3 # 4.> 4.4.4.> 3 3 3 # # # # # # # 3 # 3 3 3 3 3 # > # > # > # > 3 # 3 # > # 3 # > # 3 # > # 3 3 3 3 3 3 3 3 3 3 3 3 # 3 # # 3 3 3 # # # # * * # # # 3 3 3 3 2 3 3 # > # # # 3 > > 3 # * # # # # # # # # J > J > # 3 # > # 3 # > # 3 # > # 3 # > # > # 3 # > # 3 # > # 3 # 3 # 3 # # 3 # 3 3 3 3 3 3 3 3 3 3 3 3 3 3 3 3 3 3 3 3 3 3 3 3 3 3 3 3 3 3 3 3 3 3 3 # # 3 # > # 3 # > # 3 3 # 3 # 3 3 3 3 3 3 3 # # > # # > # 3 # 3 3 3 3 3 3 ",
"* * * # 3 > 3 * w w * > > > 3 # * # 3 > 3 # 3 # 3 # # 3 3 3 3 3 3 3 3 3 3 3 3 3 3 3 3 3 3 3 3 3 3 3 3 3 3 3 3 3 3 3 3 3 # > # # # > # # # # # # # > # # # > # # # 3 # > # # > # # # > # # # > # # > # > # > # > # # # > # # > # > # > # > > # > # > # # # # > # > # # # # # 3 3 3 3 3 3 3 3 # # # # # * 7 d 7 o.o.Q.L.fX].].y.].].y.fXy.].qX].y.].qXqXqXqXqXqXqXqXqXqX7XqXwXqXqX7X7X>X>XnXNXIXB.B.B.BXBXX.bXm.m.{.f.-XwXNXB.B.B.BXB.BXBXN.N.N.N.N.N.N.XXXXX.iX].fX#X#X#XC.x x x x x x w.x w.#Xx x C.C.C.8XC.C.#Xx w.<X<X<Xw.<Xw.w.<Xw.w.w.w.x w.x x x x x x x x x #X#X#X#XL.L.L.r.3X3Xo.J J J 4.4.4.> > # w 7 7 d * 3 3 J 4.4.4.s 4.4.# 3 # 3 * * 3 d * d * 3 3 3 3 3 3 > # > > 4.# > # # > # # # 3 # > # # > # # # 3 # 3 3 3 3 3 3 3 3 # 3 3 3 3 3 3 3 3 3 * d 7 * * 7 * * 3 3 d d $ 3 # 3 > 3 # # # 3 > 3 * w w * # 3 3 3 # # # > > > # > # # # > # # > # # # > # # # # # > # # # > # # # > # > # > # > # > # # # 3 3 3 3 3 3 3 3 3 3 3 3 3 3 3 3 3 3 3 3 3 3 3 3 3 3 3 3 3 3 3 3 3 # > # # # 3 # > # # > # > # 3 # # # 3 3 3 3 3 # # > # # # > # # # 3 3 3 3 ",
"J 7 * # > > # * * * * > > 3 # * * * # > 3 > > > > > > > 3 > 3 > 3 > 3 > 3 > 3 > 3 > 3 > 3 > 3 > 3 > 3 > 3 > 3 > 3 > 3 > > # > > > # > > > > > > > # > > > # > > > > > # > > # > > > # > > > > > # > > # > # > # > > > # > > > # > > # > > # > > > # > > > > > > # > > > > > > > > > > > > 3 # 3 3 3 # d d 3 d d o.o.g.L.fX].].].].y.].y.].y.].y.y.y.y.y.y.y.y.y.qXy.].y.qX].qXjXqXqXqX7X].NXIXB.B.B.B.BXX.j.f.{.M.M.7X7XiXIXB.B.B.B.B.BXBXN.N.N.N.N.N.N.XXXXX.X.jX].fX#Xw.w.x x C.C.8X8Xx #Xx #Xx #Xw.x w.w.w.w.w.w.<X<X<X<Xw.w.w.w.x x x x x x x x x x x x x x x x w.#X#X#X#XfXL.r.3XhXhXJ J 4.4.4.4.> # * 7 7 7 d 3 3 > 4.4.4.4.4.4.> 3 d d 7 d d * d * d 3 3 3 3 3 # > > > # * 4.# 4.> # > > > > > # > > # > > > > > > > > > > > > 3 3 3 3 3 3 d # d * d * d d d * 7 7 7 7 7 3 3 3 J 3 J > 3 # # # 3 > 3 * * # 3 3 > > 3 3 3 > > > > 3 > > > > # > > # > > > # > > > > > > > > > # > > > # > # > > # > > # > > > > 3 > 3 > 3 > 3 > 3 > 3 > 3 > 3 > 3 > 3 > 3 > 3 > 3 > 3 > 3 > 3 > > # > > > > > # > > # > # > > > > > > 3 > 3 > > > # > > > # > > > > > > > ",
"J J 7 # 3 3 # * * # # > # # * w 7 * # > > # > # > # > # > # > # > # > # > # > # > # > # > # > # > # > # > # > # > # > # > > # > > > # > # > # > > > # > > > # > # > # > > # > > # > > # > # > # > > # > > > > > # > > > # > # > > # > > # > > # > > # > # > # > > 3 > > > > > > > > > > > > 3 3 3 3 3 # # 3 d d d o.Q.r.L.fXfX].].].jXy.].y.].y.y.y.y.y.y.y.y.y.y.y.y.y.y.qX].qXqXqX].qX].NXIXB.B.B.B.BXX.yXM.M.7XVX7X7XjXIXB.B.B.B.B.B.B.BXN.N.N.N.N.N.N.N.XXX.X.jX].fX#X#Xx C.C.8XC.x w.w.w.w.w.w.w.w.w.<X<X<Xw.w.<Xw.w.w.x x x x x x x x x x x x x x x x x x C.x w.w.#X#X7X#XfXL.L.3X3X3XJ J 4.4.4.s > # d d o.7 o.3 > 4.4.4.4.s J > 3 J d d * d d 7 o.* d d 7 d 3 3 3 3 # > # > # > # > > # > # > > # > > # > # > > > > > > > > > > > 3 d 3 3 3 3 # 3 d * d d d * 7 7 7 7 d 7 J * 3 3 > > J 3 # # 3 3 # * * > > > > > > > > > > 4.> > > # > > > # > > > # > > # > # > # > # > > > # > > > > > # > > # > > # > # > # > > # > # > # > # > # > # > # > # > # > # > # > # > # > # > # > > > # > # > > # > > > > # > # > # > # > # > # > > # > > > # > > > > > > ",
"o.J V J J # * w # 3 > 3 # # * w 7 w * 3 > > > > # > > # > > > > > > > > > > > > > > > > > > > > > > > > > > > > > > > > > # > > # > > # > > > # > # > > # > > # > > > > # > > # > > # > > # > > # > > # > # > # > > # > > # > > # > > # > > # > > # > > > # > > # > > > > > > > > > > > > > > > > > 3 3 d # 3 * 7 7 7 Q.Q.Q.r.L.fXfX].].fXfXfX].y.y.].y.y.y.y.y.y.y.].y.].y.].qX].qXqXqXnXNXIXB.B.B.B.BXX.nXfX>X7X7X#X#XjXIXB.B.B.B.BXB.BXB.BXBXBXN.N.N.XXN.N.N.X.X.NXjXy.y.#XC.C.C.8Xx <X<X<Xw.w.w.w.w.w.w.w.w.x w.w.w.w.x x x x x x x x x x x x x x x x x x x x x x w.#X#X#X#XqXfXfXfXL.3X3XJ 4.4.4.4.4.# 7 7 o.7 o.3 > 4.4.4.4.> 3 J 2 3 3 d J 3 J d d J d J d J d d d d d 3 d d 3 3 > # > > # > > # > > # > > > > > > > > > > > > > > > > 3 3 3 3 3 * d * d * * 7 7 7 7 * # 3 # # J $ J $ > J # * * * * w * > > > 3 3 > > > > > 3 3 > # > > # > > # > # > # > > # > > > # > > # > > # > # > # > # > > # > > # > > > # > # > > > > > > > > > > > > > > > > > > > > > > > > > > > > > # > # > > # > > # > # > > # > > > # > > > > > > # > > # 3 > > > > > > > ",
"- o.J J J J J 7 * # 3 3 # # * w w * * # > # > # > > # > > # > # > # > # > # > # > # > # > # > # > # > # > # > # > # > # > > # > # > # > > # > > # > > # > # > > # > # > > # > > # > > # > > # > > # > > # > > # > # > # > > # > > # > > # > > # > > # > # > > # > > > > > > > > > > > > > > > > > > > > > # 3 3 * 7 3 d J Q.Q.r.r.r.L.L.L.fXfXfXfX].].y.].].y.].].].y.].].].qX].qX].qXjX7XiXNXB.B.B.BXBXX.nXfX#X#X#X#X#XKXIXB.B.B.BXB.B.B.B.B.BXBXBXN.N.N.N.N.BXBXBXBXIXP.jXqX#Xx C.x w.w.w.w.w.w.w.w.w.x x x x x x x w.x x x x x x x x x x x x x x x x x x x x x x w.#X#XC.qXqXqX#X#X#X<XL.r.3XJ 4.4.4.4.w 7 o.Q.o.d J 3 > 4.> 3 d d 3 3 > > 3 3 3 3 J 3 d 7 d d 7 o.7 o.7 o.7 o.7 d d 3 > 3 > > # > > # > > # > > > > > > > > > > > > > > > > > > 3 3 3 3 3 * 7 7 7 * # 3 3 3 J J J J $ N J J J J J 7 * * * 3 > > 3 3 3 3 > > > # # # > > > # > # > > > > > > # > > # > # > > # > # > > # > > > > # > # > > # > > # > > > > # > # > # > # > # > # > # > # > # > # > # > # > # > # > # > > > # > > # > > # > # > > # > # > > # > # > # > > # > > # > > > > > > ",
"' 8.o.o.o.J J J J J * # # 3 # # # # * # 3 > # > > # > > # > # > # > # > # > # > # > # > # > # > # > # > # > # > # > # > # > > # > > > > # > > # > > # > > > # > > # > > # > > # > > # > > # > > # > > # > > # > > > > > # > > # > > # > > # > > # > > # > > # > > > > > > > > > > > > # > # > > # 4.> > > > > > 3 2 2 d J o.Q.Q.Q.Q.o.Q.Q.g.r.r.L.L.fXfXfXfXfXfX].].].].].].].].].qXqXjX7XjXNXB.B.B.B.BXX.].fX#X#Xw.<X#XjXIXB.B.B.B.BXBXB.BXB.B.B.B.BXBXN.N.N.N.BXBXB.B.IXP.y.#Xw.w.w.x x x x w.x w.x x x x x x x x w.x x x x x x x x x x x x x w.x x x x x x x x x x x C.C.#X#X#X#X#X<X#X<XL.r.Z.J 4.4.4.# 7 7 d o.7 d 3 3 3 d 7 o.7 d 3 > 4.> > > 3 3 3 3 d * d d 7 d d 7 d 7 d d 7 d 3 > > # > > # > > # > > > > > > > > > > > > > # > # > > # > > 3 > 3 3 * 7 7 # d d d J J J 7 J J J J N $ J J J J J J J 3 3 3 # # # 3 3 3 4.# # # 3 > # > > > > # > # > # > > # > > > # > # > > > # > > # > # > > > > # > > # > # > # > # > > # > # > # > # > # > # > # > # > # > # > # > > # > > # > # > > # > > # > > > # > > # > > # > > # > > # > > # > > > > > > > > ",
"e :.' r - o.o.J V J V J # 3 3 > 3 3 # * 3 > > > 3 > > # > > > > > > > > > > > > > > > > > > > > > > > > > > > > > > > > > # > > > # > # > > # > > # > > # > > 3 > > # > > > # > > # > > # > > # > > # > > # > > # > # > > > # > > # > > # > > # > > # > > # > > 3 > > > > > > > > > > > > 4.> 4.> 4.> 4.4.> 4.> 4.$ > 3 # J J o.o.o.o.o.o.o.Q.Q.Q.Q.Q.r.r.r.r.r.fXfXfXfXfX].].].7X].jXqXfX].NXB.B.B.B.BXX.].fX#X#Xw.w.#XqXIXB.B.B.BXBXBXBXNXNXB.B.B.B.B.BXBXBXBXBXB.B.UXIXNXy.#X#Xw.w.x x x x x x x x x x x x x x x x w.w.w.x x x x x x x #Xw.w.w.w.x x x x C.C.x C.C.C.C.w.<X<X<X<X<X<Xw.#X#XL.r.3XJ J $ 3 J J d J d J d 3 d d d Q.d 7 3 > > > > > > > > > 3 3 3 3 d * d * d 7 d 7 d 3 3 > > > > 3 > > 3 > > > > > > > > > > > > > > > > 4.> > > > # > # > 3 # # 3 2 d d J 7 V V J J o.o.N N N o.o.J J J J 3 J J J J J J J # 3 > > 3 3 > > > > # > # > > 3 > > # > > # > > > > > # > # > > # > > > # > # > > > # > > > > > > > # > > > > > > > > > > > > > > > > > > > > > > # > > 3 > > > > # > > > # > > # > > 3 > > > # > > # > > # > > 3 > > > > > > > > > ",
"a a e [ :.' - o.J J J J J 3 3 > > 3 # # 3 > > > > > > > > > > > > > > > > > > > > > > > > > > > > > > > > > > > > > > > > > > > > > > > > > > > > > > > > > > > > > > > > > > > > > > > > > > > > > > > > > > > > > > > > > > > > > > > > > > > > > > > > > > > > > > > > > > > > > > > > > 4.# 4.> 4.> 4.4.> 4.> 4.> > 2 $ d d J J Q.Q.J d o.o.o.o.o.Q.o.Q.Q.Q.` ` ` r.r.L.L.L.fXfXqXqX#X].NXB.B.B.B.B.BX].fX#Xx #Xw.#XqXIXB.B.B.BXBXX.X.nX].jXNXB.B.B.B.BXBXBXBXB.B.B.IXjXy.#X#Xx x w.w.x x x x x x x x x C.x x x x x x x w.x x x x x x x #Xw.#Xx C.C.C.C.C.C.C.w.w.<X<X<X<X<X<X<X<Xw.w.w.<X#XL.L.r.3XJ J J $ $ $ 2 3 2 d d d Q.o.d d 3 > 4.# 4.> 4.> > > > > > 3 3 3 # d 3 d 3 d 3 d 3 > > > > > > > > > > > > > > > > > > > > > > > > > 4.# 4.> 4.> > > > 3 3 3 d d J J J J o.N r ' ' ' ' ' ' - N o.J J J J V V V J V J J J J J J 3 > > > > > > > > > > > > > > > > > > > > > > > > > > > > > > > > > > > > > > > > > > > > > > > > > > > > > > > > > > > > > > > > > > > > > > > > > > > > > > > > > > > > > > > > > > > > > > > > > > > > > > > > > > > > ",
"y y a M e [ :.r N J J J J J 3 > > 3 3 # > > > > > > > > > > > > > > > > > > > > > > > > > > > > > > > > > > > > > > > > > > > > > > > > > > > > > > > > > > > > > > > > > > > > > > > > > > > > > > > > > > > > > > > > > > > > > > > > > > > > > > > > > > > > > > > > > > > > > > > > 4.> 4.> 4.> 4.4.> 4.4.> 4.> 4.> > > J 3 J 7 V V 7 3 d o.J o.J o.J J o.Q.Q.V J J Q.3X3Xr.L.fX].qX#Xy.jXIXB.B.B.B.NX].fX#X#Xx w.#XqXNXB.B.B.BXBXXX4XfXfXfX].jXNXB.B.B.B.B.BXB.B.UXIXjXy.#Xw.x x x w.w.x x x x C.x x x x x x x x x x w.x x x x x x #Xx x x C.C.C.C.C.C.x x w.<X<X<X<X<X<Xw.x x w.w.w.w.#X#X#XL.L.r.3X3Xo.N 4.J 4.4.J 2 d d o.Q.d 7 d 3 > > # > # > 4.> > > > > > > > > 3 > 3 > > > > > > > > > > > > > > > > > > > > > > > > > > > 4.> 4.> > > > > > > 2 3 3 3 J J J o.o.N r :.[ [ e e [ [ [ :.' $.o.o.o.J J o.J o.J J J J J J J > 2 > > > > > > > > > > > > > > > > > > > > > > > > > > > > > > > > > > > > > > > > > > > > > > > > > > > > > > > > > > > > > > > > > > > > > > > > > > > > > > > > > > > > > > > > > > > > > > > > > > > > > > > > > > > ",
"f f y y a M e :.r N o.J J J # 3 3 3 3 3 > > > > > > > > > > > > > > > > > > > > > > > > > > > > > > > > > > > > > > > > > > > > > > > > > > > > > > > > > > > > > > > > > > > > > > > > > > > > > > > > > > > > > > > > > > > > > > > > > > > > > > > > > > > > > > > > > > > > > > > > > > 4.> > 4.> 4.4.> 4.4.4.4.> 4.# # # # # 3 d 3 7 7 7 7 7 J J J J J V J J d o.o.o.o.o.3X3XL.fXqX#Xy.jXIXB.B.B.B.BX].fX#X#Xw.#X#XjXIXB.B.B.BXBXX.nXfX#X#X#Xy.jXNXIXB.B.B.B.B.B.IXNXjX#Xw.w.x x x x x x x x x x x x x w.x x x C.x x x w.x x x x x x x #Xx #Xx #Xx #Xw.w.<X<X<X<X<X<Xw.x x x C.C.x w.w.w.w.w.w.#X#XL.3X3XJ N 4.4.4.4.> d 7 d o.Q.d d d 3 2 > > > > > > > 4.> 4.> > > > > > 4.> > > > > > > > > > > > > > > > > > > > > > > > > > > 4.> 4.> 4.> 4.> > 2 2 d J J o.J o.$.' :.[ M a a y y a a M e :.' $.$.$.$.$.$.$.r - N J J J J J J 2 > > > > > > > > > > > > > > > > > > > > > > > > > > > > > > > > > > > > > > > > > > > > > > > > > > > > > > > > > > > > > > > > > > > > > > > > > > > > > > > > > > > > > > > > > > > > > > > > > > > > > > > > > > > ",
"f B a y y y y M :.$.N J J J J * 3 3 3 > > > > > > > > > > > > > > > > > > > > > > > > > > > > > > > > > > > > > > > > > > > > > > > > > > > > > > > > > > > > > > > > > > > > > > > > > > > > > > > > > > > > > > > > > > > > > > > > > > > > > > > > > > > > > > > > > > > > > > > > > > > > 4.# > 4.# 4.> 4.> s # > 4.> 4.> $ > 2 3 3 # # J # J J J J J J J J # 3 J J J 3Xo.3X3XL.].qX#Xy.jXIXB.B.B.B.IXjXfX#X#Xw.#X#XjXIXB.B.BXBXBXX.jXqX#X<Xw.#X#Xy.jXNXB.B.B.B.UXIXP.qXw.w.x x x x x x x x x x x x x x x x x x x x x x x x x C.x C.C.C.w.w.<X<X<X<X<X<X<X<X<X<Xw.x x x x x x x x x x w.w.w.x x #X#X#XL.3XhXJ N 4.4.4.4.3 3 d 7 d d d d d d 2 2 > > > > > > 4.> 4.> 4.4.> 4.> > 4.> > > > > > > > > > > > > > > > > > > > > > > > > > > > > > > > > > d d o.o.o.o.N $.' [ M a y y y y y y & y a M e :.:.:.[ [ e [ [ :.' $.o.J o.o.N 2 > > > > > > > > > > > > > > > > > > > > > > > > > > > > > > > > > > > > > > > > > > > > > > > > > > > > > > > > > > > > > > > > > > > > > > > > > > > > > > > > > > > > > > > > > > > > > > > > > > > > > > > > > > > ",
"f f B y & y y y e ' - o.J J V J # 3 > > > > > 2 2 2 2 2 2 2 2 2 2 2 2 2 2 2 2 2 2 2 2 2 2 2 2 2 2 2 2 2 2 2 2 2 2 2 2 2 2 2 2 2 2 2 2 2 2 2 2 2 2 2 2 2 2 2 2 2 2 2 2 2 2 2 2 2 2 2 2 2 2 2 2 2 2 2 2 2 2 2 2 2 2 2 2 2 2 2 2 2 2 2 2 2 2 2 2 2 2 2 2 2 2 2 2 2 2 2 2 2 2 2 2 2 2 2 2 2 J > 3 > > > > > > > 4.> # s > > 4.$ $ > > > 3 3 3 3 3 > > > > 4.4.4.4.4.# * J 7 J J o.3X3XL.fXqX#X#XjXNXB.B.B.B.BXjXfX#X#Xw.w.#Xy.NXB.B.B.B.BXBXNXqX#Xw.w.x x #Xy.jXNXIXUXUXIXP.qX#Xw.w.x x x x x x x x x x x x x x x x w.x x x x x w.x x C.x x w.w.w.<X<X<X<X<X<X<X<Xw.w.x x x x x x x x x x w.x x x x x x x w.#X<XL.3XhXJ N 4.4.4.4.> # w 7 Q.7 7 7 7 7 # > > 4.> 4.> 4.> 4.> > > > $ $ J J 3 2 2 2 2 2 2 2 2 2 2 2 2 2 2 2 2 2 2 2 2 2 > 3 > > > 4.> > 3 2 2 J J J N ' ' ' :.[ e M y y & y & y & & & & & a a M M a M a a a a M e :.' $.$.N o.2 2 2 2 2 2 2 2 2 2 2 2 2 2 2 2 2 2 2 2 2 2 2 2 2 2 2 2 2 2 2 2 2 2 2 2 2 2 2 2 2 2 2 2 2 2 2 2 2 2 2 2 2 2 2 2 2 2 2 2 2 2 2 2 2 2 2 2 2 2 2 2 2 2 2 2 2 2 2 2 2 2 2 2 2 2 2 2 2 2 2 2 2 2 2 2 2 2 2 2 2 2 2 2 2 2 2 2 ",
"f f f y y y y y M [ r o.J J J # 3 3 > > > > 2 2 2 2 2 2 2 2 2 2 2 2 2 2 2 2 2 2 2 2 2 2 2 2 2 2 2 2 2 2 2 2 2 2 2 2 2 2 2 2 2 2 2 2 2 2 2 2 2 2 2 2 2 2 2 2 2 2 2 2 2 2 2 2 2 2 2 2 2 2 2 2 2 2 2 2 2 2 2 2 2 2 2 2 2 2 2 2 2 2 2 2 2 2 2 2 2 2 2 2 2 2 2 2 2 2 2 2 2 2 2 2 2 2 2 2 2 2 2 3 J 3 > > > > 4.> > > 4.# 4.# > > > > > > > 3 3 > > J > J 4.J 4.J 4.# > # 3 J o.o.3Xo.3XL.fXqX#XqXjXNXB.B.B.IXNX].fX#Xw.w.w.#Xy.NXB.B.B.B.BXNXjXqX#Xw.w.x x x #XqXqXjXNXNXjXqX#X#Xw.x x x x x x x x x w.x x x x x x x x x x x w.w.w.w.x x w.w.<X<X<Xw.w.w.w.w.w.w.x w.w.w.x x x x x x x x x x x x C.x x x w.w.#X#X#XL.r.3XJ N 4.4.4.z.z.Q ~ ~ ` ` ~ ` ` R s 4.> 4.4.> 4.4.  $ J J o.N o.J J J 3 2 2 2 2 2 2 2 2 2 2 2 2 2 2 2 2 2 2 2 2 2 3 3 3 > > > J J $ J J J o.' [ M M a a y y y y y & y & & f & & f f B y B y y y y y y y a M e :.' $.o.J 3 3 2 2 2 2 2 2 2 2 2 2 2 2 2 2 2 2 2 2 2 2 2 2 2 2 2 2 2 2 2 2 2 2 2 2 2 2 2 2 2 2 2 2 2 2 2 2 2 2 2 2 2 2 2 2 2 2 2 2 2 2 2 2 2 2 2 2 2 2 2 2 2 2 2 2 2 2 2 2 2 2 2 2 2 2 2 2 2 2 2 2 2 2 2 2 2 2 2 2 2 2 2 2 2 2 2 ",
"B f B y y y y y a e ' N J J J J 3 > > > > > 3 3 3 3 3 3 3 3 3 3 3 3 3 3 3 3 3 3 3 3 3 3 3 3 3 3 3 3 3 3 3 3 3 3 3 3 3 3 3 3 3 3 3 3 3 3 3 3 3 3 3 3 3 3 3 3 3 3 3 3 3 3 3 3 3 3 3 3 3 3 3 3 3 3 3 3 3 3 3 3 3 3 3 3 3 3 3 3 3 3 3 3 3 3 3 3 3 3 3 3 3 3 3 3 3 3 3 3 3 3 3 3 3 3 3 3 3 3 3 d 3 3 J > J 3 > # > > # > > > > 3 > > > > > > > > > 4.J 4.J 4.J > 4.4.# # 3 2 J o.o.8.3XL.fXqXqXqXKXNXUXUXB.IXiX].#X<Xw.#Xw.<Xy.NXB.B.B.B.BXX.jXqX#Xw.x x x x x #X#XqXqXqXqX#X#Xw.x x x x x x x x x x x x x x x x C.x x C.x x w.<X<Xw.<Xw.<Xw.w.w.x w.w.x w.x w.x w.w.w.w.w.x w.x x x x x x x x x x x x w.x x w.#X#X<XL.r.r.Z.Z.aX,X,X,X6.6.e.e.e.e.e.6.6.,Xz.s 4.4.4.> 4.4.$ J J J o.o.o.o.o.3 3 3 3 3 3 3 3 3 3 3 3 3 3 3 3 3 3 3 3 3 3 3 3 > J $ J $ J o.J J o.N :.M y y y y y & y y f a f f f & f & f f & f & & y y & y & y y y a M :.' N J 3 3 3 3 2 2 2 3 3 3 3 3 3 3 3 3 3 3 3 3 3 3 3 3 3 3 3 3 3 3 3 3 3 3 3 3 3 3 3 3 3 3 3 3 3 3 3 3 3 3 3 3 3 3 3 3 3 3 3 3 3 3 3 3 3 3 3 3 3 3 3 3 3 3 3 3 3 3 3 3 3 3 3 3 3 3 3 3 3 3 3 3 3 3 3 3 3 3 3 3 3 3 3 3 3 3 3 ",
"B B a a a a y y a e ' N o.J J # 3 > > > > > 3 3 3 3 3 3 3 3 3 3 3 3 3 3 3 3 3 3 3 3 3 3 3 3 3 3 3 3 3 3 3 3 3 3 3 3 3 3 3 3 3 3 3 3 3 3 3 3 3 3 3 3 3 3 3 3 3 3 3 3 3 3 3 3 3 3 3 3 3 3 3 3 3 3 3 3 3 3 3 3 3 3 3 3 3 3 3 3 3 3 3 3 3 3 3 3 3 3 3 3 3 3 3 3 3 3 3 3 3 3 3 3 3 3 3 3 3 d d d d d 3 3 3 3 3 3 3 2 3 > 3 > 2 2 2 2 3 3 3 3 2 2 2 3 > > > J 4.4.# > s 3 > $ o.o.3Xo.3XL.fXqXqXKXKXNXIXUXUXNXjXfX#X<Xw.x w.#Xy.NXB.B.B.BXBXX.jXqX#Xw.x x x x x w.w.#X#X#X#Xx w.x x x C.x x x x x x x x #Xx x #Xx x #Xw.w.w.<X<X<X<X<X<Xw.w.w.x x x x x x x x w.x w.w.x w.x w.x w.w.w.x x x x x x x x x x x x #Xx #X#X<XL.L.L.&X6.6.6.| | | | | | | | | | 6.,X,Xz.4.4.4.4.4.$ 3 J o.o.o.o.o.d d 3 3 3 3 3 3 3 3 3 3 3 3 3 3 3 3 3 3 3 3 3 3 3 J $ J N $ J o.J J o.' [ a y y y y y & y y a B B f f B & f & f & & & f & y & & y & y y y a M [ ' o.d 3 3 3 3 3 3 3 3 3 3 3 3 3 3 3 3 3 3 3 3 3 3 3 3 3 3 3 3 3 3 3 3 3 3 3 3 3 3 3 3 3 3 3 3 3 3 3 3 3 3 3 3 3 3 3 3 3 3 3 3 3 3 3 3 3 3 3 3 3 3 3 3 3 3 3 3 3 3 3 3 3 3 3 3 3 3 3 3 3 3 3 3 3 3 3 3 3 3 3 3 3 3 3 3 3 3 ",
"c.M c.M a M a M a e ' N o.J J 3 > > > 3 > 2 2 2 2 2 2 2 2 2 2 2 2 2 2 2 2 2 2 2 2 2 2 2 2 2 2 2 2 2 2 2 2 2 2 2 2 2 2 2 2 2 2 2 2 2 2 2 2 2 2 2 2 2 2 2 2 2 2 2 2 2 2 2 2 2 2 2 2 2 2 2 2 2 2 2 2 2 2 2 2 2 2 2 2 2 2 2 2 2 2 2 2 2 2 2 2 2 2 2 2 2 2 2 2 2 2 2 2 2 2 2 2 2 2 2 2 d 3 d * d d d d d d d $ d d d 2 2 2 2 2 2 2 3 3 3 3 3 2 2 2 2 $ J $ 4.J > > 4.# > $ $ d o.o.o.3XL.fXqXKXq.KXjXP.IXNXjXqX#Xw.x x x w.#Xy.NXB.B.B.BXBXX.jX].#Xw.x x C.x x w.w.w.<Xw.w.x x x x x x w.w.#Xx C.x #Xx x x w.w.w.w.w.<X<X<X<X<X<X<Xw.w.w.x x C.C.C.x x x x x x w.x w.x x #Xx x x w.x w.x x x C.x x x w.x x x w.w.w.<X<X<X#XfXfX].4Xe.| | 2X2X....................K Q z.4.4.4.> 3 $ o o.o.d 7 3 d 2 2 2 2 2 2 2 2 2 2 2 2 2 2 2 2 2 2 2 2 2 3 J J $ J $ N o.J J $.:.e M M M M a a y y f f f f f & & f & f & & & & & f y y y & y y y y y y a :.N $ 2 2 3 3 3 3 3 3 2 2 2 2 2 2 2 2 2 2 2 2 2 2 2 2 2 2 2 2 2 2 2 2 2 2 2 2 2 2 2 2 2 2 2 2 2 2 2 2 2 2 2 2 2 2 2 2 2 2 2 2 2 2 2 2 2 2 2 2 2 2 2 2 2 2 2 2 2 2 2 2 2 2 2 2 2 2 2 2 2 2 2 2 2 2 2 2 2 2 2 2 2 2 2 2 2 2 ",
"e c.e M M M M M M 9 ' N o.J J 3 2 2 2 # > 2 2 2 2 2 2 2 2 2 2 2 2 2 2 2 2 2 2 2 2 2 2 2 2 2 2 2 2 2 2 2 2 2 2 2 2 2 2 2 2 2 2 2 2 2 2 2 2 2 2 2 2 2 2 2 2 2 2 2 2 2 2 2 2 2 2 2 2 2 2 2 2 2 2 2 2 2 2 2 2 2 2 2 2 2 2 2 2 2 2 2 2 2 2 2 2 2 2 2 2 2 2 2 2 2 2 2 2 2 2 2 2 2 2 2 2 2 d d d d 7 d d d 3 d J d d d d d d d d d d d d d d d 2 2 2 2 2 2 > J $ > > > # > $   d J o.o.3Xr.fXqXq.q.q.qXqXjXqXqXqXC.8XC.C.x w.#XqXNXB.B.B.BXBXXXjX].#Xw.x x x x x x x x w.w.x x x x x x x x #XC.#Xx w.x w.w.w.<Xw.<X<X<X<X<X<X<Xw.w.w.w.w.x x C.x x x x x x x x x x x w.w.w.w.x #Xx x x x x C.C.x x w.w.w.w.w.w.w.w.<X#X<X#X#X#XfX].nXe.e.2X2XK K W W W K K / ../ ......mXz.z.s s # 2   d d 7 d d d 2 2 2 2 2 2 2 2 2 2 2 2 2 2 2 2 2 2 2 2 2 3 3 J $ $ J o.J J J 8.:.9 9 e e e M M a y f f f f & f & & f & f f f f & y y y y y a a a y y y a :.o $ 2 2 3 3 3 3 3 3 2 2 2 2 2 2 2 2 2 2 2 2 2 2 2 2 2 2 2 2 2 2 2 2 2 2 2 2 2 2 2 2 2 2 2 2 2 2 2 2 2 2 2 2 2 2 2 2 2 2 2 2 2 2 2 2 2 2 2 2 2 2 2 2 2 2 2 2 2 2 2 2 2 2 2 2 2 2 2 2 2 2 2 2 2 2 2 2 2 2 2 2 2 2 2 2 2 2 ",
"c.e e e e M M M 9 :.r o.J J J 3 2 $ 2 * 3 2 2 2 2 2 2 2 2 2 2 2 2 2 2 2 2 2 2 2 2 2 2 2 2 2 2 2 2 2 2 2 2 2 2 2 2 2 2 2 2 2 2 2 2 2 2 2 2 2 2 2 2 2 2 2 2 2 2 2 2 2 2 2 2 2 2 2 2 2 2 2 2 2 2 2 2 2 2 2 2 2 2 2 2 2 2 2 2 2 2 2 2 2 2 2 2 2 2 2 2 2 2 2 2 2 2 2 2 2 2 2 2 2 2 2 2 2 3 3 d d d d * d 3 d d 3 d 3 d 3 d d 3 d 3 d 3 d 3 d 2 2 2 2 2 J $ $ > $ > > > 2     J J J o.o.3XfXqXq.q.+.+.+.y.y.qXq.q.q.C.C.C.x #XqXjXB.B.B.BXBXX.].fX#Xw.x x x x x x x x #Xx x C.x C.x C.x #XC.#Xw.w.w.w.<X<X<X<X<X<X<Xw.w.w.w.w.w.x x x x w.x x x x x x x x x x x x x x w.w.w.w.x x x C.x C.x x x w.w.w.w.w.x w.w.<X#Xw.#Xw.#XC.qXy.].4Xe.2X2XK W W W W W W K j / / / / ../ Q Q z.z.# > 2 3 # 3 d 2 2 2 2 2 2 2 2 2 2 2 2 2 2 2 2 2 2 2 2 2 2 2 $ d 3 J d J J J J N :.[ [ [ [ e e e M a a a f f f f f f f f f f f f y a a a a a M M M a a y a :.o $ $ 2 3 3 3 3 3 3 2 2 2 2 2 2 2 2 2 2 2 2 2 2 2 2 2 2 2 2 2 2 2 2 2 2 2 2 2 2 2 2 2 2 2 2 2 2 2 2 2 2 2 2 2 2 2 2 2 2 2 2 2 2 2 2 2 2 2 2 2 2 2 2 2 2 2 2 2 2 2 2 2 2 2 2 2 2 2 2 2 2 2 2 2 2 2 2 2 2 2 2 2 2 2 2 2 2 ",
"e e e M M e [ [ [ ' N o.J J 3 * 2 $ 2 * 3 2 2 2 2 2 2 2 2 2 2 2 2 2 2 2 2 2 2 2 2 2 2 2 2 2 2 2 2 2 2 2 2 2 2 2 2 2 2 2 2 2 2 2 2 2 2 2 2 2 2 2 2 2 2 2 2 2 2 2 2 2 2 2 2 2 2 2 2 2 2 2 2 2 2 2 2 2 2 2 2 2 2 2 2 2 2 2 2 2 2 2 2 2 2 2 2 2 2 2 2 2 2 2 2 2 2 2 2 2 2 2 2 2 2 2 2 2 2 d 3 d 3 d d d d 3 d d 3 d 2 d 2 3 d d 3 d 3 d 3 d 3 2 2 2 d d 2 J $ J 2 2 2 $   $ 3 J Q.o.8.3XL.qXq.q.+.+.+.C.+.+.+.q.~.~.+.C.8X#XqXjXIXB.B.BXBXX.].fX#Xw.w.w.x x x x x C.x C.C.x x x C.x x w.#Xw.<X<X<X<X<X<X<X<Xw.w.w.w.x x x x x C.x x w.x x x x w.x x x x x x x x x x w.x #Xx x w.w.w.w.w.w.w.<X<X<X<Xw.w.w.w.w.#X#X#XC.C.C.+.+.qX].nX4X2X2XK W W W W W W W W W K / ........6.~ Q z.s s * 3 2 2 2 2 2 2 2 2 2 2 2 2 2 2 2 2 2 2 2 2 2 2 2 2 2 $ 2 3 J J J $ J J o.' :.[ [ [ e e e e e M M a a y y a y a a a a a a a M e M M M e e e M M a M :.o   $ 2 2 3 3 3 3 3 2 2 2 2 2 2 2 2 2 2 2 2 2 2 2 2 2 2 2 2 2 2 2 2 2 2 2 2 2 2 2 2 2 2 2 2 2 2 2 2 2 2 2 2 2 2 2 2 2 2 2 2 2 2 2 2 2 2 2 2 2 2 2 2 2 2 2 2 2 2 2 2 2 2 2 2 2 2 2 2 2 2 2 2 2 2 2 2 2 2 2 2 2 2 2 2 2 2 ",
"e e e M M M e [ :.$.o.J o.J J 7 d 2 2 # 3 d 2 2 2 2 2 2 2 2 2 2 2 2 2 2 2 2 2 2 2 2 2 2 2 2 2 2 2 2 2 2 2 2 2 2 2 2 2 2 2 2 2 2 2 2 2 2 2 2 2 2 2 2 2 2 2 2 2 2 2 2 2 2 2 2 2 2 2 2 2 2 2 2 2 2 2 2 2 2 2 2 2 2 2 2 2 2 2 2 2 2 2 2 2 2 2 2 2 2 2 2 2 2 2 2 2 2 2 2 2 2 2 2 2 2 2 2 d 2 2 d d d 3 d 3 d d 2 2 2 $ $ d d d d d d d d d d 2 2 2 2 2 $ d d d d d d 2 $ $ $ * J J o.o.3XL.fXKXKXKX+.+.+.+.+.+.~.+.q.q.q.C.8XqXP.IXB.B.B.BXiX].#Xw.w.x w.w.x x x x C.C.C.x x w.w.w.w.<X<X<X<Xw.<X<X<X<X<Xw.w.w.w.x x C.x w.x x x x x x x x x x x x x x x x x x x x x C.x x w.w.<X<X<X<X<X<X<X<X<Xw.w.w.x x x w.#XC.C.C.+.+.+.+.q.jX].4X| 2XK W W W W W W W W W K K ............6.~ ~ ` F >   2 2 2 2 2 2 2 2 2 2 2 2 2 2 2 2 2 2 2 2 2 2 2 $ $ $ 3 # J 3 d J J o.- ' ' :.[ 9 M M M e e e e M M a a a M M M M e e 9.e 9.e e e e e e e M M 9 :.  $ $ 2 2 3 3 3 3 2 $ $ $ $ $ $ $ $ $ $ $ $ $ 2 2 2 2 2 2 2 2 2 2 2 2 2 2 2 2 2 2 2 2 2 2 2 2 2 2 2 2 2 2 2 2 2 2 2 2 2 2 2 2 2 2 2 2 2 2 2 2 2 2 2 2 2 2 2 2 2 2 2 2 2 2 2 2 2 2 2 2 2 2 2 2 2 2 2 2 2 2 2 2 2 2 2 2 2 ",
"e 9 e e 9 [ [ :.' N o.o.J o.7 J 3 d 2 # 3 d d d d d d d d d d d d d d d d d d d d d d d d d d d d d d d d d d d d d d d d d d d d d d d d d d d d d d d d d d d d d d d d d d d d d d d d d d d d d d d d d d d d d d d d d d d d d d d d d d d d d d d d d d d d d d d d d d d d d d 2 2 > > > > 2 2 2 2 $ $ $ $ $ $ $ $ $ d d d d d d 2 2 2 2 2 $ d d d d d d d 2 2 2 3 J J o.o.o.r.fXKXq.q.q.+.+.+.+.+.+.+.+.+.+.q.q.KXP.IXIXB.B.NXjXqX#Xw.x #Xx #Xx x x x x x x w.w.<Xw.w.<X<X<X<X<Xw.w.w.w.w.w.w.x x x C.x C.x x x w.w.x w.x x x x x x C.C.x C.x x x x x x w.w.w.<X<X<X<X<X<X<X<X<Xw.w.w.x x x x x C.C.8Xq.q.q.+.+.+.+.qX].nX4X| 2X../ / *X/ *X........| | | | e.e.e.e.e.e.6.` V 4.$ 2 d d d d d d d d d d d d d d d d d d d d 2 2 > $ > 3 * # 2 3 J J N N - ' :.[ 9 9 9 e e e e e M M M M M e e e e e e e e e e e e e [ e [ [ :.r N $ $ 2 2 2 2 2 2 2 2 $ $ $ $ $ $ $ $ $ $ $ $ 2 2 d d d d d d d d d d d d d d d d d d d d d d d d d d d d d d d d d d d d d d d d d d d d d d d d d d d d d d d d d d d d d d d d d d d d d d d d d d d d d d d d d d d ",
"9 9 9 [ [ [ :.' $.o.J o.o.o.3 7 # d 3 # 3 d d d d d d d d d d d d d d d d d d d d d d d d d d d d d d d d d d d d d d d d d d d d d d d d d d d d d d d d d d d d d d d d d d d d d d d d d d d d d d d d d d d d d d d d d d d d d d d d d d d d d d d d d d d d d d d d d d d d d d 2 > > > > > > 2 2 2 2 $ $ $ $ $ $ $ $ d d d d d d 2 2 2 2 2 $ d d d d d d 2 3 3 > 3 3 J J o.J 3XL.qXq.q.q.q.+.+.+.+.+.+.q.+.q.+.q.q.KXP.IXIXNXNXjXqXx w.x x x #Xx #Xw.#Xw.w.w.<X<X<X<Xw.w.w.<Xw.w.x x x x x x x x x x x C.x C.x x x w.w.x x x x x x C.C.C.x x w.w.w.w.w.w.<X<X<Xw.<X<X<X<X<X<Xw.w.w.#Xx C.C.C.C.C.C.q.+.q.q.q.+.+.+.qXqX].nXK.K.K.1X1X1X1X1X1X1X1X1X1X1X1X1X4XK.K.K.K.4XyX4X&XZ.N $ 2 d d d d d d d d d d d d d d d d d d d d 2 > 3 > $ > # # > 3 3 J J o.N N ^ ' :.[ [ e e e [ e 9 9 9 9 9 9 9 e e 9 e e e e e e e [ [ [ [ :.' - $ $ $ $ $ $ $ $ $ $ $ $ $ $ $ $ $ $ $ $ $ $ $ 2 d d d d d d d d d d d d d d d d d d d d d d d d d d d d d d d d d d d d d d d d d d d d d d d d d d d d d d d d d d d d d d d d d d d d d d d d d d d d d d d d d d d d ",
"9 9 [ [ [ ' ' $.N o.J o.o.d 3 7 # 3 3 # 3 d d d d d d d d d d d d d d d d d d d d d d d d 2 2 d d d d d d d d d d d d d d d d d d d d d d d d d d d d d d d d 2 2 2 2 d d d d d 2 d d d d d d d d d d d d d d d d d d d d d d d d d d d d d d d d d d d d d d d d d d d d d d d d d d 2 > > > > > > > 2 2 2 $ $ $ $ $ $ $ $ d d d d d d d 2 2 2 $ d d d d d d 2 > 3 # > > > 3 J o.J 3XL.7X8Xq.q.q.q.+.+.+.+.+.+.q.+.q.+.q.q.KXjXjXjX].qX8XC.x x 8Xw.w.#Xw.w.<X<X<X<X<X<Xw.w.x x w.w.x x x x x x x x x x x x x x x x x x x x x x x C.x C.C.8XC.C.x w.<X<X<X<X<Xw.<Xw.w.w.x x x x w.x w.w.w.x C.C.C.C.C.q.q.q.q.q.+.q.+.+.+.C.y.jXjXiXX.X.X.X.X.X.X.K.K.K.K.K.K.K.K.X.K.yXX.yXiXiXyX4XZ.N $ 2 d d d d d d d d d d d d d d d d d d d d 2 3 * >   $ 3 3 > > 3 # J J $ N N - ' :.:.[ [ [ [ [ [ [ [ 9 9 9 9 9 9 9 9 9 9 9 9 9 [ [ [ [ :.' N o.$ $ 2 $ $ $ $ $ $ $ $ $ $ $ $ $ $ $ $ $ $ $ $ 2 d d d d d d d d d d d d d d d d d d d d d d d d d d d d d d d d d d d d d d d d d d d d d d d d d d d d d d d d d d d d d d d d d 2 2 2 2 2 2 2 $ 2 $ $ d d d d d d d d ",
"[ [ :.:.' r - N o.J J d d d d 3 3 3 d 3 2 2 2 2 2 2 2 2 2 d 2 2 2 2 2 2 2 2 d d 2 2 2 2 2 $ $ $ 2 3 3 3 d d $ d d d d d d d 2 d J J J J d $ d d $ d d 2 2 2 $ $ $ $ 2 2 > > 2 $   $ 2 2 2 3 3 3 d d d 2 2 3 3 3 2 2 $ $ $ $ 2 $ d d d d d d 2 d 2 2 2 2 2 2 d 2 d 2 2 2 2 2 2 2 2 d 2 > > > > > > > > 2 2 2 2 2 2 $ $ $ $ $ d d d d d d d d d d d d d d d 2 2 2 > > > 4.> 4.> > > J J r.#X8Xq.q.q.q.q.+.q.q.q.q.q.q.q.+.+.+.+.q.qXqXqXqX8XC.w.w.w.<X<X<Xw.<X<X<X<Xw.w.w.w.x x x x x x x x x x x x C.x x x x x x x x x x x x x x C.C.x x x x w.w.w.w.<X<X<X<X<X<Xw.w.w.x x x x x x x x x C.C.C.+.+.+.+.+.+.q.+.+.+.+.+.+.+.qXqXjXiXNXX.X.X.X.X.X.X.X.X.X.X.X.X.X.X.X.X.X.X.X.X.X.iX4X,X4.$ $ 2 d 2 2 2 2 2 d 2 2 d 2 2 d 2 2 2 2 2 d 2 3 * 2   $ 2 > 2 2 2 3 J J $ $ $ N N r ' ' :.:.:.:.:.:.:.:.:.[ [ [ [ [ [ [ [ [ [ [ [ :.:.' ' N N J $ 2 2 2 $ $ $ $ $ $ $ 2 2 $ $ $ $ $ $ $ 2 2 $ $ 2 2 2 d 2 2 d 2 2 2 2 2 2 2 2 d 2 2 2 2 2 2 2 2 d 2 d d 2 2 2 2 2 d 2 2 d 2 2 2 2 2 2 2 2 d d d d d d d d d d d d d d d 2 $ $ $ $ $ $ $ $ $ $ $ 2 $ 2 2 2 2 2 2 3 3 3 d ",
":.' ^ - N N N $ J $ o.d d d d d d d d 3 d 2 $ $ $ $ 2 2 2 2 2 $ 2 2 2 2 2 2 2 2 2 2 2 2 > $   $ > # * 3 $     $ d d $ $ $ $ J J J J J o.N N o.o.$ $ $ 2 > $ $ $     $ > 3 3 > $     $ 3 3 3 # 3 d   $ $ 3 * * # > $ 4.$ 4.$ $ $ $ 2 $ $ 2 2 $ 2 2 2 2 $ $ 2 2 2 2 2 $ 2 $ $ 2 2 2 2 2 > > > > > > $ 2 2 2 2 d d d d d d d d d d d d d d d o.d o.d d d 2 2 2 > > > > 4.4.4.> > > 4.$ o.3XL.qXq.q.q.q.+.q.q.q.q.KXKXKXq.q.+.+.+.q.q.qXq.qXC.#X<X<X<X<X<X<Xw.w.w.w.x w.w.x w.w.x x w.x x w.x x x x x C.x x x w.x C.x x C.x x C.x #Xw.w.<X<Xw.<X<X<X<X<Xw.w.w.w.x w.x w.x x x x C.x x x C.C.+.q.+.q.+.q.+.q.+.+.~.+.+.+.+.+.+.y.qXjXiXiXX.X.X.X.X.X.X.X.X.X.X.X.X.X.X.X.X.X.X.iXX.NXX.4XR 4.$ 2 $ 2 $ 2 2 $ $ 2 2 $ 2 $ 2 2 $ $ 2 2 $ 2 2 2 2 2 $ 2 2 2 2 $ 2 d d d d $ J $   o o - - ^ r ^ r ^ r ^ ^ ' ^ ' ' ' :.:.:.:.' ' ^ ^ - N N N $ N $ 2 $ $ $ $ $ $ $ $ $ $ $ 2 $ $ $ $ $ $ $ $ 2 $ $ $ $ 2 $ 2 2 2 $ 2 $ $ 2 $ 2 2 2 2 2 $ $ 2 2 2 2 2 2 2 2 2 2 2 2 2 2 2 2 2 2 2 2 2 2 2 2 2 2 d d d $ $ d d d d d d d 2 $     $ $ 4.$ 4.N 4.N 4.J J J J J J J J 3 3 2 $ ",
"^ - N N N $ $ J $ $ $ d d d d d d d d d 2 2 2 $ 2 2 2 $ 2 $ 2 2 $ 2 2 2 $ 2 2 2 2 $ 2 2 > > $ $ > 3 3 2 $     d d d d d o.o.J J o.N N N - - - N - N N N $ $ > > > $ > > # # 3 > $   $ N $ $ 3 3 2 $ 2 2 # * 3 > > $ 4.4.$ $ $ $ $ 2 $ $ $ 2 2 $ 2 2 $ $ 2 2 $ 2 $ 2 2 $ 2 2 2 $ 2 $ 2 2 > > $ > $ 2 2 2 2 2 d d d 2 $ d d d d d d d d d d d d d d $ 2 2 > 4.> 4.> 4.> > 4.> 4.> > 3 J 3XL.#XqXqXq.q.q.q.q.q.q.q.q.KXq.q.q.q.q.q.KXq.KXq.8X#Xw.<X<X<Xw.w.w.w.x x x w.w.w.x w.x w.x x w.x x w.w.w.w.x x x x x x C.C.C.x x w.w.w.w.w.<X<X<Xw.w.w.w.w.x w.x x w.x x x x x C.C.C.C.C.C.C.C.q.+.q.q.+.q.+.q.+.q.q.q.q.q.q.q.+.qXy.fXfXfX4Xe.e.4XK.K.K.K.K.K.K.K.X.K.X.X.X.X.X.X.X.X.X.K.e.` 4.4.> 2 $ 2 2 $ 2 2 $ 2 2 $ 2 2 $ 2 2 $ 2 2 $ $ 2 2 2 2 2 2 2 2 2 $ $ 2 $ $ $ $ $                 $ N N N N   - o ^ - ^ - ^ - ^ - - o N N N $ J $ $ 2 $ 2 2 2 $ 2 2 $ 2 2 $ 2 2 $ 2 2 $ 2 2 $ 2 $ 2 2 2 $ 2 2 $ 2 $ 2 2 2 $ 2 2 $ 2 $ 2 2 2 $ 2 2 $ 2 2 2 2 2 2 2 2 2 2 2 2 2 2 2 2 2 2 2 2 2 2 $ d d J $ J $ $ $ $ $ $ $   $ $ 4.$ 4.J 4.J > J 4.$ $ J 4.J J # J $ $   $ ",
"N N N J $ J N $ $ d $ d d d d d d d d d 2 2 2 2 2 2 2 2 2 2 2 2 2 2 2 2 2 2 2 2 2 2 2 2 $ > $ > 2 2 2 $ $ $ d d d J J J J o.o.N $.$.' ' :.:.:.' ' ' r - N N J J J J 4.J J J J J J N N N J J $ $ d $ 2 # # 3 2 $ $ 4.$ 4.$ 4.J $ $ 2 2 $ $ 2 2 2 2 2 2 2 2 2 2 2 2 2 2 2 2 2 2 2 2 2 2 2 2 $ > > $ > 2 2 2 2 2 2 2 2 $ 2 2 $ $ $ $ $ d $ d d 3 2 2 > > > 4.> > 4.> > > 4.> > > > J J J Q.r.L.fX#XqXqXqXq.q.q.q.q.q.q.q.q.q.q.q.KXq.KXKXq.q.8Xw.w.w.w.x x x x C.C.x x x x x x x x x x x x x x x w.w.w.x x x x x C.x x x w.w.w.w.w.#Xw.#Xw.x x x x C.8XC.8X#XC.C.C.C.C.C.+.+.+.q.q.q.q.q.q.q.+.+.+.+.+.+.q.+.q.qXqXqXqXy.y.#XfXL.r.` ` ,X,X~ 6.6.6.e.e.e.e.e.e.e.K.e.K.K.e.K.e.4X4Xe.6.R 4.4.> 2 2 2 2 2 2 2 2 2 2 2 2 2 2 2 2 2 2 2 2 2 $ $ $ $ $ $ $ $ $ $ $ d $ $         $ $ $ $ $ $ d J J 3 J $ $ $ $ $ $ $ $ $ $ $ $ $ N $ $ J $ $ $ $ > $ > $ > $ > $ > $ > $ > $ > $ > $ > $ > $ > $ > $ > $ > $ > 2 2 2 2 2 2 2 2 2 2 2 2 2 2 2 2 2 2 2 2 2 2 2 2 2 2 2 2 2 2 2 2 2 2 2 2 2 2 2 2 d d d $ $ $ d $ $ $ $ 4.$ 4.> J > J $ > 3 J > J > > $ > J > J $ $ $ $ $ ",
"J J J $ N $ N $ $ $ $ d d d d d d d d 2 2 2 $ > $ > $ > $ > $ > $ > $ > $ > $ > $ > $ > $ $ $ 2 $     $ 2 d d 3 o.J J J J o.N $.' :.[ e M M M M 9 [ :.' r N o.J J J J N N J J J J J J J J N J $ $ $ 2 3 3 >       $ 4.$ J N $ $ $ $ 2 2 $ 2 2 2 2 2 2 2 2 2 2 2 2 2 2 2 2 2 2 2 2 2 2 $ 2 2 2 2 2 2 2 2 2 2 $ $ $ $ $ 2 2 $ > $ $ $ > 4.4.4.4.4.4.4.4.4.> 4.4.> 4.$ J J J o.N J o.o.o.o.o.3Xr.L.fX].qXqXqX+.q.+.q.+.+.q.q.q.KXq.KXq.KXKXq.q.8X8X8X8X8XC.8X8XC.8XC.8XC.C.C.C.C.C.C.C.C.C.C.C.C.x x x x x C.C.C.x x x x w.w.w.#XC.C.C.C.+.C.+.C.+.q.q.qXq.+.8X+.q.+.q.q.q.q.q.qXq.qXq.q.q.q.+.+.+.+.+.+.qX#X#Xy.fXfXfXL.L.L.3X3XJ J J 4.4.4.4.s s z.z.Q Q Q ~ ~ @ ~ ~ ~ ~ ~ ~ ~ 6.` R > 4.$ 2 2 2 2 2 2 2 2 2 2 2 2 2 2 2 2 2 2 2 2 2 2 $ $ $ $ $ $ $ $ $ $ $ $ $         $ $ $ d d d 3 3 J J J J J J J d J $ $ d J J J J d $ $ $ $ $ N $ $ $ > $ > $ > $ > $ > $ > $ > $ > $ > $ > $ > $ > $ > $ > $ > $ 2 2 2 2 2 2 2 2 2 2 2 2 2 2 2 2 2 2 2 2 2 2 2 2 2 2 2 2 2 2 2 2 2 2 2 2 2 2 2 2 d d d 2 2 2 $ > N J N 4.$ J J 3 3 3 2 2 2 2 3 * w 3 > $       $ $ > J J ",
"N $ N $ J $ $ $ $ $ $ $ d d d d d d d d 2 $ 2 $ > $ > $ > $ > $ > $ > $ > $ > $ > $ $ $     $ $ $     $ J J o.o.o.o.o.o.hX$.' :.[ M M a y y y y y a M e :.' $.$.N N $.' ' $.$.$.N hXhXJ hXJ J o.$   $ 2 2 2 $   $ 4.$ $ 4.$ $ $ $ $ 2 2 2 2 2 2 2 2 2 2 2 2 2 2 2 2 2 2 2 2 2 2 2 2 $ 2 d d d d d d d 2 $ $ $ $ $ 2 $ $ > 4.4.4.4.4.4.4.> 4.4.4.> 4.4.> 4.> $ $ $ N N o.N J o.o.o.o.o.o.o.o.o.Q.r.L.fXfXqXqX+.+.+.+.+.+.q.q.KXKXq.q.q.q.KXq.q.+.+.q.q.q.+.C.+.C.+.+.+.~.+.q.+.q.8X+.8Xq.C.q.q.+.C.C.+.+.+.C.C.C.C.C.C.C.C.+.+.q.q.q.q.q.q.+.q.q.q.q.q.q.q.q.q.q.q.q.q.q.qXqX8XqXqXqXqXqXqXy.qXqXy.y.fXfXL.L.L.r.r.3X3X3Xo.8.o.o.J J 4.^ ^ 4.4.4.4.4.4.4.s 4.z.4.z.4.4.s s s # # * > 4.  $ 2 2 2 2 2 2 2 2 2 2 2 2 2 2 2 2 2 2 2 2 2 $ $ $ $ $ $ $ $ $ $ $ $ $ $ $ $ $ $ $ $ $ $ $ $ $ $ $ $ $ $ $   $ $ $   $ $ d d $ $ $ $ $ N $     $ $ 2 $ 4.2 > 4.2 > 4.2 > 4.2 > 4.2 > 4.2 > 4.2 > 4.2 > 4.2 > $ > $ > $ > $ > $ > $ > $ > $ > $ > $ > $ > $ > $ > $ > $ > $ > $ > $ > $ > $ > $ 2 2 2 2 2 2 2 $ 4.$ 4.N 4.J J 3 # 3 2 2 $ d d d 3 3 2 3 3 3 2 $ $ $ N N N ",
"$ J $ J $ $ N $ $ d $ $ $ $ $ $ d d d $ $ $ > $ > $ $ 4.$ $ $ 4.$ $ $ 4.$ $ $ 4.$ $ > $     $ $       J J o.N r r $.$.$.' ' :.e M y y y y y y y y y y a M e [ :.' ' :.[ [ [ [ :.:.$.$.hXJ hXo.J o.$ d $ $ $ $ 2 $ $ $ 4.J 4.$ $ $ 2 d 2 2 2 $ $ $ $ $ $ $ $ $ $ $ $ $ $ $ $ $ $ $ $ $ $ d d d d d d d $ $ $ $ $ 2 $ $ > 4.$ 4.$ 4.4.> 4.4.4.4.> 4.> $ $ $ $ $ o.o.o.J o.J o.J J J hXo.o.o.d d o.J Z.r.fXqXqXqX+.+.+.+.+.q.q.KXKXq.q.q.q.q.q.q.+.+.+.+.+.+.+.+.+.q.+.+.+.+.+.+.+.+.q.+.q.q.q.q.q.q.q.q.q.q.q.+.+.+.+.+.+.q.q.q.q.q.q.q.q.q.q.+.+.+.q.q.q.q.q.q.q.q.q.+.q.+.+.C.qXC.qXqXqXy.y.].].].].].fX&X&Xr.r.r.r.Z.Z.V J N o.J J N N N 4.4.4.4.4.4.4.4.4.4.4.4.4.4.4.4.4.4.4.$ > N $ $ $ $ $ $ $ $ $ $ $ $ $ $ $ $ $ $ $ $ $ $ $ $ $ $ $ $ $ $ $ $ $ $ $ $ d d d d $ $ $ $ $ $ $ $ $ $                   $ $ d d J 3 $ J $ $ $ $ $ $ $ $ $ $ $ $ $ $ $ $ $ $ $ $ $ $ $ $ $ $ $ $ $ $ $ $ $ $ $ $ 4.$ > $ $ $ > $ $ $ > $ $ $ > $ $ $ > $ > $ > $ > $ > $ $ > $ $ > $ $ > $ $ > $ 2 2 2 > > > > > $ > N J 4.N $ $ 3 3 3 d d d d * d d d d d d J J J J N N N N ",
"J J d d $ $ $ $ $ J $ $ $ $ $ $ $ d d $ $ $ $ $ $ $ $ $ $ $ 2 $ $ $ 2 $ $ $ 2 $ $ $ $ $ $ $ d $     $ o.o.N ' :.:.:.:.:.e e M a y y y & y B B f f & y y a a a M M M M a a a M M M [ ' $.$.$.o.J J J o.d $ $ 2 2 2 $ N $ $ $ $ $ 2 d d d 2 2 $ $ $ $ $ $ $ $ $ $ $ $ $ $ $ $ $ $ $ $ 2 $ d d d d d d d $ $ $ $ $ $ 4.$ 4.4.4.4.4.4.$ 4.4.> 4.2 $ $ $ $ o.o.o.o.o.V J J o.o.J 3XJ V J o.J 3 3 d   o.o.3XL.fXqXqXq.+.+.+.+.+.q.KXq.q.q.q.q.+.+.+.+.+.+.+.+.+.+.+.+.+.+.+.+.+.+.+.+.+.+.q.q.8Xq.KXKXq.q.q.q.q.q.q.q.q.q.q.q.q.q.q.q.q.$Xq.q.q.+.+.+.+.+.+.+.+.+.q.+.q.+.q.+.+.+.qXqXqXy.y.jXjXiXiXX.iXX.K.K.4X4Xe.4X4Xe.e.6.6.6XZ.J o.hXo.o.N N N J J 4.4.4.4.4.4.4.> 4.^ 4.> > $   $ J J d $ $ $ $ $ $ $ $ $ $ $ $ $ $ $ $ $ $ $ $ $ $ $ $ $ $ $ $ $ $ $ $ $ $ $ $ $ $ $ $ $ $ $ $       $ $ $ $ $ $ $ $ $ $ $ $ $ d 3 $ d d d $ $ $ $ $ $ $ $ $ $ $ $ $ $ $ $ $ $ $ $ $ $ $ $ $ $ $ $ $ $ $ $ $ $ $ $ $ $ $ $ > $ $ $ $ $ $ $ > $ $ $ $ $ 2 2 2 2 2 2 2 2 $ $ $ $ $ $ $ $ $ $ $ $ $ $ > 2 > > > > > > $ 4.$ 4.$ N   $ d d d d d d d d d o.d o.o.o.o.o.J hXhXhXZ.hX",
"3 3 J $ d $   $ $ $ $ $ $ $ $ $ $ $ $ $ $ $ $ $ $ $ $ $ $ $ $ $ $ $ $ $ $ $ $ $ $ $ $ $ d d d d d o.o.o.N ' :.9 M M M M a a y y y y & y f B B f f & & & & & y y y y y y y y y f y B e e :.' $.o.J J J o.$ $ $ d J $ > $ J 4.$ 2 2 2 d d 2 2 $ $ $ $ $ $ $ $ $ $ $ $ $ $ $ $ $ $ $ $ 2 $ d d d d d d d d $ $ $ > $ $ $ 4.$ 4.4.$ 4.4.4.4.$ > N $ J d o.d o.o.o.o.3XQ.o.o.o.o.o.o.o.o.o.N d 3 J $ o.o.o.r.fXqXKXqXKXqXq.+.qX+.q.q.q.q.q.+.+.+.+.+.+.+.+.+.+.+.+.+.+.+.+.+.+.+.+.+.+.+.+.q.q.q.$XKXq.q.q.q.q.q.KXq.q.q.q.q.q.q.q.q.q.q.q.q.q.+.+.+.+.+.+.+.+.+.+.+.+.+.+.+.qX+.qXy.jXjXjXiXX.X.X.X.BXX.X.X.X.X.X.X.K.K.K.K.K.4X6.Z.J o.o.o.J N J J N J J $ $ > 4.> 3 $   $ 3 J d   N o.o.d $ $ $ $ $ $ $ $ $ $ $ $ $ $ $ $ $ $ $ $ $ $ $ $ $ $ $ $ $ $ $ $ $ $ $ $ $ $ $ $ $ $ $ $ $     $ d 3 3 3 d d d d d d d d 3 3 d d 3 d $ $ $ $ $ $ $ $ $ $ $ $ $ $ $ $ $ $ $ $ $ $ $ $ $ $ $ $ $ $ $ $ $ $ $ $ $ $ $ $ $ $ $ $ $ > $ $ $ $ $ > $ $ 2 2 2 2 2 2 2 2 2 $ > $ $ $ $ > $ $ $ > $ $ 2 > > > > > $ > > $ $ $ $ $ $ $ d d d d d d o.d o.o.J o.o.o.hXhXhXx.6X6Xf.f.",
"$ $ $ $ $       $ $ d $ d $ $ $ $ $ $ $ $ $ $ $ $ > $ $ $ $ $ $ $ $ $ $ $ $ $ $ $ $ 2 d d 3 d d d o.o.N ' :.9 a y y y y y & & & & f f & f f f f f f & f f f f f & & & & y y f & & f a a e [ :.$.o.J J J $ $ $ d d $ J N > $ $ 2 2 2 d d 2 2 $ $ $ $ $ $ $ $ $ $ $ $ $ $ $ $ $ $ $ $ 2 d d d d d d d d d 2 $ $ $ $ 4.$ $ 4.$ 4.4.> 4.$ > 4.4.4.$ $ $ d d o.d o.o.o.o.o.o.8.o N N N N N N N J J J o.o.0Xr.fXqXjXqXKXqXKXq.q.+.q.q.+.+.+.+.+.+.+.+.+.+.+.+.+.+.+.+.+.+.+.+.+.+.+.+.+.+.q.+.q.q.KXq.q.q.q.+.q.+.+.+.+.+.+.+.+.q.q.q.q.q.q.q.+.+.+.+.+.+.+.+.+.+.+.+.C.+.qXy.qXjXjXjXNXNXiXX.X.X.BXX.BXXXBXXXBXXXXXXXXXXXXXXXX.K.4X6.` Q.Q.o.o.J hXJ J N J N $ N $ 3 >       J J o.N o.$ o.o.$ $ $ $ $ $ $ $ $ $ $ $ $ $ $ $ $ $ $ $ $ $ $ $ $ $ $ $ $ $ $ $ $ $ $ $         $ $ $ $ $ d $ d 3 3 J 3 3 3 3 3 3 3 3 3 d d 3 d 2 $ d d $ $   $ $ $ $ $ $ $ $ $ $ $ $ $ $ $ $ $ $ $ $ $ $ $ $ $ $ $ $ $ $ $ $ $ $ $ $ > $ $ $ $ $ $ $ $ $ $ $ $ 2 2 2 2 2 2 2 2 $ $ $ $ $ > $ $ $ $ $ $ $ $ > $ > > > > 2 2 2 2 2 $ $ d d d $ o.N o.o.o.o.o.o.hXhXhXhXx.hXx.x.{.f.M.M.M.",
"$ $ $     $ $ $ $ $ J $ d $ $ $ $ $ $ $ $ $ $ $ $ $ $ $ $ $ $ $ $ $ $ $ $ $ $ $ $ $ 2 $ d d d d J J o.r :.e M y y y y & y & & y f & f & B f f f & f f f f f f f f f & & f f f y & & y y a a e :.$.o.J o.o.o.o.d J $ $ $ $ $ 2 2 2 2 d d 2 2 $ $ $ $ $ $ $ $ $ $ $ $ $ $ $ $ $ $ $ $ 2 d d d d d d d d d $ J $ $ $ $ $ 4.$ $ 2 2 2 2 > > > 4.4.4.> > 2 d d d d o.o.o.o.o.V J V V Z.Z.Z.Z.J J N o.hXhX0Xr.fX].qXqXqXKXKXKXKXKX+.q.q.+.q.+.q.+.+.+.+.+.+.+.+.+.+.+.+.+.+.+.+.q.q.+.q.q.+.q.q.q.q.q.q.+.+.+.+.+.+.+.+.+.+.+.+.+.+.+.+.+.+.+.+.+.+.+.+.+.+.q.+.q.q.q.qXKXKXjXP.NXNXNXX.X.X.BXX.X.XXXXXXXXXXXXN.XXN.XXN.XXN.XXXXXXK.K.e.6.g.Q.o.o.J hXJ J N J N $ $ J $     $ J J o.o o.o.d o.d $ $ $ $ $ $ $ $ $ $ $ $ $ $ $ $ $ $ $ $ $ $ $ $ $ $ $ $ $ $ $ $ $ $ $ $     $ $ $ $ $ 2 2 $ d 3 3 d 3 d 3 d d d d d d d d d d 2 2 d d d d d 2 $ $ $ $ $ $ $ $ $ $ $ $ $ $ $ $ $ $ $ $ $ $ $ $ $ $ $ $ $ $ $ $ $ > $ $ $ > $ $ > $ $ > $ $ $ $ 2 2 2 2 2 $ $ $ $ $ $ $ $ $ $ $ $ > $ $ $ $ $ $ 2 2 2 $ 2 2 d d d d d d J o.o.N o.hXhXhXhXhXhXAXl.x.x.{.f.f.h.f.h.uXuXuX",
"$ $ $ $ $ $ d d $ $ $ $ $ d $ d $ d $ d $ $ $ $ $ $ $ $ $ $ $ $ $ $ $ $ $ $ $ $ $ $ 2 $ d d d o.J o.N ' [ M a a y y y & & & f f f f f f f f B f f f f f f B f f f f f & f f f f & & f y y y a [ ' $.o.o.o.d J J d $ J $ $ $ 2 2 2 d d d 2 2 $ $ $ $ $ $ $ $ $ $ $ $ $ $ $ $ $ $ $ $ 2 d d d d o.d d d $ $ $ $ J $ $ $ $ $ $ $ $ $ $ 2 > 4.4.4.4.4.> > 2 2 d d d 7 V Z.` 6.6.&X6.6.&Xe.6.,XaXJ hXhX3X3Xr.fX].qX].qXKXP.KXKXKXKXKXKX+.qX+.qXq.q.q.q.q.q.q.q.+.q.+.q.q.q.q.q.q.q.q.q.q.q.+.+.+.q.+.+.+.+.+.+.+.+.+.+.+.+.+.+.+.+.+.+.+.+.+.+.+.q.qXq.q.qXq.q.q.KXKXP.P.IXIXIXIXB.BXBXBXBXX.X.BXXXBXXXXXN.N.N.N.N.N.N.N.N.N.N.N.XXXXK.e.~ Q.o.o.o.o.J o.J o.o.$ J d d $ $ d J J d o o.o.o.o.d $ $ $ $ $ $ $ $ $ $ $ $ $ $ $ $ $ $ $ $ $ $ $ $ $ $ $ $ $ $ $ $ $ $ $ $ $ $ $ $ $ $ $ $ $ $ d 3 3 d d 3 d d 3 d d d d 2 d d d d d d d d d d d $ $ $ $ $ $ $ $ $ $ $ $ $ $ $ $ $ $ $ $ $ $ $ $ $ $ $ $ $ $ $ $ $ $ $ $ $ $ $ $ $ $ $ $ $ > $ $ 2 2 2 2 2 $ $ $ $ $ $ $ $ $ $ $ $ $ $ $ $ $ $ $ $ $ $ 2 2 2 d d d d d o.o.o.hXhXhXhXx.x.x.x.OXOXOXm.m.f.h.h.5X5Xn.n.G.G.",
"d d $ d d d d 3 d $ d $ J $ $ J d $ J $ 2 $ $ $ $ $ $ $ $ $ $ $ $ $ $ $ $ $ $ $ $ $ $ d d d d d J o.- :.[ M a M a y y f f f f f f f & f f B f f f f f & f & f f B f f & & & f f f f y y y y y M [ r N o.o.o.d J d $ $ $ $ 2 2 2 d d d d d 2 $ $ $ $ $ $ $ $ $ $ $ $ $ $ $ $ $ $ $ $ 2 d d d d d       $ $ $ $ N $ J N $ o.$ d d d d d $ $ 4.4.4.4.$ $ $   $ 3 V ` ~ 6.e.e.e.e.e.e.4X4X4X6.,XZ.Z.hX3X3XL.fX].].qXy.KXKXP.P.P.KXKXKXKXqXKXqXq.qXq.qXq.qXq.q.q.q.q.q.q.q.q.q.q.8Xq.8Xq.8Xq.+.+.+.q.+.q.+.+.+.+.+.+.+.+.+.+.+.+.+.+.+.+.+.+.q.q.qXqXqXqXqXqX7XqX7XqXP.IXUXUXUXB.B.B.B.BXBXBXBXBXBXBXBXBXBXBXBXBXN.BXN.N.N.N.N.XXN.XXX.K.e.` J N N N o.o.N J J J $ $ J d d J d d d o.d d d d d $ $ $ $ $ $ $ $ $ $ $ $ $ $ $ $ $ $ $ $ $ $ 2 $ $ $ $ $ $ $ $ $ $ $ $ $ $ $ $ $ $ $ $ $ $ 2 d d d d 3 d d d d d 2 d d d d d d d d 3 d 3 3 3 3 $ $ $ $ $ $ $ $ $ $ $ $ $ $ $ $ $ $ $ $ $ $ $ $ $ $ $ $ $ $ $ $ $ $ > $ $ $ > $ $ $ > $ $ $ $ 2 2 2 2 2 2 2 $ $ $ $ $ $ $ $ $ $ $ $ $ $ J $ $ N   $ $ $ $ $ d J J J o.J hXhXx.6Xx.{.f.f.f.f.f.m.m.n.n.n.5Xn.n.n.G.G.G.Z ",
"d d d d d d $ $ $ $ $ $ $ $ d $ $ $ $ $ d $ $ $ $ $ $ $ $ $ $ $ $ $ $ $ $ $ $ $ $ $ $ d d d d o.d N r :.9 M M M M M a a v a f f f f & f f f f & f & & f & & & & f f f & & & f f y y a a y y y a e :.- o.o.o.d d d d $ d $ $ d d d d d d d d $ $ $ $ $ $ $ $ $ $ $ $ $ $ $ $ $ $ $ $ d d   d $   - - -   $     $ J $     o   d o o o o o.o.N N N N N $ N ^ $ V ` e.e.e.e.e.| | | 2X2X2X| | e.e.6.6XZ.3Xr.fXfXqXqXy.y.KXKXP.P.P.P.P.P.P.KXP.KXKXKXqXqXqXqXqXq.qXq.8Xq.8Xq.8Xq.8Xq.8Xq.q.q.q.q.q.q.q.q.q.q.+.q.+.+.q.q.q.q.+.+.+.+.q.+.+.q.q.KXKXwXKXwXwX7X7X>XtXfXwXNXIXIXB.B.B.B.B.B.B.B.BXB.BXB.BXB.BXB.BXBXB.BXBXBXXXXXXXN.XXXXXXX.K.e.V N N N N o.o.J J J     $ $ $ d d d d d d o.d d d d $ $ $ $ $ $ $ $ $ $ $ $ $ $ $ $ $ $ $ $ $ $ $ $ $ $ $ $ $ $ $ $ $ $ $ $ $ $ $ $ $ $ $ $ $ $ d 3 d d d d d d d d d d d d d d d d d d d d d d $ $ $ $ $ $ $ $ $ $ $ $ $ $ $ $ $ $ $ $ $ $ $ $ $ $ $ $ $ $ $ $ $ $ $ $ $ $ $ $ 2 $ $ $ 2 $ $ $ d d d d d $ $ $ $ $ $     $ $ $ $   $ J J $ $ o o   N N N o.J J J hXhXhXx.6XM.M.M.M.h.%.uXuXuXn.n.n.n.n.n.n.Z n.Z Z Z Z ",
"d d d d d d $ $ $ $ $ $ $ $ $ $ $ $ $ $ $ $ $ $ $ $ $ $ $ $ $ $ $ $ $ $ $ $ $ $ $ $ $ 2 d d d d o.o ' :.[ M M e M a T M a T a B B B B B f y & & & & f f f & & & y y y a a a a a a a a a M y y a M :.- o.o.d d $ $ $ $ $ $ $ $ d d d d d d d $ $ $ $ $ $ $ $ $ $ $ $ $ $ $ $ $ $ $ $ d $   $ 3 $   $   $ J N N 4.N J N N N N o o o 8.o o.o.J J N N N - ^ N V 6.e.4X4XK.e.| | | ........2XsX| e.e.e.&X&XfX].].].y.y.y.y.y.KXP.P.P.P.P.P.P.P.MXP.MXKXKXKXKXKXKXKXKXKXKXKXKXKXKXKXKXKXKXKXKXKXKXKXKXKXq.KXq.KXq.q.q.q.q.KXq.KXKXKXKXKXKXKXKXP.wXwXwXwXwXwXnXM.M.M.f.&XbXnXyXyXX.X.BXB.B.B.B.B.B.B.B.B.B.B.B.B.B.B.B.BXB.BXBXBXXXBXBXBXXXX.4X~ J N o N N N $ J J d $ $ $ $ d d d d d d d d d d d $ $ $ $ $ $ $ $ $ $ $ $ $ $ $ $ $ $ $ $ $ $ $ $ $ $ $ $ $ $ $ $ $ $ $ $ $ $ $ $ $ $ $ $ $ d d d d d d d d d d d d d d d d d d d d d d d d d $ $ $ $ $ $ $ $ $ $ $ $ $ $ $ $ $ $ $ $ $ $ $ $ $ $ $ $ $ $ $ $ $ $ $ $ $ $ $ $ $ $ $ $ $ $ $ d d d d d d d $ $ $ $ $ $ $ $ $ $     $ d d $   J J N N o.o.J o.hXhXhXAXx.6Xf.M.M.h.5X5X5XuXuX5Xn.n.n.n.n.n.n.Z n.Z gXZ Z ",
"d d d d d d d d $ $ $ $ $ $ $ $ $ $ $ $ $ $ $ $ $ $ $ $ $ $ $ $ $ $ $ $ $ $ $ $ $ $ $ d d d d o.d o r :.[ 9 9 e M M M M c.M M T a B a a y y y y y y y y y y y y y y a a a M M M M M M M M a a a M :.- o.o.d d   $ $ $ $ $ $ $ d d d d d d d $ $ $ $ $ $ $ $ $ $ $ $ $ $ $ $ $ $ $ $ $   -   2 $ $ $ 4.4.J 4.N 4.N N 4.N N N N o.N o.N N N o.J J J N N - N Z.6.e.K.K.K.K.K.K.1X1X| 2X2X..sX| | e.e.e.e.nX].].y.y.y.y.y.y.y.KXP.P.P.P.P.P.P.P.P.P.P.P.P.P.KXP.KXP.KXP.KXP.MXKXMXKXKXKXKXKXP.KXP.KXKXKXKXKXKXKXKXKXKXKXKXKXKXKXP.P.P.P.P.P.MXwXwXwXyX-X-X-XV.M.bXbXf.bXbX&X&X4X4XK.K.X.X.X.BXNXBXB.B.B.B.B.B.B.B.B.B.B.B.B.BXBXBXBXBXBXBXX.e.Z.J o N $ $   $ d 3 2 $ $ $ $ d d d d d d d d $ $ $ $ $ $ $ $ $ $ $ $ $ $ $ $ $ $ $ $ $ $ $ $ $ $ $ $ $ $ $ $ $ $ $ $ $ $ $ $ $ $ $ $ $ $ $ $ d d d d d d d d d d d d d d d d d d d d d d d d $ $ $ $ $ $ $ $ $ $ $ $ $ $ $ $ $ $ $ $ $ $ $ $ $ $ $ $ $ $ $ $ $ $ $ $ $ $ $ $ $ $ $ $ $ $ $ $ d d d d d $ $ $ $ $ $ $ $ d $ $     $ N J $ o.J J o.N N J hXAXAXAXx.m.f.f.h.h.5Xn.n.n.n.G.n.n.n.n.n.n.n.n.n.n.Z n.G.Z Z ",
"d d d d d d d d $ $ $ $ $ $ $ $ $ $ $ $ $ $ $ $ $ $ $ $ $ $ $ $ $ $ $ $ $ $ $ $ $ $ $ $ d d d d $ N - ' :.[ [ 9 e M e e M e c.M M a a a y y y y y y a a a a a a a a a M M e e e e e e M e M a M e ' - o.o.d d d $ $ $ $ $ $ $ d d d d d d $ $ $ $ $ $ $ $ $ $ $ $ $ $ $ $ $ $ $ $ $ $   - o $ $ 4.J 4.4.J 4.AX4.zX^ AXAXJ AXN J J J J N N N J hXJ J N N N V ` e.K.X.iXX.X.X.X.K.K.1X1X| | 2X| | | e.e.e.].].].y.y.y.y.y.y.y.y.P.P.P.P.P.P.P.P.P.P.P.P.P.P.P.P.P.P.P.P.P.P.P.P.P.P.P.P.P.P.P.P.P.P.P.P.P.P.P.P.P.P.P.P.P.P.jXP.KXP.P.P.NXNXPX;XH.-X-XI.I.I.I.d.j.d.bXbXbX&X&Xr.6.6.6.&Xe.nXnXnXyXiXiXiXX.iXX.NXBXNXBXBXBXBXBXBX@XBXB.B.X.4X` J N   J J   o $ d d $ $ $ $ $ $ d   d   d $ d $ $ $ $ $ $ $ $ $ $ $ $ $ $ $ $ $ $ $ $ $ $ $ $ $ $ $ $ $ $ $ $ $ $ $ $ $ $ $ $ $ $ $ $ $ $ $ d d d d d d d d d d d d d d d d d d d d d d d d $ $ $ $ $ $ $ $ $ $ $ $ $ $ $ $ $ $ $ $ $ $ $ $ $ $ $ $ $ $ $ $ $ $ $ $ $ $ $ $ $ $ $ $ $ $ $ $ d d d d d $ $ $ $ $ $   $ $ $ $       $ $ J $ $ o.J o.N hXAXhXx.m.f.f.h.n.n.n.n.n.G.n.G.n.G.G.n.n.n.n.n.n.n.n.n.Z n.n.G.",
"d d d d d d d d $ $ $ $ $ $ $ $ $ $ $ $ $ $ $ $ $ $ $ $ $ $ $ $ $ $ $ $ $ $ $ $ $ $ $ $     $ $ o.J N - ' :.[ [ e e e e e e M M M M a a a a a y M a M M M M M M M M M M e M e e e e e e e e M 9 [ ' o o.d d d   d   d $ $ $ $ $ $ d d d $ $ $ $ $ $ $ $ $ $ $ $ $ $ $ $ $ $ $ $ $ $ $ $ $ $ J $ 4.4.^ ^ 4.AXzXzXzXzXAXaXaXaXaXZ.Z.Z.hXhXN hXN N N $.N ^ N J ` &XiXNXNXX.iXX.X.X.X.K.K.K.K.1X1X| | e.e.e.4X].].y.y.y.y.y.y.y.y.jXjXP.P.P.P.P.P.P.P.P.P.P.P.P.P.P.P.P.P.P.P.P.P.P.P.P.P.P.P.P.P.P.P.P.P.P.P.P.P.MXNXwXjXjXjXjXjX].jXjXjXNXPXPX;X;XH.I.H.a.a.a.a.E.a.I.I.j.nX&X&Xr.r.Q.J Z.r.r.r.r.r.r.` ` ~ ~ 6.6.6.e.e.4XK.K.K.X.X.@XNXiXe.` J   $ J J $     $ $ 2 $ $ $ $ $ $ 2 2 2 2 d d $ $ $ $ $ $ $ $ $ $ $ $ $ $ $ $ $ $ $ $ $ $ $ $ $ $ $ $ $ $ $ $ $ $ $ $ $ $ $ $ $ $ $ $ $ $ $ d d d d d d d d d d d d d d d d d d d d d d d d $ $ $ $ $ $ $ $ $ $ $ $ $ $ $ $ $ $ $ $ $ $ $ $ $ $ $ $ $ $ $ $ $ $ $ $ $ $ $ $ $ $ $ $ $ $ $ $ d d d d d $ $ $ $ $ $       $ $   N   N $ J J N N N hXhXAXx.x.f.f.h.n.n.n.n.G.{ Z n.Z Z , n.n.n.n.n.n.n.n.G.n.G.n.{ n.G.",
"$ $ $ $ d d d d d d d d d d d d d d d $ $ $ $ $ $ $ $ $ $ $ $ $ $ $ $ $ $ $ $ $ $ $ $         $ d J J N - ' :.:.[ [ [ [ e e e e e e e e M 9 9 9 9 9 e [ e [ e e e e e e e e e e e [ [ [ e 9 9 [ :.r o o.d d $ $ $ d $ $ $ $ $ $ d d d d $ $ $ $ $ $ $ $ $ $ $ $ $ $ $ $ $ $ $ $ $ $ $ $ 2 J N N N 4.^ zXAXAXaXAXaXaX6XbXbX&XbXbXbXbX&X6X6XZ.Z.hX$.$.$.N AXJ Z.&XyXiXiXX.iXX.iXX.X.X.X.X.X.X.K.K.K.K.e.4XK.].].].y.y.y.y.y.y.y.y.jXy.P.P.P.P.P.P.P.P.P.P.P.P.P.P.P.P.P.P.P.P.P.P.P.P.P.P.P.P.NXP.NXP.P.P.P.P.P.jXjXjXqX].qX].].].].jXjXNXPXPXPXPX@X;X;X;X1.1.1.1.1.1.@XyXiXiXiXnX&Xr.hXo.hXhXhXhXJ o.N N   $ 3 # 3 s F R ` ~ 6.6.e.e.4Xe.6.V N o $ J J $     $ $ d $ $ $ $ $ $ $ $ $ $ $ d $ $ $ $ $ $ $ $ $ $ $ $ $ $ $ $ $ $ $ $ $ $ $ $ $ $ $ $ $ $ $ $ $ $ $ $ $ $ $ $ $ $ $ $ $ $ $ $ $ $ $ $ $ $ $ $ $ $ $ $ $ $ $ $ $ $ $ $ $ $ $ $ $ $ $ $ $ $ $ $ $ $ $ $ $ $ $ $ $ $ $ $ $ $ $ $ $ $ $ $ $ $ $ $ $ $ $ $ $ $ $ $ $ $ $ $ $ $ $ d d d d d $ $ $ $ $ $   o     $   $ N $ N N N N $.hXAXx.x.m.f.h.h.n.n.n.G.gXZ Z Z gXZ gXgXZ gXZ n.n.n.G.n.G.n.G.n.G.n.G.",
"$ $ $ $ $ d d d d d d d d d d d d d d d $ $ $ $ $ $ $ $ $ $ $ $ $ $ $ $ $ $ $ $ $ $ $ $ $ $ $ N J N $ $ N - r ' :.:.:.[ [ [ e e e e e [ e 9 9 9 9 9 [ [ [ :.e :.e e e e e e e e e [ [ [ 9 9 [ [ ' - N d d d $ $ $ $ $ $ $ $ $ $ d d d d $ $ $ $ $ $ $ $ $ $ $ $ $ $ $ $ $ $ $ $ $ $ $ o.$ N ^ ^ N aXAXAXaX6X6X6XbXbXj.j.4Xj.j.4Xj.yXj.4X&X&X&X6X6XZ.Z.AXAXaXZ.6X4X4XyXK.K.yXyXX.iXX.X.X.X.X.X.X.X.K.K.K.iXjX].].y.y.y.y.y.y.y.y.y.y.y.y.jXP.jXP.P.P.P.P.P.P.P.P.P.P.P.P.P.P.P.P.P.P.P.P.P.P.P.P.P.P.P.P.P.KXjXqXqXqX].qX].].].].].jXiXNXNXPXPXPX@X@X@X@X@X .@X@X@X@X@X@X@X@XNXNXiX&XZ.N N 4.4.N N $ $ $ d J J J d d d o.d J J V V V V V V o.- o   $ $ $ $ d $ $ $ $ $ $ $ $ $ $ $ $ $ $ $ $ $ $ $ $ $ $ $ $ $ $ $ $ $ $ $ $ $ $ $ $ $ $ $ $ $ $ $ $ $ $ $ $ $ $ $ $ $ $ $ $ $ $ $ $ $ $ $ $ $ $ $ $ $ $ $ $ $ $ $ $ $ $ $ $ $ $ $ $ $ $ $ $ $ $ $ $ $ $ $ $ $ $ $ $ $ $ $ $ $ $ $ $ $ $ $ $ $ $ $ $ $ $ $ $ $ $ $ $ $ $ $ $ $ $ $ $ $ $ d d d d d $ $ $ $ $ $   o     $ $ N   N   N N AXAXAXx.x.f.h.h.n.n.n.n.Z gXZ gXgXgXZ gXgXgXgXgXgXZ Z gXZ gXZ Z gXZ Z Z G.",
"$ $ $ $ $ $ d d d d d d d d d d d d d d $ $ $ $ $ $ $ $ $ $ $ $ $ $ $ $ $ $ $ $ $ $ $ $ $ N $ $       N $   o - r ' ' :.:.[ [ [ [ [ 9 [ [ 9 9 9 9 e [ e [ e e e e e e e e e e [ [ 9 9 9 9 9 :.' r N o.d d $ $ $ $ $ $ $ $ $ o.$ $ o.  d $ $ $ $ $ $ $ $ $ $ $ $ $ $ $ $ $ $ $ $ $ $ $ $ N N ^ $.Z.6X6X6X6XbXbXbXbXj.j.j.j.j.j.j.j.j.yXj.j.j.j.&XbXbXbXbX6X6X6X6X6X6X6.6X6.bX4X4X4XyXyXyXX.X.X.X.X.X.iXiXiX].].].y.y.y.y.y.y.y.y.y.y.y.y.y.y.jXP.P.P.P.P.P.P.P.P.P.P.P.P.P.P.P.P.P.P.P.P.P.NXP.P.P.P.P.P.P.jXqXqXy.y.y.].qX].].].fX].nXjXiXiX@XiX@X@X@X@X@X1.;X;X;XiX@X@XiX@X@XiXyX&XZ.N 4.  4.      $ $ $ $ $ $ o.o.o.o.o.8.o.o.J 2 $ $ $   o o     o   $ d d $ $ $ $ $ $ $   $ $ $ $ $ $ $ $ $ $ $ $ $ $ $ $ $ $ $ $ $ $ $ $ $ $ $ $ $ $ $ $ $ $ $ $ $ $ $ $ $ $ $ $ $ $ $ $ $ $ $ $ $ $ $ $ $ $ $ $ $ $ $ $ $ $ $ $ $ $ $ $ $ $ $ $ $ $ $ $ $ $ $ $ $ $ $ $ $ $ $ $ $ $ $ $ $ $ $ $ $ $ $ $ $ $ $ $ $ $ $ $ $ $ $ $ $ $ $ $ $ $ $ $ $ d d d d $ $ $ $ $ $ $       $ N $ N N   N N N AXAXx.m.f.h.h.h.n.n.gXgXgXZ gXgXZ gXgXgXgXgXgXgXgXgXgXZ gXZ gXZ gX{ gXgXZ ",
"            $ $ $ $ $ $ $ $ $ $ $ $ $ $                                               $ $ J 4.J N o     $ $ $ $ o - r ' :.:.[ [ [ 9 9 9 [ [ [ 9 [ 9 [ [ e e e e e e e [ e [ [ [ [ [ 9 [ [ :.' ' N N $ d $   $ $ $ $       $         $ $   $                                           o.J N $.hX6X4XbX4Xj.j.j.j.j.j.j.j.( ( ( ( j.j.j.j.j.j.j.j.j.j.j.j.bXbXbXbX6XbX6XbX6X6XbXbXbX4X4X4X4X4X4XnXyXiXiXjXjXjX].y.y.y.y.y.y.y.y.y.y.y.y.y.y.y.jXjXjXP.P.P.P.P.P.P.P.P.P.P.P.P.P.NXP.NXP.NXP.P.P.P.P.P.P.KXjXy.y.y.y.qXy.y.].].fXfXL.r.&X&X&XnX4XnX4Xj.yXj.j.j.yXyXyXyXyXyXyXiXyXiXnX6XhX$.$ $ $     $ $ $ 4.4.N N $ o.o.8.o.o.o.o.d > 4.$ $ $ d d $   o o $ d $   $ $     $             $                                                                                                                                                                                                                                                 $ $ $ $ $               $ $ $ J $ $ N o o N N AXx.m.f.h.h.h.n.n.gXgXZ gXZ gXZ gXgXgXgXgXgXGXGXgXgXgXgXgXgXgXgXgXgXgXgXgX",
"            $ $ $ $ $ $ $ $ $ $ $ $ $ $ $ $                                             $ 4.J $ $       $ $ 2 $ $ $   - r ' :.:.:.[ [ [ [ [ :.[ [ [ [ [ [ [ [ e e e e e [ [ [ [ [ [ [ :.' ' $.N N N $ d $ $     $ $ $     $   $ N   o.  $ $                                         $ o.V hXhX6X4XyXyXyXyXj.j.j.j.E.( ( d.( ( ( ( ( ( ( ( j.( j.j.j.j.j.j.( j.j.j.j.j.j.j.j.bXbXbXbX6X6X=X6X6X&XnXnXwXjXjXjXqXqXy.y.y.y.y.y.y.y.y.y.].y.y.y.y.y.y.jXjXjXP.P.P.P.P.P.P.P.P.NXP.NXNXP.NXNXP.NXP.P.P.P.KXjXy.y.y.y.y.y.y.y.y.fXL.3Xo.o.o.J J J aXaXaXZ.6X6X6XZ.6X6X6Xr.&X&X&XnX&X&X6XhX$.$.N o.o.o.o.o.$ > 4.4.4.4.4.> o.o.o.o.o.o.N 4.^ 4.J J J J J o.o o $ o.o o $ $   $     $   4.                                                                                                                                                                                                                                                      $ $ $ $ $           $ $ $ $ N $ N N N N N J AXx.m.h.h.h.n.n.n.gXn.Z gXZ GXG GXGXGXGXGXGXHXHXHXHXGXGXGXGXGXGXgXGXgXgXgXgX",
"    $ $ $ $ $ $ $ $ $ $ $ $ $ $ $ $ $ $                                                   N 4.J > $ 4.$ $ $     $ $ $   o - - ^ ^ ' ^ ' ^ ' ' ' ' ' ' ' ' :.:.:.:.:.:.:.[ :.:.:.:.' ' ' $.N $.N N N $ d d $       $ $     $   N $ o.    $                                           $ o.J $.AX6XnX@XPX@X@XyX1.a.a.a.a.J.J.( ( ( ( ( ( ( ( ( ( ( ( ( ( ( ( ( ( ( ( j.J.j.( j.j.j.j.bXj.j.j.j.j.-XnXnX7X7X].qXqXqXy.y.y.y.y.y.y.y.y.y.].y.y.y.y.y.y.y.y.y.jXjXP.P.P.NXNXNXNXNXNXNXNXNXjXjXjXP.P.P.P.jXy.y.y.y.y.y.y.y.y.y.fXL.r.3Xo.8.o.N N 4.4.N J J Z.V hXJ hXZ.hX3X3XhX3Xr.r.r.Z.hX$.N N o.o.o o.N $ 4.4.4.4.4.4.4.  o.o.o.o.o   ^ 4.4.      o.o.d $       o o   $     $           $   $                                                                                                                                                                                                                                               $ $ $ $ $             $ $     N N N N N AXhXx.f.h.uXh.n.n.n.gXgXgXGXGXGXDXHXHXn n n u t n n HX5.HX5.HXHXHXHXHXHXHXHXHXHX",
"$ $ $ $ $ $ $ $ $ $ $ $ $ $ $ $ $ $ $ $                                             $   o 4.$ $ $ $ $ $ $ $       $ $ $ $   N N N N N N N N N - - - $.r $.r $.' r ' ' ' ' ' ' ' r - - N N N N N N     $ d $       $ $   $   $ $                                                     $ N N $.AX6XyXPXPX@X@X1.@X . . .1.a.1.a.a.a.a.a.J.a.a.E.E.( ( ( ( ( ( ( ( ( ( ( j.( j.( j.( j.j.j.j.I.yXj.j.M.j.M.nXnXnX].].y.y.y.y.+.y.y.y.y.].y.].y.y.y.y.].y.y.y.y.y.jXjXjXNXNXNXNXNXX.X.X.X.iXNXiXNXjXjXjXjXy.y.y.y.y.y.y.y.y.fXL.r.Q.o.o.N o.N N ^ N N N J J o.N o.o.o.o.o.8.8.8.o.o.hXo.N N N N o.    $ $ $ 4.4.4.4.4.4.4.  $ d d     ^ 4.4.4.  o o $ d d o.$     o     $             $     $                                                       $ $ $ $ $ $     $ $             $ $ $ $                                                                                                                                                       $ $ $         o.$ d d d $ o.o.N hXAXx.x.f.h.h.h.n.n.n.gXgXgXGXGXHXHXu n n n n t u u u n n 5.5.n n n n u n n 5.5.5.5.",
"$ $ $ $ $ $ $   $ $   $                                                               $       4.$     $                       $ $           N   N   N N N N o N N o N o o o N     N N     N   $         $ $ $ $ $ $         $   $   $                                               $ N N $.zX6XyXPX@X@X@X@X@X@X@X@X@X@X .@X . .1.1.1.1.a.a.a.a.I.a.a.a.I.E.j.E.j.E.( j.( ( ( ( ( ( ( j.j.j.j.j.j.j.j.nXnXnX].].y.y.y.y.y.y.y.y.y.y.y.y.y.y.y.].y.].y.y.y.y.y.jXjXNXNXX.X.X.X.X.X.X.X.NXNXjXjXjX].y.y.y.y.y.y.y.y.y.fXL.3Xo.o.d $ $ $ N N $.N N hXo.o.N 8.o.o.o.o.o.o.o.o.o.o.o.o.N N     $   $   $     4.4.4.4.      $ $ $       4.        $ $   $ $ $ $ $     $     $                                                                 N 4.  N   N   N   $ N $ o.$   $               $ $                                                                                                                                               4.$ 2 2 $ $       o.o.J J o.o.o.J hXhXx.m.f.V.h.n.n.n.n.n.gXgXGXHXu CXt n n n 5.5.n n t n 5.5.5.5.5.5.n u t t n 5.5.5.n ",
"$ $ $ $ $ $ $   $ $                                                                         $     $                               $   $ $ $         $   $   d   $ $ $ $ $             $   $                                                                                         $ N J $.AX6XyXPX@XPX@X@X@X@X .@X .@X@X@X@X@X .@X .@X@X@X@X;X;X1.1.1.1.1.1.a.a.a.a.a.a.a.J.( ( ( ( ( ( ( ( j.( j.j.j.j.yXnX].].y.y.y.+.y.y.y.y.y.y.y.y.y.y.y.].].y.].y.jXjXjXiXNXX.X.X.XXXXXXX.X.X.iXjXjX].].].].].y.y.y.y.y.qX].fX3Xo.o o $ 3 # J $ N N N N N N N o.o.o.o.o.o.o.o.o.o.o.  $ $ $                 $           4.  $         $     4.  $       $                                                                                   $ $   N N N   $ N $ N     $ $ $ $ $       4.  4.    $ $                                                                                                                                       $       $ > 2 $ $   N   $ o.o.o o.J J hXx.{.f.uXuXn.gXgXgXgXn.gXgXGXHXu L L u HXn 5.5.5.5.n 5.5.5.5.5.5.5.5.n n n 5.5.5.5.5.5.",
"$           $   $                 $ $ $   $                                                                                     $   $                                                                                                                                                 N J N AX6X4X@X@X@X@X@X@X@X@X@X@X@X@X@X@X@X@X@XD.@XD.@X@X@X@X@X@X@X@X@X .@X . . . .1.a.a.a.J.J.( ( j.( ( ( j.( ( j.j.yXnXnX].fXy.y.y.y.y.y.y.y.y.y.y.y.y.y.fX].].qXjXjXiXiXX.X.XXXXXXXXX.X.X.X.iXjXjX].].y.].y.y.].y.].jXjXjX].fXr.J - - -   > > > 3 > $         $ $ $ $     $       $   d   d d $ $ $ $ $     $ $   $   4.    4.  $   4.                                                                                                      $   4.  4.  $ N   $   $ $ $   d   d   $         4.    $                                                                                                                                         $ $ $ 2 2 $ $ N N N N   o.o o o.hXZ.6Xf.f.h.uXn.gXgXgXgXgXgXGXGXHXn u L CXHXHXHXHXn n n n m 5.5.5.5.5.5.5.5.5.5.5.5.5.5.n t ",
"                            $   N   N $                                                                                             $   $                                                                                                                                           $ $ o.N J Z.&XyXyXyXyXyX1.yX@X@X@X@X@XPX@XPX@XPX@X@X@X@X@X .@X@X@X@X .@X@X@X@X@X@X@X .@X .1.1.1.a.a.a.a.a.a.J.E.( j.j.I.yXnXnX].].y.y.y.y.y.y.y.y.y.y.y.y.y.y.].].nXiXyXK.K.K.K.XXXXXXXXXXX.X.iXjXjX].y.y.y.y.].y.].].].jXjXX.iXK.e.6XZ.N N N 4.4.4.# # > 4.> 4.  4.4.4.4.4.4.4.4.4.4.$   $ $ d   d $   $ $       $                           $                                                                                                 $         4.            d   d   $ $ $ $   $   4.                                                                                                                                                  d d d $ J N 4.N   N o N N o.hXx.6Xf.h.h.h.GXGXgXGXGXGXGXGXHX5.n u L CXE.uXn.d.E.L u u m n m 5.5.5.5.5.5.5.n 5.n 5.t Y Y Y ",
"                      $   $ N   N $     $                                                                                                                                                                                                                                               o.N N AX6X&XbXbXbXbXbXj.j.yXyXyXiXiX@XiX@X@X@X@X@X@X@X@X@X@X@X@X@X@X@X@X@X@X@X@X@X@X@X@X@X@X .@X . .O.a. .a.a.a.I.H.H.wXwXjX].y.y.y.y.y.y.y.y.y.y.y.y.y.].].nXnXyXK.K.1X1X1X1X1X1XXXX.X.X.jXjX].y.y.y.y.y.y.].].jXX.X.X.X.X.X.K.4X&X6XZ.aXJ 4.4.4.> 4.> > > 4.4.4.4.4.4.4.4.4.4.4.4.    $ d d o d $ $ $                     $   4.  $   4.                                                                                                      4.  4.    $       $ $ $ $ $ $ $ $   4.$ $   4.      $                                                                                                                                         d d o.o.N N N N ^ N N N o.hX6Xf.f.h.h.GXGXGXGXHXHXHX5.5.5.5.n t L CXkX/.5Xn.uXE.} L u n n m 5.5.5.5.5.5.m Y Y Y Y Y i.ZX*.",
"                  N   N o N   N     N                                                                                                                                                                                                                                               d   o - r ^ N aXAXAXaXaXaX6X6X6X&XbXbX4X4XnXyXyXyXyX@XyX@X@X@X@X@X@X@X@X@X@X@X@X@X@X@X@X@X@X@X@X@X@X@X@X . .@X .@X1.;X;X;X;XiXwXjX].y.y.y.y.y.y.y.y.y.y.y.y.].].nX4X4X4X| 2X2X2X*X*X1XK.K.X.iX].].].].y.y.y.y.].].jXjXX.X.BXX.BXX.iXX.yX4X4X6.,XaXN ^ - N $ 3 3 > 4.4.4.4.4.4.4.4.4.4.4.4.    o o d o   o                                                                                                                                                                 $ $ $ $ $ $   $ 4.$ 4.$                                                                                                                                               o d o.o.N J N N N N ^ N N hX6Xf.M.d.h.GXGXGXHXHXn n t n n n n t L L CXkXV.5Xt.uXkX} L u n 5.5.5.5.5.5.Y Y i.i.i.i.i.i.i.z z ",
"  o o.  o o.  N   o.N   o N o N N N N                                                                                                                                                                                                                                                 o.o.o.- - $.$.zXzXzXAXzXAXzXAXAXAXZ.Z.6X6X6X6XbXbXj.j.j.yXyXyXyXyX@XyX@X@X@X@XPX@X@XPX@XPX@XPX@X@X).@X).@X@X@X@X@XPXPXPXNXPXNXjX].].y.y.y.y.y.y.y.y.y.y.].jXnX4X4X| 2X....K ....K 2X1XK.K.].].].].y.].y.y.].].jXX.X.X.N.X.XXX.X.X.X.iXiXiXyX4X6XZ.hX$.$.N N o.N $ 4.4.^ 4.4.4.4.4.^ 4.  4.          d d o d o                                                                                                                                     4.  4.  4.            $ $ $ $ $ $ $ $     >   4.                                                                                                                                                N N N N o.N N $.N N AX6Xf.h.d.GXGXGXHXHXt m m n n t t t u L } cXkXkX9X5Xn.uXkX} L t n 5.5.n 5.Y i.i.z P z z i.i.i.z z z ",
"o     o.      o.  N o N   N   N                                                                                                                                                                                                                                                       d d o.o.o.N N N N AXzXN zX$.$.N $.$.AXN AXAXAXAXAXaX6X6X6X6XbXbXbXbXj.4Xj.yXyXyXyXyXyXyXiX@X@X@X@X@X@X@X@X@XPXPXPXPXNXPXNXPXNXjX].].].y.y.y.y.y.y.y.y.y.jX].nX4X| 2X..K ........K ..| K.K.].].].fX].].].].jXjXX.X.X.X.N.K.N.XXXXXXX.X.X.X.iXyXnXnX&Xr.3XhX$.$.^ N 4.4.> 4.4.^ 4.4.4.^ 4.    4.    o d o d o o d o d                       4.                                                                                                        4.              $ $ $ $ $ $ $ $     >     $ $                                                                                                                                               N N N N o.N o.N N hXhX6Xf.h.d.HXHXHXn n n n n m n n n u L } cXkXrXrXFXFX%.5X%.kXcX} L u t Y Y Y i.z z P P P z z i.z z P z ",
"          N o       N   N       N   N                                                                                                                                                                                                                                                 o o.o.o.o.o.N N N N N N N N N N N N N $.^ N N AXzXzXzXzXAXAXaXaXZ.6X6X6X6X6X6X6XbX&XbX4X4XnXnXj.yXyXa.1.;X;XiXiXiXNXPXIXNXIXNXwX].].fX].y.y.y.y.y.y.y.].jX].4X| ..K K / ........K ..| 4XnX].].].y.].].].jXX.X.X.X.N.K.1X1X1X1X1X1XK.K.K.X.iXiXiXiXnXnX&Xx.hX$.^ ^ N $ > >             o   N N ^     o d o d o o o o o o.o o d             o                                                                                                                   $       o d o d $ $ $ $   $ $ $ $                                                                                                                                               N N N N N N o.o.o.hXhX6XbXh.d.HXHXu n n n n 5.5.5.5.n u L } kXrXFXFXxXxXxXJXR.FXFXrX}.}.*.*.*.i.i.i.P P P P z z i.i.z P P z ",
"        o   N o N o o o o o N o                                                                                                                                                                                                                                                     o o o o.d o.o o N N N - N N o.o.o.o.o.N $ N N 4.4.4.^ ^ ^ ^ ^ $.^ zX^ ^ zXzXzXzXzXAXAXhXZ.6X6X6X6X6XbXbXbXbXbXbXnXnXiXNXNXNXNXjXjX].].].].y.y.y.y.y.y.].].].K.e...j j / / / ......K 2X| 4XnX].].].y.].].jXX.K.X.K.K.1X1X*X1X*X*X2X2X| | 4XK.K.iXNXiXiXwXnX&X6XhXN ^ N   $ $   o o o N o N N - 4.N       o o o d o o.o d o o o o o o   o         ^                                                                                                   o 4.          o   o o o d o.o.$ o.$ $ $   $ $     o o o o o o o o o o o o o o                                                                                                                 N N AXN o.o.o.o.hX6XbXd.d.HXu u t n n 5.5.n 5.5.n u L kXrXFXFXxX$XxXxXxXxX$XxXxXxXSXrXD.F.F.P z z P z P z z z i.z z P P P ",
"    o       o   o o N     N           -                                                                                                                                                                                                                                             o d d o.o o o -   o o o   o.o.o o o.d d     4.4.4.4.^ 4.N N N N N N N N N N $.N $.$.$.$.hX$.hXhXhXhXAXAXl.l.l.>.k.L.nXjXNXP.NXjX].].].].].y.y.y.y.y.y.].].K.e.| / j j / / / ....K ..2X4XK.nX].].].].].K.K.K.K.K.1X1X*X2X..K 2XK K K ..| | 4XK.K.iXiXyXyXyXnX&X6XZ.N ^ ^ ^ - N N N o.8.N N N N N o N o o d o o o o d o o o o.o o   o o     -                                                                                                           o   o o o o o o o.o o.o.o.o.o.N o.o.N N N N N o o   o   o   o   o   o   o o                                                                                                                 N AX4.N N o.o.o.hX6XbXE.E.u n n 5.5.5.5.5.5.5.u u L } rXFXxXxXvX0..X.X^.^.^.^.xXxXxXSXSXD.).P z z P P z z z z i.z z P P P ",
"  4.  -   o   N   N   - - ^     4.^ 4.-                                                                                                                                                                                                                                           o d o o   d   o o     o - d d o o o o o d $ $ 4.4.^ 4.    N o.o.$ o o o N N N o.N o.N N N $.8.$.$.$.$.0X0Xk.k.k.k.tX>X7XjXP.P.jXjXy.].y.].y.].y.y.y.y.].].jXe.e.../ / / / / / j K K 2X| e.4X4Xe.].].].e.e.K.1X1X| ../ ..2X....K K K mXK ....| e.4X4X4Xe.e.e.e.e.6.6.6XZ.AX$.^ N N N N N o.o.o.8.8.8.o o   o o o d o.o o.o o o o.o o.o                                                                                                               o o o o N N N N o.o.o.r r r r r $.$.N N - - N o.J N $ N   o o o                                                                                                                               $ N 4.N N N N N hX6XbXI.E.u n 5.5.5.5.5.5.5.5.5.u L } kXFXxX^.^..X.X.X.X.X.X] .X.X^.^.xXxXSXD.F.P P z P z z z i.i.z z z P P ",
"    ^   o   N       - - ^     4.    ^                                                                                                                                                                                                                                                 o o o $       $   - - $ d o o o o.d d 2 $ 4.4.4.-   o.o.o.o o.8.o.8.o.8.o.8.o.8.o.8.o.o.o.o.o.hXhX3XtXtX>X>X>XVXVX$XKXP.P.jXy.y.y.y.y.y.y.qXy.qX].].jXK.e.../ / / / / / / W W K ..| | 6.6.6.6.e.e.e.| | | ../ ....2X......mXmXQ mXW j K ....| | ....K K ..sX| e.e.&X6XhXAXAX$.^ $.N o.o.o.8.8.o.o.o.  d o   o o o.o o 8.o o o.o N   N                                                                                                           o o N N o.o.N 8.N $.$.:.:.:.[ [ :.' $.' ' ' $.N J J o.$ N o o o   $ $   N                                                                                                                       $ N - N N N AX6XbXa.#.L n 5.5.5.5.5.5.5.5.5.n u } rXFXxX^..X.X.X.X.X.X.X.X.X.X.X.X.X^.xXxX;XF.P P z z z i.i.i.i.i.z z P z ",
"4.  4.^   N N N N N   - ^   ^   4.  4.^                                                                                                                                                                                                                                                 - o $             -   d d o o d o.$         4.  o o 8.o.8.8.8.8.8.8.o.8.8.8.0X8.0XhX3X3X3X3Xr.tXL.>X>XVXVXVXVX$X$XMXMXMXKXqXy.y.y.y.y.y.y.y.qX].].nXK.| / / / / / / j j W W K ..6.,X,Xz.Q ~ 6.| | ....K ......2X......K ; mXQ mXmXW K K K ..K K j W W K ..| e.4X4XbX&X6XAXzXzX' ' r - 8.8.o.o.o.        o o o o o o.N o o.o o.o o o   o   -                                                                                                   N o.o.o.o.N $.' ' ' :.M a M a a M e [ [ e e [ ' $.N N $ N N   $ N   N o o                                                                                                                   o       o N ^ AXaXbXj.a.O.t 5.5.5.5.5.5.5.5.5.m u p }.rXxXxX.X.X.X.X.X.X.X.X.X.X) .X.X.X0.^.xXrX}.P z z i.i.z i.z i.z z z z z ",
"    ^   N N   N   N   N   o ^     4.  4.  o                                                                                                                                                                                                                                         o o - o N   4.  4.    ^     o o.o o.o.N - - - N   N o o o.8.o.o.8.o.0X0X0X3X3X3X3XtX3XtXtXtX>X>X>X8X8X8X8XeXeXeXE E $X$X$XKXKXKXqXy.y.y.y.y.y.y.qX].].nXK.| ../ / / / / W W W K K mX,X-.-.-.mX........K K K ..| 2X| ....mXmXmXQ mXW j K K K K K K W W W j K ..2X| 4X4X4X4X&X6XhXhX$.' ' ' r o o.J J $       o o o o o N N N N o N o o o   o o                                                                                                 o o N o.o.o.hX$.' [ e M M y y y y y y a a a a a a e :.r - N $ N N N   N o - o o o o                                                                                                               o o d o N AXaXm.( J.I u n n 5.5.5.5.5.5.5.Y Y p *.}.SXxX^..X) .X.X.X.X.X.X.X.X.X.X.X.X.X^.xXSX}.F.z i.i.i.z z z z z i.z z z ",
"^ N 4.N N N N N N N N N - 4.- ^ ^ ^         o o o o o o o o o o o o o o o o o o o o o o o o o o o o o o o o o o o o o o o o o o o o o o o o o o o o o o o o o o o o o o o o o o o o o o o o o o o o o o o o o o o o o o o o o o o o o o o o o o o o o o o o o o o o o o o o o o o o o   ^ N N 4.  ^   4.  o o N - 8.8.8.$.8.$.$.$.N N N o.o.o.o.o.hX3X3X3X3X3XtXtXtXtXtX<X>X>X8XVX8XeXVXeXeXE E E E E E vXE vX$X$X$Xq.qXqXy.y.y.y.y.y.].].].K.| ..K K j j W W W K ..mX,X-.-.-.mXW K ............| 2X| | ..mXmXmXmXW W K K / ../ K W W W K K K K 2X..2X| | 4X4X4X&X&X&Xx.hXhX8.N $ $ > 4.4.    4.  ^ - - - o N o.N o.o N o N o o o         o o o o o o o o o o o o o o o o o o o o o o o o o o o o o o o o o o o o o o o o o o o o   o o N N N 8.' :.M a a a y y y y y y y y y y y y y 9 :.' - N o.o.o.N N o o o o o o o o o o o o o o o o o o o o o o o o o o o o o o o o o o o o o o o o o o o o o o o o o o o o o o o o o o o o o d o.o.o N AXm.( J.I u t t Y i.Y Y Y Y Y Y i.i.z F.D.SXxX^..X.X.X0.vX.X.X.X.X.X.X.X.X.X.X^.xXSXD.F.z i.i.i.i.z z z i.z i.z z ",
"  N N N ^ N N N o.N o.o.N N N       4.-   o o o o o o o o o o o o o o o o o o o o o o o o o o o o o o o o o o o o o o o o o o o o o o o o o o o o o o o o o o o o o o o o o o o o o o o o o o o o o o o o o o o o o o o o o o o o o o o o o o o o o o o o o o o o o o o o o o o o o o o - ^ 4.4.  ^       o N N 8.$.0XhX0X0X0X0X3XhXhX3X3X3X3X3XtXtXtXtXtXtX>X>X>XVXVXVXeXeXeXeXE E E E E E E E E E E E E E E E ^.$X$Xq.q.q.qXy.y.y.y.y.].jXK.4X| ..K W W W W 2X2XsXmX-.-.mXmXW W K / / / ......| | | sXmXmXj W W W K / ..../ / K W W K K K 2X2X..2X| | | 4X4X4XnXnX&X&X&Xr.Z.Z.V s 4.^ 4.4.4.  4.N N N N N N N 8.N N o N o o o o       o o o o o o o o o o o o o o o o o o o o o o o o o o o o o o o         o o o o o o o o o o o o.o $.N N $.' :.M M M a a y y y y y y y y y a a y M [ :.r N o.N N $ N o o o o o o o o o o o o   o   o   o o o o o o o o o o o o o o o o o o o o o o o o o o o o o o o o o o o o o o o o   o o o o.d o.o N aXm.( I Y Y Y i.i.i.i.i.i.z i.z i.z z F.D.SXxXvX0.E eXeXpXpXE E 0..X.X.X.X.X.X$XxXSXD.F.P i.i.i.z i.i.i.i.z z P P ",
"N N N - r $.$.N $.o.o.N o.N N N N o     o o o o o o o o o o o o o o o o o o o o o o o o o o o o o o o o o o o o o o o o o o o o o o o o o o o o o o o o o o o o o o o o o o o o o o o o o o o o o o o o o o o o o o o o o o o o o o o o o o o o o o o o o o o o o o o o o o o o o o   o ^ N N N   ^     N N o.hX3X3X3XtX3XtXtXtXtXtXtXtXtXtXtX>XtX>X>X>X>XVX>XVXeXeXeXeXeXE E E E E E E 0.E E E E E E E E E vXE E E ~.~.q.q.KXqXy.y.y.y.jXjXjXnX4X| K W W W W 2X| sX,X-.-.mXK W W j j / / ..| | | | sXsX..K K K K / / / / ..K K K W W K 2XsX2XsX| | | sX| e.e.e.e.e.4X4Xe.e.6.6.6.,XaX4.4.^ 4.^ 4.^ N N N N N o.N N 8.N o.o o.  o     o o o o o o o o o o o o o o o o o o o o o o o o o o o o o o   o.o   o.o   o o o o o o   o   o o o o o.N o.$.:.[ 9 M M M M a a a y y y a M M M a M [ :.r o N $ N N o o o o o o   o   o   o o d o   o o   o   o   o   o   o   o   o   o   o   o   o   o   o   o   o   o   o   o   o   o o o d o o o.o.- AX6X( J.Y Y Y i.i.i.i.z z P P P P z z z P D.SXFXJXU.U.s.v.v.s.U.U.0..X) .X.X.X^.^.xXSXD.F.P z z z i.i.i.i.i.z P F.F.",
"N $.r ' :.:.' $.$.$.$.$.o.N N o.o.N N o   o o o o o o o o o o o o o o o o o o o o o o o o o o o o o o o o o o o o o o o o o o o o o o o o o o o o o o o o o o o o o o o o o o o o o o o o o o o o o o o o o o o o o o o o o o o o o o o o o o o o o o o o o o o o o o o o o o o o o o o - N 4.N ^   - N N o.hX3Xr.L.>X>XtXtX>X>X>X>X>X>X>X>XVX>XeXVXeXeXeXeXeXeXeXeXE E E 0.0.0.0.0.0.0.0.0.0.0.E E E E E E E E pXE E E $Xq.KXKXy.y.y.y.jXP.P.jXnX4X..K W K K 2XsX,XmX-.mXK K *Xj j j j / ..| | sXsX6.mX....../ / / / / / K K K W W K 2X2X| | sXsX6.6.,X,X,X,X,X,X6.| | e.e.4X4Xe.6.,XaX4.4.4.4.^ ^ ^ ^ N N N N N o.N N o N o o o       o o o o o o o o o o o o o o o o o o o o o o o o                 o.    o.o o o o o o o o o   o o.$ $ N N N ' :.:.[ [ M M M M M a a a M M 9 M M 9 :.' r o N N o o o N o o o o o o   o o   o o o o d o o o o o o o o o o o o o o o o o o o o o o o o o o o o o o o o o o o o o o o o d o o o o o.d o.r AXbXE.O.Y Y i.i.z z i.z z P P P P z z z P ).rX9XT._.3.3.&.&.7.7.s.E .X) ) .X.X^.xXSXSX).F.P P P z z i.i.i.z F.F.).D.",
"' ' :.e M M e [ :.' :.:.' ' $.$.N N N o o o o o o o o o o o o o o o o o o o o o o o o o o o o o o o o o o o o o o o o o o o o o o o o o o o o o o o o o o o o o o o o o o o o o o o o o o o o o o o o o o o o o o o o o o o o o o o o o o o o o o o o o o o o o o o o o o o o o o o o   ^ N N     o o N $.8.hXr.>X7X7XVX>X>X>X>XeXVXeXeXeXeXeXeXeXeXeXeXeXE E E E E E E 0.0.0.0.0.0.0.0.0.0.0.0.0.E E E E E E E 0.0.E 0.^.^.MXKXqXy.y.y.y.P.P.P.iXyX4X| | 2X| sX6.sXsXmXK K W K j / / / ..| ....6.mXmX....../ / j / / / / K K K K 2XK 2X2X| sXsX,X,XaXaXaXz.z.Q mXK / ......| | e.e.6.,XaX4.4.4.4.^ ^ ^ ^ ^ $.- N $.N 8.N o o o o o o o o o o o o o o o o o o o o o o o o o o o o o o o o.o   o.o   o.  o o o o o o o o o o o o o o o   $       o - r ' ' :.[ [ e e 9 M M 9 e [ [ [ 9 [ ' r - N N o - - - - - - o o o o o o o o o o o o o o o o o o o o o o o o o o o o o o o o o o o o o o o o o o o o o o o o o o o o o o o o o o o 8.N $.6XbXa.ZXY i.i.z i.i.z z z P P P P z z z P F.}./.t.:X XH H &.&.7.7.eX.X.X.X^.^.xXxXSXD.).! P P P P z z z z F.F.D.D.SX",
"[ e M a y y a a M e e e e [ :.:.' r - o N o o o o o o o o o o o o o o o o o o o o o o o o o o o o o o o o o o o o o o o o o o o o o o o o o o o o o o o o o o o o o o o o o o o o o o o o o o o o o o o o o o o o o o o o o o o o o o o o o o o o o o o o o o o o o o o o o o o o o o o o o   o o   N N 8.0X3XL.7XwX$X$XVXeXeXeXeXeXeXeXeXeXeXeXeXE E E E E E 0.0.0.0.0.0.0.0.0.0.0.0.0.0.0.0.0.0.0.E E E 0.0.0..X.X.X^.^.^.MXKXqXy.y.y.jXP.P.NXP.iXiXK.K.4X4Xe.6.6.sXK K K W K / / / / | | | ..mXmXK K K 2XK j / j j j / / ..2X2X2X..sXsXmX,X,XmX,XmXz.mXmXK K / / K / K ......| | | 6.,X,XR z.V J 4.N N ^ r r N - N o 8.o o o o o o o o o o o o o o o o o o o o o o o o o o o o o o o     o o o o o o o o o o o o o o o o o o o o o           o.o - - - $.' :.:.:.:.[ :.:.:.:.:.:.:.' r N N N N o - N - - - - o o o o o o o o o o o o o o o o o o o o o o o o o o o o o o o o o o o o o o o o o o o o o o o o o o o o o o o o o o o N $.AX6Xj.#.ZXi.i.i.i.i.i.z z P P  .P z z z i.z ! F.cXh { :X X XH &.3.3.s.pXvXvXxXxXSXSXD.).F.P z z z P P P P F.F.D.SXSXxX",
"a a a y y & & y B f a B a a M e :.' $.N o o o o o o o o o o o o o o o o o o o o o o o o o o o o o o o o o o o o o o o o o o o o o o o o o o o o o o o o o o o o o o o o o o o o o o o o o o o o o o o o o o o o o o o o o o o o o o o o o o o o o o o o o o o o o o o o o o o o o o o o   o N     o.N 8.$.0X3X>XwXMXMX$X$XeXeXeXeXeXeXeXeXE E E 0.E 0.E 0.0.E 0.E 0.0.0.E 0.E E E E E 0.E 0.0.0.0.0.0.0.0..X.X.X.X] ] '.'.'.MXMXKXqXy.y.y.P.P.P.P.P.wXP.wXwXnXnXe.6...2XK K K K K / / | 1X| ....mXK K K K K K W j j j j j / ..| | | | ,X,X,Xz.mXmXmXmXW K K / / / K K K K K K ......| | 6.6.6.6.6.6.` Z.V N ^ ^ N N 8.N - o.o o o o o o o o o o o o o o o o o o o o o o o o o o o o o o o o   o o o o o - - - - o o o o o o o o o o o     o         o o N N $.$.r ' ' ' ' ' $.r r r r - N N N N N N o N N o - - o o o o o o o o o o o o o o o o o   o   o o   o o o o o o o o o o o o o   o   o   o   o o o o o o o o o o o o o o o N $.AX6XbXa.#.b.z z z i.i.i.z z P P P P z z i.z z P F.*.CX!.G.{ :X&.3.3.3.v.R.9XFXSXSXrXD.F.F.P z z z z z P P ! ).D.SXxXxXxX",
"y y y y y y & & & & y y y y y a e :.$.N N o o o o o o o o o o o o o o o o o o o o o o o o o o o o o o o o o o o o o o o o o o o o o o o o o o o o o o o o o o o o o o o o o o o o o o o o o o o o o o o o o o o o o o o o o o o o o o o o o o o o o o o o o o o o o o o o o o o o o o o o o o o   o.o.8.$.0X3X>XwXMXMX^.^.E eXeXeXE E E 0.E 0.0.0.0.0.0.0.0.0.0.E 0.E E E E 0.E 0.E 0.E 0.E 0.0.0..X^.^.^.] '.'.'.'.'.'.'.'.MXMXqXqX].y.].jXP.P.P.P.MXMXMXMXKXwXnX4Xe.| | 2X........| | | | ..K K K K K *XW W K W j j j / / | | | 6.,X,Xz.z.mXj / / / j j j *Xj W K K 2XK K K K K ....| e.e.e.e.e.e.&X6.` V J N $.N $.N 8.8.o o.8.o o o o o o o o o o o o o o o o o o o o o o o o o o o   o N   o ^ ^ ^ ^ ^ ^ ^   o o o o o o o o o o       o   $ $ o o N o.N N N N $.$.N o.N 8.$.N N N N N N N o N N o.o.N o o o o o o o o o o o o o o   o   o   o o o o o o o o o o o o o o o o o o o o o o o o   o o o   o o o o o o o o o o o N $.zXAX6Xj.a.#.b.P P z i.i.i.z z z z z z z z z i.z z P F.F.}.4 h t.{ { t.{ G.dX9XrXD.D.).F.F.P z z z z z z P P F.D.SXSXxX^..X",
"a y a a a y y y y y y a a y y a M [ ' $.N o o o o o o o o o o o o o o o o o o o o o o o o o o o o o o o o o o o o o o o o o o o o o o o o o o o o o o o o o o o o o o o o o o o o o o o o o o o o o o o o o o o o o o o o o o o o o o o o o o o o o o o o o o o o o o o o o o o o o o o N o o o N $ N - $.0XtX7XMXMX'.'.^..X0.0.0.0.0.0.0.0.0.E 0.0.0.0.0.0.0.0.0.0.E E 0.E E E E E E 0.0..X.X.X^..X^.] '.'.] '.%X'.'.'.MXMXMXKXqXqXy.y.y.jXP.P.P.P.MXMX'.MXMXMXKXwXiXyX4X4X| | sX| | | | 6...K K j j j W j W W K K K / 2X| | ..,X,XmXz.mXmXj j K / / j / j / j W W K 2X2X2XK K K ....6.6.6.6.6.6.&Xe.e.e.6.6.Z.J N N 8.8.o.8.8.8.8.o.8.o o.o.  o - - o o o r - o o 8.o o o o o o o - - o o ^ ^ 4.aX,X,X,XaX4.4.^ ^ o o o o o o - - o     o         o o o N N o.N o.N N N N o.N N N o.N o N - N - N N N o.  o o o o o o o o o o o o o   o o     o o   - N N ^ N N N $.N N N - N N N N   o o o o       o o o o o d o o d 8.o.8.N 8.$.$.zXzXm.j.1. .b.P P P P i.i.i.z z z z z z z z z z z z P ! F.*.cXCX/././././.CXcXb.F.! ! P P z z z z z i.z z F.).D.SXxX^..X.X",
"9 M M M a M M M a a a M M M M 9 9 [ ' $.- o o o o o o o o o o o o o o o o o o o o o o o o o o o o o o o o o o o o o o o o o o o o o o o o o o o o o o o o o o o o o o o o o o o o o o o o o o o o o o o o o o o o o o o o o o o o o o o o o o o o o o o o o o o o o o o o o o o o o o o o o o         ^ ' $.tX7XMXMX'.'.] ] ] .X.X0.0.0.0.0.E E E 0.0.0.0.0.0.0.0.0.0.0.E 0.E vXE vX^.^.^.'.'.'.] ] '.'.'.%X'.'.MXMXMXMXMXP.P.KXqXy.y.y.y.y.P.P.MXMX'.'.'.%X%X'.MXMXMXwXiXyX4Xj.4X4Xe.e.6.mX../ j j j W j j W j K K 2X| | 1X| ,X-.z.-.mXj j j K j K / / / / / / W K K K 2XK W W K mX,Xz.aX,XaXaXZ.` 6.6.6.6.e.6.6XZ.hXhX8.8.8.8.8.8.hX8.o o.o.o.o - - o o o - o 8.o o 8.o 8.- o o o - r - - ^ ^ ,X6.e.e.sX6.,XaX4.^ - o.o.o.o.- r r N   o o o o o o o o o o o o o o o N o N o o o o o N - o N N N - N N o o o o o o o o o o o o o N o o           o   - N ^ N N zXN N $.N ^ N ^ N - N N   - ^ -   $ d   o o o o 8.o o.8.o 8.o.8.$.o.$.zXzXm.j. .b.P z z P ! z z z z z z z z z z P P P z z z z P P P b.F.b.b.*.*.P P P P P P P z z z P z z z z z P ).D.SXxX.X.X.X",
":.[ [ e e M M M M M M e e e [ [ [ :.' $.- o o o o o o o o o o o o o o o o o o o o o o o o o o o o o o o o o o o o o o o o o o o o o o o o o o o o o o o o o o o o o o o o o o o o o o o o o o o o o o o o o o o o o o o o o o o o o o o o o o o o o o o o o o o o o o o o o o o o o o o o o.  ^   4.  ^ ' $.3X>X$XMX'.'.%X] ] ] .X.X.X0.0.0.E E E E 0.E 0.E 0.0.0.0.0.0.0.0..X.X^.^.^.^.'.'.^.'.^.'.'.'.'.MXMXMXMXMXP.P.P.P.P.jXy.y.y.y.y.y.P.P.MXMX'.%X%X%X%X%X%X%X'.MXMXwXyXyXyXnXnX&X6.6.../ j j W j j j j K K K | | | 6.,XaX-.-.mXK K j W W K K / / / / / K K 2XK 2X..2X2XK K ,XQ ,X,X,X,X,X6.,X6.6.6.6.6.6.&X&Xr.r.3Xo.8.8.8.8.8.8.o.o o o N $ N N o N J J o - r o 8.o - o N N o - - 4.4.aX6.sXsXsXsXsXsX,XaX^ ^ N o o o.o r - o   o o o o o o o o o o o o o N o o o o o o o o o o o o - N - N N o o o o o o o o   o o o o - N N o o o o   o o o ^ N N $.N N N N N N $.N $.N N N N N - ^ - o   d d o o o o o o o o 8.N 8.$.$.$.$.zXzXm.j. .).P z z z P z z z z i.i.i.i.z z P P P z i.i.z z P P P P P P P P z z z z z z z P z z P P z z i.z P ).SXxX^..X<..X",
"' :.:.:.[ [ [ [ [ [ [ :.[ :.:.:.' ' $.N N o o o o o o o o o o o o o o o o o o o o o o o o o o o o o o o o o o o o o o o o o o o o o o o o o o o o o o o o o o o o o o o o o o o o o o o o o o o o o o o o o o o o o o o o o o o o o o o o o o o o o o o o o o o o o o o o o o o o o o o o o N -   ^   N - $.0XtX7X$XMX'.'.%X'.] ] ] .X.X0.0.0.E 0.E 0.E E E 0.E 0.0..X.X.X^.] ^.] '.'.'.'.MX'.^.^.$XMXMXMXMXMXP.P.P.P.IXP.P.P.jXy.y.y.y.y.y.KXMXMX'.%X%X%X%XoXoXoX%X%X%XMXMXMXwXwXwX].nX&X6...K j W j W *Xj K K K ..| e.6.,XaXz.z.mXW K W K W K W K j / / / / K 2X2X..2X| | | | e.e.e.6.e.e.4Xe.e.e.e.6.6.6.bXe.4X4X&X&Xr.3Xo.8.$.$.$.N o.o - - - N N   ^ N J J o - - o 8.o o o o N N - ^ 4.aX,X6.mX,XmXmXmXsX6.aX4.  o - o o.o - - o N o o o o o o o o o o o o o o o o o o o o o o o o o - N - N N - o N o o o o o o o o o o o o N - N o o o o o o o N o N N N N N N $.N N N N N - - - N N N N N N o o o o.o o 8.o o o - - - - $.$.$.zXAXaXj.1.).! P z z z z z z z i.i.i.i.z z z z z i.i.i.i.z z P P P P P P z z z z i.z z P z z z P z z z i.z z F.D.SX^..X.X.X",
"r r ' ' ' ' ' :.' ' ' ' ' ' ' r $.N N N o o o o o o o o o o o o o o o o o o o o o o o o o o o o o o o o o o o o o o o o o o o o o o o o o o o o o o o o o o o o o o o o o o o o o o o o o o o o o o o o o o o o o o o o o o o o o o o o o o o o o o o o o o o o o o o o o o o o o o o - - - N - ^       - 8.8.3XtX7X$XMXMX'.'.'.'.'.] ] .X.X0.0.0.0.0.0.E E E 0.^.^.^.'.%X%X%X] ] %X%X'.'.MXMX$XVX>X7X7XwXNXIXNXNXNXNXNXNXP.P.jXy.y.y.y.y.y.KXMXMX'.%X%XoXoXoXoXoXoXoX%X%X%X'.MXMXMXKXqX].nXe...K W W W W K 2XK 2X| | e.6.V 4.z.,X/ j K W K K W W W W W K K K K ..2X| | K.yXiXiXiXiXiXiXyXX.X.X.K.X.K.K.yXyXyXyXnX4X4X&X&Xr.Z.J N N ^ - N o.o - ^ ^ ^ ^ ^ ^ ' ^ o o o o o.o - - o o o - ^ V ,X6.sX,X-.-.-.,XsXsX,X4.  - r - o.o.o o o ^ o o o o o o o o o o o o o o o o o o o o o o o o o o o o o - N N o o o o o o d o o o o o N - N $.N N N N N o o o o o o o o o o o o.o.o.o.o.o.o.r $.$.hXhXo.N - r - N o.o.o o o - - o ^ - N ^ N zXzXAXbXa.).! P z i.z P P z z z z z i.i.i.i.i.Y Y i.i.i.z z P z P z P P z z z z i.z z z z z i.z z z z i.i.z F.D.SXxX.X) .X",
"- $.$.r $.8.$.r $.8.$.r $.r $.- - N - N - N o o o o o o o o o o o o o o o o o o o o o o o o o o o o o o o o o o o o o o o o o o o o o o o o o o o o o o o o o o o o o o o o o o o o o o o o o o o o o o o o o o o o o o o o o o o o o o o o o o o o o o o o o o o o o o o o o o o o o - - ^ N   - o     o 8.$.0X0XtX>X7X$XMX'.'.'.'.] ] ] .X.X.X0..X^.^.^.^.^.^.'.^.^.'.'.'.%X%X%X'.'.MX$X$X7X>XtXx.&XnXiXiXNXBXNXX.NXNXNXNXP.jXy.y.y.y.y.y.qXMX^.] %XoXoXoXoXoXoXoXoXoXoX%X%X'.'.'.MXMXKXjXnX4X| K K K W K K 2X| | e.6.,Xz.z.,X../ / j K K W K W W W j K 2X2X2X1XK.K.X.X.iXNXPXiXiXiXiXiXiXX.X.K.X.X.X.iXX.iXiXyXyXK.K.K.4X4X6.Z.4.^ ^ N - - o 4.4.4.4.^ ^ 4.^ N o - o o o o - o o - ^ 4.R 6.e.,X-.-.-.-.-.mX6.,X4.^ - r - o o o o ^ o o o o o o o o o o o o o o o o o N o o o o o o o o o N o N N N - o - o o o o o o o o o o o o N N N $.N 8.$.8.o 8.o 8.o 8.o o.8.d o o.o.o.o o N $.$.hXhX$.$.$.$.$.N $.' ^ N N N ^   ^   4.^ 4.^ N $.AX6Xj. .! P z i.z P P z z z z i.i.i.Y Y Y t Y i.i.i.z z z P z P z P z z z z i.i.z z i.i.ZXi.z z z i.i.i.F.D.SXxX.X.X<.",
"o o N 8.N - 8.N 8.N 8.N 8.N o - o - N o o o o o o o o o o o o o o o o o o o o o o o o o o o o o o o o o o o o o o o o o o o o o o o o o o o o o o o o o o o o o o o o o o o o o o o o o o o o o o o o o o o o o o o o o o o o o o o o o o o o o o o o o o o o o o o o o o o o o o o o - ^ ^ 4.N o - o o.o - 8.8.8.0X3XtX>X7XMXMX'.'.'.'.] ] ] ^.^.^.^.^.'.'.'.'.'.'.'.'.MXMXMXKX$XqX7X7X>X>XtXx.Z.6.4XK.X.XXXXBXXXBXBXBXNXX.NXjX].].].].y.y.qX^.^.] ] ] ] oXoXoXoXoXoXoXoX%X%X%X%X%X%XMXMXMXjXnX4Xe...K K K 2X| 1Xe.sX,X,X,X6./ / *X/ / K K K W K j / / 2X2X1X1XXXX.X.X.iXNXNXMXwXSXiX;XiXiXiXK.K.K.X.X.X.X.K.X.X.X.X.X.X.X.K.4X6.aX4.4.N - ^ ^ 4.V ,X6.6.,XaX4.4.^ ^ - o o o - o o o   J 6.e.sX,X-.-.-.-.-.mX6.6.4.^ - - - o o o   - - o o o o o o o o o o o o o o o o o o o o o o o o o o o o o - N N N o o o o o o o d o o o o o - N $.$.$.N o.o o o.o d o d d o o o o - - - N N hXhXhXx.x.x.x.hXAXAXhXAX$.$.N N N 4.^ 4.4.4.^ 4.^ N $.zXaXbX .).P z i.i.P P z z z i.i.i.Y Y Y Y Y i.i.i.i.z z P z P P z z z z z z z i.i.i.i.i.Y i.z P P i.i.z F.D.SXxX^..X.X",
"o o o N o N o N o o N N o.o o o - o o o o o o o o o o o o o o o o o o o o o o o o o o o o o o o o o o o o o o o o o o o o o o o o o o o o o o o o o o o o o o o o o o o o o o o o o o o o o o o o o o o o o o o o o o o o o o o o o o o o o o o o o o o o o o o o o o o o o o o o o o ^ ^ ^ 4.$ o o o o o o o o.N $.hXhXtX>X7X$XMX'.'.%X'.'.] ^.] '.] '.'.] '.] '.^.MXKXKX$X7X>X>XtXx.x.0XhXZ.6X6.e.K.XXN.N.N.N.N.N.XXBXX.X.NXiXjX].].].].qXqX^.^.] ] ) ] ] oXA oXoXoXoXoXoXoX%X%X%X'.%X%XMXMXwXwXnX4X| ......| 4Xe.sXmXmX../ / j j / K / / / / / / ..| 1X1X1XXXX.X.X.iXiXiXwXwXwXwXwXwXwXiXyXK.K.K.K.K.K.K.K.K.XXXXXXXXX.X.X.K.4X6.aX4.N ^ ^ ^ J R 6.e.4Xe.6.aX4.^ ^ ^ o o o o 8.o o 4.R 6.e.6.-.-.-.-.-.-.,X6.,X4.^ - - o o o -   - -   o o o o o o o o o o o o o o o o o o o o o o o o o o o o N - N - o o o o o o o o o o o o o o N $.N $.o.8.o 8.o o.o 8.d o.d o - r r ' $.AXhXhXx.x.f.f.f.f.x.x.x.AXhXAXAXAXzX^ ^ ^ ^ 4.  4.  o o 8.$.AXbXa. .P P z i.z z P z z i.i.Y Y Y Y i.i.i.i.i.z z z P P P z P z z z z z i.i.i.i.i.Y i.i.P ! P z i.z P ).SXxX^..X.X",
"o o.o o o o - - - - o o o o o - - o o   o o o o o o o o o o o o o o o o o o o o o o o o o o o o o o o o o o o o o o o o o o o o o o o o o o o o o o o o o o o o o o o o o o o o o o o o o o o o o o o o o o o o o o o o o o o o o o o o o o o o o o o o o o o o o o o o o o o o o o   - ^ ^ 4.N o - o o 8.o   $ - ^ N $.hX3X>X7X$XMX'.'.'.'.'.'.'.'.'.'.'.MX^.^.q.8X8X#X>XtXtXx.hXAXAXzXAX6Xe.K.K.XXN.N.N.N.N.N.N.N.N.XXBXX.BXX.iXiXiXjX].qXqX^.] ] ] ) ) ] ) ) A A A oXoXoXoXoX%X%X%X%X%X%X%XMXMXwXnX4Xe.| | | e.sXmXmXK ..*Xj W W K ../ / / / / / | 1X1XK.XXXXX.X.iXiXiXwXwXwX$XwXFXwXwXwXwXyXyXK.K.K.K.1XK.1X1XXXXXXXXXXXX.X.iX4X6XV N ' ' J ` 6.6.6.6.6.e.6.aX4.^ ^ ^ o - o o o o N ,Xe.e.,X-.-.-.-.-.-.mX6.6.4.^ - o 8.o - - N - - o o o o o o o o o o o o o o o o o o o o o o o o o o o o - N N N N N o o o o d o o o d o o o o o $.N N N o o o o o o d o d   - ^ ^ zXzXAXx.6X6Xf.M.M.M.M.M.bXf.f.f.f.6XAXAXAXzX^ ^   ^   ^   o o 8.8.AX6Xj. . .P z i.z z z P z i.i.i.Y Y i.i.i.i.i.i.i.z z z P P P z z z i.z z z z i.i.i.i.i.z P ! P z i.i.P F.D.SXxXxX^.",
"o o o o o - o - - - - o o o o - o o     o o o o o o o o o o o o o o o o o o o o o o o o o o o o o o o o o o o o o o o o o o o o o o o o o o o o o o o o o o o o o o o o o o o o o o o o o o o o o o o o o o o o o o o o o o o o o o o o o o o o o o o o o o o o o o o o o o o o o o o ^ ^ 4.4.$ o o 8.o 8.o d   ^ 4.4.N $.$.3XtX7X$XMX'.MX'.MXMXMX$XKX$Xq.8X#X#X>XtXtX0X0X0XhXhXhXAXaX,Xe.K.X.XXN.N.N.N.N.N.N.N.N.N.N.N.XXXXBXX.X.X.X.iXjXqXKX^.] ] ] ) ) A A A A A A A oXoXoXoX%XoX%X%X%X%X%X%XMXMXMXwXnX4Xe.| sXmXmX..K *Xj W W W W K K K K / / | 1XK.K.XXXXX.X.iXiXwXwX7X$X$X$XVX$X$X$XwXwXwXyXyXK.K.K.K.K.K.1XXXXXXXK.X.X.@XiXnXr.hXN ^ ^ V 6.6.,XaXaX,X6.6.,XaX4.4.^ o - - o o - J ,Xe.sX-.-.-.-.-.-.-.sXsX6.4.^ ^ o o - - - N - -   o o o o o o o o o o o o o o o o o o o o o o o o o o o o o - N - N - o o o o o o o o o o o o o o.- N 8.o o o o o o o o N N $.zXAXAXAX6X6Xf.h.M.h.h.h.h.h.M.h.M.f.f.f.6XAXAXAX$.zX^ - o   o o 8.8.8.N aXbXj.ZXb.P P z P z P P z z i.i.i.i.i.z i.z i.z z z z z z z z z z z z z i.z z i.i.i.i.P P ).P z i.i.i.P F.D.SXSXxX",
"o o o o o o o o o o o - - - o o o   o o o o o o o o o o o o o o o o o o o o o o o o o o o o o o o o o o o o o o o o o o o o o o o o o o o o o o o o o o o o o o o o o o o o o o o o o o o o o o o o o o o o o o o o o o o o o o o o o o o o o o o o o o o o o o o o o o o o o o o o o   4.4.4.  o o o 8.8.- o   ^ 4.4.4.N $.0X3XtX7X$XMXMXMX$X$X7X7X>X>XtXtX3X3X3X3X0X0X$.$.$.$.Z.6.e.4XX.XXXXN.N.N.N.N.N.N.N.N.N.N.N.N.N.N.BXBXXXBXBXNXNXKXKX^.] ] ] ) A A A A A A A A oXoXoXoXoX%XoX%X%X%X%X%X%X%XMXMXwXnX4Xe.mXmXK K / j W W W W K K K K K K ..| 1XK.XXX.X.X.iXNXwXwXwX$X$X$X$X$X$XJX$XJX$X$XwXwXjXyXK.K.K.K.K.K.K.X.X.X.X.iXiXnXr.hX$.^ J ` 6.,XaX-.-.-.-.mX6.,XaX4.4.^ - - o o o V 6.sXmX-.-.-.-.-.-.-.mXe.6.4.^ ^ - - - - - $ - ^ o o o o o o o o o o o o o o o o o o o o o o o o o o o o - o N $.N N o o o o o o d o o o o o o o o o o o o o o o o ^ ^ ^ zXzXAXAX=Xm.m.h.h.h.h.h.h.n.h.h.h.h.h.h.m.h.f.f.m.x.AXAX$.$.$.o o o o.8.8.8.N AXaXbXJ.ZXP P P P z z z z z z i.i.i.i.z i.i.z z z z z z z z z z z i.z z z i.z z i.i.z P P b.P z i.i.i.i.z F.D.D.SX",
"o - - o o o o o o o o - - - - o o o o - o o o o o o o o o o o o o o o o o o o o o o o o o o o o o o o o o o o o o o o o o o o o o o o o o o o o o o o o o o o o o o o o o o o o o o o o o o o o o o o o o o o o o o o o o o o o o o o o o o o o o o o o o o o o o o o o o o o o o o o ^ 4.      o o o.8.- r o   4.4.4.^ ^ N $.0X3XtX7X7X7X7X>X>XtXtX3X3XhXo.$.$.$.$.$.$.zXAXaX` 6.4XK.X.XXN.N.N.N.N.N.N.N.N.N.N.N.N.N.N.N.XXN.XXBXBXBXB.NXP.KX^.] ] A ) A A A A A A A A A oXoXoXoXoXoXoX%X%XoX%XoX%X%XMXMXwXnX4X,XmX../ j W W W W K W W W W K ..| 1XK.XXX.X.X.iXNXP.MXMXwX$XKX^.^.$X~.E E $XvX$X$X-XwXjXnXK.K.K.K.K.K.K.yXyXiXyXnX&X3X$.$.^ J ` 6.,XaX-.-.aX-.,XsX,XaX4.4.^ ^ o o o.N R 6.,X-.-.-.-.-.-.-.-.,Xe.6.aX^ ^ - - - - - N - - o o o o o o o o o o o o o o o o o o o o o o o o o o o o o o N N - N - N o o o o o o o d o o o o       o o o o N N zXzXAXAXAX=X=Xm.m.h.h.h.h.n.n.n.n.n.n.n.n.n.n.m.h.h.f.f.f.x.x.hXhX$.$.8.8.o.8.o.8.o.zXzX=XbXJ.ZXP P P z z z z z z z z z z z z z z z z z z z z z z z z z z z i.i.z z z i.z P P ).P P i.i.i.i.i.z b.}.D.",
"- - o - o o o o o o o - - - - o o o - - - - - - - - - - - - - - - - - - - - - - - - - - - - - - - - - - - - - - - - - - - - - - - - - - - - - - - - - - - - - - - - - - - - - - - - - - - - - - - - - - - - - - - - - - - - - - - - - - - - - - - - - - - - - - - - - - - - - - o - -     4.  o - - N 8.8.r - N     ^ 4.^ - N $.0X0XtX{.tXtXk.0X0X0X$.$.$.$.$.$.zXAXzXzXaX,X6.e.K.XXXXBXN.N.N.N.N.N.N.N.N.N.N.N.N.N.N.N.N.N.N.BXBXBXB.B.IXP.MX] ] ] ) ) A A A A A A A A ) A A oXoXoXoXoX%X%X%XoXoXoX%X%XMXMXwXnX&Xe.| / j W W W K K K W W W K 2X1X1XXXXXX.X.iXjXjXKXKXKXKXKXq.KXKX~.~.$XE $XE E eX$X$XwXwX].4Xe.e.6.&X&X4X4X4X&X&Xr.0X8.$.^ 4.,X6.6.aX-.-.-.-.-.,XsX,X4.4.4.^ o o o N ` e.mX-.-.-.-.-.-.-.-.mXe.6.aX^ ^ - o o - - o ^ ^ o - - - - - - - - - - - - - - - - - - - - - o o o o o o - - - - N - - - - o o o o - o o o o - o       o o N N N AXAXAXAXm.m.m.m.h.h.h.uXn.n.n.gXn.gXgXn.gXn.n.n.n.n.h.h.h.f.f.{.x.x.hXhX$.8.8.o.o.8.8.$.zXzX=Xh.J.b.P P P z z z z z z z z z z z z z z P z i.i.i.i.z z z z z z z i.i.z z i.i.z P P P z i.i.i.i.i.i.z b.F.",
"- - - - - - - ^ o - - - - - o - - - -   - - - - - - - - - - - - - - - - - - - - - - - - - - - - - - - - - - - - - - - - - - - - - - - - - - - - - - - - - - - - - - - - - - - - - - - - - - - - - - - - - - - - - - - - - - - - - - - - - - - - - - - - - - - - - - - - - - - - - - - ^ ^ ^ o ^ - - $.$.$.$.$.- - - - ^ o ^ - $.$.$.$.$.8.$.8.8.8.o.8.o.$.$.$.zXzXAXAXaXsX4XK.XXXXN.N.N.N.N.N.N.N.N.N.N.N.N.N.N.N.N.N.N.N.XXBXBXB.B.B.IXIXP.MX^.] ] A A A A A A A A A A ) A A A A oXoXoX%X%X%XoXoXoX%X%X'.MXMXP.jX].e.| / K K K K K j j j j j | 1XXXXXXXX.iXNXjXqXq.+.+.+.+.q.~.q.~.8X~.~.^.^.E E E $X$XwXfX&Xr.Z.Z.Z.hXZ.hXhXhXhXo.8.8.r ' 4.,X6.,XaX-.-.-.-.-.-.6.e.aX4.^ ^   o - N ,Xe.mX-.-.-.-.-.-.-.-.6.6.,X4.^ ^ - N o.o r r r - - - - - - - - - - - - - - - - - - - - - - - - - o o o - - - - $.- - - - r N $ o r r - o - - - o d   o o N N AXAXAXl.=Xm.h.d.d.uXh.n.n.n.gXn.gXn.gXn.gXgXgXgXn.n.h.n.n.f.n.f.M.M.f.{.x.hXhX$.hXo.8.8.o.hXAXzX(.=XGX#.P P z z z z z z z z z z z z i.z z z z i.Y Y i.z z z i.z z z z i.z z z i.z z P z z i.z i.i.i.i.i.P P ",
"-   ^   - o ^   - ^ - ^   - - ^   ^ - ^ - - - - - o - - - o - - - o - - - o - - - o - - - o - - - o - - - o - - - o - - - o - - - o - - - o - - - o - - - o - - - o - - - o - - - o - - - o - - - o - - - o - - - o - - - o - - - o - - - o - - - o - - - o - - - o - - - o - - - - -       ^   - - $.$.$.$.$.$.$.- - o - - - - ^ $.$.$.8.8.8.8.8.o.8.o N $.$.$.AX6X6.e.K.XXXXXXN.N.N.N.N.N.N.N.N.XXN.N.N.N.N.N.N.N.N.N.BXBXBXB.B.B.B.IXIXP.MX^.] A A ) A A A A A A A A ) A A A A A A ] %X%X%X%XoXoX%X%X%X'.'.MXKXjX].4X| ..K K K K / / / j / 1XK.XXXXXXX.iXjXKXq.+.+.+.+.+.+.+.q.q.q.q.q.~.~.^.0.E $X$XVX>XtX3XhXo.o.o.hXJ o.o.8.o.8.- - ' ^ aX,X6.,X-.-.-.-.-.-.mXsX,X4.^ ^   o o   ,Xe.mX-.-.-.-.-.-.-.,XsX6.aX4.^ ^ - N o - r ^ - o - - - - - - o - - - o - - - o - - - o - - - o - - - o - - - - - N - - - - o o o - - N N N $.$.- r - - $.$.$.AXx.x.f.h.h.h.h.uXuXn.n.n.n.n.n.n.gXn.gXgXgXgXn.gXn.n.n.n.n.n.h.h.M.f.f.x.x.x.k.hXhX$.8.o.hX$.zXW.=Xm.J.b.P z z z z i.z z z z z P z z z z z i.i.i.i.i.i.z z z z z z z i.i.z z z z z z z z i.z z i.i.i.z P P ",
"- - - - ^   ^ - ^   -   - ^ o - - - o - - - - - - - - - - - - - - - - - - - - - - - - - - - - - - - - - - - - - - - - - - - - - - - - - - - - - - - - - - - - - - - - - - - - - - - - - - - - - - - - - - - - - - - - - - - - - - - - - - - - - - - - - - - - - - - - - - - - - - -   - ^   - - - N $.$.$.$.8.$.8.8.8.- o o - - ^ ^ ^ ^ - - 8.8.o o - - - - ^ N 6X4XK.X.X.XXXXXXN.N.N.N.N.N.N.N.N.N.N.N.N.N.N.N.N.N.BXBXBXBXB.B.B.B.IXNXNXMXKX^.] A ] A A A A A A A A ) ) ) A oXA A A oX] %X] oX%X%X%X%X%X%X%X%XMXMXKXjXnXe...K K K j / / / | 1XK.X.XXX.iXjXKXq.q.+.+.+.+.+.q.q.q.q.q.q.q.q.~.^.^.0.vXpXVX>XtX0X$.r r N o.o.o.8.o o o o - ^ ^ J ,X6.,X-.-.-.-.-.-.,XsX6.aX4.^ ^     4.,X| mX-.-.-.-.-.-.mXsXe.6.4.^ ^ ^ - o o - - r - o - - - - - - - - - - - - - - - - - - - - - - - o - o - - - - - - - - - - - N N - - N N $.$.zX$.$.$.$.$.$.AXAXx.m.f.M.M.uXh.uXn.n.n.n.n.G.n.n.n.n.gXn.gXn.gXn.n.n.n.n.n.n.n.n.h.h.h.f.f.m.m.x.x.hX$.hXhXhX$.zXW.=Xm.J.b.P z z i.i.z z z z P P P P z z z z z i.i.i.i.z z z z z P z z i.z z z z z P z z z z z z z i.z z P P ",
"- - ^   - - - - - ^ - ^ - - - - - - ^ - - - o - - - - - - - - - - - - - - - - - - - - - - - - - - - - - - - - - - - - - - - - - - - - - - - - - - - - - - - - - - - - - - - - - - - - - - - - - - - - - - - - - - - - - - - - - - - - - - - - - - - - - - - - - - - - - - - - - - - - - o o -   - - ^ $.$.$.$.8.$.8.8.8.8.o - - ^ ^ ^ ^ - - o o - - - - o -   J e.X.BXBXBXBXBXXXXXN.N.N.N.N.N.N.N.N.N.N.XXXXXXXXBXBXBXB.B.B.B.B.B.IXIXNXP.P.MX] ] A A ) ) ) ) ) ) ) ) ] ) ] ] ] A ) A ] ] ] ] ] oX%X%XoX%X%X%X%X%X%XMXKXjXnXe.sXK K K K ..| | K.X.X.X.iXiXjXq.q.+.q.q.q.q.q.q.q.+.qX+.+.+.+.+.~.^.^.E pXpXVX>Xx.$.' r o d o.8.o 8.  $   o - ^ 4.,X6.,X-.-.-.-.-.-.-.,Xe.,X4.^ ^   $ 4.,XsXmX-.-.-.-.-.-.mX4Xe.,X^ ^ ^ o o o o - r - o - - - - o - - - - - - - - - - - - - - - - - - o - o - - o - - - - - - - o N N N N - $.$.$.zXzXAXAXhXhXAXhXx.x.f.f.h.h.uXh.5Xn.5Xn.G.n.n.n.n.n.n.n.n.gXn.gXn.gXn.gXn.n.n.n.n.n.n.h.n.h.h.h.f.h.f.m.x.x.x.x.hXW.W.=Xm.E.).P P z z i.i.i.z z z z P P z z z z i.i.i.i.z z z z z z z P z z z P z z P P P z z z z z z z z z P P ",
"- - - - - - ^   ^   ^ o - ^ - - - N - - - - - - - - - - - - - - - - - - - - - - - - - - - - - - - - - - - - - - - - - - - - - - - - - - - - - - - - - - - - - - - - - - - - - - - - - - - - - - - - - - - - - - - - - - - - - - - - - - - - - - - - - - - - - - - - - - - - - - - -   - o - o - - ^ ^ $.$.$.$.$.8.8.8.8.8.o - - 4.^ 4.^   o 8.- - r r - - o   V e.X.B.B.B.BXBXBXXXN.XXN.N.N.N.N.N.N.N.XXXXBXBXBXB.B.B.B.B.B.B.IXIXIXNXP.P.MXKX^.] ] ] ) ] ] ^.] ^.^.^.^.^.] ] ] ] ] ) A ) ] ] ] ] oX] oXoXoXoXoXoXoX%XMXMXwX4Xe.2X..K ....| K.X.X.X.NXiXjXKXq.+.q.+.q.q.q.q.q.q.q.+.+.+.+.+.+.q.^.^.vXvX$XJXVX{.hX$.- o d o.o.8.o d d $ o - ^ ^ aX6.sXmX-.-.-.-.-.-.-.| 6.aX^ ^ 4.4.4.,XsX-.-.-.-.-.-.aXsX4X6.aX^ ^ 4.  o o - - r - r - - - - - - - - - - - - - - - - - - - - - - - - - - o - - - - - - N - - N N N N - $.$.zXzXzXAXl.x.x.x.6Xf.f.f.f.h.n.5Xn.n.n.uXn.n.n.n.uXn.n.n.n.n.GXn.gXn.gXn.gXn.gXgXn.n.gXn.n.n.n.n.n.h.n.h.h.M.M.bXf.f.x.l.W.=Xh.a.b.P z z i.z i.z z z P z P z z z z z z i.i.z z z z z z z P P P z P P P P z P z z z z z z i.z z z P P ",
"- - - - ^   - ^ - - - - - o - - - - - N - - - - - - o - - - - o - - - o - - - o - - - o - - - o - - - o - - - o - - - o - - - o - - - o - - - o - - - o - - - o - - - o - - - o - - - o - - - o - - - o - - - o - - - o - - - o - - - o - - - o - - - - o - - - - o - - - - o - - - - - - o - o o - ^ ^ - $.$.$.8.8.8.8.8.8.o ^ ^ ^ ^ 4.- o o - - r r - - o   F K.NXB.B.B.B.B.BXBXBXXXN.N.N.N.N.N.XXXXXXBXBXBXB.B.B.B.B.B.B.IXIXIXP.P.P.P.KXMX^.] ] ] ] ^.'.^.^.^.^.'.^.^.^.^.^.] ) ] A ) ) ) A A A A oXoXoXoXoXoXoX%X%XMXMXwXnX4X| 2X..| 4XK.X.X.NXiXjXKXq.+.+.+.q.+.q.+.q.+.+.+.+.+.+.+.+.+.+.~.~.^.vXvXJXVX>Xx.hXo o o.d 8.o.8.d     o r ' ^ aX,XsXsXmX-.-.-.-.-.-.sX6.,X4.^ 4.4.V ,XsX-.-.-.-.-.-.,XsX4X6.4.^ ^ N N o - - - - - r - - - - - - - - - - - - - - - - - - - - - - - - - - - - - - - - - - - - - o N - $.zX$.AXAXAXx.x.f.f.f.f.f.h.h.h.h.n.n.n.n.n.n.n.n.n.n.n.n.n.n.gXn.gXgXgXgXgXgXgXgXgXgXgXgXn.n.n.gXn.n.n.n.n.n.h.h.d.f.f.f.f.x.=Xh.E.b.P P z i.z i.z z z z P z z z z z z z z z i.z z z z z z z P P P P P ! P P z z z z z i.z i.i.i.z z z z ",
"- - - - o - ^   -   ^   ^ - - - N - $.- - - - - - ^ - - - - - ^ - - - ^ - - - ^ - - - ^ - - - ^ - - - ^ - - - ^ - - - ^ - - - ^ - - - ^ - - - ^ - - - ^ - - - ^ - - - ^ - - - ^ - - - ^ - - - ^ - - - ^ - - - ^ - - - ^ - - - ^ - - - ^ - - - ^ - - - - ^ - - - - ^ - - - - ^ - - - - o o - o - - - - - ^ o - 8.N 8.8.8.8.o - o ^ ^ ^ ^ o o o r - r r r - o o V K.IXB.UXB.B.B.B.B.BXBXXXXXXXXXXXXXBXBXBXBXB.B.B.B.B.B.UXIXIXIXP.P.P.P.P.P.P.MX^.^.'.^.^.^.MXxXxXxXxXxXMXxXxX^.^.^.] ) A ) A A ) A A A A A oXoXoXoXoX%X%X%XMXMXwXyX4XsXsX| K.X.X.X.iXjXKXq.q.+.+.+.+.+.+.+.+.+.+.+.+.+.+.+.C.C.~.~.~.^.0.E E VX>XtX3X8.8.8.o.8.8.8.o.o o.N r ' 4.4.aX6.sXmXmX-.-.-.-.-.,X6.,X4.^ ^ 4.R 6.sX-.-.-.-.-.aX,X6.e.aX^ ^ 4.N o - - - o o o - - - - - - - - - - - - - o ^ o - - - - - - - - - - - - - - - - - - - - - - - - $.^ $.AXAXl.x.m.f.h.h.h.m.h.m.n.n.n.n.gXgXgXgXn.gXgXgXgXgXgXgXgXgXgXgXgXgXgXgXgXGXgXgXgXgXgXGXgXGXn.gXgXn.gXn.n.h.h.h.h.f.f.h.f.h.I.1.).P P z i.i.z z z P P z z z z z z z z z i.i.i.z z z z P P P P P *.P P ! P P z z z z i.i.z i.i.i.i.z z ",
"- - - - -   - - - - - - - - - - - - - - - o ^ - - o - - - - - o - - - o - - - o - - - o - - - o - - - o - - - o - - - o - - - o - - - o - - - o - - - o - - - o - - - o - - - o - - - o - - - o - - - o - - - o - - - o - - - o - - - o - - - o - - - - o - - - - o - - - - o - - - - r - 8.o - o ^   ^   ^ - - - N 8.N - - - - ^   ^   - - - - - r - - - - o V nXNXIXB.UXB.B.B.B.B.BXBXBXBXXXBXBXBXBXB.B.B.B.B.B.B.B.IXIXIXP.P.P.P.P.P.P.P.KXMXxXxXxXxXxXwXwXwXwXwXwXwXwXwXxXxX^.] ] A A A A A A A A A A A A A oXoXoX%X%X%X'.MXwXnXj.bX4XK.X.iXiXjXKXKXq.+.+.+.+.+.+.+.+.+.C.C.C.C.x x x C.C.C.x ~.~.^.E E eXVX>XtX0X8.8.8.8.o.8.8.8.$.8.r r N 4.aX,XsXsXmX-.-.-.-.-.-.6.,X4.^ 4.s ,X6.sX-.-.-.-.-.mX6.6.6.aX^ ^ N o - - - - o o o o - - - o ^ - - - - - - - - - - - - - - - - - - - - - - - - - - - - - - - - - ^ $.$.zXAXAXx.m.f.h.h.h.gXn.gXGXgXgXgXgXgXGXgXgXgXgXgXgXgXgXgXgXgXgXGXGXGXGXGXGXGXGXGXGXgXgXgXgXgXn.GXn.gXn.gXn.n.n.n.n.n.n.n.h.d.I.1.b.P P z z i.z z z z z z z i.i.i.i.i.z z z i.i.i.z z z z P P P P *.p p P ! P P P z z z z z i.i.i.i.i.i.i.",
"- - - o - - -   ^   -   - o - o - - - - - - - - - - - - ^ o - ^ - - - - - - - - - - - - - - - - - - - - - - - - - - - - - - - - - - - - - - - - - - - - - - - - - - - - - - - - - - - - - - - - - - - - - - - - - - - - - - - - - - - - - - - - - - - - - - - - - - - - - - - - - - - - $.- - - o - -   ^   ^   - - - - $.- - - o -   r - r - r - - - - - - N J &XK.iXNXB.B.B.B.B.B.B.BXBXBXBXBXBXB.B.B.B.B.B.B.B.IXIXIXNXP.P.P.P.P.P.P.P.wXwXwXH.wX-X-X-XI.I.I.I.I.H.I.H.H.SXxXMX'.] A A A A ) A ) A A A A A A ] ] ] %X%X%X%XMXMXwX-XnXnXiXiXNXiXjXKXq.q.q.+.qX+.+.+.C.C.C.C.C.x x x x C.C.C.x x 8X~.~.~.E E VXVXtX0X0X8.o o o N $.$.$.$.N - ^ 4.4.4.sXsXmX-.-.-.aX-.4.,X,X4.^ 4.4.6.e.mX-.-.-.-.aX,X6.6.,X4.^ ^ - - - - o o o o.o.o o - - - - o ^ o ^ o ^ o - - - - - ^ o - - - - - - - - - - - - - o - o - o o N $.$.zXAXx.m.f.f.h.h.gXgXGXGXGXGXGXGXGXGXGXGXGXGXGXGXGXGXGXGXGXGXGXHXHXHXHXJ.HXJ.HXHXHXGXgXgXgXgXgXGXn.n.n.gXn.n.n.n.n.n.n.h.uXkX}.).).P z z z i.z z z z z z i.i.Y Y i.i.i.z i.i.i.i.z z z P P P P b.p u L *.P F.P P z z z z z i.z i.i.i.i.i.",
"- - - - o -   - -   - - - - - - o - 8.- - - N - - - - - - - - o - - - ^ o ^ - - - ^ o ^ - - - ^ o ^ - - - ^ o ^ - - - ^ o ^ - - - ^ o ^ - - - ^ o ^ - - - ^ o ^ - - - ^ o ^ - - - ^ o ^ - - - ^ o ^ - - - ^ o ^ - - - ^ o ^ - - - ^ o ^ - - - - ^ - - - ^ o ^ - - - ^ o ^ o ^ - - - - N 8.$.$.- - -   - ^   ^ ^ ^ ^ ^ ^ - $.- - - o o - r ^ ^ - - - N o - - - N Z.r.e.K.X.B.B.B.B.B.B.B.B.B.B.B.B.B.B.B.B.B.B.IXIXNXNXNXNXP.NXP.P.P.P.NXiXiXyXI.I.I.I.j.j.j.j.( d.j.d.j.I.H.;XSXxX'.] A A A A A ) ) A A A A A A A ] ] ] %X%X%X%X^.$X$X7XwXiXNXNXwXqXq.q.+.+.qX+.C.C.C.C.C.x x x x x x x C.C.C.x C.C.C.~.~.~.~.~.VX>XtX0X$.N   ^ ^ zX$.$.$.8.N ^ ^ 4.^ ,XsXsXmX-.-.-.aX-.aXaXaX4.^ 4.6.sX,X-.-.-.-.-.6.e.6.aX4.^ ^ ^ - - o 8.o 8.o o o N - - - - - - - - - - - - - o ^ o - - o ^ - - - - - - - - - - - - - - - o o N N $.AXAXx.f.f.f.h.gXGXGXGXHXHXHXHXHXHXHXHXHXGXHXHXGXHXHXHXHXHXHXHXHXu m I L I L L L J.HXGXgXgXgXgXn.GXgXn.n.n.n.n.gXgXn.n.uXkX}.).).! P z z z z z z z z z i.i.i.Y i.Y i.i.z z i.i.z z z P z z P P *.L HXHXL b.F.P P P P P P P z z z i.i.i.i.",
"- - o - - - -   - - - o - o - - - - - - o - - - o - N - o - - - - - - - - - N - - - - - - - - - - o - o - o - o - o - o - o - o - o - - o - - o - - o - - - - - o - - o - - - - - o - - - - - - - - - - - - - - - - - - - - - - - - - o - o - o - o - - o ^ - - ^ o - - - - - - - - ^ - $.$.$.o - o o     ^ 4.^ 4.^ ^ ^ ^ $.$.- 8.8.8.8.- r ^ - - o o o 8.o 8.$.$.N Z.6.4XX.BXBXB.B.B.B.B.B.B.B.B.B.B.B.B.IXIXIXNXNXP.P.P.NXP.NXNXNXNXiXyXj.j.( ( ( ( ( ( ( ( ( ( ( ( ( j.H.;XSXMX'.] A A A A ) ) A ) A A A A A A ] ] ] '.%X] ] .X0.E $XwXwXP.MXKXq.+.+.+.C.#XC.C.x x x x x x x x x x C.q.q.C.8XC.8XC.~.~.0.~.E E VXtX0X$.N ^ 4.^ zXzX$.$.N - ^ ^ zX4.aX,X6.,X-.-.-.,X-.-.aX,X4.4.4.6.6.-.-.-.-.-.,X6.e.6.4.^ ^ ^ ^ ^ ^ - N o - - o o o - ^ ^ - - - o - - - - ^ - ^ - ^ - ^ - - o o o o o - o - - - - - - o - o o N $.hXhXx.f.f.h.h.gXGXHXHXn u L L L J.u J.J.u J.m m m m n u m n u I u m u I I u I I p L J.HXGXgXgXgXgXgXn.gXn.n.n.n.n.gXgXDXCX}.).F.F.P P z z z z i.z z z z z z i.i.i.i.z z z z z i.i.z z z z z F.F.F.L HXHX} b.).F.F.F.F.! F.P P z z i.i.z i.",
"o - - o - o - - o - o - o - o - o - - 8.- - - - - - - - - - - - N - - - N - - ^ - N - - N - - o - - - - - - - - - - - - - - - - - - - - - - - - - - - - - o - - - - - - - o - N - - - - - - N - - - N - - N - - - - N - - - N - - o - - 8.o 8.o - r - ^ - ^ - ^ ^ - - - - - - - - - N ^ $.$.$.r r - o o - ^ ^ ^ ^ ^ ^ ^ zX$.$.$.8.8.o.o.8.$.$.- o o o.o o - - r ' ' $.hX6Xe.4XK.X.BXB.B.B.B.B.B.B.B.B.B.IXNXNXNXNXP.P.P.NXP.NXNXiXiXiXyXj.j.( ( ( ( ( ( ( ( ( ( ( ( ( j.a.;XPXPXMX'.] A A A A A ) ) A A A A A A A A ) ] ] ] ] ^..X0.0.~.$XKXwXKXq.q.+.C.C.C.C.C.x x x x C.C.+.C.C.x x x 8XC.8X~.~.~.8X~.~.0.0.E E VXtX3X$.- ^ ^ ^ ^ zX$.$.- - ^ ^ ^ ^ 4.R 6.6.,X-.-.-.-.-.mX,XaX4.4.` ,X-.-.-.-.-.,X6.6.Z.N ^ ^ ^ ^ ^ ^ ^ r r - 8.8.8.- ^ ^ ^ ^ - - - - - ^ N ^   ^ ^   ^ ^ N - o o 8.8.8.8.o - - - ^ ^ - - o o o.8.8.$.hXx.f.h.h.GXGXHXm m m u I I I L u L L I I Y I u m u I I u I I Y m m u m m I I O.I J.J.GXGXGXgXgXgXgXn.n.n.n.gXgXGXHXCX*.F.F.P P P P z P z z z z z z z z z i.i.z z P z P z z i.i.z z z i.z P ! F.} E.E.} }.).).).).).@.).F.P z z z i.i.z ",
"- - o - - - o - - - - - - - - - - - o - o 8.- - - - - - - - N - - - $.- - $.- - $.- - - - - - - - o - o - o - o o 8.o o 8.o 8.o 8.o 8.o o o - - - - - o - - - N - - - - - - - - - - - o - - - - - - - - - - - o - - - - o - - - - - - 8.8.8.o.8.- r r - ^ ^ ^ ^ - ^ - N - - - - - - ^ ^ ^ ^ ^ r r - o o - ^ ^ zXzXzXzXzXzXAX$.0X0X3X3X3Xo.8.$.8.8.o o.o o - - - $.' ' $.$.N V ` e.X.NXB.B.UXB.UXB.UXIXIXNXNXNXP.P.P.P.P.P.NXNXiXiXyXyXj.( ( ( ( ( ( ( ( ( ( ( ( ( ( I.a.;XPXPXSXMX'.] A A A A A ) A A A A A A A A ) A ] A ] ] .X0.0.0.^.^.KXq.q.8X8XC.C.x x x x x x x C.+.+.+.+.C.x x x C.C.~.~.~.~.~.~.E E E E $XVX>X3X8.r $.zX' $.$.^ ^ ^ ^ - ^ r r - $ R 6.6.,X-.-.-.-.,XsXaX4.4.R ,X-.-.-.-.-.,X,XZ.N N N ^ ^ zXzX^ zX' ' r 8.o.r r ^ ^ ^     - - - - - ^ ^ ^ ^ 4.^ ^ ^ ^ - o 8.8.8.8.8.8.o - ^ ^ $.$.- - o o 8.8.0Xk.{.f.h.GXHXHX5.m m m m m u u m I u m t u m t m m m I I I m I I m u m m I m I I J.I J.HXGXGXGXgXgXgXn.gXn.gXn.GXHXL *.P P P z z P ! P F.P P z i.i.i.z z z z i.z P P P z z z i.z z z z z F.F.).D.}.rXkXrX}.D.D.D.D.D.D.D.F.F.P z i.i.i.z ",
"o - - - o - - - - - o - o - o - o - - - 8.- o 8.- 8.o 8.- 8.$.- 8.- - - - - $.- N ^ $.- - o - o - o 8.- 8.o 8.- 8.o o 8.o o o o 8.o o 8.- 8.- 8.- - 8.- - - 8.- - - 8.- - 8.- - - 8.- - N - - o - o - - o - - - o - - - - - - - N - o - o 8.o.8.- - o o   o N N ^ ^ $.N $.$.r r ^ r ^ ^ ' ^ N N o o.o.o r ' $.$.zXzXzXzXl.k.x.tXtXL.#XL.3X0X$.$.$.8.8.8.8.8.8.hXhX0XhXx.hX$.$.N Z.6.e.K.NXB.UXB.IXNXX.NXNXjXNXP.P.P.P.P.P.NXiXyXyXj.j.( ( ( ( ( ( ( ( ( ( ( ( j.( j.a.1.@XPXPXSXMX'.] A A A A A A A ) A A A A A A A ) A ] ] ] .X0.0.0.^.^.KXq.q.8XC.C.x x C.C.C.C.x C.C.+.+.+.q.C.C.x x x C.~.~.~.~.E ~.E E E E ^.VX>XtX8.' $.$.zX$.N ^ ^ ^ N - - - - r o 3 R ,XmX-.-.-.aXmXmXmXaXs ` 6.aX-.-.-.,X,X,X4.' r $.$.:.zXzXzXzX^ ' r - 8.' ' ^ ^ ^ ^ o o o o - N $.^ ^ ^ ^ ^ ^ ^ ^ $.- o 8.8.8.d 8.o - ^ ^ ^ $.- - o 8.8.8.0Xk.{.h.d.HXHXm m m m m m m m I u I u u m m Y m m m m m m m I I I m m I m m m m m I I I J.HXHXHXGXgXGXGXGXn.gXgXd.} *.P P P z i.z P F.b.b.b.F.F.P P z z z z P z P P P z z z i.i.z z z P P F.).D.D.SXSXrXSXSXSXSXSXSX2.2.kXcXb.P P z i.z z ",
"- - - - r - - - - - r - - r - - - - - - - - - - - - - - - - - - - - - - - $.- - r - - - $.- - - 8.- - o - - - o - o r o r 8.r o r o 8.o r o r - - - - - - - - - - - - - - - - - - - - - r - - - - - - - - - - - - - - - - - - - - - - - 8.o o o - o o.o.o - - $.' $.$.$.$.' ' ' ' ' ' ' $.r 8.o o.o 8.8.r ' $.hXx.x.tX{.>X>XVXVXVXVX$X7XtXk.k.k.0X0X0X0X0X0Xk.k.tXtX{.{.x.hX$.$.$.J V ` nXiXNXNXjX].].jXNXP.P.P.P.P.NXNXjXiXyXyXj.j.( ( ( ( ( ( ( ( ( ( ( ( ( ( J.a.1.;XPXPXMXMX'.%XoXoXA ) A ) A ) A ) A ) A ) A ) A ) ] ] ] .X0.E 0.^.^.KXq.C.C.x x x C.C.+.+.+.C.C.C.C.+.+.+.C.C.x x x 8X~.~..X~.~.E E E E 0.^.$X>XtXhX' $.' $.N N ^ ^ ^ - - - o o - r - > ,XmXmX-.-.aX-.mXmX,Xz.~ 6.aX-.-.-.mX,XaX4.^ ^ $.$.8.hX3XhXhXN $.^ - - r r ^ ^ - - o o o 8.N $.^ ^ - ^ ^ ^ ^ ^ $.$.$.8.8.8.8.8.8.o - ^ $.zX^ ^ - - 8.8.8.hXx.f.d.d.HXm m m m m m m m m m m m m I m I m m m m m I m I m I I m I m I m I m m m m m I m u HXHXHXHXHXd.GXGXd.E.}.).F.P P z i.z z F.*.} } cXb.F.P z i.z z P P P z z z z z i.i.i.z P F.D.D.SXSXxXxXxXxXxXxXSXxXFX9X5X5X5XuX} b.! P i.i.z ",
"- - - - - - - - - - - - - - - - - - - - - r 8.- r 8.- r 8.- r - r 8.- - - - - - - $.- - - - - - - - - r - - r - r 8.r o r o r o r o r - - r - r - r - r 8.- r - 8.r - r - r - 8.r - r - - - - - - - - - - - - - - - - - - - - - - - - - r - o - - o o.o.8.8.$.$.$.$.$.hX$.$.zXzXzX$.hXhX$.8.8.8.8.8.8.8.8.8.0XtX>X7XVXVXJX$XvX$XvX^.xX$XVX>X{.{.{.{.tXtXlXtXtX>X7X7X7X7X>Xx.hXzXzX^ ^ J r.fX].].L.L.fXjXP.P.NXP.NXNXiXjXyXnXj.j.j.( ( ( ( ( ( ( ( ( ( ( ( ( ( J.a.1.;XPXPXSXMX'.'.%X%XoX] ) A ) ] ) ] ) ) ) ) A A ) ) ) ] ] ] .XE E 0.^.^.q.+.C.x x x C.C.+.+.+.+.+.C.x C.C.C.C.C.x x x x x ~.~.^.~.~.~.E E E vXvX$XVXL.hX$.$.' ^ N N ^ ^ r r r - o o - r r ^ aXmXsXmXaXaX-.mXmXmX,X6.6.aX-.-.,XmX,XaX^ ^ r $.8.3Xr.L.r.3XhX$.^ ^ - - 8.$.r r - o o 8.o N $.$.- - - - - ^ $.zX$.^ - - o 8.o - - - ^ ^ zX^ $.- r r 8.hXx.f.h.d.E.L m I m m m m m m m m m m m m m I I I m m m m m m I m I m m m I m I m m m m m m m m m m 5.u HXL HXE.E.1.D.@.).! P z z z P b.#.E.d.kX}.F.! P i.i.z P P P P z z z i.i.i.z P P F.SXSXxXxX'.'.'.'.'.^.^.$XpXT._.:X:X{ uX} F.P z i.z ",
"- - - - - - - - - - - - - - - r - - - - - - r - - r - - r - 8.- - - r - - - - - - - - - r - ^ - - - - - r - - - r - - r - r - r - r - - r 8.- - 8.- r - - r - r - - r 8.- r - - - r 8.- - - - - - - - - - - - - - - - - - - - - - - - - ^ ^ ^ - - - o.8.8.' $.$.hXhXx.x.x.AXAXAXx.6X6X6XZ.hXhX$.' ' r r 8.8.3XL.7XwXxXxXxXxXxX^.xX^.xXxXJXVXVXVXVX$XVXVXVXVXVXVXxXxXwXwX7X{.k.S.zXzX$.$.hXr.L.r.3X3XfXjXNXNXNXNXiXiXiXyX4Xj.j.( ( ( ( ( ( ( ( ( ( ( ( ( ( J.( J.1.@X;XPXMXMX'.%X%X%X%X%XoX] ] ] ) ) ] ) ] ] ] ] A ) ) ] ] ] ] 0.E E vX^.~.q.C.x x x x C.C.+.q.+.+.C.x x x C.C.C.C.x x x x 8X8X~.^.~.~.~.~.0.E E vX$XVX>X3X$.$.$.-   - ^ r r r r r - N - r r ^ 4.aXsXsX,XaX-.-.mXmX,X,X,X-.aXmXsXsX,X4.^ ' ^ $.0X3XL.#XL.r.3X$.^ ^ ^ N N r 8.8.8.8.8.o - $.$.$.- - r - r $.' $.zX$.^ r - - - - - r $.^ ^ ^ ^ ^ r $.hXx.f.h.d.E.L L m u m t t m t m m m m m m m I m I I I m m I m t m Y m m I I m m I m m m m m 5.m m m m m m u L L } } }.).@.).F.P P z P F.F.}.V.uXV.} F.! P z z z P P P z z i.z i.i.i.z P F.D.SXxX^..X.X) ] ^.^..X0.eXs.3.&.&.&.LXt.E.*.P z i.z ",
"- - - - - - r - - r - - r - - - - - - - r - - r - - r - - - r - r - - - r - - r - - - - - - - - ^ - - - - - - - - - - - - - - - - - - - - - - r - - 8.- r - 8.- - r - - - 8.r - r - - r - - - - - - - - - - - - - - - - - - - - - - - - ^ 4.^ ^ r r 8.$.$.hXhXx.6X6XbXbXbXh.bXh.bXbXbXbXbX6X6XAXzXzX' ' r 8.3XL.7XwXxXxXxX^.xXvXxXvXxX^.xXxX$X$XxXxXxXxX$XxX$XxXMXxXxXxXVX{.k.k.k.hXhXhX>.x.x.k.S.0XfXwXNXNXNXiXyXyXyXj.j.j.( ( ( ( ( ( ( ( j.( ( ( ( ( ( J.O.a.@XPXPXSXMX'.%X%X%X%X%X%X%X] ] .X.X.X.X.X.X) ] ] ] ] ) ] ] ] ^..XE E 0.^.~.C.x x x x x x C.+.+.+.+.C.x x x x C.C.C.C.C.8Xx C.8X~.q.~.q.~.~.0.E E vXeXVX>X3X8.$.$.-   ^ ^ - - r r r r - - r r ^ zXaX,XsX6.aX-.-.sXmX-.mXsXmX-.,XsX6.aX^ :.:.$.8.3X3X#X#X#X<X3X8.' ' zX^ ^ $.8.8.o 8.- r r r - $.- - 8.r 8.r $.' $.^ ^ ^ ^ - - - $.- ^ ^ ^ ^ ^ r $.$.hX6XbXd.E.L L I m m m m n n m m m m I I I I m I I I m m m m m Y m u m I m m I m I m I m m m m 5.m m 5.m m m I L p *.b.).).F.P P F.F.F.D.D.rXV.5XuX} b.P P z z P ! P P P z i.i.i.z z P ).D.SXxX^..X.X.X.X.X.X.X0.eXU.7.&.&.&.H  X{ uX} P z z z ",
"- - - r - - - - - - - - - - - - - r - - - - - - - - - - - - - - - 8.- 8.- - 8.- - - r - - ^ r ^ - ^ - ^ - ^ - ^ - ^ ^ ^ - ^ - ^ - ^ - r - - r - r - - - - r - r - 8.- r - - - r - - r - - r - - - - - - - - - - - - - - - - - - - - - ^   ^ ^ ^ ' ' $.hXhX6X6XbXj.j.j.E.E.( ( ( E.a.a.a.E.( ( m.=X=XzXzX:.' hXr.>X7X7XVXVXVXpX$XvXxXxXvXxX$X$X$X$XMX$X^.$X^.^.xX'.xXxXxXVXT.lXk.k.x.x.x.l.OXl.p.,.l.M.wXNXiXiXyXj.j.j.( ( ( ( ( ( ( ( ( ( j.( ( ( ( ( E.J.a.1.1.D.PXSXMX'.%X%XoX%X%X%X'.] ] .X.X0..X.X.X.X.X.X] ] ] ] ] ] ] '.0.E E ^.$X~.C.x x x x w.x x C.C.C.x x x w.x x C.+.+.+.+.+.C.C.+.q.q.q.q.8X~.E E E E $XVX>X3X8.8.r -   ^ - o o 8.r r $.$.$.$.' ^ zXzXaX,Xe.6.,X-.sXmXmXmXsX-.mXsXe.,XaX^ :.$.o.o.0X3X#X#X+.#X<X3X0X$.zXzX^ $.8.8.o - r r ' r - - o 8.8.o 8.8.r - - ^ r ^ ^ ^ ^ ^ r $.- ^ ^ ^ - ^ $.hXx.f.d.E.E.I I m u m t n 5.m m u I I I I I I m m m m m m m m t m t I m m m I m I I u I t m m m m m m m 5.m m u L p *.P P P P P ).).D.D.SXSXSX-XuXuXkX*.P P P z P P P P P z i.i.i.z P ).D.SXxXxX^..X.X.X.X.X.XvXeXU.7.3.&.&.&.&.&.{ h } *.P P z ",
"r r - r - r - r r - r r - r r r - r - r r - r r - r r - r r r r - r r - r r r - r r - r r r - r ^ - - - ^ ^ ^ ^ ^ ^ - ^ r ^ ^ - ^ r ^ - r - r r r r r r r r r r r r r r r r r r 8.r r r - r - r r r r r r r r r r r r r r r r r r - r - ^   ^ ' :.$.hX6X6XbXj.I.E.a.a.O.J.J.J.J.J.J.O.O.O.J.J.( GXm.=XzXzX:.$.hXx.{.{.>X{.T.>XVXJXxXxXxX$XVXVXVXVXVXVXVXVX$X$X$XxXMXxXxXVXT.lXlXk.k.>.A.LXLXLXp.p.l.M.H.iXyXyXj.j.( ( ( ( ( ( ( ( ( ( ( ( ( ( j.( E.( E.a.1.;XD.PXSXMXMX'.%XoXoX%X%X%X'.^..X0.0.0.0.0.0.0.0..X.X] ] ] ] ] ] ^..XE E 0.$X8XC.x x x w.w.x x x C.x x x x x x C.C.+.+.+.+.+.C.C.C.+.q.+.+.8X~.0.0.0.vXE VX>X3X8.8.r -   ^ - o o.8.8.8.8.3XhXhX$.$.zXzXzXaX6.e.6.mXmXmXsXsXsX-.mXsX4X,XaXJ J Z.r.3X3X3X#XC.+.+.#X<X3XhXAXzX' ' $.- r r r ' ^ ' $.- - 8.o 8.8.- 8.r - ^ - ^ ^ ^ ^ ^ $.$.r ^ ^ - - r hXhXf.d.d.E.J.m u m I m m m m m m m I I I I I I m m m m m m 5.m m t I u m m m m I m I u I I I I m m m m m m m m I I p z z z z P F.).D.SXSXSXxXxXJX-XV.kX}.F.F.F.! ! F.P P z z i.i.i.z P @.PXSXxX^..X.X.X.X.X.X.X0.pXs.3.&.&.&.&.&.H { uX} P P z i.",
"r r r - r - r - r - r - r - - r - r - r - r - - r - r - r - - - r - - r o r - r 8.- r - - r r r r - r r r r r r r ^ ^ ^ ^ ^ r ^ ^ ^ ^ r - r r - r 8.r r - r - r r - r r - r r r r r - r - r - r - r - r - r - r - r - r - r - r - r - r - - - ' ' zXaX6Xj.I.a.a.O.J.I I m m m m J.J.I J.m I J.J.HXd.m.=XzXzX$.$.hXhXhX0X0Xk.tX>XVXJXxXxX$XVXtXlXtXtXlXtX>XVXVXVX$X$XJXJXR.T._.A.A.A.p.p.H  XH p.LXOXM.-XyXj.j.j.( ( ( ( ( ( ( ( ( ( ( ( ( ( ( ( ( j.E.a.1.;XPXPXSXMXMX'.%X%X%XoX%X%X'.^..X0.E E E E E E E 0.0..X] ] ] ] ] ] '..XE E vX~.8XC.x w.x w.x x x C.x x x x x x x x C.C.C.+.C.C.C.C.+.+.+.+.8X8X~.0.0..X^.E VX>X3X8.8.' r   ^ - - 8.o o.o.3Xr.3X3XhX$.zX^ ^ 4.,Xe.e.mXmXmXsXsXsX-.-.sX| sX,X6.6.L.L.r.3X<X#XC.+.+.C.<X<X3X3X$.' $.' ' $.^ ^ zX$.$.^ $.- 8.o 8.8.8.r $.- - ^ - ^ ^ ^ ^ ' $.r r r - r $.hXx.f.d.E.J.m m m m I I m m m m I m I m I m m m m I Y Y m m m m m m t I m m m m m m m I I u I m m m m m m m m I I L ZXz z z z P F.D.SXxXxX^.^.xXxXJXFXSXSXD.D.D.).).F.F.z z i.i.i.i.z F.@.PXSXxX^..X.X.X.X.X.X.XvXpXs.3.&.&.&.&.&.&.{ uX}.F.P i.Y ",
"r - r r - r - r - r - r - r r - r - r - r - r r r r - r r - r r r - r - r 8.r o r r - r - r - r - r r - r ^ r ^ r r ^ r ^ r ^ ^ r ^ r r - r - r r r r r 8.r r - r r r r r - r r - r r r - r r r r r r r r r r r r r r r r r r r r r - r - - o ' zXAX6XbXI.a.O.O.m m m 5.5.5.5.5.5.5.5.m m m u I L E.d.m.=XzXzX^ - r r 8.8.0X0XtX>XVX$XxX$X>XtXk.>.>.k.k.lX{.>X>XT.T.lXT._._.A.A.p.H H H H H H &.OXf.-XI.I.j.bX( ( ( ( ( ( ( ( ( ( ( ( ( ( ( ( j.( a.a.1.;XPXPXPXMXMX'.%X%XoX%X%X%X] ^..X0.E E E E E E E E E 0..X] ] ] '.] ] ^..XE E E ~.8XC.x x x x x C.C.C.x x x x x x x x x x C.C.C.C.C.C.+.+.+.+.C.8X8X0..XvX^.E VX>X0X8.8.' ' ^ ^ ^ r 8.8.o.3XL.#XL.L.3X$.zXzXzX4.,X6.sXmX-.mXsXsXmX-.-.-.sXsXsXe.4XfXfXL.L.<X<X#XC.C.w.<X<X#XL.3XhX$.' ' zXzXzX$.AX$.$.$.r - 8.- 8.- $.$.$.- - - ^ ^ ^ ^ ^ ^ - - - - - $.hXx.bXE.E.u m 5.m m m I I I I I I I I m I I m m I Y Y i.Y m n m m m m m m m m m m m m m m I I I L I I I u I L I L O.ZXz z i.z F.D.SXxXxXvX.X.X.X^.xXxXxXxXSXSXSXD.D.).F.P i.i.i.i.i.z P ).PXSXxX^..X.X.X.X.X.X.X0.pXs.3.&.&.&.&.&.:Xt.kX}.! P i.Y ",
"r r r - r - r - r - r - r - r - r - r - r r r - r r r - r - r - - r o - r r r r r o r r - r - r - r - r - r r r r r - r r r r r r r r - r r r r - r - r r r r r 8.r - r r r r - r r r - r - r - r - r - r - r - r - r - r - r - r - r r 8.8.- ' zXAX6Xj.a.O.J.m 5.5.5.m 5.5.5.m m m m m 5.m m J.L } a.d.m.AXzX^ - r r 8.8.8.8.0XtX>X-XwXwXVX>XlXlXlXk.lXk.lXA.A.A.A.p.A.&.H H H &.H H H H H &._.%.H.;X;XyXj.j.j.J.( J.( HX( ( ( ( ( ( ( ( ( ( ( a.a.1.@XD.PXSXMXMX'.%X%X%X%X%X%X'..X.X0.E E E E E E E E E 0..X] '.] ] ] ] ^..X.XE E E ~.~.C.C.x x C.C.+.C.C.x w.x x x x x x x x x C.C.x x +.+.+.+.+.8X8XeX0.0..XvXE VX>X0X8.8.' ' ^ ^ ' r 8.o.3Xr.fXqX#XL.3X$.$.AXaXaX,X,X,X-.-.-.-.-.-.-.-.-.mX,XsXe.4XnX].fX#X#Xw.w.w.w.<X<Xw.C.qXfXr.N ^ ^ zX$.hXhX3XhXhX8.8.8.o 8.$.$.$.$.$.$.- - - ^ ^ ' zXr r - 8.8.8.$.AXm.d.E.L I m m m m I I m I I I I I I Y Y Y Y Y i.i.i.i.Y Y m m m m m m m m n m m m m I m m u I u I L L u L L L I I ZXZXz i.P F.D.SXxX.X.X.X.X.X.X^.^.xXxXxXxXxXSXSXD.F.P i.i.i.i.i.i.P ).D.SXxXxX^..X.X.X.X.X.X.XvXU.7.3.3.&.&.3.{ uXcXF.F.P z i.",
"- r - r - r - r - r - r - r - r - r - r r r ^ r - r - r r r - r - - - - - o r o r - - - - - o - o o o - r r r - - - r r - - - - - - - - - r - r r r r r r r - r r r r r r - r r r - r r - r r r r r r r r r r r r r r r r r r r r - r 8.r 8.' zXAX6XbX( J.I m 5.m m m 5.5.m m m m m m m J.5.m I L } a.E.d.m.AXzXr r 8.8.8.8.8.0X0XlX>X-X-X-XT.lX_.A.A.A.>.p.p.p.p.p.H H H H H H H &.H H H H p.t.V.;XPX@X1.a.1. .1.a.O.a.O.E.J.E.( j.j.( ( ( ( j.a. .@X@XPXPXSXMX'.'.%X%X%X%X'.] .X0.0.0.0.E E E E E E E E .X.X] %X] '.] ] ] ^..XE E E ~.~.C.x x x C.+.+.+.+.x x x x x x w.x x x x x x x x C.q.q.q.q.~.8XE 0.vX0.^.E VXtX0X0X8.8.$.zXzX^ - 8.8.3XL.#XqXqXqXL.r.r.Z.,X,X,X,XaX-.-.-.-.-.-.-.-.-.-.-.,X,Xe.e.fX].y.#Xw.w.w.w.<Xw.x +.qX#XL.o.- ^ $.$.hXr.r.r.3X8.8.8.r r - $.N $.$.r r - - r ^ ^ ' ' r - o.o.8.$.AXm.d.E.L I m m m m I J.I J.J.I I I ZXZXZXZXi.i.i.i.z i.i.Y m m m m m Y m t m m t m m Y Y Y Y I Y u u m u u u I L O.p ZXz z P D.SXxX^..X.X) .X.X.X.X^..X^.^.^.$XJXFX2.}.F.z i.i.i.z z z P ).D.SXxX^..X.X.X) .X.X.X0.E eXU.U.s.T.T.%.2.}.F.F.P P z ",
"r r r r r - r - r - r - r - r - r - r r - r r - ^ r r ^ r - r r - - - r r r r r - r r r o 8.o 8.o o.o o r r r r - - r r - - o o - - o o - r r r - r - r - r r r - r - r 8.r r r 8.r r - r - r - r - r - r - r - r - r - r - r - r r r - 8.r ' zXaXbX( J.J.m m m m 5.m 5.J.5.J.m u m J.m 5.J.J.m J.L E.E.d.h.AXzX$.8.8.8.8.3X8.0X0Xk.{.M.%.T.lXA.A.p.p.p.p.H =.H H H H H H H H H &.H H H H H LXt.H.PX@X@X@X@X .@X . .1.1.1.1.1.a.a.a.j.j.j.j.j.a. .@XPXD.PXSXMXMX'.%X%X%X%X'.] .X0.0.0.0.E E E 0.E E E E 0..X] '.] ] %X] ] .X] .X0.E eX~.~.C.x x x C.+.+.+.C.C.x x x C.x x x x x x x x x x +.q.KX^.~.$X$XE 0.0.vX.XE VXtX0X0X8.8.$.zXzX^ N 8.8.0XL.qXq.q.qXfXfX&X6.,XaXaXaX-.-.-.-.-.-.-.-.-.-.-.aXaX-.,X6.&X].].#Xw.w.w.<Xw.x C.+.+.#XL.o.- r 8.0X3XL.L.L.3X3Xo.8.r ' r N N $.r r 8.8.8.- - ^ ' :.r 8.o.o.8.$.AXbXE.} I m m m J.I I I I I J.I O.ZXZXi.ZXi.ZXi.i.i.z z i.Y Y I I m m I m m m t m Y Y p i.i.i.Y Y m Y t m t I I L I O.ZXz z F.D.SXxX.X.X.X.X.X.X.X.X.X.X.X.X^.vXpXT.5XkX}.P z z z z z i.z P ).D.SXxX^..X) ) ) .X.X.X0.0.0.E pXJXFXrXD.F.! P P P P ",
"r r - r r r r r r r r r r r r r r r r r r r r r r r r r r r r r r r r r r r r r r r r r o o.o o o o.o - r r r r - 8.- - 8.o o - r r - - r r r r r r r r r r r r r r r r r r r r r r r r r r r r r r r r r r r r r r r r r r r r r - r r 8.$.zXAX6XbX( J.m m m 5.5.m m m J.J.m J.J.m m m J.m m I J.J.L E.E.h.=XzX$.o.8.8.8.3X3X3Xk.k.x.lXlX_.A.H H H H H =.H H p.H p.H H H H H &.H H H H H H LXf.H.PXPX@X@X@X@X@X@X@X@X).;X;X;X;X;X;X1.@X .yXa.@X@XPXPXPXPXSXMXMX'.%X%X%X'.^..X0.0.0.0.0.0.0.E E E E E E 0..X] '.] %X] %X] ] ^..X0.E E ~.~.8Xx x x x C.C.C.C.C.x x C.C.C.x x x x C.x x x x +.q.q.~.~.~.E E E 0.0.vXE VXtX0X8.0X8.$.$.$.$.^ ' 8.0XL.qXq.q.qXqX].nX6.,XaXaXaX-.-.-.-.-.-.-.-.-.-.aXaX-.-.-.aX6.&XfX#X#Xx w.<X<Xx +.+.+.<X3X8.8.8.0XtXL.#X#X#X<XL.3X3X8.r ' N N ^ r 8.8.8.o 8.- r ' ' r 8.o.8.8.$.6Xj.a.O.I m m J.I O.I I O.O.O.O.ZXZXZX .ZXZXZXb.z z P P z ZXZXZXI I I I I I L I I Y ZX*.z z z i.Y t t m n m m u I L p *.z P F.D.SX^..X.X.X) .X.X.X.X.X<..X) .XE U.v._.5XcXF.P P P z z i.z P F.).SXxXxX.X.X.X.X.X.X.X.X^.^.^.xXSXSXD.).! P P P P P ",
"r r r r r r r r r r r r r r r r r r r r r r r r r r r r r ^ r r r - r r ' r r - - - r r r r r 8.r 8.- r r r r r r - r - - o - - r - - o r r r r r r r r r r r r r r r r r r r r r r r r r r r r r r r r r r r r r r r r r r r r r r r r $.' zXAX6X( J.J.m m 5.5.m m J.J.J.u J.m m m 5.5.m m J.I J.J.J.E.E.d.=XW.l.hXhX0X0Xk.k.k.l.>.A.A.p.H H H H H H H H H H H H H H H H H H H H H H H =.H A.5X;XPXPX@X@X@X@X@X@X).@X@X@X@X@X@X@X@X@X@X@X@X@X@XPXPXD.;XH.-X$XxX'.'.'.'.^.0.0.E 0.0.0.0.0.E 0.E 0.E E 0.0.^.] ] ] ] oXoX] ] ] .X0.E E eX~.8XC.x x x x C.C.x x x C.C.+.C.C.x C.x x x x C.C.q.q.~.~.~.E E E E vX0.^.$X>XtX0X8.8.8.8.$.^ ' ' $.8.3X#XC.C.C.C.qX].&X6XaX-.aX-.-.-.-.-.-.-.-.-.-.-.aX-.-.-.-.-.,X6.fXy.#X#Xw.<Xx C.+.+.C.<X3X0X8.0XtX>X8X8X#X#Xy.#XL.r.3X8.- - ^ - r 8.o 8.8.8.o r ' ' - 8.8.8.8.hX6XI.a.O.I m J.I O.O.O.O.O.O. . . . . .1.1.1.}.}.}.b.).).).b. .ZXZXZXO.O.O.O.O.O.} L p *.*.P P P i.Y m m m m m m u L p *.z P F.D.SXxX^..X.X.X.X.X.X.X.X.X.X.X.XeXs.3.3.G.kX).F.P P z i.i.z P P F.}.rXSXxX^.^..X^.^.^.xXxXxXSXSXSXD.).F.P P z P z z ",
"r r r r r r r r r r r r r r r r r r r r r r r r r r r r r r r ^ o - - - - ^ - ^ - ^ - r ' r ' ' r r r - r r r r r r r r - 8.- r r r 8.o r r r r r r r r r r r r r r r r r r r r r r r r r r r r r r r r r r r r r r r r r r r r r r r r ' zXzX=XbX( J.J.m m 5.m m J.m J.J.J.J.J.m m m 5.5.m m J.O.J.a.} a.d.m.LXl.l.l.>.>.>.A.LXLXp.H H H H H H H H H H H H H  XH  XH H H H H  X X XH H H H A.5XH.;X;X;X1.1.@X@X@X@X@X@XPXPXPX@XPX@X@X@XPXPXPXPX@X;XH.M.{.lXT.VX$X^.'.^.0.E E E 0.0.0.0.0.0.E 0.E E 0.0..X] ] %X] %XoX%X] ] ] .X0.E E eX~.8X8Xx x x x x x x w.x C.+.+.+.C.C.x C.x x x C.+.q.q.~.~.~.E E E 0.0.vX0.VX>XtX8.' 8.8.o - - $.$.$.3XL.#X#Xx x #XqXfX&X,XaX-.-.-.-.-.-.-.-.-.-.-.-.-.aXaX-.-.-.-.-.,X&X].y.#Xw.C.+.+.+.+.#X<X3X0X0XtXtXVX8X8X8XC.+.y.#XL.r.o.N N ^ - r 8.8.8.8.8.- r ' r o o r ' $.AXbXa.O.O.I m O.O.ZX .ZXZX . . . . . .;XH.H.H.kXH.rXrXD.D.).).b. . . . . . .ZXO.O.} E.E.} } *.F.F.*.Y m m 5.m m Y m m L p *.F.).D.SXxXxXvX.X.X.X.X.X.X.X.X) .X0.U.7.&.:X5XcX).).P P P z i.z P P P F.}.rXSXSXxXxXxXxXxXSXSXrX}.D.).F.P z i.z z z z z ",
"r r r r r r r r r r r r r r - r r r r r r r r r r r r r r r r r - - ^ - ^ - ^ $.^ ^ ^ ^ ^ ^ ^ ^ ^ - - r r r r r r r r r r - r r r r - - r r r r r r r r r r r r r r r r r r r r r r r r r r r r r r r r r r r r r r r r r r r r r r r ' ' zXzX=XbX( J.m m 5.m m m J.J.J.J.J.m J.m m 5.5.m m J.J.L a.} kXkXuXOXLXLXLXp.LXp. X X XH H H p.H p.H H H H H H H H H &.H H H H H H  XH  X XH H H p.A._.%.V.V.d.h.d.d.d.I.I.H.H.;X;X;X@X@X@XPX@XPXPXPXPX;XV.5XOXA.A._.lXVX$X$XE E eXE E 0.0.0.0.0.0.E 0.E 0.0..X^.] '.] %XoX%XoX] ] .X.X0.0.E E eX8X8Xx x x w.x x x w.w.C.+.+.C.C.C.x x x x x C.+.q.~.~.~.~.E E E vX0.$X$XVX>Xk.S.:.r - - - N $.$.$.3XL.#XC.x x #X].&X6XaX-.-.-.-.-.-.-.-.-.-.-.-.-.-.aX-.-.-.-.-.-.,X6.nX].#X#X+.+.+.+.+.L.3X0XS.0XtX>XVX$X8X8X8X+.C.#XL.r.o.N N ^ - r r 8.8.8.8.r r ' - o - ' :.AX6XbXa.O.I I O.O.ZX . .ZX . . . . . .@X;XH.H.kXH.H.kXkX;XD.D.b. . . . . . . . . .1.a.E.E./.kXcX}.b.*.Y I m m m m m m u u Y *.P F.D.SXSXxXvXvX.X.X.X.X.X.X.X.X0.eXs.3.&.{ /.}.).! P P P z z z z P P P F.F.D.D.SXSXSXSXD.D.D.b.*.P P P z i.i.i.z z z z ",
"r r r r r - r r - r r - r r r r r r r - r r r r - r r r r r r ^ r ^ - ^ $.^ ^ ' ^ ^ ^ ^ $.^ $.zX^ zX$.^ $.^ ' ' ' ' r - - - r r r r 8.- r r r r r ' r r ' r r r r r r r r r r r r r r r r r r r r r r r r r r r r r r r r r r r r r r ^ $.zXAX6X( J.J.J.m m m m m m I J.I J.J.m m n m t n t L L E.E.d.uXn.{ LXH H H p.H H H H H H H p.&.A.p.H p.H H H H H H H &.H H H H H H H H H H  XH H H &.A._.t.OXLXLXLXOXt.t.n.5XuX%.V.V.kXkXkXkXkXH.H.;XH.V.t.LXp.p.H p._.T.VXeXeXeXeXE 0.0.0.0.0.E 0.E 0.E 0.0..X] '.] %X%XoX%XoX] ) ] .X0.0.E E eX8X8X8Xx x x x C.x w.x C.C.C.C.C.x x x x x x C.C.+.q.~.~.~.E E 0.0.0.0.VXVX{.k.zXzXzX$.$.' $.$.AXS.0XtX#X#XC.x y.].&X,XaX-.-.-.-.-.-.-.-.aX-.-.-.-.-.-.aX-.-.-.-.-.-.,Xe.&XfX#X+.+.+.+.y.3XhX0Xk.k.lXVXJXJXeXeX8X8X#XL.L.3XhX$.N ^ ^ r - o 8.- 8.r r r - - r :.zXAXbXj.J.O.O.O.O. . . . . .ZX . . . . . . .1.1.H.kXH.I.kX1.;Xb. . . . . . . . . . . .1.a.E.kXE.kXcX} } L I m m m m m m t u Y p P F.).D.SXSXxX^.^..X.X.X.X0.0.E eXs._.&.:X5X2.F.F.P P z z z z z z z z z z P F.).).@.D.).D.F.F.P z z P P z i.i.i.i.i.i.i.",
"r r r r r r r r r r r r r r r r r r r r r r r r r r r r r ^ r r ' ^ ^ $.^ ^ ' ' ' zX^ zXzXzXzXzX' zXzXzXzXzX' ^ ' ^ $.$.$.$.$.- $.- N N r r r ' r r r r r r r r r r r r r r r r r r r r r r r r r r r r r r r r r r r r r r r r r r r ^ $.AXaXbXj.a.O.I m m m I m I I O.O.O.I I m t t t u CXCXCX/.uX{ LX XH H H H H H H H H H H H &.A.A.p.&.p.H H p.H H H H &.H H H H H H H H H H H H H &.&.H H H &.H H  X X X X:X:X:X:X`.`.{ |.|.|.|.t.5X%.V.%.t.LXH H H p.&._.T.U.eXeXeXE 0.0.0.0.0.0.E E 0.E 0.0..X^.'.'.] %X%X%XoXoX] ] ] .X0.0.E E eX~.8X8X8Xx x C.+.C.C.x x C.C.x x x x x x x x x C.C.C.~.~.~.E 0.E E E $X$XVX{.m.=Xl.W.zXzX:.' $.zX9.S.3XL.#XC.+.y.].e.,XaX-.-.-.-.-.-.aX-.-.-.-.-.-.-.aXaXaX-.-.-.-.-.mXsX4XfXfX+.+.+.KX].r.Z.6X{.{.R.JXJXJXVXVX8X#X<XtX3X0X$.hX$.zX^ ^ - o o o r r r r - - ' :.AXm.d.a.O.O.O.ZXZX . . .ZXZXZX . . . . . . . . .1.#.1.a.a.1. . . . . . . . . . . . . .1.1.1.kXkXkXE.E.} L I I m m m m m t t u Y *.P F.).D.SXxXxX^..X.X0.eXU.U.s.v.3.&.&.t.uX}.F.P z i.i.i.i.z z z z z z z z P P ! P P P P P z z P P P z P z i.i.i.i.i.i.",
"r r r r r r r r r r r r r r r r r r r r r r r r r r r r r r ' ^ r ^ ^ ^ ^ zX^ ' ^ ^ zXAXzXzXzXzXzXzXzXAXAXAXzXzX' :.' ' ' ' ' ^ $.$.$.- r r r r r r r r r r ' r r r r r r r r r r r r r r r r r r r r r r r r r r r r r r r r r r r r ' $.AX6XbXa.1.#.O.I Y I Y I I O.O.ZXZX#.#.p L u HXDXl Z { :X:X XH H H H H H H  XH H H H H H H H H H p.H p.H H H H H H H H H H &.H H H H H H H H H &.&.H H &.&.&. X&.:X3.:X3.3.3.3.3.3.3.3.`.`.`.`.:X:X_._.:X&.H H &._.T.R.U.U.eXeXeXE 0.0.0.E E E 0.E 0.E 0.0..X] '.%X%X] oXoX%X%XoX] ] ] .X0.E E E eXE 8X8Xx C.C.+.+.+.+.x x C.x x x x x x w.x x x x C.8X~.~.~.E E E E pX$XFX%.uXn.n.m.=Xl.W.>.S.;.;.S.0XtX<Xw.+.jXjX6.aX-.-.-.-.-.-.-.-.-.-.-.-.-.-.-.-.-.aXaX-.-.-.-.mXsX4XnX].y.y.y.jXjX4XK.yXnX-X-X-XJXR.R.VX>X<XtX3X0X0X$.$.AX$.^ ^ r - o - r r r 8.- r ' zX=Xh.E.O.O.O.ZX . .ZX .ZX .ZX . .ZX . . . . . . . . .ZXZX . . . . . . . . . . . . . . . .;X1.1.kXkXE.E.E.O.I I m m m m m m u Y Y p *.F.).D.D.SXSXxXxXvXeXs._.3.3.&.&.:X{ uXkX).F.z i.i.i.Y i.i.z z z z z i.z z z z z z z z z z z P z z P z P z z i.i.z z ",
"r r r r r r r r r r r r r r r r r r r r r r r r r r r r r r r ' ^ ^ ^ ' ^ ^ zXzXzXAXAXaX6X6X6X6X6X6X6XaXaXaXAXAXzXzXzXzXzX' zX^ $.^ ^ ' r ' r r r r r r r r r r r r r r r r r r r r r r r r r r r r r r r r r r r r r r r r r r r r r ' ' AX6Xj.a.1.#.ZXp Y Y I O.ZXO.ZX#.#.1.#.} E.GXn.n.{ :X X X X XH H H H H H H H H H H H H H H H H H H H H H H H H H H H H H H H H H H H H &.&.&.&.&.&.&.&.&.3.&.3.`.3.`.7.3.3.3.3.3.3.3.3.3.3.`.3.&.H  X&.&.3.&.&.&._.R.xXeXeXeXeXE E E E E E E E E E E 0.0..X^.'.'.%X%X%X%X%XoXoX%X] %X] .X.X0.E E ~.~.~.8XC.C.C.+.+.+.C.C.C.x x x x C.x x x w.w.w.x C.8X~.E E E E E eX$XJXFX9X/.DX!.uXn.n.OX{.x.l.>.0X3XtX<Xw.y.].nX6.-.-.-.-.-.-.-.-.aX-.-.-.-.-.-.-.-.-.aXaXaX-.-.-.-.sX4Xe.&XL.fX].iXiXK.4XK.yXyX-XM.5XlXlX>XtXtX3X3X8.8.8.$.$.N ^ ' ^ r ^ ^ ^ ' r 8.8.' zXAXm.( J.O.O.O. . . . . . .z  . . . . . . . . . . .ZX .ZX .ZX . . . . . . . . . . . . . . .b.1.1.} } } L L p p I I m m m m u u u Y Y *.P F.).).D.D.SXSXxXR.T._._.:X:X{ n.h CX}.).P z i.i.Y Y i.i.i.z z P P z P z z z i.z z z z z z z z z z z P P z z z z P ",
"r r r r r r r r r r r r r r r r r r r r r r r r r r r r r r r ' ^ ' ^ ^ zXzXAXAXaXZ.6X6XbXbXbXbXbXbXbXbXbX6X6X6XaXaXaXAXAXAXAXAXAXAXzX^ ^ r r r r r r r r r r r r r ' r r ' r r ' r r r r r r r r r r r r r r r ' r r r r r r r r r r ' ' AX6Xj.yX1.1.#.ZXZXZXY ZXZXZX#.a.a.a.I.d.n.t.LXLX XH  X X X X&.&.&.&.H H H H H H H p.H H H H H H H H H H H H H H H H H H H H H H H &.&.&.&.&.3.3.3.:X3.3.3.3.3.7.7.7.3.3.&.3.&.&.3.3.7.7.7.7.3.&.H H &.3.3.3.&.&.7.JXxXvXE 0.0.0.0.0.E E E E E 0.E 0.0.0..X'.'.'.%X'.%X%XoX%X%XoX%XoX'.] .X0.E E E E ~.~.8XC.C.C.C.+.C.C.x C.x x x C.C.x x x x w.x 8X~.~.~.E E E E vXJXJX9X/.1 C DXg !.!.uXuXM.f.{.tXL.L.L.<XfX].4X6.-.-.-.-.-.-.-.-.-.-.-.-.-.-.-.-.-.-.-.aXaX-.-.-.mXsXe.6.` Z.6.e.K.K.e.6.e.K.K.&X6XOXl.k.x.3X3X3X8.8.8.8.$.N - ^ ' ^ ^ ^ ^ ^ $.r 8.8.' zX=XbXE.I J.I O. . . . . .z  .P  . . . . . . . . . . . .ZX . .z  .ZX . . . . . . . . . . . . . .#.#.#.#.p ZXZXi.ZXY m m m m m m I I I p z P P P ).).D.;XrXFX%.5X5X5XG.!.DX} *.F.P P z z i.Y Y Y i.z z z P P P P P P P z z z P z P z z z z z z z z P z P P P ",
"r r r r r ' r ^ ' r ^ ' r ' r r r r r r r r r r r r r r r r ' r ^ ^ zXzXzXAXaX6XbXbXbX4Xj.j.j.j.j.4Xj.4Xj.4Xj.bXbX4XbXbX&X6X6X6X6XaXAXAXzXzXzX^ ^ ^ ' ^ ' ^ r r r r r r r r r r r r ' r ' r ' r ' r ' r ' r ^ ' r ^ ' r ' r r r r ' r ' ' AX6Xj.yX1.1.ZXZXp p Y p #.#.1.1.I.uXn.OXLX XH H p.&.&.:X&.&.H H H &.H H H &.H p.H H H H H  X XH H H H H H H H H H H H H H H H H &.H &.&.3.3.3.3.`.`.3.`.`.7.7.7.7.3.3.3.3.3.3.3.3.7.7.7.7.3.3.3.&.&.&.3.3.3.3.&.7.pXxX^.^.] ] .X.X0.E E E E E 0.E 0.0..X^.'.'.'.'.%X'.%X%X%X%X] ] %X%X] .X.X0.E E ~.~.~.8X8Xx x x x x x x x w.x 8XC.8XC.C.C.x 8X8X8X~.E E E E pXJXJXJX9X9X1 C C C C 8 c !.dX%.-X-X7X7X#XL.<XfXfXe.sX-.-.-.-.-.-.-.-.-.-.-.-.-.-.-.-.-.-.-.aXaX-.-.-.mX| 4Xe.e.e.e.sXsXmX,X,Xe.K.e.6.AXzXW.AXhXhXo.8.8.8.8.r r - - r r ^ ^ ^ $.zX$.r 8.8.' AX6Xj.a.I J.I ZX . . . .P  .P P P  . . . . . . . .b. .).b.P P P  .z  . . . . . . . . . . . . . .b. .b.ZXb.P P P ZXY I m m m m m I u I p ZXz P P P P F.F.D.D.rXrXrXD.}.}.F.F.P P z z z z i.Y Y i.i.z z z P P P P P P P z P z P P P z z z z z z z P z z z z P ",
"- r r r r ^ ^ ^ ^ ^ r ' r r r r r 8.r 8.r r r r r r r r r r r $.' ' AXAX6X6XbXbXj.j.j.j.j.j.j.j.j.j.j.j.j.j.j.j.j.j.j.j.j.bXbXbXbXbXbXbXbX6X6X6X6X6X6XaXaXAXN $.$.$.r ' r r r r r - r ' ' ^ ^ r ^ r ^ r ^ ^ ^ ^ :.^ ' r - - r r r r - r ' AX6XyXyX1.a.#.#.*.#.L } } E.d.n.n.t.LX XH H H H &.p.&.&.&.&.H H H &.&.&.3.&.&.&.&.&.H H H &.&.&.&.&.H H H H H H H H H H H H H H H H &.&.&.3.3.7.3.7.7.7.7.3.7.7.7.7.7.7.3.3.3.3.7.7.7.7.7.7.3.3.3.3.3.3.7.7.3.3.v.pXxX'.'.'.'.] ] ^.^.0.E 0.E 0.E E E ^.^.'.'.^.vX^.^.'.'.'.'.%X'.%X'.'.'.^..X0.E E E ~.~.8X8X8Xx #Xx 8Xw.8Xx x 8XC.8XC.C.8X8X8X8XeXE ~.E E pX$XJXFXFX9XD + C C C C C b b /.9X-XVX7X8X#X#XL.fX].4XmX-.-.-.-.-.-.-.mX-.-.-.-.4.-.-.-.-.-.-.-.aX-.-.-.mX2X1XK.4X6.,XmXmX-.-.mX..e.e.aXzXzXzXzXzX' 8.8.8.8.8.r r ' r - r r $.^ zX' ' 8.8.8.' AX6Xj.a.O.J.I ZX .b. .P  .P P P  .P P ZX . . . .b. .b. .).).).).P b. . . . . . . . . . . . . . . .b. .b.).).b.P P ZXY m m m m m m I m I ZXZXZXP P P z z P F.).).@.@.! F.F.P P z z z P z z i.i.i.z z z z z P P P P P P P z P P P z P z z z z P z z P P P z z ",
"- r r ^ ^ ^ ^ ' ^ ' ^ ' ' r r 8.8.8.8.8.r r r r r r r r - r r ' ' zXAX6XbXbXj.j.( ( ( ( ( ( ( j.( ( ( ( ( ( ( ( ( ( ( ( ( ( j.( j.j.j.j.j.j.j.j.bXbXbXbX6X6XaXZ.hXhX$.$.' 8.' r ' r ^ ^ ^ ' ^ ^ r ^ ^ ^ ^ ^ :.^ ^ ^ ' ^ $.$.r ' 8.8.o.N $.AX6Xj.yX@X1.#.#.#.} E.DXh n.{ :X:X X XH H H &.H H H H H H H H H &.H &.3.3.3.&.&.&.&.&.&.&.&.&.3.&.&.H H H H H H H H H H H H H H H H &.&.&.&.3.7.7.7.3.7.3.7.3.7.7.3.7.7.7.7.7.7.7.7.7.7.7.7.3.[.`.`.3.7.7.7.3.7.s.pXxX'.'.] ^.'.] ] ] ^..X.X.X0.0.0.0.^.'.xXvXpXU.pXE vX^.^.'.'.'.'.'.] '.'.^..X0.0.~.E ~.eX8XeX8X8X8X8X8X8X8X8X8X8X8X~.8X8X~.eXeXeXE E E $XJXJXFXrXrXrX4 k + C C C C 8 b /.9XJXVX8X8X#X#XfX].4X4XsX-.-.-.-.-.,XmXmXmX-.aX-.-.4.-.-.-.-.-.=X-.-.-.-.K 2XK.K.4X6.aX-.-.mX-.mX6.6.,X4.zXzXzXzXzX:.r o 8.8.r r - ' r 8.r r $.' ' ' ' 8.o.8.' $.6XbXa.O.L O.#.#.b.#. .b.b.b.P P P  .ZXZX . .b. .b.1.b.b.b.b.b.b.b.b. . . . . . . . . . . .@X .@X1.1.b.).b.#.b.b.P ZXI m m I I m m m I O.ZXZXP P z z i.i.P P F.! ! ! P P z z z P z z z z z z z z z z P z P P P P z P z z z z z z z z z i.z z P z P P P P z ",
"- r r r r r ^ ^ ^ ^ ' ^ ' ' ' r r 8.8.r - - - o - o o o - r ' ' zXAX6XbXj.j.j.j.( ( ( ( ( ( ( ( ( ( ( ( ( ( ( ( ( ( ( ( ( ( ( ( ( ( ( ( E.j.E.j.j.j.j.j.bXbXbX6X6X6XhXhX$.$.$.' :.:.' N - r r r ^ - ^ - ^ ^ ^ ' ^ - r - N $.$.' r $.N $.zXAX6Xj.;X@X;X1.1.} E.h { :X:X X XH H H H H &.&.&.H H H H H H H H  X&.:X:X3.:X3.3.&.&.&.&.&.3.3.&.&.&.H H H H H H H H H H H H H H &.&.&.&.&.3.3.7.7.7.7.3.7.3.3.3.3.7.7.7.3.7.7.7.7.7.7.7.3.7.3.7.`.[.7.[.7.7.7.7.s.pXxX'.'.'.] '.] '.%X] ] ] ] .X.X.X^.'.xXvXpXs.v.s.U.U.pXvXvX^.^.^.vXvX^.'.'.^..X0.E E E eXeXeXeX~.eX~.eX~.8X~.~.~.~.~.8X~.eXeXeXeXE E pX$XJXFXSXSXD.D.cXcXCX_ + 8 8 8 8 /.9XFX$X8Xq.qXy.].].K.4XsX-.-.-.mX6X,X,X,XmXmX,X,X,Xz.-.-.-.-.-.-.-.-.-.mX2X1XK.K.K.nX&X6X6XsXsX..6.,X4.^ ^ ' zXzXzX' $.N 8.8.8.- r r r 8.8.$.$.' ' ' $.8.o.8.' $.AXbXj.a.O.I p #.#.a.#.#.1.#.#.b.b.P ZX .ZX . . .1.a.1.1.1.1.b.b.b.b.b. . . . . . . . . .@X . .1.a.a.1.1.1.#.#.b.b.ZXO.I I I I I I m I I O.ZXb.P z z z i.z z P P z P P P P z z z z z z z z z z z z z z z z z z z z z z P z z z z z i.i.i.z z z z P P P P z ",
"r r 8.r r $.' ' $.$.$.$.$.$.r ' r r r r - - - - - o 8.o 8.r ' ' zXAX6XbXj.j.j.( ( ( ( ( ( ( ( ( ( ( ( ( ( ( ( ( ( ( ( ( ( ( ( ( ( ( j.( ( ( j.( ( ( ( ( ( j.j.j.bXbXbX6XAXAX$.' :.:.r o 8.r r r ' ^ ^ 4.^ $.' r 8.o.8.$.$.- ' ' zX$.$.zXzXzXx.M.H.;X;XH.kXuXn.{  X X X X&. X&.H  X X:X:X:X:X X XH H H H  X X:X`.`.`.`.:X:X:X&.&.&.&.3.&.&.&.&.H H H H H H H H H H H H H &.&.&.3.3.3.3.3.3.3.3.3.3.3.3.3.&.3.3.3.7.7.7.7.7.7.7.7.3.7.3.3.3.[.7.7.3.7.7.7.7.s.pX^.'.'.^.'.] '.%X] %X%X%X] ] ^.'.'.'.xXvXU.7.7.7.7._.7.s.U.pXpXU.U.U.pXJXxX'.'.^.vXE E eXeXE $X$XE ~.~.E ~.~.~.~.~.~.~.eX~.E E E E vX$XJXFXFXrXrXD.F.cXcXk D < g g b 8 /.FX$X$XqXqXqX].].e.e.e.sXmX-.-.6XmX,XaXaX,X,X,XmXz.-.-.-.-.-.-.-.-.-.-.mX2X1XK.jXjXy.].fX&X6X,X,XR 4.^ r r r - N ^ ' $.8.8.8.8.$.$.$.$.8.$.$.$.^ ' ^ r o.o.8.' zXAXm.( a.O.I L O.O.a.a.a.a.kXa.1.b. . . . . .b.1.1.1.a.1.1.#.1.b.b.b. .b. . .@X . . . . . . .1.a.a.a.a.1.1.a.#.b. .b.ZXZXO.ZXI O.I O.I I I O.ZXz P P z P P P P z z z z P ! P z i.z z z z z z z z z z z z z z z z z z z z z z z i.i.ZXi.i.i.z z z z P P P P ",
"r 8.- 8.8.r 8.$.$.$.$.$.$.$.$.$.$.' ^ ^ r r r r r 8.- - r r ' zXAXaX6XbXj.j.( ( ( ( ( ( ( ( ( ( ( ( ( ( ( ( ( ( ( ( ( ( ( ( ( ( ( ( ( ( d.( ( ( j.( ( ( ( ( ( ( E.j.j.j.bX6XAXzX$.N 8.8.8.8.8.r ' zXzXzX$.$.8.8.8.8.8.8.$.^ zXzXzXzXzX;.9.;.l.M.-XH.I.V.5Xt.LXH  X&.&.3.&.&.&. X:X:X{ |.|.{ { :X X XH  X X:X`.|.|.|.|.|.{ `.:X:X X&.&.&.&.&.&.&.&.H H H H H H H H H H  X&.3.3.`.3.`.`.3.3.3.3.3.3.&.&.&.&.&.3.3.`.7.`.7.7.7.7.3.3.3.3.3.&.3.3.7.7.7.7.7.7.s.pXvX'.'.'.'.'.] '.] ] ] ] '.] ] '.'.'.vXpXs.7.3.3.&.&.&.3.7.7.3.3.3.3.v.T.pXxXxXvXvXvXpXpXpXeXE 0.E E E 0.0.0.0.E E E E E E 0.0.0.0.vXJXJXFX2.2.cX4 4 k g g Y.Y.Y.Y.b b /.FX$X8X#X7X].nXe.6.6.sXsXmX-.aXaXaXAXzX9 J ,X,X,X-.-.z.-.-.-.-.-.-.-.mX2X2XK.K.jXKXKXq.qXL.3X' N N r r 8.8.8.8.N ' ' $.8.8.0X8.0X$.$.$.8.8.$.^ ^ ^ ^ ^ - o.8.' zXW.=X( J.O.O.I O.O.a.1.H.I.I.kXH.1. . . . .@X .@X .1.1.1.1.1.b.1.b.b.b. . . . . . . . . .@X . .a.a.a.a.1.1.a.#. . . . . .ZXZXZXZXZXO.O.I I I ZX*.b.P P P P ! P P z i.P P ! P P i.z z z z z z z z z z z z z z z z z z z z z i.i.i.i.Y Y i.i.z z i.i.z P P P ",
"r r 8.8.' 8.' ' ' $.$.$.$.$.' ' zX' ' ' ' r r r 8.r 8.r r ' ^ zXAX6XbXj.j.( ( bX( ( ( ( ( ( ( ( ( ( ( ( ( ( ( ( ( ( ( ( ( ( ( ( ( ( ( ( ( ( ( ( ( ( ( ( ( ( ( ( ( ( E.j.j.bX6XAXzX$.' 8.8.8.8.' ' zX:.zX:.' 8.8.8.8.8.hXAXaXaXAXAXW.W.;.>.l.l.{.M.M.5Xt.LX X X&.3.3.`.3.3.:X:X:X{ |.0 !.!.h G.|.{ :X:X:X`.{ |.+X+XY.Y.+X+XG.|.{ :X:X&.&.3.3.3.&.&.&. XH H H H H  X&.&.3.3.:X3.`.3.3.3.3.&.&.&.&.H &. XH H  X&.&.3.3.3.3.3.3.3.&.&.&.&.&.&.3.3.7.7.7.7.7.7.s.U.pXvX^.vX^.^.'.^.'.^.^.^.^.'.^.^.^.vXpXs.7.3.&.&.&.H &.&.3.3.3.&.&.&.&.3.7.s.U.U.pXpXpXpXpXpXeXeXeXE E 0.0.0.E E E E E E E 0.0.E eXpXR.R.%.dX!.!.l , Z G.G.G.+X+XG.G.+XdXVX7X#X#XfXfX&X,XaX,XsXsXsXmXmXaXzX[ 9 9 :.zX-.mXmX-.-.-.-.-.-.-.-.-.mX2X1XK.jXjXq.+.+.C.<X0X[ $.$.' 8.8.o.8.8.hX$.$.0X8.S.S.S.0XhX$.$.0X8.$.$.^ ^ ^ ^ ^ o r ' zX(.=XGXJ.O.p O.O.O.1.1.;XH.H.H.H.;X@X@X@X@X@X@X@X@X@X1.b.1.#.#.} #.#.#.#.1. . . . . . . . . . . .1.1. .@X . . . .b. . . . . . . . .ZX#.O.I I O.ZXZXb.b.b.F.F.! P P z z P P P P z z z z z z z z z z z z z z z i.z z z z z z i.i.i.Y i.i.i.z z z i.z P P !  .",
"' 8.' ' ' ' S.$.0X$.$.$.$.zXzXzX:.zXzXzX' ' r 8.8.8.8.r ' ' zXzXaX6XbXj.( ( ( ( ( ( j.( ( ( ( ( ( ( ( ( ( ( ( J.( J.( J.( J.J.J.J.J.J.J.( ( ( ( ( ( ( ( ( ( HX( HX( ( ( d.j.bX6XAXAX' ' 8.8.8.^ ^ zXzX:.:.' 8.8.0X0XZ.6XbXj.j.bXbXf.x.k.k.lXlXlXlXt._.A.&.&.3.3.3.3.3.3.`.:X`.|.G.l b g g b !.h G.|.|.|.|.+X+XY.Y.Y.Y.< g Y.+X|.|.`.:X3.3.3.3.3.3.3.&.H H H H  X&.&.3.3.3.3.3.3.3.3.&.&.&.&. XH H H H H H H  X&. X&.&.&.&.&.&.&.&.&.&.&.&.3.3.7.7.7.7.7.7.7.v.U.U.pXpXpXpXpXvXvXvXvXpXvXvXvXvXpXU.s.3.&.&.&.&.H H H H &.&.&.&.&.H H &.&.3.7.7.s.s.U.U.U.U.U.U.eXeXE E E E E eXE eXE E E E E eXU.s.v._.{ { { { { :X:X:X:X`.{ `.`.`.{ T.>X8Xx #XfX&X6.R 4.aX6.| sXmXmXmX9 9 9 9 [ :.4.,XsX-.aX-.-.-.-.-.-.mXK 2X1XX.jXqXq.+.C.#XtX0XS.$.$.$.$.0X3X0X0XhXhX0X0XS.S.0X0X0X3X0X0X0X8.$.$.zX^ ^ ^ ' r r $.zXzXW.m.E.O.O.L O.O.#.1.;X;XH.rX;X;X@X@X@X@X@X@X@X1.b.1.#.#.} L L L L p O.O.O.#. . . .ZX . . . . . . . .). .@X . . . . . . . . . . . . .ZXO.O.O.O.O.ZX#.*.b.b.F.P P z z z z z z z z i.z z z z z z z z z z z z z z z z z z z z i.i.i.i.i.z z z z z z P P  .a.",
"' ' ' $.$.$.hXhXZ.x.Z.x.AXAXAXzXzXzXzXzX' ' r 8.8.8.8.r ' ' zXAX6XbX( ( ( ( ( ( ( j.( ( ( ( ( ( ( ( ( ( ( J.J.J.J.J.J.J.J.J.J.J.J.J.J.J.J.J.( J.( J.J.J.J.( J.( HX( HX( ( ( j.bXf.AXzXS.$.$.$.zXzXzX^ :.:.' 8.hXhX6XbXj.a.1.1.1.H.-X-X>X{.lXlX_.A.&.H &.&._.`.3.3.3.3.`.`.`.|.0 c 8 1 8 8 1 g g Y.b Y.+XY.Y.Y.Y.< _ < < < < Y.l G.|.{ `.`.7.7.`.3.3.:X&.H H H &.&.3.3.3.7.3.3.3.&.&.&.&.&. XH H H H H H  XH H H H H H &.H H &.H &.&.&.3.3.7.[.7.[.7.7.7.7.7.7.7.7.7.7.v.s.s.s.s.s.s.s.U.U.s.T.v._.3.H H H H H H H H H H H H H  XH  X&.&.3.3.7.7.7.7.7.7.s.s.U.U.U.pXpXpXpXpXpXpXpXpXpXpXpXpXU.v.3.&.&. X:X:X X X X X X X X&. X&.&.3._.>XC.C.#XfXfX6.R 4.,X| K.| mXsXmXzXzX[ [ zXzX-.,XmX-.-.-.-.-.-.mXmXK 2X1XK.iX].qXqX8X8X>XtXk.k.0XhX0XhX3XtXk.k.k.k.k.>.S.0X0X0XtXr.3X0XhX8.$.$.zXzX^ ^ ' r r ' ' [ AXh.E.} L L I O.#.#.b.;X;X;XD.;X;X@X@X;X;X1.1.1.#.#.O.L u n n n m u I L O.O.O.O.O.ZXZXZX .b. .b. .@X .@X . . . . . . . . . . . . .ZX .ZXO.O.O.O.O.O.#.#.*.b.P ).P z i.i.z z z z z z z z z z z z z z z z z z z z P P P P P z ZXz z z z z z z z P P  .a.h.",
"' ' $.$.hXZ.6X&X&X&X&XbX&XbX6X6XaXAXzXzXzX:.' r 8.8.8.8.' $.zXAXbXj.( ( ( ( ( ( ( j.( d.( ( ( ( ( ( ( ( J.J.J.J.O.J.O.O.O.O.O.O.O.O.a.O.J.J.J.J.J.J.J.J.J.J.J.m ( ( J.( ( ( j.I.j.f.l.zX;.zXzXzXzX^ zX:.' $.hX6X&Xj.j.E.J.J.E.a.;X;XwX-XT._.A.&.H H &.&.&.3.3.`.`.`.`.`.|.|.+Xb < + C u.u.u.8 < < < D < < Y.8 8 8 8 C C C 8 8 c l G.|.|.`.7.7.7.7.`.3.&.&.&.H &.&.&.&.3.3.7.3.3.3.3.3.3.&. XH H H H H H H H H H H H H H &.H H H &.&.3.3.`.7.7.7.7.3.3.[.3.7.3.3.3.3.3.3.3.7.7.`.7.`.`.3.3.&.&.&.H H H H H  X X XH H H H H H H H &.&.3.3.3.3.3.3.3.3.3.3.3.7.7.7.s.s.s.U.U.U.U.U.U.U.U.U.s.s.7.3.&.&.&.&.:X:X:X:X X:X:X:X`.`.`.`.7._.T.8X+.+.y.y.].&X` aX,Xe.4X4XsXmXmXmXaXzXzXaX6X,X-.-.-.-.-.-.-.mXmX2X2X1X1XX.iXjXwXKX$X7X>X>X{.{.x.x.x.tXtXtXtXk.k.x.tXtXtXk.tXtXL.x.3XhX$.$.$.$.$.zXzX' ' r ' ' ' zXAXbXa.#.L Y L L L O.#.#.1.}.1.;X1.;X1.1.a.a.a.O.O.L u n n 5.5.5.n m u m J.J.J.O.I I O.O.O.ZX . . .b. . . . . . . . . .XX .XX . . . . . . .O.O.J.J.I L L p *.P P P P z i.i.z z z z z z z z z z i.z i.z z z z z z P P P P P P P P P P z z z P ! ! ).#.d.=X",
"zXzXAX6X6XbXbXj.j.j.j.j.j.4XbXbX6XaXAXzXzXzX' ' ' 8.8.8.' $.AXAXbXj.( ( ( ( ( ( ( ( ( ( ( ( ( ( J.J.J.J.J.J.O.O.O.O.O.O.O.O.O.O.O.O.O.O.O.O.I O.O.O.O.O.O.O.J.J.O.J.( ( J.E.j.j.j.bXm.AXzXzX' zX^ zX:.' $.hX6XbXbXj.J.J.J.L L } kXH.FX%._.3.&.&.H &.&.:X:X:X:X:X|.+X+X+X+X+X8 1 + C C u.u.C 8 8 8 8 + 8 + 8 C C C 8 C C 8 8 8 Y.c U +X|.`.7.7.7.7.3.3.&.&.H &.&.&.&.3.3.3.7.7.3.7.3.7.3.&.&.H H H H H H H H H H H &.&.H H &.H H &.&.&.3.3.`.3.`.3.3.3.3.3.7.3.3.3.3.&.&.&.3.3.3.3.&.&.&.&.H  X X X:X:X X X XH H  XH H H H H &.&.&.&.&.3.3.3.3.&.&.&.&.3.3.`.`.7.7.3.7.7.7.7.7.7.7.7.7.7.7.7.7.3.3.3.`.`.`.`.3.`.`.`.`.|.|.+X+XT.R.R.U.8X+.+.+.jXjX4X6.,X6X4X4Xj.4XsXsXsX,X,XaXsXsXaX-.-.-.-.-.mXmXmX2X2X1Xj.yXyXH.wXwXwXVXVX7X%.%.uXuXM.7X7X#X#X<X<XtX<XtX<XtXtXtXL.L.r.3XhX$.S.$.$.AXAXzX' ' $.' 8.$.hX6Xj.a.} L Y u u m m I I p } } O.O.O.J.O.J.O.J.L u u n m n n n n n n m m u J.m J.m J.m I I O.ZXZXZXZXZX . . . . . . . . . .@X . . .ZX . .ZX .O.O.O.O.I u u Y ZXb.P P P z z z z z z z z z z i.z i.z i.i.i.z z z z z P P P P P P P P ! P P ZXZX . .1.j.m.W.",
"AXAXaX6XbXj.4Xj.j.j.j.j.j.j.j.j.bXbX6XaXAXAXzX' ' ' ' S.' $.zXAXbXj.( ( ( ( ( ( ( ( ( ( ( ( ( J.J.J.O.J.O.O.O.O.O.O.O.O.O.O.O.O.O.O.O.O.O.I I O.O.O.O.J.O.O.O.O.O.J.J.J.( J.( ( d.d.bX6XAXzXzX' ' :.' zXhX6XbXj.j.J.J.m u Y } } kXdX5Xt.3.&.3.&.&. X:X`.{ { `.{ +XY.Y.Y.Y.g 8 8 C C C C C C C C C u.C C C C C C C C 8 8 8 8 + 8 8 c c +X|.`.7.3.7.3.3.&.&.&.&.&.&.3.3.3.7.3.7.7.7.7.`.3.&.H H H H H  XH H H H &.&.&.&.&.&.H &.H H H &.&.3.3.3.`.`.`.`.3.`.`.`.`.3.3.3.&.&.3.3.3.3.3.&. X X:X:X{ { t.t.{ :X X X X X XH H H H H &.&.&.&.&.&.&. X&. X:X:X{ |.|.|.{ `.:X&.&.&.&.&.3.3.3.3.3.3.3.3.3.3.`.3.`.7.`.`.`.|.|.+X+XY.Y.dX9X9XR.VXVX8XC.qXjXjXnXbXbXbXj.j.j.yXj.j.bXsXsXsXsX6X-.-.-.-.mXmXmXmX2X2X1Xj.j.E.I./.9XFX-XVX-XVX-X9X/./.-X7XqXq.q.C.x w.w.<X<X<X<X#X#XfXL.x.hXS.S.$.hXhXhXhX$.S.$.$.$.hX6XbXI.a.L u u t n 5.5.n m m m m u u n m n m u t m n n 5.n n n 5.n 5.5.n m m m 5.m 5.m J.m J.I I O.O.O.O.ZXZX . . . . . .@X .@X . . . . . .1. . . . .#.O.u n n u O.#.b.P P P z z z z z z z z z i.z i.i.i.i.i.i.i.z z z z P z P P P P ! F.*.L J.E.I.j.f.W.p.",
"AXaX6XbXj.j.j.j.j.( j.j.j.j.j.j.j.bXbXbX6X6XaXAX' ' S.' ' $.zXAXbXj.( ( ( ( ( ( ( ( ( ( ( ( J.J.O.O.O.O.O.O.O.O.O.J.I O.I O.O.O.O.O.I I I I I O.O.O.J.O.O.O.O.O.O.O.O.O.J.( ( ( ( j.j.j.6XAXzX' :.:.S.hX6XbXI.a.O.J.m u L p cXCX!.G.{ :X3.:X3.:X:X`.{ |.|.Z i U c c 8 < < + 8 C u.u.C C C C C u.u.U u.C C C C C C C 8 8 + + 1 8 8 8 b +X|.v.`.`.3.3.&.&.H &.&.&.3.`.3.`.`.`.`.`.`.3.7.3.&.&. X&. X&. X&. X&.&.&.3.3.3.3.&.&.&.&.&.&.&.&.:X:X`.`.`.`.`.`.`.`.`.`.`.:X:X:X`.{ { { { `.`.{ { |.G.h dX/.dXh { { { t.{ { :X X XH &.&.&.&.3.&.:X:X:X:X{ { G.!.Y.dXY.+X|.{ :X X X X&. XH &.H &.&.&.3.:X:X`.`.`.`.|.|.+XY.Y.Y.D D D 2.9X9XFXVXVX#X#XqXjXwXyXj.j.j.a.a.I.a.yXyXj.sXsXsXmXmXmXmXmXmXmXsX2X( 2X1Xj.j.E.d.!.!.dX%.9X-XVX-XJXFX2.9X%.VX8Xq.+.+.+.+.C.x x w.w.#X7X7XM.x.l.l.>.l.x.6Xx.k.>.S.$.AXhX6XbXI.a.} u n n n 5.5.5.5.5.5.5.5.m n 5.5.5.5.n n n 5.5.5.5.5.n 5.5.5.5.5.5.m 5.m 5.J.5.m m m m J.m J.I I I O.ZXZXZX . . . .@X@X . . . . .b.;X@X@X . . .ZXm 5.5.HXJ.a.1.b.F.P z P P P P z P z z z z z z i.z z i.z z z z z z z z P P F.).b.L GXm.m.m.6Xl.;.p.",
"6XbXbXj.j.j.( ( ( ( ( ( ( ( j.j.j.j.j.j.j.bX6X6XAX$.$.' :.' zXaXbXj.( ( ( ( HX( HX( ( ( ( ( J.O.O.O.O.O.J.O.I O.I O.I I O.I I I I I O.O.I I O.O.J.J.J.J.J.O.a.O.O.O.O.O.O.( ( ( ( ( j.j.sX6XaXzX' ' zXx.M.I.1.1.#.p L p } CX/.h G.{ :X:X3.:X`.`.{ |.|.+Xc c 8 + C u.C 8 + 8 C u.u.u.C 8 8 8 C u.U u.u.C C C C C C C 8 8 < < g 8 b C b c +X|.|.v.`.3.&.&.&.H &.&.3.`.{ { { `.`.`.`.`.3.3.3. X&.:X:X`.`.:X:X3.3.3.3.3.7.3.3.3.&.&.3.&.3.3.:X`.{ |.|.|.|.|.|.G.G.G.G.G.G.G.h !.Y.!.!.l l c g D D k k 4 k /.!.!./././.!.G.{ :X X:X:X`.{ { { { { G.h !.D 4 4 4 k k /.!.h G.{ :X X XH H  X X X X:X:X:X{ { { |.G.+XY.Y.D D D D k 4 2.2.FX-XVX>Xw.C.q.KXwXH.a.E.L } J.E.a.a.1.yXK.1X2X2XsXsX2X2X2X2X( ( O.O.a.a.d.uX!.!.c Y.dXdX%.R.VXJXFX2.9X%.>X>X#X+.+.+.+.+.C.C.x #X#X7X-XV.f.f.OXOX{.M.M.f.x.>.;.W.x.bXj.I.a.L L n n 5.5.5.5.m m 5.5.5.5.5.5.5.5.5.5.5.n 5.5.5.5.5.5.5.5.5.5.5.5.5.5.5.m 5.m m m m m m 5.m m m m J.m I I O.O. . . . .@X . . . . .1.;X;X@X@X@X .ZXI 5.5.HXGXd.d.E.} *.*.z P P P P P ! ! P P z z z i.z z z z P z z P z z P P F.b.E.gX=XW.;.;.;.9.,.p.",
"j.j.( ( ( ( ( ( ( ( ( ( ( ( ( ( j.j.j.j.j.j.j.bX6X6XhX$.' zXAX6Xj.j.( ( ( 5.( 5.( J.J.J.J.J.O.O.O.O.O.J.J.J.J.I O.I O.I I O.I O.I O.I I O.O.O.O.J.J.( J.O.O.O.O.O.O.O.O.J.J.J.( ( ( ( 4Xj.bX6XAXzXS.zXf.yX;X1.#.} #.*.cXCX/.h |.{ `.`.`.:X`.`.|.|.+Xc 8 + + 8 C C C C C C C C u.u.u.u.c C c u.U U u.u.C C C C C C C C Y.< < g b b c c c c +X+X|.`.3.&.&.H &.H &.:X:X|.|.|.|.|.|.`.`.`.`.`.`.`.`.t.|.T.v.`.:X`.`.`.`.`.7.3.3.3.`.`.`.`.{ { |.|.+XdX+X+X+X!.Y.Y./.D k 4 cXrXcXcXcXk k CXcXcXcXcXcXk _ DXk CXcX}.}.}.cXk l Z { Z Z 0 i l l !./.k cXcX}.F.}.cXcXCXk 4 4 /.!.|.{ :X X X:X`.{ { { G.G.q l DX_ 4 cXcX4 4 D _ /.CXcXrXrXH.-X>X>X8X8X$XwXwX;X#.p Y u u L a.a.a. . .XXXX1X1X1X1X1XO.1XO.O. .a.a.kXuX!.!.Y.< < Y.+X+XR.R.-XFX9XV.%.M.>X#X+.+.+.+.+.x +.x #X7X7X%.kX/.dXuX%.%.V.-XM.x.l.W.l.h.I.a.L u n n n 5.5.5.5.m 5.m 5.5.5.n 5.n 5.5.5.5.5.5.n 5.5.5.5.5.5.5.5.5.5.5.5.5.5.5.m 5.m 5.m 5.m m n 5.m 5.m m m m I O.ZXZX . . . . . . .;XH.H.;X@X@X@X .ZXI m 5.HXGXn.n.n./.E.L p *.*.b.b.F.).).F.F.P P P P P P P z z P z z P P P ).).}.d.=X;.;.(.M y B ,.>.",
"( ( ( ( ( ( ( ( ( ( ( ( ( ( ( ( ( ( ( ( ( j.j.j.j.bX&X6Xx.x.6XbXbXj.( ( ( ( ( J.J.J.O.J.O.O.O.O.J.J.J.J.J.J.J.I I O.I O.I I I I I I I O.I O.O.O.O.J.J.J.O.O.O.O.I I J.I O.J.J.( ( sX( ( sXj.bXaXzX;.l.f.H.;X1.1.*.*.cXcXk g +X+X+X|.|.|.|.|.|.+X+Xc 8 8 + C C u.C u.C C u.u.U U i U i U c U U U U u.C 8 8 + C C 8 8 8 8 1 g b c b b c c Y.Y.Y.+X{ :X&.H H H H H  X:X|.+XY.c +X+X|.|.|.|.|.|.|.|.+X+X+X|.{ `.{ `.:X`.3.`.`.`.`.v.|.|.+X|.+X+XdXY.Y.Y.Y.Y.Y.g D D 4 cXcX}.F.F.F.cXCXCXCXcXcXcXcXCX_ _ DX_ k cXcXcXcXcXcXCXDXu.c 1 < _ < _ _ CXcXcXF.F.F.F.cXcXCXk 4 2.4 9X!.G.{ { { G.+XdXdXdX/.4 cXcXcXcXF.F.F.cXcXCXCXCXCX}.D.D.rXI.M.7X7X$XwXwXSX;X*.*.p Y p O.J.( j.( O.1XXX .XXXXXXXXXX .1XO.O.a.E./././.D D _ < g Y.+X%.%.-X-XH.kXkX-X-XwXKXKXP.KX+.+.+.C.#X7X-XV.4 4 k /././.9XV.%.f.m.m.h.d.a.L u n 5.5.n 5.5.5.5.5.5.m m m n n 5.5.5.n 5.5.5.n 5.5.5.5.5.5.5.5.5.5.5.5.5.5.5.5.5.5.5.m 5.n 5.m n m 5.m 5.m m m m m I O.ZX . . . .@X .1.I.I.H.;X@X@X .ZXI m m HXGXh.n.n.GXh GXDXE.E.kX} }.}.#.#.b.b.).).).).).#.L L } #.*.b.F.).).D.D.kXh.OXl.S.c.B B T ,.",
"( ( ( ( ( ( ( ( ( ( ( ( ( ( ( ( ( ( ( ( ( ( ( j.j.j.nXbXbXbX6XbXbX( ( ( HX5.J.m I O.O.O.O.O.O.J.J.J.( 5.( m J.I I O.I I O.I O.I O.I I O.I O.O.O.J.I J.I I O.I I I I m J.J.J.J.( ( ( ( ( J.j.j.bXAX;.l.f.H.;X;X}.}.cXCXCXg b Y.Y.+X+X+X+X+X+XY.Y.Y.1 1 + + 8 u.u.u.u.u.u.U U i i 0 i G i U U U u.c c b g 1 1 1 1 8 8 8 8 8 b c b b Y.b l l +X+X|.:X XH H H H H  X X:X|.!.Y.Y.Y.Y.+X+X+X+X+X+X+X+XdX+X+XG.|.|.{ `.`.:X`.`.`.{ |.|.+X+XdXdXY.Y.Y.D D D D D D D D k 4 cXcXD.F.}.cXcXCX_ _ k k k k k _ _ D _ CXk 4 cXcXcXcXk _ _ _ _ k k _ _ _ CXCXcXcXcXcXcXcXCXk k 4 cX2.4 /.Y.!.+X!.Y./.2.2.2.4 4 cXCXcXcXcXcXcXcXcXCX_ CXCXcX}.D.}.kXV.-XwXwXSXPXD.D.b.P z ZXZXO.( sXsXsX2X1XXX .XXXX1X1X1X1XO.O.a.a.} CXCXCXCXCX_ _ _ /./.kXkXH.;X}.}.H.kX-XwXP.P.P.P.P.P.KXy.qXwX-XkX4 CXk D D /././.V.uXd.d.d.E.L u n 5.5.n 5.5.5.5.5.5.5.m 5.m n 5.5.5.5.5.5.m 5.m m m m m m 5.5.5.5.5.5.5.5.5.n 5.5.5.5.5.5.m 5.n 5.n n 5.n m 5.m m m m L I #.#. . . .1.H.I.I.I.H.@X . . .O.m m J.HXGXn.gXn.gXgXn.GXuX!.uXd.E.d.E.I.1.;X;X@X;Xa.d.h.gXh.d.1.D.D.D.D.D.D.1.I.M.f.k.S.B B T ,.",
"( ( ( ( ( ( ( ( ( ( ( HX( J.J.J.J.J.J.J.( ( ( ( j.j.j.yXnXj.j.bXd.( ( J.J.J.J.I I I O.O.O.O.J.J.J.J.HXJ.J.J.I O.I I O.I I I I I I I I I O.O.O.O.I I I I I I I I I m J.J.I J.J.J.( ( J.O.O. .1.j.m.l.l.f.-X;X}.}.cXCX_ DXC u.8 Y.Y.Y.Y.Y.Y.+ Y.< < < < 1 1 C u.U U U G G G G G 0 0 i i U U u.u.b b g Y.Y.Y.Y.g g 1 8 8 8 8 C b b Y.Y.Y.+XG.|.|.{ :X XH  XH  XH H  X:X|.+XdXY.Y.Y.Y.Y.Y.Y.Y.Y.Y.Y.Y.c +X0 G.|.|.|.{ `.{ |.|.|.+X+XY.Y.Y.Y.D D D D k D k k _ _ k _ k k cXcXrXcXcXk _ _ _ _ k k k k k D D D D k k k _ k k k CX_ k k _ _ _ _ _ DXCXCXCXcXcXCXk k _ k 4 4 4 4 D D D D 4 4 4 4 2.4 D D < DXDXDXCXCXCXCXCXCXDXDXCXCXcX}.}.}.} H.;X;X@XD.).).! ). . .O.( mX-.-.mXsX(  . .XXO.2X2X2X2X2Xj.a.O.#.*.p Y Y u CXCXCXcX} 1.b.b.b.F.).}.H.H.wXNXP.P.P.P.P.P.qXwXwXH.kXCXCXCXCXCX_ /././.d./.E.L L u n 5.5.5.5.5.n 5.5.5.5.5.5.m n n n 5.5.m 5.m m m I m m J.I I m J.J.m m m m m n m n n 5.m 5.m 5.n m n m 5.n 5.5.n n n 5.n m u L #.b. . .@X1.I.I.I.1. . . .ZXO.I I J.HXd.GXgXgXgXn.n.n.n.gXn.n.n.n.h.h.d.V.I.H.I.m.l.W.;.LXf.H.SXPXD.D.;X;XH.H.H.nX{.0XB B B c.",
"( ( ( ( ( ( ( ( ( ( ( J.J.O.O.O.O.J.J.J.J.J.( ( ( j.j.j.I.j.j.j.( ( E.J.I O.I O.I I I J.I J.J.J.J.J.J.J.I I O.I I I I O.I O.I I I I I O.O.O.I I I I I I I I I I I I J.O.O.O.O.O.J.O.ZX . .). .a.d.f.OXf.V.H.kXkX/.DXDXC u.u.C 8 8 Y.Y.Y.8 8 8 < < < Y.b b c i G , G , 0 0 0 i i l l l c c 8 1 < D D Y.D Y.Y.Y.b b c C C C u.c b Y.Y.+X|.{ :X:X:X XH  X X XH H H  X:X:X{ { |.+XY.Y.Y.Y.Y.Y.Y.8 c U G G G 0 0 0 G.|.|.+X+X+XY.Y.Y.Y.Y.Y.D D D _ _ _ _ _ _ _ < + < < _ k 4 4 k _ < < DX< < < D _ D D D D /.D D D g b < _ _ _ + _ _ _ < _ < 1 DX_ _ _ _ _ _ _ _ k k k D D D D D k k k k _ D D Y.D < 1 C u.u.DXC C DX+ DXC DXu.DXCXCXCXcXcX}.D.D.).).).! ).). .( sX-.-.-.-.mX( O. . . .2XmX-.-.-.mXsX( J.ZXb.P z z *.*.*.b.).).).P P b.*.b.}.}.H.H.wXP.P.IXP.P.P.KXwXSX;X}.cXF.cXcXcX_ < DXDXDXE.L L u n 5.5.5.5.n 5.n n m 5.m 5.m 5.5.5.n 5.n m I u I L L L L J.L J.J.J.J.m J.m m m n n n 5.m 5.5.5.5.n 5.n 5.n 5.5.5.5.5.n n 5.n m L p #. . .@X;X1.H.1.@X . . . .ZXO.O.I J.HXGXgXgXn.n.n.n.n.G.n.n.n.m.OXl.l.W.l.x.x.;.=.=.=.l.M.SXSXSXSXH.h.h.h.M.-XnX&X3XS.B c.S.",
"( ( ( ( ( ( ( ( ( ( ( J.J.O.O.O.O.O.I I J.J.J.J.( ( j.j.j.I.j.j.d.( J.J.O.O.O.I O.I I J.I I J.J.m J.J.I I I I O.I O.I I I I I O.I O.I I I O.I I I I I I I I I O.O.O.#.#.#.#.#.O.O.ZXZXz P P P b.1.V.n.5X%.kX/./.b DXDXDXu.u.u.U U c c c c 8 8 8 Y.8 c c l l 0 0 0 0 q i l l l l !.c Y.c 8 8 1 g g Y.Y.Y.Y.!.Y.c c u.u.u.u.U U i l +X|.{ `.`.{ { :X X XH  XH  XH H  X:X:X:X{ G.Y.Y.Y.g 1 c u.U G G G G G U l U U l U c Y.Y.Y.Y.< < < g g < _ _ _ _ _ + 8 C u.u.u.b DXDX_ DXDXDXDX< DX+ < 1 < < _ D D D D Y.D g < < < _ < + + < _ D D k D D _ _ _ _ _ _ _ _ k k k D D D D D D _ _ _ _ _ _ _ _ _ _ _ DX8 8 + 8 C u.C C 8 8 DXC DXDXDXCXCXcXcX}.cX*.*.b.F.b.O.( mX-.-.-.-.sX1X .@X@X .2XmX-.-.-.-.-.mXsX(  . .! ! ! F.F.).@.@.).F.*.*.cXcXcXcXkXV.V.-X7XwXwXKXwXwXwXwXFX2.cXcXcXrXk g b b DXDXCXL Y t 5.5.5.m m n n n m t m m 5.5.5.n n t u p *.} } L } #.} } L L J.I J.m J.m m m m m n m n 5.5.5.5.5.5.n 5.n n n 5.5.5.5.5.n n n t m u O.#. .b. . .1. .@X . . . .ZXZXZXI L J.HXgXn.gXn.n.n.n.n.n.n.n.OXW.;.(.(.9.,.S.,.=.=.p.lX>X-XwXwX-X{.l.W.l.l.{.M.7X{.0Xc.T c.",
"( ( ( ( ( ( ( ( ( ( J.J.O.O.O.O.O.I I I I J.O.J.J.J.J.a.j.J.( E.( J.J.O.O.O.I O.I I I I I J.I I I I I I J.O.I I O.I O.I O.I I I I I O.I O.I I I I I I I I I O.} #.1.1.1.1.} #.#.*.b.z z P P P F.}.kXuXuXdXdX!.!.b b u.u.u.U U G G 0 i U c 8 8 8 c c l l l h h 0 q h h l l !.b b Y.c c c c c b b b Y.!.+Xl +Xl l U U U U U G G G 0 G.|.{ |.|.+X|.{  X XH H H H H  X X:X:X{ |.+XY.D D < 1 u.U U G G G G U c c c Y.Y.Y.Y.Y.+ < 1 1 8 8 C 8 1 g < < < 1 8 u.u.U U u.u.DXDXDXu.DXc DXDX+ DXDX+ DX+ < < < g < g g g < < < < + 8 8 < _ D D k k k k k D _ _ _ _ D _ k D D D D k k _ + + C + DX_ _ _ _ _ _ < g 1 g 1 8 c C 8 1 g g g b b b DXDXDXCXCXDXCXCXcX}.#.a.( sXmXmXmX2X( O. .@X@XXX1XsXmX-.-.-.-.-.mXsXyX@X).@.! F.F.D.).).F.*.cXCXCXCXcXcXCX/.uXt.t.{.{.>XVXVXR.9X9XdXdX/.D Y.+X+X+Xl b DXCXY Y n 5.m m m m m m t u u u m n 5.5.n t L } cX}.cXcXCXCX} } } L L L m J.m m m m m m m n m n 5.5.5.m 5.m 5.m 5.n 5.5.5.5.5.n 5.m n m t u I O.#. .b. . . . . . . . .ZXZXZXI I u HXGXgXn.gXn.gXn.n.h.n.m.W.(.(.=.=.9.,.>.>.>.>.tX{.{.>XVX>XlX>.9.S (.;.l.M.-X>Xk.9.T =.",
"( j.( ( J.( J.J.J.J.J.J.O.O.O.O.I I O.O.I O.O.O.O.O.a.O.O.( ( ( J.J.O.O.O.I O.I O.O.O.I O.I O.O.I O.I O.I I I O.I I O.I I I O.I O.I I I I I I I m I m I J.O.#.1.1.1.H.kXkXE.} #.b.P P z z P P F.*.CX/.!.h h h l c c U G G G G , , 0 Z G c 8 8 c l i i h l !.!.h h q h h l c b b b c c U U U U U l i i 0 0 i i U c U u.U U G G i i i G.G.+XdXdXdX|.:X XH H H H H  X:X{ |.+XY.D 4 k D _ 1 u.U U U G U u.C 8 1 8 8 < + Y.8 b c c u.U u.u.u.c b g 1 1 1 C u.u.u.u.u.u.u.U u.u.u.DXC 8 C C C C DXC 1 1 1 g g g g 8 8 8 + + C C C < _ D D k k k D k k k D _ _ _ _ _ _ < _ _ _ _ _ + C C C DX+ + + + + 8 b c b g g g 8 1 < < < D g g g b b b DXC u.u.C DXCXcX1.1.a.j.j.( 1XJ.O. . .@X@X .O.j.( sXsXsXmXmXsXj.yX@X).).F.}.cXcXcX}.cXCXCXCXk cXcXF.cX4 !.{ LXLX:X_.lXT.T.T.T.T.|.|.|.|.`.{ |.G.c CXL Y t n m m I I I I m u I u u m n n n t L CXcXrXrX2.4 /././.CXCXL L L m m m m m m m m m t m m m m m n m m n m n m n 5.5.5.5.5.5.5.5.m m m u I #.ZX . . . .@X . . . . . .O.O.I J.HXGXgXgXgXn.n.h.h.m.m.=XW.(.=.;.;.>.k.lXlXtXlX>X>X{.tXtXk.,.T S S S 9.;.f.-Xf.l.=.=.p.",
"bXj.E.a.a.O.O.O.O.J.O.O.O.O.I I I O.O.O.O.I O.O.O.O.O.O.J.J.( HXJ.O.O.} O.I I I O.I O.I O.I I I I I J.I J.O.O.O.I O.I O.I O.I I O.I O.I I I I O.I I I J.O.} 1.1.rXH.V.uX5XuX/.}.F.! ! P z z F.*.CX/./.!.h G.0 l l U G Z Z Z , 0 0 0 0 i c c c U i i 0 q h !.!.!.0 , , q i l c c c U U U G G G G 0 G G 0 i i U l c c u.u.u.U U l c b c c Y.Y.9XdX|.:X XH H H  X X:X{ +XY.D k 4 k k D < 8 C u.u.u.u.C 8 1 1 1 g g g Y.8 c U U U G G G U U U u.b 8 8 8 C C u.u.u.C u.u.u.u.b 8 1 1 1 8 + 8 C C C DXC 8 8 Y.8 8 8 C C C C C C C + < _ < D D D D D D _ _ _ _ + _ + + _ + + 1 + + + + C C C C C C C + < g g g < < + + _ + _ < D < D Y.D < < + C C C C 1 _ k kX1.1.1.1. . . . .b.b. .b. . . .O.yX . .O.O.a.1.;XD.}.}.cXCXCX_ D D _ DXDXDX_ 4 cXF.F.cXk G.:X:X X:X:X3.3.7.`.`.`.`.`.`.3.:X`.|.c CXu t t m 5.m m I I I I I I Y I m m u u L CXCX4 2.9X9XY.+Xi U DXDXCXL u t m m m m m m m m m m u Y Y I m m m m n m 5.5.n 5.5.5.5.5.5.m 5.m n m J.I ZX . . . . . . . . . . . .O.O.I HXGXgXn.n.n.h.f.m.OXl.W.;.p.>.OXlX{.{.lXlXlX{.>X>X>X{.k.S.T B B f S 9.>.{.M.x.>.=.p.A.",
"m.bXj.a.a.1.O.O.O.O.O.O.O.I O.I O.O.O.O.p O.p O.I O.O.O.J.J.J.( I O.p O.O.L O.I O.O.O.O.I O.I I I I I I I O.I O.O.I O.I O.I O.I O.I I I I I O.ZXO.O.I L } 1.}.rXrX%.5Xt.{ t./.}.).! F.F.*.*.cX4 /./.dX!.h h i i i G Z Z Z , 0 G.0 , q q i c U U i , 0 q h !.!.!., Z , , i U U U U U G G Z Z G G G i U U U c c b b b c b b b b b b g g g b g D Y.{ :XH H &.&. X:X{ h /.k k k k _ < g g 1 + 8 8 8 8 1 8 8 8 8 g g b c c U U U U G U G U U u.u.C 8 8 8 C C C C 8 8 C u.u.c 8 1 < 1 8 + + + + C C C 8 8 8 8 8 8 C C C C C C C C + + < < < D D D D _ _ _ _ + + + C + + C C u.C 8 1 1 1 8 1 C C C + < D D D D _ _ + + + _ + _ < D D D D D _ _ _ _ _ _ _ D D 4 4 cXcX}.}.}.}.}.cX}.cX#.#.#.#.#. . .@X . . .}.}.}.cXCX_ _ + C c 8 C C u.u.DXCXcXcXcXcX4 !.Z { { :X:X3.&.3.3.`.3.`.3.`.`.`.{ Z b CXu n n m m m m m m I m I m I m m m L L CXCXD Y.+XY.+X+X|.|.G U C DXu t t t m m m m m m m m m m Y Y Y Y m m m m m m m m m m 5.5.5.5.5.m 5.m m u L O.ZX . . .@X . . . . . . . .ZXO.HXgXgXgXn.h.m.l.>.;.9.,.,.p.k.lX{.>XlXA.A.>.k.k.x.{.x.S.c.B B M f T ,.>.x.x.>.p.p.A._.",
"=Xm.bXj.a.a.a. .O.O.O.O.O.I I O.I I O.I O.I O.I I I O.I I m I I I I O.O.p O.O.p O.O.O.I O.I O.O.O.I O.I I I O.I O.I O.I I O.I I I I I I I ZXZXZXZXp I L } 1.rXH.FXR.v._.:Xt.dXrXD.).F.*.cXCXD /.9X9XdXdXdXdXl 0 G G Z G Z 0 0 , , , q q q i U i i , , 0 q h h q , , , , i i U U U G G G G G G i U U c c b 8 1 1 1 b c 8 1 < g 8 g g g 8 c b g Y.|.:X XH &.:X:X{ +X/.k k _ _ + + 1 g < D _ < + + + 1 8 u.c c g g c l U l U c c u.U u.u.u.C 8 8 8 C C C C C C C C U U U U c c Y.8 Y.8 + < 8 C C C 8 8 8 Y.8 8 8 C C C C C C C + + + 8 < < g < < < < + + C C C u.C C C u.C C b 8 b b b g 1 C C C b g Y.g < _ _ _ + + + + _ _ D D D D D _ _ + + _ _ _ D D 4 4 4 4 CXCXcXcX4 4 CXCXCXcX} } *.#.b.b.b.b.}.cXcX4 k < + _ 8 C C 8 C C u.u.DXCXCXCXCXcXCXD b !.0 |.`.:X&.&.3.3.3.3.3.`.`.{ |.i DXL u n n m m m m m m I m I m m I m I L } CX/.c +X|.+X+X|.|.|.|.G u.DXu t t n m m m m m m m m m m Y m m I m m m m m m m 5.m 5.m 5.5.5.5.5.m m m m u O.ZX . .@X . . . . . . . . . .O.( gXgXn.h.uXOXW.;.9.9.9.=.,.A.lX{.{.lXp.,.=.,.,.>.>.S.S.B B B c.c.S.k.>.>.>.;.,.p._.lX",
"W.=Xm.bXbXbXj.a.a. .O.O.O.I I I I I I p O.L I L I I ZXI I m I I I I O.O.O.O.O.O.O.O.O.I O.J.O.O.J.O.I I I I O.I O.O.O.L O.Y I I m I Y p p ZXZX*.*.*.p p } }.rXFXJXT.v._.`.t.9XrXD.F.cXCXk D dXdXdXR.R.R.dX9XdX0 Z Z Z G G G , , Z , , q 0 0 i i 0 , , , 0 0 q q q G.0 0 0 0 i G G G G G G G U c c c b b 8 1 1 1 DXC 8 1 1 1 8 g < D D g b b Y.+X{ :X XH  X:X{ G.Y.D D _ _ + + 8 1 < D D _ _ _ < < 1 8 c C c 1 8 c c c c c c 8 b b C C C C C 8 + 8 C C 8 8 C c U U G Z Z G U c c 8 Y.+ + C C C 8 8 8 8 8 + 8 8 C C C C C C C + C 8 8 8 1 1 g g 1 8 8 C C C u.u.C u.C C 8 8 8 8 b b b 1 1 C c c c c b b g < _ _ _ C 8 + + < _ D D k k _ _ + _ _ _ _ D D D D k D _ D _ _ k k k k k CXCXCXcXCXcXcXcXcXCX4 k D < 8 8 + C C C 8 C u.C DXCXcXcXCXcXcXcXCXD D g +X|.:X&.&.3.3.&.3.&.:X:XG.h DXCXL u n m m m I m m m m m m m m m I u L L CXDXi G |.|.|.|.|.|.|.U 8 CXu t t m m I I I Y t m t m m m m m I m m I I I m I m m m 5.5.m 5.5.m m I I m u I O.ZX . .@X . . . . . . . . .O.( gXgXn.n.uXm.l.W.;.;.>.,.=.p.A.k.lX>.=.v v S 9.9.9.9.c.c.B c.c.0X{.>X{.x.k.>.>.>.A._.",
"W.W.l.l.W.=Xm.bXa.a.O.O.I I I I I m I p O.I I I I ZXZXZXY I I I I O.O.O.O.O.O.O.O.I J.I J.O.O.O.O.O.J.I I I I I O.O.O.L L p I I m I p i.z P P b.b.P z *.*.}.rXFXR.R.T.v.v.T.9XrXrXcXk _ D 9XdXR.R.s.T.T.R.9XdXh , Z Z G G G G G Z , 0 q 0 , 0 0 0 0 , , 0 G.h +Xh G.G.G.0 q , Z Z Z Z G G G c 8 1 b b b b 8 1 8 C C + + + 8 8 Y.< D Y.Y.Y.Y.!.|.{ :X X X X{ G.dXY.g g < 1 1 + < < D < D _ _ _ _ + + 8 8 8 8 8 b b 8 b 8 8 8 g g g 8 8 C C C C + 8 8 8 8 1 b c U G Z Z Z Z G U b 8 8 8 8 u.C 8 8 1 8 8 8 8 + 8 8 C C C C C C C + C 8 8 8 8 8 8 8 8 8 C C C C C C C C 1 1 1 8 8 8 8 8 8 8 c C c c 8 b g g < < < + 8 C 8 1 1 < _ D _ k _ _ _ _ _ _ k _ _ D D D _ _ _ D D D D D _ _ _ _ k k D /.k /.k D D D Y.g 8 C u.8 8 8 C u.u.DXCXcXcX*.*.F.*.cXCX_ D k Y.+X`.:X&.&.&.&.&.&. X{ q DXu u u u m m m m Y u m m I m m m m m I u L L CXDXU G G |.G G |.|.G U _ CXu m m m m I O.Y Y t n m m t m I I I J.I I O.I u I I m m m 5.m 5.5.HXJ.HXJ.J.u I O.O. . . . . . . . . . . . .O.( gXgXn.h.uXh.h.f.m.m.x.>.=.=.,.>.>.,.v v S S S (.S ,.,.,.c.c.>.{.7X7X7X>Xx.x.k.>.,.p.",
"l.l.l.l.W.W.W.=Xh.( O.O.O.O.I I m I I J.O.ZXO.I I ZXi.ZXI I I O.I J.J.O.O.O.O.O.O.O.I O.O.O.O.O.O.O.I I m I I O.J.O.#.} } L p O.I ZXP F.F.F.).D.F.b.P z b.}.rXJXR.U.s.s.T.s.dX9X2.4 D D D 9XR.s.s.s.U.T.R.9XdX!.!.!.i G G G Z Z G 0 h h h h l h i i 0 , , 0 0 0 h h G.h G.q , , Z G G G U u.c 8 1 8 b 8 8 8 8 C u.C + + + 1 b c l +XG.|.G.G.|.:X X X X X X{ |.!.Y.g g 1 < < < _ _ D D D _ _ _ < + 8 8 C c c 8 8 8 b 8 b b b b c b c c u.u.C 8 + 8 8 8 1 g g c U Z Z Z Z G c b 8 8 8 8 C C C 8 + + 1 1 1 1 8 C u.U U U u.u.C C 8 + 8 8 8 8 8 8 8 8 8 1 8 1 C + 8 8 8 8 1 1 8 8 c 8 b 1 8 b c c c b 1 g 1 8 8 8 8 c c c 8 1 1 1 < < + < + _ _ k _ _ _ _ _ _ _ _ D _ k _ _ D _ D D _ D _ D k D k D D D D < g g 8 b 8 8 8 8 C u.u.C DXCXcXcXcX*.cXCXCX_ k 4 4 Y.|.`.3.&.&.&.&.A.t.uXHXHXu u u I m m m m I u m m m m m m m m L u t u u CXu.G Z |.|.|.|.G +Xg CX} I m m m m O.O.Y t n n n n m m u I O.O.ZXZXp I m m m I I I m m J.HXHXgX=XgXGXJ.J.L J.#. .b. . . . . . . . . .E.( gXGXd.d.kXkXH.H.yX-XM.x.,.,.>.k.,.T v S S S S =.p.A.lXlXk.,.,.k.k.k.tXk.k.k.k.,.,.,.",
"uXf.f.m.l.W.;.W.=Xd.J.J.O.O.O.ZXO.O.I J.I O.I O.ZXP  .ZXO.I O.I J.J.I J.O.O.O.O.I I I I O.O.O.I J.I m I I I O.O.O.O.#.} } E.#.ZXZXb.F.F.}.rXrXkXrX}.b.P F.}.rXFXR.U.U.s.s.s.R.9X9XD Y.Y.2.9XR.U.s.s.s.U.R.9XdX+XdXY.l i , Z Z Z Z 0 h h !.!.l l l i i G , , , , q h q G.h G.q , , , i l c c b 8 b 8 8 8 8 1 8 8 8 C + + 8 c i G.|.|.{ :X:X:X:X:X X X X X X{ G.Y.Y.g 1 1 < _ _ _ _ _ _ _ _ _ < + 1 8 8 b c 8 b c c c c c c c c l U U U U u.C C 8 C C 8 8 g b c l i G i U c b b C u.u.u.u.C C 8 8 8 8 8 8 8 c U G G G G U u.C C 8 C + C 8 8 8 8 8 8 8 8 8 8 8 8 8 C 8 8 8 8 8 8 8 8 8 8 1 1 b 8 b 8 1 b b c c c U U c c 8 1 1 8 8 8 8 1 1 < _ _ _ _ k _ D D _ D _ D _ _ _ < g g b b b b g b g g g g Y.g Y.g 8 g 1 1 1 8 8 b C u.DX+ _ CXCXCXCXCXCX_ _ k 4 D dX|.`.3.&.&.H &.t.uXkXE.HXt m I I m m m m u L u m m m m m m u u u u Y L CXDXc 0 +XG +XU Y.Y.k CXp I m m m I O.I I m n m m m u L Y L J.O.ZXp I m I I I I O.O.O.a.E.GXm.W.(.W.=XGXE.a.a.a.#.#. .ZX . .ZX . . . .a.d.h.d.d.E.1.a.I.I.f.x.x.x.tX{.>X{.>.,.T S =.=.=.p.A._.T.lX_.p.,.,.S.,.S.,.,.>.>.;.9.9.",
"rXV.kXV.n.OX=X=Xm.d.E.O.O.ZXZXZXZXZXO.J.J.I O.ZXZX .P  .O.O.O.I J.J.J.I I I I I I I I I I O.I I I m I I I ZXZXZXZXZXb.kX/./.#.b.b.).D.rXkX%.%.%.%.rXF.P P }.rXFXR.U.U.U.U.s.R.9X9X9XY.9XFXFXR.U.s.s.U.T.R.9XdX+XdXdXdXY.+X+X0 0 0 0 q h !.!.!.l i i G G G G G G 0 q 0 q q q 0 , 0 q l c b b b 1 8 8 C 8 8 8 8 8 + 8 8 c l G.|.{ { :X:X:X X X:X X X X X X:X{ +XY.Y.g 1 < _ _ _ _ _ _ _ < + 1 1 1 1 8 8 b c c c U U U U U l U i G i G G U u.C C 8 C C b 8 b b c c c c c b b b c U U U U U c C 8 8 8 8 8 8 C u.U G Z G G U u.C 8 8 + 8 C 8 8 8 8 8 8 8 8 8 8 8 8 8 8 8 8 8 8 8 8 8 8 8 8 1 g g b b b b c c U U U U U c b 1 1 1 b c c b 1 1 1 < _ _ _ _ _ _ _ D < D _ D < g b c l U i U i i l U i l U c c c C b 8 1 1 1 8 8 1 1 8 b 8 1 _ _ CXCXCX_ _ D k D Y.+X{ :X:X&.H H LXn.kX} L n n m m m m m m m u Y Y Y Y Y m m m t u t t u Y L CX_ Y.Y.Y.Y.Y.D k cXcXY u m I m I I I m m m t m m u L } L L L p I m u I L J.J.E.a.a.a.d.m.W.(.(.(.W.m.d.E.E.E.a.a.1. . . . .ZX . .1.a.d.d.E.E.} #.E.h.m.l.S.S.k.>X7XwX>Xk.,.,.=.=.p.A.3._.v.s.v._.A.p.T T T T v 9.;.l.l.W.W.",
"rXrXrXrXkXkXV.d.d.E.#.b.b.b. .b.ZX#.O.O.J.I ZXZX .P  .ZXO.O.O.J.J.J.I I I I I I I I I O.O.I I I m Y Y ZXZXi.z z P b.b.kX%.uX}.).).D.rX9XR.T.T.T.%.2.F.F.P }.rXFXR.U.U.U.U.U.R.R.9X9X9X9XFXFXR.U.s.s.s.U.R.9XR.+XdX9X9X9X9X9XY.dXh q 0 q !.!.!.i 0 G G G U U U U i 0 , q q q , q 0 h l b c b b 8 8 C C C 8 C 8 8 8 Y.+X|.|.{ :X:X X X X X X X X X X X X:X{ |.+XY.g < < _ + _ + _ + + + + 8 8 8 8 8 b b c c U U G G G i i i i G Z Z G G U u.C 8 8 8 C b 8 b 1 b b g g g b c c U G G G G G C 8 8 8 8 8 8 c c U G G G G U u.u.C 8 8 C C C C 8 8 8 8 8 8 8 8 8 8 8 8 C 8 8 8 8 8 C 8 8 8 8 1 1 g b b b c U U G G G U c c 1 g g 1 b b b 8 1 g g < < < < < < < < g g < < g b c l i 0 G Z Z G Z Z Z G G G G U U U u.c C 8 C c 8 1 < 1 8 c 8 1 DXDX_ _ k 4 4 D Y.+X{ :X X&.:X XLX{ uX} } L m m 5.m m m m m m I Y p Y i.Y m m t t t m m u Y p CXCX4 4 2.2.2.4 cXcXp L n m m m I m m m m I Y I L L CXcXcX} } p L L I J.J.HXGXd.d.h.V.f.l.(.(.9.(.;.l.m.m.m.h.d.a.1.#.#. .P  . . . .a.I.I.1.1.a.a.GX=X;.9.v c.S.tX7X7X{.k.>.>.,.p.p.A._.7.7.v.v.v._.>.T T T v v 9.l.{.M.f.h.",
"2.2.rXrXSXrX}.}.cX}.b.).).b.b.b.).#.O.J.( J.ZXb.).). .ZXO.O.O.J.J.J.I I O.I I I I O.Y p p ZXp Y Y Y i.ZXz z z P P P }./.%.%.}.).D.rXFXR.T.s.T.T.R.2.F.! P F.cX9XR.U.U.U.U.U.R.R.FX9X9XFXFXJXU.U.U.s.s.s.R.R.R.R.s.R.R.9XFX9X9XdX+Xq , , h !.h , Z Z G G U u.u.u.G G , , , q 0 0 G.q h l l c b 8 8 C C C C C 8 C U |.|.|.`.:X:X X X X X X X X X&. X X X:X{ |.+XY.< _ + + _ + DX+ + + C C b 8 b b b c c c U i G G G i U i i i G , G 0 i l c 8 8 1 1 8 8 b 8 g b b g g b c U G G G G G G U 8 1 1 1 1 8 8 C C u.U U U u.u.C C 8 8 + 8 C C C 8 8 8 C 8 8 C 8 C 8 C 8 8 8 C C C C C C 8 8 8 8 b b c c l U U i G G U c b b b b b b c c b b 1 g g g g g g b b b c c c c c c l i i G G Z G Z , Z Z Z Z , G G G G G U U U c u.c C 8 + 8 C C C 8 1 g D k 4 4 2.Y.+X|.:X X X X:X:X{ n.E.} L u m m 5.m m m m m m u Y Y Y Y Y Y Y Y I Y t m m u Y L L cXcXcXcXcXcX} cXL u n m m m m m m m u I p L E.DXg k 4 cXcX} p } HXGXgX=X=X=X=Xl.OXl.LXp.p.p.;.;.;.W.W.W.W.m.d.a.a.O.ZX .P  .1. .1.1.1.@X@X1.a.h.W.(.=.=.T ,.k.{.tX>.>.,.,.,.p.p.A.A.3.`.v.v.t.A.,.S S S 9.;.l.f.M.I.I.a.",
"D D k 2.rXrXrXrX}.}.F.F.F.b.b.b.#.E.GXGXGX( E.#. . . .ZXO.O.O.I J.I O.O.I I I I Y p ZXZX*.*.ZXZXi.i.z P z P z P P F.}.9XR.%.rX).D.rXFXR.U.s.U.U.R.2.}.F.P F.cX9XR.U.U.pXpXpXU.R.JX9XFXFXJXpXU.U.U.s.U.s.U.R.R.s.s.s.R.U.R.R.R.R.+Xh q , q q 0 Z Z G G U u.u.u.u.G G G , , q 0 0 , 0 0 i i U c 8 8 C C u.C C 8 c |.|.`.`.`.3.&.&.&.&.H &. X&.:X`.:X:X:X:X{ G.!.D < < + + DX+ C + C C + C C c c u.c U U l U U i i U l l l i i G , , i i l c b 8 1 1 8 8 b 8 b 8 g 8 c c U U G G G U U u.c 8 8 1 1 1 8 8 8 c C u.u.C C 8 8 8 8 8 C C C C C 8 8 8 8 8 C 8 8 8 C 8 C 8 C 8 C C C C 8 C C C C c l i i i i G G G l c b g b b c c c c c c c c b b b b c c c l U i i i i i i i G , , , , , 0 i 0 , , , q , , G G G G G U u.U u.u.C C C C C 8 + _ D k 4 k D Y.+X|.:X X X X X:X{ n.E.} L m m m 5.m 5.m m m m m m Y Y I I I ZXY I Y Y m m m t t u u L p Y L L p } } } L u t m 5.5.m m m I p } E./.l +XY.Y.k k CX} } GX=XW.(.(.(.(.;.p.A.A._.A.LXLX;.(.(.(.(.;.=Xd.E.} O.} #.#. . . .1.1.a.1.a.I.d.m.LXp.p.,.p.,.>.tX>.,.T T T c.S.>.A.A.A._.t.t._.OX>.l.l.l.l.x.{.f.f.h.I.1.",
"< g Y.D k 4 k D 4 cXcXcXcXb.b.} GXgXgX=X=X=XgX( E.O.O.O.O.O.O.I I I I O.I I I Y p i.i.z P b.b.*.z z P P P P P P P F.D.9XR.%.rX).D.rXJXpXU.s.U.T.R.2.}.F.F.F.cX9XR.U.U.pXpXpXpXR.JXFXFXFXFXpXU.U.U.U.s.U.s.U.s.s.s.s.s.s.s.U.R.R.dX!.l i 0 , Z Z G G U u.u.u.u.u.G G G , , 0 0 0 0 , 0 G G U u.C C C u.u.C C Y.Y.|.|.`.3.3.3.3.3.&.&.&.3.:X:X`.{ { |.|.|.G.h b < < + + + + C C C + 8 8 8 c u.U U U U U l c c c c c c l l i i , G 0 i i l l c c b b b c c c b 8 8 b c c c U U U c c b b c c c b 8 c c C C 8 8 C 8 8 8 8 8 8 8 C C C C C C 8 8 8 8 8 8 C 8 C 8 8 8 8 8 C C C C 8 8 C C C c U i G G G G G G i l b b b b c U i i i U U U i U l l l l l U i i G G 0 i i i , , , , Z , , 0 q q 0 q q q 0 0 , G G G G U c c C u.C C C C C + < D 4 2./.Y.+XG.{ :X X X XH  X:Xn.E.} L m m 5.5.m m m m m m m m m Y m m m I I I Y m Y m m m m t t t u Y u u L } #.}.cX} L u n 5.5.m t u L } } E.!.+X|.|.+XY./.4 cX} GX=X(.(.9 S S ,.>.A._.t._.A.A.p.(.(.(.W.W.h.E.a.O.J.O.#.b.b.).@X1.j.h.m.m.=XOXl.A._._.A.A.>.>.k.>.,.T B B c.S.>.>.>.A._._._.OXOXf.f.M.M.f.m.x.OXl.=Xh.a.",
"< 1 g g D D D g 1 DXCXCXCXcXcXCXGXgXgX=XW.W.=XgXGXGXHXHXJ.I I I O.I O.O.I I I p ZXz z P b.P b.b.b.P ! P P P P P P F.D.9XR.9XrX).D.rXJXpXU.s.T.T.R.2.}.F.F.D.rXFXR.R.U.pXpXpXpXpXJXJXFXJXvXpXU.pXU.U.s.s.U.U.s.s.s.s.s.U.U.s.U.R.+X+Xq , , , G G G u.u.u.u.u.u.U U G G G i i i i i G G G G U u.C C C C u.C 8 Y.Y.+X|.`.3.3.7.3.3.3.3.`.`.:X`.|.+X+X+X+X!.c Y.g < 1 8 8 C C C 8 8 8 1 g b c u.U U G U U c b b g b c l U i i i , , , , 0 i i i l l c c c c c C c 8 8 8 8 c c c c b b b b c U U U U c c c c 8 8 b 8 8 8 8 8 8 C C C C C C C C 8 8 8 8 8 8 8 8 8 8 8 8 8 C C C 8 8 8 C C u.U G G Z Z Z Z , G 0 l c b c l i i G G G i 0 G G Z G G G i i i i G G G G 0 G 0 G , , Z Z , , , , 0 , 0 q q 0 , , , 0 i U c 8 8 8 C C C C 8 + + 1 D 4 9XdX+X|.{ :X X X&.&. X X{ h } p u 5.5.5.5.m m 5.m m m m m m m m m m m I m m m m m m m m m m m m I u L L } }.}.}.cX} L u t n t t m u L } E./.+X|.|.|.+X!./.kXkXh.=XW.(.e e 9.S.k.lX_._.lX_.A.,.9.;.l.m.h.( O.p O.L #.#.b.@XPX@X1.bXW.W.(.9.;.>._.lXlXlXk.>.>.lX>.c.T B B c.c.S.S.>.>.p.p.p.>.OX{.f.V.I.V.{.l.;.W.=Xd.a.",
"+ 8 < _ D k k < u.u._ DXDXDXDXCXCX/.DXq n.n.m.n.gX=XgXGXJ.m I O.I I O.O.O.I I p ZXz P P P ).b.F.).).! ! P z P ! F.F.rXFXR.9XrX).D.SXFXpXU.s.s.v.R.9XrXD.@.D.rXFXR.R.U.pXpXJXpXpXJXJXFXFXFXpXU.U.U.U.s.U.s.U.U.s.s.U.U.U.U.U.U.R.R.+X0 Z G G G U u.u.C C C u.u.U u.U i i i l l c U U U U U u.u.C C C u.C C g Y.Y.+Xs.v.7.7.7.7.3.7.7.`.`.{ |.+XY.Y.D Y.Y.b b 1 < 8 C C C C 8 8 g g Y.Y.Y.c c U U U U c b g g g b l i i i 0 G , , , , , , , , i i l l c c c c 8 8 8 1 1 1 8 b b b b c c U G G U G U U c b 1 1 8 8 8 8 8 8 C 8 C C C C C C C 8 8 8 8 8 8 8 8 8 8 8 8 8 C C 8 8 8 8 C u.u.U Z Z Z , G , , , , i i l i i G , , G 0 G G Z Z Z Z Z Z 0 i l i 0 G , , 0 i 0 0 , , , Z , , , , , G., G.0 0 0 0 0 U l c b b 1 1 8 C C 8 + + C c h +X5XG.{ :X:X X XH &.&. X:Xn./.} u n 5.5.5.5.5.m m m m m m m m t m m m m m m m m m m m m m m m m m I L L } rXrXrX2.4 CXCXL u u t Y t t L } kX/.dX+X+X+XG.G.uXV.kXV.h.OXl.;.9.c.S.tXk.A.A.A.A.p.=.=.l.bXa.a.O.I Y p O.#.1.@XPXPXPXH.bXW.;.9.9.,.>.lXlX{.lXk.>.k.x.>.T B B B B B c.c.c.B v v T ,.>.x.{.V.H.I.x.;.=.W.m.I.1.",
"+ 8 1 < < < < 8 1 < 1 1 1 DXg DX/././.kXrXrXkXkXd.GXgXHXL O.I O.I O.O.O.I I I ZXi.P P P ).b.).D.D.D.).P P z P P F.D.rXFXR.R.}.@.D.SXxXJXU.s.T.T.T.9XrXSXSXSXFXR.R.U.R.pXJXJXpXU.JXJXFXFXJXpXU.U.U.s.s.U.U.U.U.U.U.U.pXvXvXvXvXJXJX9XY.l l U U c u.C 8 8 C C C C b c l l l c c c u.u.u.u.U u.C C C C C C + g Y.9XdXs.v.7.7.7.7.7.7.7.`.`.|.+XY.Y.Y.Y.g g b c C C C C C 8 8 8 g Y.Y.Y.Y.8 g 8 8 C C 8 8 1 b b c U G G G G G G G G G , Z Z , , q l l c c c c 8 1 1 8 8 1 8 c c l l l i i i G G G G G U c 1 < 1 8 8 8 8 C 8 8 8 8 C C C C C C 8 8 8 8 8 8 8 8 8 8 8 8 8 C 8 8 8 8 8 C u.u.U G Z , 0 i i , , Z , , 0 0 , , , , G 0 i i , , , , 0 i i l l l i , Z Z , , 0 0 , , , , , 0 0 q 0 0 0 0 q 0 0 0 i l b g g b b g g b b g g c i Z { :X:X:X X X X XH &.&.&.:X{ uXCXL n 5.5.5.5.m m m m m m J.m m m m m m m m m m 5.m m m m m m I m I I Y L CX4 2.rX2.9X!.l CXL Y u Y t m m u L } kX2.2.9X%.t.LXLXm.h.V.-XM.{.S.9.T T ,.,.,.p.,.=.=.=.;.x.d.a.#.I I I I J.a.;XPXPXPXPXPX;XM.f.k.,.=.,.p.A.OXOXLXW.OX{.l.9.9.T B c.S.0XS.c.B v T T 9.x.V.H.;XPXPXM.>.,.(.W.d.a.",
"+ 8 1 < < < < 8 + + 8 8 C 8 b g g g /.4 2.rXrXrXkXkXE.} #.#.} p I I O.I I I I ZXz z P P P ).D.D.PXPX).P z z P F.F.D.rXFXR.9X}.).D.SXxXJXU.U.U.s.T.R.FXFXFX9XR.R.R.R.pXpXpXpXU.U.JXJXJXR.U.U.s.U.U.U.U.U.U.U.U.U.pXpXpXvXvXvXvXvXJX9X9XY.Y.Y.c c b 8 8 8 C 8 8 C c c U U U c c u.u.C u.u.u.u.C C C C C 8 g Y.Y.dX+Xv.7.7.7.7.7.7.7.`.[.|.+X+XY.Y.D g g 1 8 8 C C C C C C 8 8 Y.8 Y.Y.Y.Y.8 b 8 8 1 8 8 1 8 c U U G G G G Z G 0 G i G Z Z , q q q l l l c c 8 1 1 1 8 c U U G G i i i i G G Z Z G G U c 1 < 1 1 1 1 8 8 8 8 C 8 8 C C C C 8 8 8 8 8 8 8 8 8 8 8 8 + 1 8 C C C 8 8 8 u.U G G , , , 0 0 , , , , , , , , Z Z , , 0 0 i 0 , , 0 0 0 i l i i 0 , Z Z , , , , , , 0 , q q G.q 0 0 , , 0 , 0 i l c b g g b g g Y.Y.D Y.l |.{ :X:X XH H  X X X X&.&.&.3.:Xt./.} u n 5.5.5.5.5.m m I I I I I m m m 5.m m m m m 5.m m m m I m I m I Y u DXb b Y.9XY.Y.G i DXL L I u m u m J.I L } kXkX%.t.LX;.;.l.f.M.M.M.f.>.>.>.>.k.>.=.=.=.=.=.;.OXV.1.#.p I m m J.J.1.;XPXPXPXPXPXiXM.x.>.9.=.=.LXOXd.I.d.d.d.E.h.=XW.S.>.x.tXtX0Xc.T T T 9.,.x.I.;XPX@.PXV.l.=.=.W.h.E.",
"1 1 1 1 < < + < + + 8 C c c b b b b /././.4 4 2.rXcXcX}.cX}.#.} L L I p I I Y ZXz P P P ! ).D.PXSXPX).P z i.z F.).D.SXFXR.9X}.).D.SXxXvXpXU.s.U.U.R.JXJXR.R.R.R.JXJXJXpXU.U.s.U.JXJXR.s.7.v.s.U.U.U.U.U.U.pXpXpXvXvXvXvXvXvXvXvXFXFX9X9XY.Y.Y.Y.g g 8 8 C C 8 C c U U U U U u.u.C C C C C C C C DXC + 1 g Y.Y.+Xv.v.7.7.7.7.7.7.7.7.`.|.|.G.l Y.b b b 8 8 8 8 C C u.C C 8 8 8 Y.Y.8 Y.8 c C 8 8 8 8 8 8 8 c c U U U G G G G i U l i G , 0 q q q q i i l c 8 1 < 8 C U U G G G 0 i 0 0 0 0 G G G U c b b 1 8 1 1 1 1 8 8 8 8 8 8 C C 8 8 8 8 8 1 1 1 8 8 8 8 8 8 + + 8 C C c C 8 8 u.U G , , , , , , , , , , Z , Z , , , , , , 0 i 0 , , 0 0 i 0 0 0 0 , , Z Z , , , , , , 0 , 0 G.h q 0 0 G G G G G i l c b g Y.Y./.Y./.Y.dXdXG.{  X X XH H H H H H  X&.&.3.3.{ 5X/.CXt 5.5.5.5.5.m m u u I I I m m m t m m m m m m m m m m I I I m I Y Y u DXU +X+XY.+XU G G DXL L m m I I J.J.HX( HXE.uXOXp.=.=.;.l.x.x.{.{.x.>.k.k.x.f.{.l.W.W.W.l.m.V.;Xb.b.O.m m J.J.E.a.;XPXPXiXwX-XM.f.l.;.,.;.W.=Xd.1.).).).).b.a.d.m.m.f.M.M.{.>.9.S T T T ;.m.H.D.@.@.@.V.OXp.;.l.d.E.",
"DX1 8 8 1 + + + + 8 c U U U l l l !.b /.g /./.D 4 2.2.2.cX}.}.}.} } p p I I I ZXZXz P P P b.D.SXSXSX).P z i.P F.D.SXSXFXR.dXrX).D.SXxXvXpXU.U.U.U.pXJXJXJXJXJXJXJXJXpXU.s.s.s.U.R.R.T.7.3.7.s.s.U.U.U.U.U.pXvXvXvXvXpXvXvXvXvXvXvXFXFX9X9X9X9XY.Y.Y.g b C 8 8 8 C u.u.U U u.u.C 8 + + + 8 b c c C 8 1 g Y.+X+X|.v.7.7.7.7.7.7.7.[.3.`.`.`.|.+Xl i U c 8 C u.u.u.u.u.C C C 8 Y.8 8 Y.g g 8 8 8 8 C C C 8 1 1 8 c U U c c c c b b b c l i 0 q q q q i i U U c 8 8 c c U U U i i 0 0 0 , , G G i U c b 8 b b c c C C 8 8 8 8 8 8 8 + 8 + 8 C c 8 1 1 1 8 8 C 8 8 8 8 8 8 b 8 8 1 1 8 c U G , , , , , , , , , , , , , 0 0 0 , , , 0 0 0 , 0 0 0 0 0 0 , 0 0 , , , , , Z , , 0 G.0 G.q h h h i 0 G 0 G 0 0 i l !.Y.Y.!.dXdXdXdXdX+X|.:X X XH H H H H H H  X&.3.3.3.t.5X/.CXt 5.5.5.5.5.n HXu m u m J.I I m m m m m I m I m Y t I I J.m I I Y u DXu.U +X|.|.|.G G Z DXL L I I O.J.( GXgX=X=X=Xl.p.=.=.9.>.x.>.S.S.,.T T ,.>.l.-X-XV.d.h.h.I.1.;X).).b.I m HXHX( d.I.yX-XnXf.k.>.>.l.l.l.OXf.h.d.} ).! ! ! ! ! ).1.a.H.H.H.M.x.;.S S v v v ;.h.1.).@.@.@.kXh.m.t.h.I.} ",
"1 1 1 1 1 8 1 8 8 c U U i i i i h !.!.b b g g /././.D 4 2.2.cXcX}.}.#.#.p L Y p ZXi.z z z P }.SXSXPXD.P i.z P F.D.SXSXJXR.dXrX).D.SXxXvXpXU.U.U.eXpXJXFXFXFXSXxXJXJXU.U.s.s.s.U.R.R.s.7.3.7.v.s.U.pXpXE vXE vXvXvXvXpXvXvXvXvXvXJXJXFXFXFXFX9XFX9XD Y.b 8 8 8 C C C C u.C C 8 + + + 8 8 l i i i i l l l +X|.|.`.v.7.7.7.7.7.7.7.3.3.&.:X:X{ +X0 Z Z G u.u.u.C + C C 8 8 8 8 8 8 8 8 8 8 8 8 8 C C C 8 8 1 + 1 1 c c b 8 b b b b c c U i , , q q q i i i U U c c c c c c c U i 0 , , , , i i l c b b b c U U U c c 8 1 1 8 8 8 8 8 1 1 8 c b 1 < 1 8 c c U c c c b 8 1 1 1 1 1 8 c U G G 0 , , , , , , , , , , , q q i i q 0 , , , 0 , 0 0 0 Z Z , , 0 0 0 , , Z , , , G.0 0 G.q G.h +Xh +Xh 0 0 G.G.G.0 0 h h !.+XdX+XG.|.{ { :X XH H H H H H H H  X X&.3.3.`.{ 5X/.CXn 5.5.5.5.n n HXHXHXn u m I u Y u u m I I I Y L Y u I I m I I Y p Y DXu.G |.|.|.|.|.G U DX} } O.#.a.d.m.W.W.W.W.LXLXA.p.,.>.0X0Xc.9.c.T B v T 9.>.M.H.;X}.1.#.).@.@.).b.*.L HXgX=Xm.m.f.f.{.x.>.9.9.>.x.f.M.V.H.1.b.).@.! ! ! ! @.! ).b.}.;XH.M.l.9.S v v S ;.=Xd.b.! ! ! @.}.kXI.I.kX}.1.",
"1 1 1 1 1 < 1 1 c c U i 0 0 0 q q h h !.b b b b g Y./././.kX4 kXcXcXcX} } #.p Y ZXi.i.z z P b.SXSXSXD.P z i.P ).D.SXxXJXR.%.rXD.D.SXxXvXU.U.U.U.pXJXxXxXSXSXSXSXFXJXU.s.s.s.s.U.JXR.s.7.3.7.v.s.U.pXvXvXvXvXvXvXvXpXvXvXvXvXvXvXvXxXxXxXxXxXFXFXFX9XY.Y.b 8 C u.C DXC C C 8 1 1 8 C c U , Z Z G.Z Z Z |.|.`.`.`.[.7.7.[.7.7.[.7.3.&. X X X{ +XG.|.Z G C C u.C + 8 + C 8 C C 8 C 8 8 C C C C 8 8 8 C 8 8 1 1 1 8 8 8 8 b b c c l U i G , , , 0 q 0 0 0 G i U c c c c c b c l i , Z , , 0 i l c b b c l i G G U U c 1 1 1 1 C c C 8 1 1 1 g g g g b c U i i U U c b g g g b b c c U i G , q q q q , , , , , , q 0 q h h h q 0 , , , , , , 0 0 0 , , 0 0 0 0 0 , , 0 , , 0 G.0 G.h G.h G.+X+X+X+X|.|.|.|.|.|.|.|.G.G.G.G.{ :X:X X XH H H H H H H H H  X X X3.3.:X{ h /.L n 5.5.5.n n n HXHXn HXt u u L Y L L L L } p L p L p L L I I Y p p p CXu.G |.|.|.|.|.U D CX} } a.a.E.h.W.9.9.(.;.LX_.lXA.S.0XS.c.M B c.c.B B T 9.l.V.rXD.@.).).! @.).b.#.#.E.h.=XW.W.l.k.0XS.S.9.;.>.x.f.V.H.D.@.).).@.@.@.! ! ! ! ! F.b.}.}.kXd.OX;.;.;.S.l.m.d.#.P P ! ! ! ).b.D.}.}.b.b.",
"b 8 1 1 < < < g c l i i 0 0 q q q h h h l c c b b g g /.D /././.2.2.kXcX} } *.p p i.i.z z P F.SXSXSXD.P z z F.).SXSXxXJXR.%.rX@.D.SXxXJXU.U.U.U.pXJXFXSXSXSXSXSXFXJXpXs.s.s.s.U.JXU.s.v.7.7.s.U.pXvXvXvXvXvXvXvXvXvXvXvXvXvXvXvXvXxXxXxXxXxXxXSXFXFX9XY.Y.b C u.C C C DXC 8 8 8 c U U 0 Z G.G.G.G.|.|.{ `.`.`.[.[.7.[.7.7.7.7.`.3.&. X X X{ +X+XZ Z c < 8 u.u.C C C u.C u.C u.C C C C C C C C 8 8 8 8 8 8 c c c c c c c U U i i i G G Z , , , q 0 0 , G i U c c b 1 b b c i 0 Z Z , 0 i l c c c l i G G G G G U c 1 1 1 b c c b 1 < 1 g g g g b c i G G G i l c b g g b c c l i i i 0 0 q q q , , , , , , , q 0 q h l l q 0 , , , , , , 0 0 , 0 0 0 0 i 0 0 , , 0 0 0 G.0 G.G.G.+XG.+XG.|.|.|.|.{ { :X{ :X:X:X{ t.t.{ :X X XH H H H  XH H H H  X X X&.:X:X:X:Xt.!.CXL t n 5.5.5.n HXHXHXn u u m I L L L L L } } *.cXcXcX} p p Y I Y p Y p CX_ U |.|.+X+X+XY.4 } } a.O.E.d.m.>.,.,.>.k.lXlXlXk.>.S.c.B a B a B B B T ,.OX-X;XD.).@.).@.! ).} E.E.d.m.W.(.9.9.c.9.c.a c.>.x.x.f.I.;X@.@.).).! ! ).F.F.F.F.b.*.p p } } V.h.m.l.x.x.bXI.;X).! P P ! ! ! ).).).D.b.#.",
"U c b b g g g g b l l i i h h h h q q q i l l c b g g g D Y./././././.kX4 cXcXp p *.z P P P D.D.SXSXD.F.P P F.D.SXSXxXJXR.%.rX@.D.SXxXJXR.R.R.pXJXJXFXSXSXD.D.rXSXFXpXU.s.U.s.U.pXU.s.7.3.7.s.U.pXvXvXvXvXpXpXpXvXvXvXvXvXvXvXvXxX'.'.'.'.'.'.xXxXFX9X9X/.g g DXDXDXDXDXC C C c c U G Z G.G.G.|.|.|.{ `.`.`.`.[.7.[.7.7.[.7.7.3.&. X X X:X|.+Xl l c < < 8 u.U U U U G U U U u.u.u.C C C u.C C 8 + + 8 C u.U U U U U U i G G i i i i , , , , 0 q 0 , , , i U c b b b b c l i , Z , 0 q h l l l i i G Z Z Z G U c c b g b c U u.b g < g b b b c l i 0 , 0 i l c b b b b c l i 0 G , 0 0 i q q q 0 , , , , , , , 0 0 q h h q 0 , Z , , , , , 0 q q i q q 0 0 , , , 0 0 0 G.0 G.h G.G.G.G.|.v.v.`.`.`.:X:X:X X X X X:X:X:X X XH  XH  XH H H H H &.&. X:X:X`.`.`.`.G.!.CXL t n 5.5.5.5.HXHXHXn u I I u L CXCXDXCXCXcXcXcXCXCXcXCXp I I I I I u L CX/.+X+X+XY.9X4 kX} #.#.a.a.I.h.l.>.>.k.tXlXk.lXlXx.S.c.c.f f v B T c.S.k.f.H.H.H.H.1.).@.).#.d.h.m.m.OXW.9.S S T c.B B c.0Xx.x.OXd.1.).b.#.#.b.b.b.b.b.F.b.*.p L p *.#.} E.d.h.bXj.1.).@.! ! ! ! ! ! ).! ).F.b.#.#.",
"i U l l c b b b b c l l h h h h h q q q q i l l c b 1 < < < g g /.Y./././.4 CXcX} *.*.P P F.F.D.SXSXD.F.F.F.F.D.SXSXxXJXR.R.rX@.D.SXxXJXpXR.R.JXJXJX9XFXrXD.rX2.FXFXJXU.s.s.s.U.pXU.s.7.7.7.U.pXvXvXvXvXpXpXpXvXvXvXvXvX.X^.^.^.'.'.'.'.'.'.'.xXxXxXFX9XdX/.D D k k _ _ 1 8 c b c c U i h +XG.|.{ `.`.`.`.[.[.7.[.7.[.7.7.`.3.3.&. X X:X|.G.l Y.g g 1 8 u.U U G G G G G G U U u.u.C C C C C C 8 8 8 C u.U G G G G G G G G i U c c l i 0 0 0 q 0 0 , , 0 i l c b b c l i i 0 , , , 0 q q l l i i G Z Z G G i l c b b b c U i U c g g b c l l i 0 , , 0 i l l b !.c l l l i 0 , Z Z 0 0 q q q q 0 , , , , , , q , , 0 q i q , , Z , , , , , 0 q l l l q 0 , , , 0 0 0 0 G.0 +XG.G.|.|.|.{ `.`.7.3.3.3.&.&. XH  XH  X X X XH H H  XH H H H H &.&.&.:X`.`.|.|.|.|.h /.CXL t n 5.5.5.n 5.HXn m I I Y Y u CXDXu.C + _ k _ < _ k CXL u m m m J.J.L kXkXdX5X5X5X%.V.d.E.a.1.1.1.a.d.m.OXk.k.k.>.,.>.k.x.>.,.,.T T T T ,.S.>.tX>X-XM.f.m.h.H.PX;Xd.m.=XW.>.>.;.9.S S a B c.B B S.k.x.m.I.1.1.#.} a.#.#.*.*.*.*.p p p p p *.p #.#.#.a.E.a.).@.! ! ! ! ! ! F.F.F.b.*.#.p p ",
"c l l l l l l !.b b l l h h q q q q q h h h h l l c b 1 + 1 < < D D Y.Y.g /.D CXCXCXcX*.F.F.D.D.D.SXD.D.).F.F.D.SXSXxXJXR.R.rX).@.SXxXJXJXR.JXJXJXR.R.9X2.rX2.4 FXFXJXU.U.U.U.U.pXU.s.v.v.s.pXpXvXvXvXvXpXpXvXvXvXvXvX.X^.'.'.'.'.'.'.'.'.'.'.'.xXxXFX%.dXdX!./.4 cXcXCX_ 1 b b 8 b c c Y.+X|.{ `.`.`.[.7.7.7.[.7.7.7.7.7.3.3.&. X X:X{ +XY.c b 1 8 u.U G U U U G G G G U U u.u.C C C + 8 8 + 8 8 C u.U G G G G U G G G i i c b b c i 0 0 0 , 0 , , 0 i i l c c l i i , , , 0 0 q q q q i i i , , , G G i l l c b 1 c l i G i l c c l i 0 0 , , , 0 i l l l l l i 0 0 0 q 0 0 0 0 0 q q q q 0 0 , , , , , , 0 , , , 0 q 0 , , Z , , , , , 0 h l l l q , , , , 0 0 0 0 +X0 G.G.G.|.{ { `.3.3.3.3.&.&.&.&.H H H H H H H H H H H H H H H H H &.&.:X`.`.|.|.+X+XY.!.DXDXu t n 5.5.5.n n n u m I Y Y Y L DXu.G G U c Y.U +Xc g CXL u m m J.I O.} kXV.5Xt.LXLXLXLXW.=Xh.E.1.1.j.h.W.;.9.T c.T v T T ,.=.=.,.A.A.p.p.>.k.k.x.k.x.>.;.;.l.f.H.I.m.W.(.9.,.S.S.9.v f a B B B B c.k.f.H.;XD.b.1.#.#.#.#.#.p p p p ZXp ZX*.p Y p p #.O.O.#.b.F.! ! ! ! ! ).F.b.*.p p p p p ",
"/.b b l l l l l !.!.l h q q q 0 0 i i l h !.h h l l c C 8 + + + < < < g g g g g < D k cXcX}.D.D.SXD.D.D.D.).).D.SXSXxXJXU.R.rX).D.SXFXJXJXpXJXJXR.R.T.R.9X2.2.2.FXFXJXR.U.s.U.pXpXpXU.s.s.U.pXvXvXvXvXvXvXvXvXvXvX^..X'.'.'.'.'.'.'.'.'.'.'.'.'.xXxXR.T.t.t.G.h 4 cXcX4 k < 1 8 8 8 8 c Y.+X|.`.`.`.7.7.7.7.7.7.7.7.7.7.3.3.&.H  X X{ G.Y.g c 8 + + C U G G U U U U u.c c c C 8 C C + C + + 8 8 8 c u.U U G U U U U l i i l l c c l 0 , , 0 , , , , 0 q i l l l i , , , , , 0 0 q 0 q 0 q i i i 0 , 0 i U l U c b b c U G G G i i i , , , , , , 0 q h h h h q 0 , , , , 0 q q 0 0 0 0 q 0 0 0 , , , , , , , , , , , 0 0 , , , , , , , , , 0 q h h i 0 , , , 0 0 0 , 0 0 +XG.+X|.{ { :X:X3.3.&.&.&.&.H H H H H H H H H H H H H H H &.&.&.&.&.3.`.`.|.+X+XY.Y.Y.b l DXu n n 5.5.5.n n n m m I Y Y Y CX_ U G |.|.+X+X|.|.+XY._ CXu m m I I a.a.I.f.OXp.=.=.=.S (.W.m.d.1.a.d.m.;.(.S v T B f v v T =.p.A._._.lXT.lXA.>.>.S.S.9.S S ;.x.M.f.l.(.(.;.>.k.>.c.v f B T B f f 9.>.f.;X;X;X;Xa.a.1.#.*.*.} p L p O.p ZXZXp Y p p *.p p #.b.F.! ! ! ! F.b.b.*.p Y p p p #.",
"k D /././.!.!.l !.l h q 0 0 0 i 0 i i h h h h h q i l u.u.C C C + + + 8 8 8 b g Y././.D 4 cX}.D.D.SXSXSXD.D.D.D.SXSXxXJXU.R.rXF.D.rXFXJXpXJXvXJXU.s.s.R.R.9X9X9XFXFXJXpXU.U.U.pXpXJXU.s.U.pXJXvXvXvXvXvXvXvXvXvXxX'.'.'.'.%X'.%X'.%X%X'.'.'.^.$X$XVXT._._.:X:X{ /.2.4 4 k < b 8 8 8 8 c Y.+X|.`.`.7.7.7.7.7.7.7.7.7.3.3.&.&.H H H :Xt.dXY.b C 8 + + C u.U U U u.c b b Y.Y.Y.g 8 1 8 C C + + 8 8 8 C c U U U c c c c c l i i i l i q , Z , , , , , 0 0 q i i i 0 , , Z , , , 0 0 0 q q q l l l l i 0 G i i U i l c l i i G G , , , Z Z Z , 0 0 0 q q q q q 0 , , , Z Z Z 0 q q q 0 0 0 0 , , , , , , , q , q , , , 0 , , , Z , , , , , , , 0 q q q 0 , , , 0 0 0 , 0 0 +Xh +XG.|.{ :X X X3.&.&.H H H H H H H H H  XH H H H H H H &.&.&.3.3.3.`.`.|.+X+XY.Y.Y.Y.c U DXHXn n 5.5.5.n n 5.n m Y Y Y Y Y _ c G |.|.|.|.|.|.|.+X_ CXu m m I O.E.I.M.x.;.S (.(.S v S (.l.M.H.I.h.W.9.S S a e M B f v =.p.A._.v.v.s.T.T.A.p.9.9.S S v S =.>.x.x.l.9.;.>.x.tXk.S.B v T T S S S S zXf.-XH.I.V.d.d.E.} #.*.p p p p p #.#.p p p p p ZXp ZXp *.F.! @.! ! b.b.#.p Y Y Y Y p p ",
"4 4 4 4 D /./.b l q 0 0 0 i i i 0 G 0 0 q h G.h G.q i U u.C C C C C C C + 8 g Y.D Y.Y.Y.!./.4 rXrXrXrXD.D.D.D.D.SXSXxXJXpXR.rXD.D.rX9XR.pXJXvXpXU.s.s.U.JXFX9X9XFXFXFXpXU.s.U.pXpXJXR.s.s.U.pXvXvXvXvXvXvXvXxXxX'.'.'.%X%X%X'.'.'.'.'.'.^.$XVXT.lXlX_._.A.LXLX:X5XdX/./.g b b c b b c l +X|.v.`.7.7.7.7.7.7.7.7.7.3.&.&.&.H H H H :X5XdX/.1 8 C C DXC C u.u.8 < g g Y.g Y.< g g 8 8 1 8 + 8 8 8 8 8 8 c c c b g g g b l i , , , , , , , , , , Z , 0 q i q 0 , Z 0 0 , , , , , , 0 q q h !.b b l i , , , G G G i i G Z Z , , , , Z Z , , , 0 q q q 0 0 , , , , 0 , G.Z Z , 0 0 , , , , , , , , , q , , , , , , , , 0 , , , , , , , , Z , , , , , , , Z , , 0 0 0 , G.0 +X+X+XG.|.{ :X X&.3.3.&.&.H H H H H  XH  XH H H H H H H H &.3.3.3.:X`.{ |.+XY.Y.Y.Y.Y.c U i DXHXn t n 5.5.n 5.5.5.m Y Y Y Y cXCXg +X+X|.+X+X|.|.+XY.D CXL I I O.a.I.h.l.;.S S S S S y f 9.l.M.I.M.=X;.v T v y a y f f T ,.lXT.s.v.7.`.`.v.lX,.v v 9.9.v v v ,.>.x.x.S.S.x.>X>XtXS.T v v f S S S (.;.l.x.x.l.W.;.=Xn.d.E.} p *.*.*.#.ZXp p p *.p Y u Y p p *.*.F.! ! P *.#.#.p Y p Y Y ZXp ",
"!././././././.b !.h q 0 q q i i i i 0 0 h h h G.q q q l l c 8 + 8 C C + 8 + 1 < g Y.Y.g b g _ k k 4 2.rXD.D.D.SXSXSXSXJXR.R.FXrX9XR.R.pXvXvXpXU.U.s.s.s.R.9X9XFXFXxXJXpXU.U.U.pXvXpXU.s.7.s.pXvXvXvXvXvXvXxX'.'.'.'.%X'.%X'.%X'.'.'.^.$XVXlX_.lX_._._.A.A.A.A.:X5XdX/.g b u.c b g Y.+X|.v.v.7.[.7.7.7.7.7.3.3.3.3.&.&.&.H &.H H A._.T.%.dXg 1 1 1 + DX8 b b 1 < b b 8 Y.1 Y.1 1 1 8 8 8 8 8 8 8 8 8 C c b b b g g b b l i , Z , , , , , , , , , , , 0 0 , , Z Z , , , 0 0 0 0 0 0 0 q q l l h i 0 , , , 0 0 , , , , Z , , , 0 0 , , , , , , 0 0 0 0 q q 0 0 , 0 , , , G., , 0 0 , , , , , , q 0 q 0 , , , , , , , , q 0 , Z Z , 0 0 Z , 0 , , , G , , , 0 0 i q 0 q h +X+X5X|.{ :X X X X:X:X3.:X X X X X X X X X X X X X X:X X:X:X:X:X`.{ { |.+X+XY.Y.Y.Y.8 c c u.DXDXHXt t n 5.5.5.5.m m m Y Y Y Y CXk b +X+X|.|.|.+X+XdX/.E.a.O.O.a.a.V.x.;.a y a S S y y f ;.OXf.M.f.OX>.=.T T T 9.9.T T =.p.lXT.v.7.[.7.v.T.lX,.v a a a v v T c.c.S.S.9.c.0X3X3X0Xc.T T v S S S S e 9.;.S.9.9.S (.;.W.=Xd.} #.b.#.#.ZX#.#.#.p *.p Y Y Y p p p *.*.*.z *.*.p p p Y Y Y Y p p ",
"h l !.l !.!.!.!.l q q q 0 q i h i 0 0 0 h h h q q 0 q i i c b < + 1 + + 8 1 1 Y.+ < < < 1 8 1 1 < D 4 2.rXrXrXrXSXSXSXFXR.R.R.R.R.R.R.JXvXvXJXU.U.s.s.s.R.R.9XFXJXJXJXpXU.U.U.pXvXpXs.7.7.s.pXpXvXvXvXvXvX'.'.'.'.%X%X'.'.'.'.'.xX$XVXT._.A.p.A.A.A._.A.A._._.t.%.dX/.g 8 u.C g Y.dX+Xv.`.7.7.7.7.7.3.3.3.&.&.&.&.&.&.H p.p.p.p.A.lX{.t.h b 1 1 1 g g g b b g g b 8 Y.8 8 8 8 1 8 8 8 8 + + + 8 8 C 8 8 8 b b b b b l l i , , , , , , , 0 0 0 0 , , , , , , , , , , 0 0 0 0 0 0 , 0 0 q q 0 , , , , 0 0 0 0 , , 0 0 , , , 0 0 0 0 , , , , , , , , 0 q q q 0 , , , , , , , , , 0 0 , , , , , , q 0 0 , , , 0 0 0 , , 0 0 , Z Z , 0 0 , , , , q , , G Z G G 0 0 0 +XG.+X5X+XG.{ :X&. XH  X&.`.{ { { { :X:X:X X:X:X:X:X:X{ { { { { { { t.|.t.G.G.l Y.b Y.8 8 8 8 8 DXDXDXDXt u n n 5.5.5.m m m m m t u L CX/.!.+X+X+X+X|.5X5XM.d.j.j.E.a.I.f.>.T f y a a a S y S ;.k.{.lXt.OXA.,.,.,.S.>.S.,.T =.p._._.v.7.`.v.v.T.k.,.c.c.c.c.9.T c.,.T T S y a c.c.S.S.c.=.=.=.p.,.9.S S a M a a y y S S (.W.h.1.1.b.#.p #.#.p p p p Y Y Y Y Y Y p L p Y Y Y Y L L L L Y p Y Y Y ",
"h h h h h h i q q q q 0 q q h l h i q q q h q G.q q q q i l b g < g < 1 < 1 + + < < < < + 8 8 8 8 1 D k 2.rX2.rXrXSXFXFXR.R.R.R.R.U.pXvXxXvXpXpXU.U.s.s.s.R.R.R.R.R.pXU.U.U.U.pXvXR.s.7.3.v.pXvXvXvXvXxXvX'.'.'.%X%X'.'.'.'.xX$XVXT.lX_.A.p.H A.A.3._._._.T.T.T.%.dX/.D < 8 8 g Y.+X|.v.7.7.7.7.7.7.7.3.3.&.&.&.&.&.H H H &.A.A.A.lXlXt.G.!.b b b b b b b g g < g 8 8 8 8 8 8 8 8 C C 8 8 + + + 8 8 8 b 8 b c l l i i i 0 , , Z , , , , , , , , , , , , , , , , , , 0 0 0 0 0 , 0 , q q , , , , , , 0 0 0 , , , 0 0 , , , , , , 0 0 0 , , , , , , q q q q 0 , , , , , , , , , , , , , , , , , 0 0 0 0 i i i i q , , 0 0 , Z , Z , , , , , , , , , , G G Z , 0 0 G.G.G.+X5Xt.{ :X&.H H  X:X`.|.|.G.G.G.Z { { { { { Z |.G.G.|.G.G.G.+XG.h G.h h !.b b 8 8 8 8 1 1 8 u.DXDXDXu t n 5.5.5.5.m 5.5.n n u L } } CX/.2.9XG.t.t.OXOXx.m.m.h.I.I.{.,.v f y a y y y a 9.>.>.k._._.lX_.>.>.>.k.k.k.>.T v =.A._._._.v.v.T._.p.,.S.0X>.>.>.>.>.S.9.S S f f B B c.,.p.p.A.A.A.A.p.=.v v T B f y y y S S ;.h.1.1.#.#.O.p #.p #.p p Y Y Y Y Y Y p p Y L u t u u u L L p p Y Y Y ",
"h q q q q q 0 0 q q h h h l l l l h q q 0 q q h q q q 0 i l b g < < < < < < < < < < < + 8 8 8 8 8 8 < D D k 4 2.2.rXFXFX9XR.R.R.R.JXJXxXJXpXJXpXpXU.U.s.R.s.s.s.s.U.R.pXU.U.U.pXJXR.v.3.3.s.pXvXvXvXvXvXvX.X'.'.'.'.'.'.xX$XVXT._.A._._.A.A.A.A.3._.v.s.s.U.R.R.R.9X9XD _ + + Y.Y.+X|.v.7.7.7.7.7.7.7.7.3.3.3.&.3.&.&.&.&.&.A.A.k.k.A.OXG.l 8 b b c b b b g < < 1 8 8 Y.8 8 8 8 c u.u.u.C 8 8 8 8 + 1 < 8 b U i 0 0 0 0 , G , , , , 0 , , , , , , , , , , , G , 0 i 0 0 0 0 , , , 0 q 0 Z , , 0 0 0 0 , , , , 0 0 0 0 0 , , , , 0 0 q 0 0 , , , , 0 q q q 0 , , , 0 0 0 0 0 , , , , , , , , Z Z , 0 i i l l i i 0 , , , , , , Z Z , , 0 0 0 , , G , G Z , Z 0 G.G.+X+X5X|.{ :X XH H  X X:X{ G.+XdXdXY.!.h 0 , Z Z , 0 h +Xh +Xh +Xh h +Xh h !.!.c b b 8 8 1 + 1 8 u.u.DXHXu u n 5.5.5.5.5.5.5.n n t u L } } kXrXkXt.A.p.,.,.;.;.W.=XV.M.l.T f f y y y a 9.S.0Xk.k.lXlXlXlXlXk.>.k.0Xk.0XS.T v v ,.p.A.A.A.A.A.p.=.,.k.{.{.{.OXOXOX>.9.v v f f v T p.A.A.3.7.7.v._.A.=.v v T T B f f S S (.W.h.1.1.#.#.p #.p p p p p Y Y Y Y Y Y Y p L L u u L L E.} } #.} p p Y ",
"h h h h h h h h h h l l l !.l !.l l h q q q q q h q q 0 i l c g g < g < g 1 g < < < < < 1 8 8 8 8 1 g g Y.D Y.D 4 2.9X9XFX9X9XR.FXFXxXxXJXpXpXpXU.U.s.U.U.s.s.v.s.U.pXpXU.U.s.R.JXT.v.3.3.v.pXvXvXvXpXE E pXvX^.'.'.xXJXR.T._.A.&.&.A._._._._.v.v.s.s.U.U.U.U.U.R.R.9XY.Y.Y.Y.Y.Y.+X|.`.`.7.[.7.7.7.7.[.7.7.3.3.3.3.3.3.3.&.A.A.A.l.LX{ G.c 8 8 8 C 8 8 1 8 8 1 8 8 8 8 8 8 8 c U U i U U u.C C 8 8 1 1 b c U i 0 , 0 0 0 0 , , , , , 0 0 q 0 , , , , , , , Z , 0 i 0 0 0 0 , , 0 , 0 0 Z , 0 q q 0 , , , , , , , 0 0 q q q 0 0 0 0 0 0 , , , , , 0 q q q 0 , , , 0 q q q 0 , , , , , q 0 , Z Z Z 0 i l l l i 0 0 , , , , , , , , , i l l l i 0 0 , , , G 0 0 0 h h +X+X|.{ :X XH H &.:X{ |.+XdXY./././.b !.!.h , 0 0 0 q q 0 0 G.h G.h h h h l l c c C 8 8 8 8 b u.u.DXDXHXu n 5.5.m 5.5.n t Y t t Y L L } 1.H.V.OX,.=.T v T S =.;.{.OX;.v v f a f f f c.S.tXtXtX{.T.{.lXlXtX>.0XS.S.9.9.S v v v T 9.,.,.,.=.T =.,.OXM.M.5Xt.t.OXOX;.c.c.c.T =.=.A.v.v.v.7.7.s.v.A.p.=.v T T v f v S (.;.=Xd.1.#.#.ZXp p p p p p p Y Y Y Y Y Y Y p p Y L p #.} } a.kXE.E.} *.*.",
"h h h h h h h h l h h !.l !.!.!.!.!.!.!.h h q h h q i i i l c b b b b b b b 8 b g g < < 1 1 1 1 1 1 1 g g g Y.Y.D Y.9X2.2.9X9XFXFXSXSXSXFXJXJXpXU.U.s.s.U.U.s.s.R.JXJXJXR.R.s.R.9XT.`.3.7.s.pXpXpXpXU.U.U.U.E vXxXxXJXT._._._._.:XA.&.A.T.T.T.U.U.U.U.U.U.U.U.U.U.R.R.+X+X+X+X+X+X|.`.`.[.7.7.7.7.7.[.3.7.3.3.7.7.7.3.`.3.&.:XOXOXOXOXn.h b 1 1 8 C 8 + 8 8 C C 8 8 8 8 8 8 c U U G G G U u.C C 8 c c c c l i G , 0 G 0 0 0 , , , , , , q , q , , , , , , , , , 0 0 0 0 0 0 0 0 , q , , , , 0 q q 0 , , Z , , , , , 0 q h h q 0 0 0 0 , , , , , , 0 q q q 0 0 , , 0 q q q 0 , , Z , 0 q q 0 , Z Z 0 i i i i 0 0 0 , Z , , q 0 0 , 0 i l b c l i 0 , Z G 0 0 0 0 h +X+XG.{ :X XH  X&.&.:X{ |.+XdXY.Y.Y./.b !.b l , , 0 0 G.0 G.0 G.0 0 q G.0 0 0 i U u.c u.c u.u.u.u.u.DXDXn u t m 5.m m t t Y Y t u Y p O.1.1.I.=X;.9.v v T T =.v =.>.p.p.=.=.,.,.c.v v T S.k.k.k.lXlXlXlXtXk.>.S.c.e a S v S a a a v v v v v T 9.=.l.f.%.5X5Xn.5Xm.l.>.0X0XS.,.p._.v.v.[.[.[.v.v.A.p.=.T T T T S 9.(.W.=Xh.E.#.#.#.*.p p p p p p Y Y Y Y Y Y Y p p p O.p #.1.1.I.d.h.n.n.d.} #.",
"h h h h h h l h h h h h l !.!.!.b b g g !.!.l h h i i i i i l l l l U U l l c c b g g g g g < < < < < 1 g g g < Y.Y.D D 9X2.9X2.rXrXSXSXFXFXFXJXR.U.s.s.U.U.U.pXJXFXFXFX9XR.+XR.9XT.v.v.7.s.pXpXpXU.U.U.U.U.pXJXJXR.T._.A.&.A.:X_._.3._.T.R.R.R.R.pXU.U.U.U.U.s.U.U.U.s.s.|.[.|.|.|.`.`.7.[.[.[.7.[.7.3.3.3.3.3._.7.7.`.3.:X{ 5X5XuXuXuX!.b 1 8 C C C + + C C C C C 8 8 C C c U i G G G U u.C 8 C c U U U i G 0 G , 0 0 0 0 , , , , , , , , , , , , , , 0 0 0 0 , , 0 0 0 0 0 , q , G., , 0 0 0 0 , , , , , , , Z , 0 q h h q q 0 , , , , , , , , , 0 0 0 0 0 0 , 0 q h q 0 , , Z , 0 0 q 0 , , , 0 i i i 0 , , 0 , Z , 0 0 0 0 , i l c b b l l i 0 , 0 G 0 0 0 h G.G.|.{ :X X X X&.3.:X{ |.+X+XY.!.Y.g b b g !., 0 0 q 0 0 0 0 0 0 q 0 0 0 , , G G U U U U U U c u.u.DXDXDXu t m m 5.m Y m m Y I I O.#.#.1.H.bX;.(.S v v T T T v v =.p.p.A.A.A.k.k.S.T v c.S.S.>.>.>.>.>.>.k.S.c.B B f v S S S S S v v v v v T T =.>.t.5X5Xt.5X5Xf.{.tXtXtX>.p.p.:Xv.v.[.[.7.v.v.A.=.=.=.S.>.>.l.l.=Xm.d.E.#.b.#.p ZXp p p p p p p Y Y Y Y Y Y Y p p #.#.1.a.d.h.OXl.W.W.m.E.1.",
"h h h h h q h q q q q h h h l !.!.b g /.g b b l l i i i i l i i i G G 0 G U i l c b b g g g < < D < < < 1 1 1 < g < D g Y.Y.Y.D 2.2.2.2.FXFXFXFXJXR.U.U.U.U.pXJXJXFXFX9X9X9X9X9XFXR.s.s.v.U.pXpXU.U.U.U.U.U.pXR.T.v.T._._.LX&.A._.v.s.U.R.pXR.pXU.U.U.U.U.U.s.s.U.U.U.s.[.[.[.[.[.`.[.`.[.[.7.[.7.3.3.3.&.&.&.3.3.7.`.`.`.`.|.dXkXkXV./.!.g < 1 c u.C 8 + C C C C C C C C C c c U i 0 i c 8 1 1 8 u.U G G G G G G , G , , , , , , , , , Z Z Z , , , , , 0 0 0 0 , , , 0 0 0 0 0 , , , , 0 , , , , , , , , , , , , , q q h h q q 0 , 0 , , , , , , , 0 0 0 0 0 0 , 0 q q q 0 , , Z , 0 0 q 0 , , , , , 0 , , Z , 0 , Z , , 0 0 , , i l c b b c l l i i 0 , , , 0 G.G.G.{ :X X X X&.3.:X:X`.{ |.+XY.Y.g b b c b l 0 q q q 0 0 0 0 i 0 i i i 0 , , G G G U U U U U u.u.DXDXDXu u u t m m m m m I I J.O.a.a.I.I.I.f.(.(.S S S T T T v v ,.A._._.lXT.T.{.k.,.v v S v v v =.=.=.,.>.S.c.B f f S 9.9.9.9.9.T v v v T T v =.>.OXt.t.5X5X5XM.M.{.tX0XS.,.=.LXv.v.v.v.7.7.A.p.=.T S.k.x.f.f.d.d.E.a.1.b.*.p p Y Y p Y p p p Y p Y Y Y Y p p p *.b.b.a.d.m.l.;.(.S (.W.m.I.",
"h h h h h h q q q h h h h h h h l !.!.b g /.g b c c l c c l l i i 0 G 0 G 0 0 i i l l b b Y.g Y.g < < Y.1 8 1 8 8 8 < < 8 b b Y.Y.Y.D 4 2.2.rXFXFXFXJXpXpXpXJXJXR.R.9X9XrXrXrXrXFXR.R.R.U.JXvXpXU.U.U.U.pXR.R.R.v._.T.t._.A.&.3._.s.R.JXR.R.U.U.U.U.U.U.U.U.U.U.U.U.U.s.7.7.7.7.7.[.`.7.7.7.[.7.[.[.3.3.&.3.3.3.3.`.`.`.|.|.+X2.rXH.kXuX!./.D g b c C 8 C C C C C C C C C C b c c c l l c 8 1 1 8 c U G G G i 0 , , , , , , 0 q q q q 0 , , , , , , Z , Z , Z Z , , , 0 0 0 q 0 q G., , , , , Z , , , , 0 0 0 0 0 0 0 0 0 0 0 , 0 0 q 0 , , , , , , , , 0 0 0 0 , 0 0 q 0 0 , , , , , , , , , , , , , , G , , 0 0 , , , , , , 0 G i U c c b b b c c l i 0 , Z 0 q G.|.{ :X X X X&.3.3.:X X{ |.+XY.D D g c i i 0 , , , , , , , Z Z G Z i i i 0 G G G G U u.u.C c c c C DXDXCXu u t m m m m I I J.( ( h.h.m.m.m.OXW.(.S S S S v v f T k.lXv.v.s.T.R.%.{.>.T v v S S v v v v 9.S.S.c.B y 9.W.l.l.l.;.=.v v v T T T ,.;.OXM.%.5Xt.t.5XM.{.k.c.c.T S =.p._.v.v.v.v.A.p.=.v T S.x.M.-XH.1.#.#.b.b.*.*.Y Y Y Y Y Y p Y p p p p Y p Y p p p #.b.b.I.m.W.(.S S S S (.W.bX",
"h h h h h h h h h h h h h h q q q h h l b g g g b b b b b b c l l i i i 0 i 0 0 i q h l !.b Y.b g g g 1 8 8 8 + 8 8 + + 1 8 1 g b b g D D D k 2.FXFXFXFXJXJXJXpXR.R.dX2.rXSXrXFX9Xs.s.U.pXxXxXvXU.U.pXpXpXU.U.s.v.v.T.T.T._._._.v.s.R.R.U.s.U.U.U.U.U.U.U.U.pXU.U.s.s.7.7.7.7.7.[.7.7.7.3.7.7.7.7.7.7.3.3.3.3.`.`.{ |.+X+X+XY.2.rXH.V.h.uX!././.g b 8 8 + C C C u.C C C C 8 8 b b b b b c C 8 8 C c c U U i i i G , , , , i i h l h i i 0 0 , , , , , , , , Z , i i 0 0 0 0 0 0 , 0 , , , , , 0 0 q 0 0 0 0 0 0 q 0 0 0 , , , , 0 0 0 0 , , , , , , , , , 0 0 0 0 , 0 0 0 , , , , , 0 , , , , , 0 , , G 0 0 0 0 , 0 0 , , , , 0 i U l c c b b g b b l i 0 , , q h G.{ :X:X X X&.&.&.&. X X{ |.+XY.g g c i , Z Z , Z , Z , , , , G Z Z G i 0 0 G G U U u.8 8 1 8 C C 8 DXDXCXu L t m m m I I O.( h.=XW.W.W.>.l.OXOX;.(.S S S f v v ,.{.T.v.[.v.v.T.T.lX>.T v v S S S v v 9.;.OX{.x.l.l.m.h.d.d.f.W.=.=.=.,.,.c.,.>.l.f.H.H.%.5Xt.5X{.k.,.B B f S S ,.A.A.A.A.A.p.=.v f f c.k.M.H.1.#.p #.#.*.p p L u Y Y Y p p p p p p p p p p p p #.#.1.1.h.l.(.S S 9.v y S ;.6X",
"q h h h h h h h h h h h h q q q q q h h l c b g g g g < g g g b c l l i i 0 0 q q q h h l l l l c b b 8 8 8 + 8 + 8 8 + + < + 1 1 g g < 1 < < D 9X2.FXFXxXFXJXJXR.dX9X2.2.rX2.9XR.s.s.U.pXxXxXvXpXpXpXvXvXU.s.s.v.s.s.U.s._.v.v.v.v.s.v.s.s.s.U.U.U.U.U.U.U.U.U.s.v.7.7.7.7.7.7.7.7.v.7.&.&.3.7.v.7.7.7.7.7.`.v.|.G.Y.Y.Y.c Y.2.rXH.M.OXOXn.!././.g g 1 8 C C C C C C C C 8 1 g g g b b c c C c C c c c c U i G , , , , 0 i l l l l i 0 , , , , 0 , i 0 i 0 0 i l l i q 0 , , 0 q , 0 , , 0 h l l h q q , , , 0 0 0 0 , , , , 0 0 0 0 , , , , , , , , , , 0 0 0 0 , , , , , , , 0 , , , q G.q , , , 0 0 0 0 0 , , , 0 0 0 , 0 i l c c b b 8 8 1 b c l i , , 0 h h G.{ :X:X X X X&.&.&. X:X{ |.+X!.c l i G Z Z Z , Z Z , , , , , G G G Z G G G i U u.c 8 1 1 1 1 g 8 b DXDXDXL L Y m m m I I J.( m.W.;.;.9.,.>.OX{.LX(.S S S a v T >.T.T.[.[.[.[.v.T.T.p.T v v T S S S S ;.l.M.I.V.M.h.j.a.1.I.d.OXl.>.k.>.S.c.,.S.l.M.SXSXH.%.5XM.{.>.T B f y a a 9.,.,.,.,.,.T S y y f T >.f.I.1.#.Y p p p p Y Y Y Y Y Y p Y p p p *.*.p p p p #.#.#.a.I.m.;.S S S a S a M S.x.",
"q q q q h q q q q 0 q q q q q q q q q i i i l b b g g g < < g g c l l l i q q q h h h !.!.h h h l c c b 8 8 + + _ + C 8 + < + 1 1 < < 1 8 8 + < D D 9XFXFXFXFXFX9X9X9XY.9XY.9X+Xv.s.s.U.pXvXvXvXJXpXvXxXxXR.s.v.v.v.s.T.s._.s.s.v.v.v.7.7.7.s.U.U.U.U.U.U.U.U.s.7.7.7.7.7.7.7.7.7._._._.H p.3.7.7.7.7._._._._.t.+XY.Y.g g b Y.2.2.-X{.>.LXLXn.uXdX/./.g 1 8 C C C C C C C 8 8 1 g g g b b C C C b b 8 b c U G Z Z , Z , , i l l l i , , Z Z , , 0 i i i l l l l b l l q 0 , , , 0 0 q 0 q h l !.b !.h q , , , , 0 , , , , 0 0 0 0 0 , , , , , , , , , , , 0 0 0 , , , , , , , , , 0 , , q q , , , 0 0 0 0 0 , , Z , 0 0 0 0 i l b g g 1 8 8 8 8 c U i , , 0 q h G.G.{ :X:X X&.H H H &. X:X{ |.+Xh i 0 Z Z Z , , , Z , , , , 0 i i G G G Z Z G U c b 1 1 8 8 8 b 1 1 b C DXDXu L Y u m m I I J.( m.=Xl.>.>.,.p.OXM.OX>.(.S S T T ,.A.T.v.[.[.[.[.|.T.T.p.=.v v S S S S 9.l.f.I.D.;X;X1.1.b.1.a.V.V.M.M.>Xk.S.T v 9.l.M.;XPX;XH.V.M.{.>.,.T f a a y a M T c.T T f y a y y S W.m.E.#.*.Y Y p p p p ZXp Y Y p p p p p *.p #.#.#.#.#.#.1.1.a.d.=X;.S S S v v T S.0X0X",
"h h h h h q q q q 0 q q q h q q q q q q 0 G i i l c b b g g g g b c l l i q q h h h h !.!./.!.l i 0 i U c 8 + _ _ _ + + + + 1 1 < < _ < 1 1 + + g g g D 9X2.FXFXrXFX9X9XdX+X+X|.v.v.s.s.U.pXJXxXFXFXxXSXSX9Xs.v.v.v.v.T.T.R.R.s.v.7.v.v.7.7.7.s.U.U.pXU.R.s.v.`.7.7.7.7.7.7.7.7.7._._.A.p.H A.3.3.7._.7.A.A.A._.5XG.0 q l b Y.Y.dX5XlX>.LXLXLXt.uX/././.g 1 C u.C C C C C C C b 8 1 g 1 8 8 b C 8 8 b c U G G Z Z Z G , G , 0 i i 0 , , , 0 i i l l l l l l b !.!.l l q 0 , , , , , , 0 q l l !.!.l q 0 , , 0 0 , , , , 0 q q 0 0 , Z , , , , , , , , , , , 0 0 , , , , , , , 0 0 , , , , , , q 0 , 0 0 0 , , , , , , 0 q l c b g g g 1 + 8 8 u.u.U , , , 0 q G.G.{ :X X X XH &.H H H &.:X:X|.G.0 i 0 Z Z G , 0 , , q , q q q 0 G G G G G G i U c b 1 b b c 8 b 8 1 8 8 DXDXDXL Y u m m u u L E.d.h.OX>.;.=.p.OXM.f.x.>.S.c.T c.>.lXv.v.[.[.[.|.s.T._.,.=.T S S 9.(.W.=Xh.I.1.D.D.D.).).F.b.b.} ;X;X;X-Xk.c.a y y ;.6XH.PXPX-XM.{.lXk.k.0Xc.f y y e :.S.c.B B B B f v S ;.=Xh.E.} p Y p p p p Y p i.p Y p p p p p #.#.b.b.b.1.1.b.b.;X;XI.m.W.=.S =.=.v v ,.>.S.",
"h h h h h h h q q q q q q h h h q q q q i i i i U U l c b g g g g b b l h q q q h h h !./.D /.!.l i i i U c 8 1 < < 1 1 1 1 1 g g g < g g < < < + + 1 1 g D 2.2.2.2.2.9XdX+X+Xs.v.s.s.s.s.R.FXxXSXSXSXSXSX9XdX+X+XT.T.R.JXFXJXR.s.s.s.U.s.U.s.U.U.R.JXJXR.+Xv.`.`.7.7.7.7.7.s.7.A.A.A.p.p.p.p.A.&.A._._.A.p.p.A.OX{ { { G./.Y.+XG._.A.A.A.p.p.LX5XdX/./.Y.g 8 u.C C C C u.u.u.u.8 8 1 1 1 8 C C b 1 b c i G G G G G i i 0 , , G G 0 G G 0 i i l l l l l i l l l l l h q 0 , , , , , , 0 q h h l h q , , , , 0 0 , , , 0 0 q 0 0 0 , , , 0 q 0 0 , , , , , , 0 , , , Z , , , , 0 , , , , , q q , 0 , 0 , , , 0 0 , Z Z , 0 l b b b b b 1 + 8 C u.U i , , , G.G.G.|.:X X X XH &.H H &.H H  X:X{ G.q h i Z Z Z , , , q q q q q , 0 G , G Z G G i U U c c u.c c b b 8 b 1 1 DXDXHXL Y u m t u L p #.a.d.m.LXp.p.A.{.-XM.{.k.0Xc.T T A.lXv.v.[.[.[.s.s.v.p.=.,.>.l.l.l.=Xm.d.I.1.}.}.b.).@.! ! ! F.F.@.PX;Xf.>.a y a y 9 AXbXPXH.M.OXl.>.>.k.tX,.T y a :.AXx.hX9.T T v v S ;.=Xn.E.} #.p ZXp Y p Y p Y p Y Y p p p p #.#.1.1.1.a.a.a.a.a.H.I.V.f.LX=.=.=.p.p.p.p.p.,.",
"q q q h h h h h q q q q q q q q q q q q i i l l l c c c c b b g /.g b !.l q q q q q q !./././././.b c l l l c c b b b c c c c c b b b b g g g 1 + C C C 1 < D D 2.9X2.9X9X9X9XdXR.s.s.s.s.R.FXSXSXSXSXSXrX9X9X9X9X9X9X2.FXFXFX9XR.R.R.JXR.R.R.R.9XJXFX9XR.+Xv.`.`.[.7.[.7.7.7.7._.p.p.p.>.A.p.p.p.A.T.T._.p.=.=.p.LXLXLXn.dX9X+Xt.LXLXl.l.p.=.p.t.%./././.g g 8 8 C C u.U U U u.C 8 8 + + 8 C C 8 1 b c U G G i i U l l l i i i i i i G G i i i l i i i 0 0 i i h h q 0 0 , , , , 0 , 0 0 0 q q 0 , , Z , , , , , , , 0 0 0 0 0 0 , , 0 q q q q 0 , , , , , 0 0 , , , Z , , , , , 0 , , q q q q 0 , , , 0 0 0 0 0 , Z Z , i l l c c b 8 + C u.U i G , , q G.h G.G.:X X XH H H &.&.H &.H  X:X{ G.0 h 0 Z Z Z , , , , G.q q 0 0 0 , G G G G G G i i i i i i U c c b 8 1 1 DXDXDXL Y u m m u L p #.} uXn.{ :Xt.5X-XwXM.tX0XS.c.c.T ,._.lXv.v.7.v.s.v.A.p.=.>.x.M.M.bXd.j.a.1.#.} *.*.F.).! ! ! ! @.@.PX;XOX(.S y a y 9 AX6XnXf.l.;.9.,.,.k.k.,.9.S (.l.f.M.f.x.;.;.9.;.W.m.h.E.} *.*.*.p p p ZXY p p Y p p p p p } #.#.1.a.E.h.m.m.m.m.m.m.{.OXLXp.p.A.A.3.A.A._.p.",
"q q q q q q q q q q q q q q q q q q q q i l l c b c c l c c b g g /.g b !.h q 0 q q h h !.!././.D /./.b c l i U l l U l l l l h l h !.l Y.Y.b b C u.u.u.C 8 g g D D D 2.9X9X9X9X9XR.R.R.+X+XFXFXFXFXFX9X9XdXdX9X2.2.2.2.rX2.FX9X9X9X9X9X9X9X9X9X9X9X9X9XR.s.v.`.[.`.[.[.v.7.v._.A.p.,.,.k.>.>.p.A._.5X5XOXp.=.=.p.H A._.t.%.9XdXG.{ LXl.l.p.=.p.t.%.dX/.Y.g g < 1 C u.U U G U u.C 8 8 8 + 8 8 8 8 1 8 c U U U U c c b b c c l l l U U U i i l l i i 0 , , , , 0 0 q 0 0 , , , , , 0 0 0 , , , 0 , , , , , , , , , , 0 0 , , , , 0 , , 0 q h q q 0 0 , , , , 0 0 0 , , Z Z , , , , , , q q q , , , , , 0 i i l l q 0 , , , 0 0 i i l c c C u.u.U i 0 q h h G.+XG.|.:X X XH H &.H H p.&.p.H  X{ G.G.q 0 Z Z 0 0 0 0 0 q G.q G.0 0 , G G Z G G G G i G G G G G U c b 1 g 1 DXDXu p p Y I u I L } } CX!.G.{ |.+X9XFX-X{.k.c.c.c.T T =.p.A.lXT.v._._.A.p.=.T ;.x.V.I.H.1.1.1.#.#.} } *.b.F.F.! ! @.@.@.@.;X=X(.S S S S 9.S.hXhX>.9.S S S ,.>.l.p.(.;.W.f.I.H.H.V.h.f.m.f.h.E.} }.*.*.*.p p O.Y Y p O.p p p p p p ZX#.#.1.1.E.h.=XW.W.;.;.;.;.W.>.A.A._.v.v.v.7.v._.A.",
"q i q q q q i q q l q q q q q q q q q q i i l c b c c l l c b g g g /.g b !.h q q q h h q h !./.D D D g b l l i i i i i 0 q q q q q h h +Xl +Xl U U u.u.u.u.c b c Y.Y.D D 9X2.2.9XFX9X9X+X+XY.dXR.+Xs.v.v.|.+X+XY.Y.Y.Y.Y.Y.Y.Y.Y.Y.Y.Y.Y.Y.+X+X+X+XR.+Xs.v.`.`.[.[.3.[.[.v.s.v._.A.>.>.S.S.>.>.OXf.%.5XOX;.,.p.A._._.lXlXT.9X9X!.n.=XLXl.;.=.p.t.%././.Y.b g g b c u.U U U U u.C C C C + 8 8 8 8 8 8 c u.U U c b b g g b b b b 8 c c c c c c c l i 0 , , , , , , 0 0 , , , , , , 0 0 0 , , , , , , , 0 0 0 0 0 0 0 , , , , , , , 0 0 q i q q 0 0 , , , , , , 0 0 , , , Z Z , , 0 0 q , , , , , Z Z , 0 i l l l h q 0 0 0 0 0 0 0 i U U u.u.U i i q h h uX+X5XG.{ :X XH H H &.H H p.H p. XLX{ G.G.0 0 , , i l l h h q h G.q 0 , , , G G G i i l l i , Z Z G i c b 1 1 8 DXDXCX*.*.*.ZXp Y p p } CXc Z |.|.+X9X9XlX>.c.B B B v v v T p.k.lXlXA.p.=.=.v S (.l.m.I.1.b.b.b.*.*.L L *.*.b.F.).@.@.@.@.PX;X=X(.(.S S v 9.,.9.9.v a f S 9.;.l.OXLXLXOXh.I.;XD.@.D.;X;X1.;X;XD.).F.*.*.Y L Y Y p O.p p ZXp O.p ZXp p #.b.1.I.h.=X;.(.S S S S S =.p._._.v.v.v.[.v.v.s._.",
"i i i q q 0 0 q q q q i q q q q q q q q 0 0 i l c c l l l l b b g g g /.g b !.!.h q q 0 , , h !.b /.g b !.l l l q q 0 0 0 0 0 0 q q q h 0 +X0 0 0 G U U U U U U l c b b Y.Y.Y.2.2.FX2.9X9XY.+X|.`.`.`.v.`.`.`.`.|.|.|.|.|.G.|.|.|.|.+X+X|.|.|.|.|.|.v.v.`.`.7.7.`.[.[.`.[.|.+XR.5X5XOX>.>.k.x.x.f.V.%.5XOX;.,.>.lXT.lXA.p.A.5XdX!.n.=X=XOXl.W.LX5X%./.dX!.!.l c U U U u.u.u.u.C C C C C 8 8 8 8 8 1 8 C u.u.c c 8 1 1 1 1 1 1 1 b 1 1 1 b b b c l i G , 0 0 0 0 , , , , , 0 , 0 , 0 0 0 , , , , , , 0 0 q 0 0 0 q 0 , , , , , , , 0 0 q q q 0 , , , , , , , , , 0 0 , , , , , 0 0 0 q , , , , , , , , i i l l !.i q q q q q 0 0 , 0 i U U U i 0 , G.G.G.G.t.t.{ :X XH H H H H p.H p.p.LXLX{ t.G.G.G.q 0 0 l l l l h h q 0 G.0 , 0 i i U U c c b b c l i , G G U c c c u.u.DXCX*.P P z ZXZXp p *.CXb G |.|.+XR.T.p.=.B B B B v v T 9.T ,.>.S.,.T T T T S S ;.m.d.1.b.b.F.b.*.p p *.*.*.).@.@.D.1.1.;XH.m.W.;.=.=.=.p.=.=.=.v v T 9.l.{.M.V.V.V.kXkX}.D.).@.@.@.@.@.@.@.@.@.F.*.p Y Y ZXp Y p Y p p p p p p O.#.#.#.E.h.=X;.(.S (.S S S S =.A.lXT.s.v.v.[.v.s.s._.",
"0 i i i i i i i q q i q q q q q q q q 0 0 0 i h l l i i i i i l l l b b b /.b b !.h q 0 0 q q h l l !.!.!.l l h h q q q q q q q h 0 h 0 h h 0 0 0 0 i i i i G G i U c l l 0 !.Y.Y.9X9X2.9XdX+X|.`.`.7.`.7.3.`.`.`.`.`.|.|.|.|.|.|.|.|.|.|.|.`.`.[.`.`.[.`.7.7.7.`.[.v.+X|.+X+XdX5XuXf.OXx.{.{.{.M.V.uXn.LX(.9.>.lXlXlXS.,.p.t.dXdXh n.n.h.f.m.n.uXkX/./.!.i i i G U U c b 8 C C C C u.C + 8 8 8 8 8 8 8 b C 8 8 8 b 1 1 g 1 g 8 8 1 1 1 b b c l i G Z , 0 0 i 0 , , , , 0 , 0 , , , , , , , , , , , 0 0 0 , , , 0 0 , , , Z , , , 0 0 q q 0 , , , , , , 0 0 0 0 0 , , , 0 0 q q q 0 0 , , , 0 , , , , 0 i i i i 0 0 0 q q q 0 , , G i i G 0 , Z |.{ { { :X:X:X:X XH  XH H H H H p.LXOXOXt.n.n.uXG.q 0 , 0 l l l i q 0 0 G., 0 q l l c c b b b b b DX!.l i 0 0 i U c U U u.DXCX*.P P z z i.i.*.b.cXD c |.|.|.|._.p.T B M e M S S ;.>.,.T T c.B B B c.c.S S ;.m.I.1.b.F.! F.*.*.p *.*.#.}.;XH.V.h.f.f.6Xl.;.=.=.p._._.A.A.A.p.=.c.>.x.-XH.;X;X}.;X}.D.D.).@.@.! @.@.@.@.@.! F.*.p Y p i.p Y p p p p p p ZXp p p ZXa.d.m.W.(.S S S S S S S =.>.lXT.s.s.s.s.s.s.v._.",
"i i 0 i 0 i i i 0 0 0 0 q q q q q q 0 0 q q q q q 0 0 0 0 0 0 0 i l l l b !.b /.b l l q q q q q q q h q h h h h h h h h h q h q h h h i l l h +Xh +Xh h h q , Z G i U l i , q l !.Y.dX9X9X9X+X|.v.`.`.7.3.7.7.`.`.`.`.`.|.|.`.`.`.7.v.v.[.`.[.`.`.`.[.`.`.7.7.`.7.v.|.+X+X+X+XdXh uXn.m.{.{.{.OX{.%.uXt.LX;.,.>.k.k.k.,.,.>.t.dX!.!.!./.V.V.V.V.kX/./.!.l 0 Z Z G U c b g 1 8 8 C C C C C C C C 8 8 8 8 8 8 8 8 8 8 8 1 1 1 8 8 8 8 8 8 b b c l G Z Z Z G 0 0 0 , , 0 0 0 0 , , , , Z , , , , , , , 0 0 0 , , , 0 0 , , , , , , , 0 0 0 0 , , , Z , 0 0 q q q 0 0 , , 0 q q q q q 0 0 , , q q 0 0 0 , , , 0 0 0 , , , 0 0 0 0 , , i l i 0 , G.{ { :X X X X XH H H H H  XH H p.H LXOX{.f.f.uXuXuXn., , , G i i i 0 0 , , G., 0 h l b g g g b b !.b !.!.l i 0 G 0 i U U U U DXCXF.! P P z z z P F.b.cXD +X+X+X+Xt.p.T a M e M S S >.x.S.T B B B B B c.9.S (.W.d.H.}.).).! F.b.*.*.p #.} a.V.f.l.W.zX;.;.9.9.=.p._.v.v.v.v.T.A.,.T S.x.-XH.;X;XD.D.D.).).@.! ! ! ! P ! ! ! ! P *.*.Y Y p p p Y ZXp #.p #.p p p #.#.a.d.=X(.S S S S S S S S T p.A._.T.s.U.s.s.v.3.p.",
"i i i i 0 0 0 0 0 0 0 i 0 0 q q q q q q q q q 0 0 , 0 0 0 , , , 0 i i i l l !.b !.b !.l l l i 0 , 0 q h h h h h h h h h h h h h h i i h i l h h h h +Xh h q 0 , Z Z i l q 0 h h q h h !.dXdX9XdX+X|.`.`.3.7.7.v.7.7.`.`.`.`.v.`.7.7.7.v.7.7.`.[.`.[.`.`.7.`.7.7.v.`.`.|.|.|.Y.!.h t.LXLXOXOXl.LXOX5XuX5Xt.OXl.>.,.,.>.>.k.k.5X%.dXg g /.kXkXkXkXkX/.!.i i G Z Z G U c g g 1 8 C C 8 C C C C 8 C 8 8 8 8 8 8 8 8 8 8 8 8 8 8 8 8 C 8 8 1 8 b b l i Z Z Z Z Z Z Z , 0 , q 0 , 0 , , , Z , 0 0 0 0 0 0 0 0 0 , , , 0 0 , , , , , , , 0 0 0 0 , , , , 0 0 q q q q 0 , , , 0 q q h q q 0 , , , , , 0 0 0 0 G , Z Z , , , , , , , , 0 0 l c l 0 G.G.{ :X XH H H H H H H H H  XH H H p.OXf.M.M.V.M.uXuXuX, , Z G i G G 0 , , G., , 0 h l b g g g b l l l l h h q 0 0 G 0 G U U U DXCXF.! ! P z z z P P F.}.cXk D 9XdX5Xp.S y y y y S 9.l.{.>.9.9.e a y y f S S ;.OXI.;XD.).@.! F.*.*.#.p } E.h.OXW.;.9.M a y y v p._.T.s.v.v.s.T._.=.v 9.>.m.M.I.H.;XD.@.).).F.! ! P P P P P ! ! ! F.*.p Y Y Y Y p p p p p p p p p p ZX} d.=X(.S S v v v a T v v ,.p.A._.T.T.v._.&.H =.",
"c l l i i i 0 0 i i i i 0 0 0 q q i h h h h q q 0 0 0 q q 0 0 0 0 i i i i i l l c !.c !.l l i i q q q h h h h h h h h h h h i q i i i i i q q q h h h !.h h q q Z , , h h h !.!.q 0 0 q h dX9X9X9X9X+Xv.`.`.7.7.7.7.7.[.[.[.[.7.7.7.7.v.7.v.7.7.`.[.3.[.3.[.7.[.`.[.|.+X+X+XY./.uXOXLXp.p.p.p.p.l.5XdXdX5XuXM.{.>.,.>.tX{.{.5X%.dXD D D 4 kXkXkX/.b 0 G G G G G G l c b g b 8 C C C + C C C C C C 8 8 C 8 8 8 8 + 8 8 8 8 8 8 C C 8 + < < < < b c i G , , , Z Z , 0 0 0 , 0 , , , , , , , 0 q q q q q 0 0 0 0 0 , , 0 0 0 , , 0 0 , , , , , , , , 0 q h h q q 0 , , , 0 0 q q i q 0 , , Z , , 0 0 G 0 G , G 0 0 0 0 , , , , 0 0 0 l l l +XG.|.{ :X XH H H H &.&.H H H  XH H (.LXOXM.V.M.h.d.d.uXn., , Z G U U G G , , , , , 0 q l l c c c l i 0 0 q q q q q i 0 Z G G G G u.DX*.F.P P z z z P P P F.b.}.cXrXrXuXLX(.S a a v T ,.k.{.>.T v a a a y S S ;.l.h.;XD.).@.).F.b.*.#.#.} a.d.m.;.9.S S y a B B T A.T.T.s.s.s.T.T.k.,.B S 9.;.l.=Xd.1.D.).b.F.).@.! ! P P P P ! ! ! ! F.*.#.#.p p p p p p p p p p p O.#.} d.m.W.;.;.S.S.S.c.9.T T T =.,.p.p.A.p.p.=.=.=.",
"b b c c l l l l l l i i i i i i l l l !.!.!.l h h q q q i i 0 0 i i i i i i i q l l l l l l l l h i h h h h h h h q q q q i i i i i i i i G q q h h h h h h q q q q q h h h !.!.q 0 i i 0 l Y.D 9X9XY.+X+Xs.v.7.7.3.[.3.[.7.[.7.`.3.7._.7.7.v.v.7.7.3.`.[.v.v.s.v.|.+XY.Y.Y.!.uXt.LXp.p.A.A.p.p.OX5X/././.kX-XM.OX>.k.k.{.lXOXt.5X!.g g /./.CX/.DXl Z Z G Z G G G U c b b b 8 8 8 C C C C C C C 8 C C 8 C 8 8 8 8 8 C 8 8 8 C 8 8 8 + _ _ _ D < b c l l i i Z Z , 0 q , 0 0 , 0 , 0 , , , 0 0 q h q q 0 0 0 0 0 , , , 0 0 0 0 0 0 , , , , , , , , 0 q q i q 0 , , , , , 0 0 q q 0 0 , , Z , , 0 0 0 0 , G , , 0 q 0 , , , 0 q 0 0 0 h 0 G.G.t.{ :X XH H H &.&.&.H H H  XH H H LXm.V.j.bXh.h.d.d.uXq , Z G G U G 0 0 0 0 0 0 0 0 , i G G i G , , , q q q q q l i i i U G G GXDX*.F.P P P P z P P P P F.F.F.F.D.kXh.l.W.S.S.S.>.>.k.lXA.,.v v v S S (.W.m.d.1.@.@.@.).F.b.*.} #.1.#.a.d.=X(.S S v y c.S.c.S.k.lXT.v.T.T.lXlX>.c.a a S S S ;.m.I.1.b.}.b.).@.! ! ! ! P z P ! ! ! F.b.#.#.ZXp p p p p p p p p Y p ZX#.E.d.h.f.{.{.>X{.0Xc.T T T T T =.,.,.,.=.v v v ",
"g g b g b b b b c l l l i i l l l b b g g b b !.l l l i i i 0 0 i i l l l i q i q q i l l l l l l l h h q q q q q q q q q i i i i i G i G i i q h h h h h q q q h h h h G.G.h h , , i i l l b Y.Y.Y.9X9X9X9X+Xv.v.[.`.[.[.`.[.`.7.`._.3.A._._.v.7.`.7.[.v.s.R.R.+XdX9XdXdXdX5Xt.LXp.p.>._.k.A.>.OX5X/././.kX-XM.{.k.>.>.>.>.p.p.{ G.c c !.DX/.DXDXl G Z G G G G G U c b b 8 8 8 8 C C C C C C C C 8 C + C 8 C 8 8 8 C C 8 8 8 8 8 + _ _ _ D D D g b b c l l 0 , 0 0 , q , G.0 , , 0 , , Z , 0 q q q 0 , , , 0 0 , , , 0 0 q 0 0 0 , , , , , , , , 0 q q 0 0 , Z Z Z , 0 0 0 0 0 0 , , , , , , 0 0 0 G 0 , G , , 0 , 0 0 q q G.G.G.G.|.G.|.t.{ :X XH H H H &.H &.&.H H  X XH (.LXf.j.j.bXbXbXd.V.uXq , Z Z G G G G 0 0 q q 0 0 , , Z Z Z G Z Z , , q q q q i l l c b c U i i DX*.F.F.b.b. .b. . .).).P ).).@.D.D.H.h.f.{.x.tXtXk.k.lXlXA.,.,.9.9.;.OXh.I.;X@.@.@.@.! F.*.*.} #.b.1.1.E.m.W.;.;.9.T c.S.S.k.lXlX_._.lXlXlXk.S.c.c.e 9.S S (.=Xd.1.1.b.b.F.F.F.! ! P z z z P P F.b.b.#.#.#.p p p p p p p p Y p p p #.#.a.I.H.-XyX-XM.x.S.T T T v T ,.>.>.>.9.S v v ",
"g g g g g g b b c l l i i l l !.b g g D g g g b b c l l i i i i i i i i h q q q 0 q q q h l l !.l !.l h h q q q 0 0 0 i i i i G i G U i U i i q q q q q q q , q h h q h q h q h , q i i i l l c b Y.Y.D 9X9X9X+X+X|.|.v.`.`.`.`.v.v._.A.&.A.A.A._._.v.v.+XR.9X9XR.%.dXdXdXuX5XLX=.=.>.lXlXk.A.>.OXt.dX/.9XV.%.{.k.>.,.,.,.,.=.=.LXG.h i q q l l l U G G G G G G U u.C 1 1 8 C C C C C C C C C C 8 8 C C C 8 8 + 8 C C C C 8 8 + + _ _ _ D D D g g b b b l i , , 0 0 , , , , , , 0 , 0 , , , , , , , , Z , , , 0 , , 0 0 q q 0 0 0 0 0 0 , , , , 0 0 0 0 , G G Z Z Z , h +X+XG.Z , 0 , , , Z , q q 0 0 i i Z Z G G 0 i q q G.G.|.{ { { { v.`._.3.H H H H &.&.&.H &.&. X XH  X XLXf.j.4XbX6XbXd.V.uXh , Z Z G G Z Z , q q , , 0 0 , Z Z Z Z Z G , , q n.q q i i c g Y.Y.b !.!./.}.).).).1.1.a.a.1.b.).).).).).D.D.D.H.V.M.f.x.k.>.k.lX{.lXk.k.x.OXm.h.H.D.@.@.@.! ! ! F.*.*.#.#.#.b.1.} E.uXh.f.x.S.c.c.c.S.>.k.A.p.A.k.tXtXk.k.x.x.zX9.(.W.f.I.1.1.1.*.*.*.b.F.F.! P z z z z *.*.#.#.#.p p Y p p p p p p p Y p p ZX#.#.1.;X;X;X-Xf.l.9.T B T v T 9.k.x.x.W.S S S ",
"1 1 < < < g b c U i i i i l l !.b /./.D g g g g g b c c l U i i i i h i q h i q q q q q q h h l !.!.!.l l h h q q 0 i i i i i U U U i U U l l i i i q i q , , , q h q q q q q q q q q q i i i l l !.!.Y.Y.D 2.9XY.+X+X+X|.`.`.v.T.T.t.A.A.p.A.A.A._.T.+XdX9X9X9Xt.t.5X5X5X5X{.OXp.p.k.lXk.A.p.LXOXt.dX/.9X%.t.>.=.T ,.>.S.,.=.=.LX5X!.q , , i i i U U G G G G U u.C + < + C C C C + + 8 8 C C 8 8 8 8 C C C + 8 C C C C C C + + + < _ _ < g b !.b !.!.l q 0 , , 0 0 0 , , , 0 , , , , , 0 , , , Z Z Z , , , , 0 , 0 q q q 0 0 , 0 0 q q 0 , 0 0 0 0 , , G G G G Z Z , +X+X+XG.G., 0 , , Z Z , 0 q 0 0 q i Z G G Z i i h q G.{ { `.:X3.3.3.3.3.H H H H &.&.&.&.&.H &. XH  X X XOXh.4XK.e.,XbXbXV.uXh q Z Z G G , Z q h q , G., 0 , Z , Z G G G , , n., q q i i l c b Y././././.kXD.D.1.j.bXbXbXd.1.D.D.D.D.D.D.D.D.;XI.M.{.>.=.p.A.lX{.{.M.-X-XV.V.kXD.@.! ! P ! ! ! F.b.*.#.#.#.#.#.}.}.}.}.I.f.>.c.B v T ,.>.S.,.c.S.k.tXtX{.{.x.l.W.l.m.I.1.;X1.#.#.*.*.*.*.F.P P z i.*.p p L O.O.O.p p p p p p p p p Y Y Y p i.p p #.b.;XH.h.l.9.S T T c.T v 9.x.M.M.f.W.;.(.",
"1 1 < < < b c U i 0 i i i l l l !.c !.b g g < < < < g b c l i i i i i i i q q q q q q h h h h h q q h h l l l l l i i l l l U l U U U U b g b b b c l l l i i i i i 0 q 0 q , q q q q i 0 i i i q h h !.!.Y.Y.Y.9XD 9X9X9X9X9X9X9X%.t.A.A._.lXlXlX5X%.dXdX9X9XdXOXLXp.A.OX{.{.{.f.{.{.OXp.p.l.t.5X5XdX/.dX%.OXp.=.,.0XtXk.S.,.>.OX5X!.!.l l l U l U G U U U u.C 8 8 + + 8 C C C 8 8 8 8 C u.u.C 8 8 C C C C C C C C C C C C 8 8 + 8 1 b b l l q q h h i q 0 0 , , 0 0 0 0 q 0 0 0 , , , , , , , 0 0 0 , , , , , , 0 0 q q 0 0 , , 0 0 0 , , 0 0 0 0 , , G G G G Z , 0 G.+X+X+Xh h 0 , , , q , Z Z , Z Z Z 0 , , Z , q q G.{ :X:X:X3.3.&.&.&.&.H H H  X XH H H H H H  X X X:X:Xt.d.yXK.| 6.sXbXV.uXh , Z Z Z Z , h h n.n.G.G.0 G., n.!.!.l U G , , q , , , , U U U l g /./.uXuXV.V.V.h.OX;.;.l.m.I.1.;XD.D.D.}.}.1.E.n.=XW.;.;.p.p.A.{.M.-XH.;X;X}.}.).! ! ! P ! ! ! F.b.*.p p p p #.} }.}.}.I.f.;.a f f v T c.c.T f B c.c.c.,.,.>.l.f.V.H.D.D.b.b.#.p p p *.p p p p p Y Y u u u u u L p Y p p p p p p p p Y Y Y Y Y O.p #.a.d.m.;.S S v T T T S (.f.H.;XH.d.m.m.",
"+ 1 < < < b c U i i G i i h l l l l l l l b b g < < < g g b c l l l l i i 0 0 0 q q q h h h h h h q q q h l !.c !.c b b b b g b b b b b g g g g b b b b c c l l l l l i i i q q i q i q 0 , 0 0 0 q q h h !.Y.Y.Y.D D 2.2.2.9X2.9X%.t.A._.lXlXA.OXt.uXdXY./.9XdXOXp.p.p.A.A.A.{.M.V.uXOXLXLXOX5X%.dX/.dXdX5Xt.A.,.,.k.tXk.>.>.OX5XuXdX/.b b c c c U U U u.c 8 8 8 8 8 C C C C 8 + 8 C u.U U U u.C 8 C C C C C C C C C C C 8 8 8 8 C c c c l q 0 0 0 q 0 0 0 0 0 , , 0 q h q q 0 0 , , , , , 0 0 q q q q 0 , , , , 0 0 0 0 0 , , , 0 0 , , , 0 +XG.0 , , , G 0 G , i 0 G.G.uXdX/.!.h q q , q G.G.G.h G.G.G.G.q 0 0 q h G.{ :X X X&.&.&.&.H H H H H H H  XH  XH  XH  XLX:X{ { G.uXI.yX4X..6.sXbXd.uXq 0 Z , q , q n.n.uXuX5Xh h !.uXd.d.d.!.h , , , , gXZ Z , i i i i !.!.n.OX=XOXOXOXOX;.=.9.;.OXM.V.I.a.#.#.#.*.#.E.GX=X=X=XOXLXLXOXf.-X;XD.@.D.D.).! ! ! P ! ! ! ! F.*.p Y Y p #.#.#.#.}.1.I.f.;.a f f B B T B f f B T T T S S ;.OXV.;XD.@.).b.#.#.p p Y Y Y Y u Y Y u u t t t u u Y Y p p Y p p p p p Y Y Y Y Y Y p ZX#.a.d.=X;.S S S S =.(.;.l.d.;XPXPX1.I.I.",
"1 1 < < < g b c l i i i i i 0 q q q q i l l c b b g g < g g g b b c l l i i 0 0 0 i q q h !.h h h q q q i h l l c b b b g g g < < < DX< g g g g g g g g b g g b b b c c l l i i q i , i 0 G 0 0 q q q h h l l Y.Y.Y.Y.D 2.2.2.2.9XdXt._._._._._.OXt.h !.g /.dX5XOXA.k.A.p.p.p.OXuXV.V.uXn.5X5X%.dXdXdX!.5X5Xt.LXp.S.k.tXk.>.>.OXt.uX/./.g b b b c c u.u.c 8 1 + 8 C C C C C 8 8 8 C u.U G G U u.C C C C u.u.C C C C C C 8 8 8 8 C u.c c c l q 0 , 0 0 , , , 0 , , , q h l h q 0 , , , , , , 0 0 q q q q q 0 , , , , 0 0 0 0 , , , , , , , , , +X+X0 , Z , , 0 0 q 0 , G.G.uXV.kX/.!.h 0 G.h G.q +X!.h +X+XG.G.h h h G.G.:X X XH H &.H &.H &.H H H H  X X X X X X:X:X{ { G.G.h /.I.yX| 6.6.6.bXd.uXq 0 0 q !.h n.n.uXuXuX%.uXdXuXuXM.M.h.uXuXq q , , , , , Z , G 0 i h n.=XW.(.(.p.A.p.=.=.,.,.>.OXm.h.d.E.L p *.*.L HXGXGXd.d.h.OXOXM.H.D.@.@.@.@.! ! ! ! ! ! ! ! ! F.*.Y u Y ZX*.*.}.#.} a.I.f.l.9.a B f B a a y f a a v S S (.;.m.1.@.@.! b.*.p Y p Y Y Y Y u t u t u t t n n t t Y Y Y p p p p p p p p p Y Y I Y p ZX#.#.d.m.W.(.(.(.(.;.W.=Xh.I.D.@.@.@.D.D.",
"1 1 1 < < < g b b c l i i 0 0 0 0 q h h i i i l l b b g g D D D g b b b c l l i i i i i h l h h h h h q q q 0 i i l l c b b g g g < < < g g g g g g g g g < < D D g g b c l l i i i i 0 i i i q h h h h !.!.!.Y.Y.Y.Y.Y.Y.Y.D 9X/.dX5Xt.A.A._.t.5XuX!.b b q G.{ LXA.lXlXA.p.LXt.uX/.kXkXkXH.kXkX/.G.q G.h G.t.LXp.>.k.k.k.>.=.=.LXt.!./.g g 1 1 1 1 8 b 8 8 1 1 C u.u.u.C 8 1 1 1 c U U G G U u.C 8 C C u.u.C C C C C 8 8 8 8 8 b c c c c !.h q 0 0 0 , , , , , , , q h h h q 0 , , , , , , 0 q q q i q q 0 , , , , , , , , , , , , , , GX, q G.+X0 , , , , 0 0 q 0 , G.uXV.I.H.I./.!.q G.G.+XG.+X+X+XdXdX+X+X+XdX+XG.{ :X XH  XH &.&.&.&.&.&.H  X X X X X X X`.t.G.G.q !.Y./.kXI.j.sXmXmX6.bXd.GX, 0 q !.d.d.d.h.d.V.V.-XkXV.V.f.f.f.f.h.uXuXh q , 0 i i , Z Z q h h n.LX(.(.=.p.A.A.p.p.,.=.=.(.W.=XGXJ.p p *.*.*.p L } #.} d.m.m.uXkXb.F.F.! F.! ! ! ! ! ! @.F.F.F.p Y Y Y p *.#.a.E.E.I.d.f.l.c.B B B f f v S v a f f S S (.W.h.}.@.! P *.Y u Y Y I Y u t t t t t t n DXn n t t Y Y p p p p p p p p p Y p Y Y p p ZX#.#.E.m.W.;.(.;.W.m.h.I.a.1.).@.@.@.@.@.",
"1 1 1 < < < < g g b b c l i i 0 i i h h q q i i i l l !.b b g /.g /.g g g b c l l i i i q q q h h h h l q q q 0 0 i i i l l c b b g g g < < D < D < D < D g D g D < g b c l i i G i i i i i h h h h h !.l !.!.b g < < < < D Y.D k /./.+X5X5X%.%.dX/.D k D h { :XLXLXlXlXA._.5X%.dX!./.kXkXkXkXkX!.G.G.uX!.uX{ LX=.,.S.,.,.=.=.=.LXG./.g g b 1 1 1 1 1 8 8 8 8 8 C c C c C 8 1 1 b c c U U U u.c 1 1 8 u.u.U u.C 8 + 8 8 C 8 b C b c c c l h q 0 0 0 0 , , , , , , , q i q q 0 , , , , 0 , , 0 0 q q q 0 0 , , , , , , , , , , , , , , , , n.0 0 G 0 , q q q , q 0 , G.uXV.I.a.yXa.E.uXG.G.G.dXdXdX%.dX9X9X+X5XG.G.t.{ :X X XH H H &.H &.&. X X X X:X:X{ { |.|.+X+X!.!.b g g /./.I.j.sXmXmXsXbXHXGXq q n.h.d.bXbXbXbXbXV.V.V.M.bXbXbXbXV.V.uX5X5X5XG.q 0 0 Z 0 h G.n.n.OXW.;.p.p.A._._.A.p.p.(.(.;.=Xh.E.#.*.*.p Y p p p *.*.#.a.E.E.a.} *.*.*.*.*.P P ! ! F.).F.b.b.*.p Y Y Y *.} E.h.=X=X=Xl.>.,.c.T ,.,.=.=.=.T v f y f S (.W.m.kXD.).*.p Y t u Y Y u Y Y I u u u u u n n n n t t Y Y Y p p p #.p p p p p Y p p Y p p #.#.1.a.d.d.d.d.d.a.1.D.).b.).@.@.@.@.@.",
"1 1 1 1 < < < < g g g b c c l l i h i i i q q q q q i h l l c b g g g /.g b b c l l i i 0 q q q h h h h q i q 0 0 i i i i i l c b b g g < < D < D < g g g g g g < g g b l i i i i i i i i h i h h h h h !.h l b g g g < < < D D D D /./.dX9X2.2.2.2.2.4 D !.G.{ OXOXOX>.LXt.%.2./.!././.kXkX/./.h Z q !.!.!.{ LX=.=.=.>.>.;.=.p.LXG./.g b 8 8 1 1 1 8 8 8 8 8 8 8 8 8 c c c c c c l l l U c c b 1 1 8 c u.U u.C 1 + 8 8 c u.c c c u.l l i 0 0 , 0 0 0 , , , 0 0 , 0 0 q 0 0 , Z , , , 0 , , , 0 0 0 0 0 , , , , , , , , , , , , , , , n.q q , G G 0 q G.n.q q q , Z G.V.H.1.yXyXa.I.uXuXuXdX9X9X9X9XR.FXFX%.t.{ :X:X X X XH  XH H  X&. X:X:X:X:X:X{ Z G.0 +XY.dX/.Y.b g g g g /.E.j.sXmXmXsXbXHXHXDXGXh.bXbXsXsXbXj.bXbXf.x.6X6X6X&X-X-XV.%.5Xt.t.t.{ G.G.G.+XG.t.OXLX>.,.,.p.A._._._.A.LXl.OX=Xm.d.a.b.).b.*.p L p p p } #.#.b.#.1.} #.p *.*.i.*.*.*.P b.F.F.}.}.}.*.p p p *.p E.h.=X;.(.e 9.c.c.,.A.A._.A.A.A.,.T v B a 9.l.f.I.;XD.F.p u t t Y Y u I I O.I L L L L L u t n t t Y Y Y p p p p p #.p p p p p p Y p Y p #.#.b.1.1.;X;X;XD.D.).@.@.).! @.! ).! ).",
"+ 8 8 1 < < < < g < g g g b b c l i i i q q q q q q q q i q i h c b b b b b c c l i i i i h h h l h h i q q q i i 0 i i i i i i l c c b b g g g g g b b b b b g g g g b l i i 0 G i i i i i h h h h h h h h h l c c c 8 1 < < g < /.D /./.4 2.2.rXrXrX2.D /.!.5XuX5XOXp.LX5X/.2./.!.!./.4 /./.b l , q l !.q { LX(.(.;.x.{.OXLXLXt.h !.b b 8 8 8 8 8 8 8 C 8 C 8 8 b c c c U i G i i U l l l c b b 1 b c u.u.C 8 1 1 8 c u.U U U U i U i i 0 , , 0 0 q 0 , , 0 0 0 0 0 0 , , Z Z Z , , , , , , , , , , , , , , , , , , , , , , , 0 , , , , n., 0 G 0 q q q q n.q , , h kX;X@XXXK.yXI.V.uXdX2.2.FX9X9X9XFXFXR.v.&. XH  XH H  XH H H  X X:X{ { { { Z Z i l !.Y.Y.Y./.g g 1 1 b b /.E.j.sXmXmXmXsXE.E.E.d.d.bXbXsX4XyXj.bX6XAX:.:.$.Z.&X-X-XM.f.{.OXLXp.LX{ t.G.5Xt.OXp.=.,.=.,.,.p.A.A.p.LXOXh.V.I.1.b.b.).).b.p O.p p p p O.p } #.#.ZXp L Y p p p ZXp p p *.b.b.}.}.}.}.*.p p *.#.E.m.;.S S y f T ,.A.lXT.T.s.T._.A.,.T T S.>.{.-X;XPX@.}.CXCXCXL p L J.J.( J.E.( E.E.L Y L u t t Y Y Y p Y p p ZXp p p #.p p p p ZXp p p p #.#.#.1.b.D.@.@.@.@.@.@.! @.! ! F.! ! ",
"+ 8 8 1 1 1 < g 1 g < < g g g b b c l i i q q q q q q q 0 i i i i l l l l l l l i i i i h l h h h h l h h q q i 0 0 0 , , , G i i i i i l c c c c c c l l l c c g g g b l i i 0 0 0 i i 0 h i h h q h q q q q q i i G U C 1 1 1 b DXg g g /.D D 4 2.rXrX2././.dXkXuXOXLXOXuX/.D /.Y.g /././.g b U Z G i l h n.{ LXLXOXM.-XV.uXuX!./.b b b 8 8 C C C C C C 8 b 8 c c l U i 0 , Z Z , 0 i i i l c c c c U U c 8 1 8 b c U U i i i G G G 0 0 0 0 0 q q q 0 , , , 0 0 0 0 , , , Z Z , , , , , , , , , , , , , , , , , , , , , , 0 0 , , , , gXq , 0 +X0 0 G.n.h G.q q q uXkX@X@XXXXXK.yXI.V.9XrX2.9XdXR.9XFXJXR.v.&.H H H H  XH  XH  X X:X{ G.G.G.0 0 i l c c b Y.g D g 8 + 8 b b /.E.j.sXmXmX6.bXj.I.a.I.j.bX4X4Xj.yXj.6XAX9 y y M $.x.-X-Xf.k.>.,.=.=.=.p.LXOX5Xt.LXp.,.,.>.>.,.=.=.=.=.W.h.H.D.@.@.@.! F.b.p p p p ZXZX#.#.#.#.#.#.p p Y Y p ZXZXp Y Y p p *.#.1.1.1.b.#.p p *.*.E.m.;.S 9.v v T p._.s.s.s.s.|.s.T.p.=.T ,.k.{.-XPXPXPXD.}.cX} } *.} HXGXm.h.m.h.h.d.E.L Y u t t Y Y p p p p O.p #.p #.p p p p p p p Y p p O.#.#.1.b.).).@.@.@.! ! F.! ! @.! ! ! ",
"+ + 8 8 + + 1 1 1 1 1 < < < g 1 g b b b l h q q q q q q i i q i i 0 i i i i i i i i 0 i h h h l l l l l l l h q i 0 0 , G , , , , , G G i i i l l i i i i i l l b b c l l i i 0 0 0 0 0 i i i h h q q G.q , q , 0 G Z G U C 8 b b 1 1 DXb b g c g k 2.rX2.2.2.9XkXuXn.n.uX/././.g Y.Y.!.l l c c U Z Z G i !.h n.{ t.5XV.H.H.kX4 k D g b 8 8 C C C C 8 8 C C C c U U i 0 G , Z Z Z Z , 0 i i i U l U i i G U c b c c U U i G G G G G , , 0 0 0 0 0 0 0 , , , , 0 0 0 0 , , , , , , Z , , , , , , , , , , , , , , 0 0 , , , , 0 0 0 q , , , , , 0 +X0 , , q G.h G.G.h /.1.@XX.XXXXK.yXI.kXkX2.9XdX+X5XR.FXFXJXT._.H H H H H H  X X:X{ t.|.G.h h l U U u.u.c b b g g b u.8 C b g 4 a.j.sXmX6.6.6.j.H.H.yXj.j.j.j.j.I.m.W.9 y y f f 9.k.M.M.x.c.f v v v v S =.p.{.{.OXOXOX{.{.k.9.S S (.;.m.I.D.@.@.@.! P z p Y Y p p p ZX#. .#.#.#.p p p p p #.ZXZXZXO.Y p p *.#.#.1.1.1.#.#.#.*.b.E.m.;.(.9.T T ,.A._.v.s.[.[.[.|.R.A.=.T ,.>.k.f.-X;XPXPX;XH.kX1.1.E.h.=XW.W.AXW.=Xm.d.L L u m m m I p p p ZXp p p #.p #.p *.p p p p p p ZXp p #.#.b.#.b.b.).! ! F.b.F.! ! ! ! ! ",
"8 + + + + + 1 8 8 1 1 1 1 1 1 < 1 < 1 g b c l l l h i i i q i i i 0 0 0 0 0 0 0 q q q q q q q h l !.!.!.!.l l l l i l i i i i i i i i i i 0 i i i i i 0 0 0 i i i i h i 0 0 0 0 0 0 0 i i h h h q h h h q q q q l i G G U u.u.c c 1 < < < < _ < < D 2.2.2.2.2.2.dX/.kXkXkXkX/.b b !.l i l U U u.U G G Z Z q !.!.!.uXkXH.H.H.2./.b g g b C C C C 8 8 8 8 8 C c U i G G G 0 0 0 0 , , , 0 i i i i i i G Z Z G U l U U i i G G G , , , , , , , , , , , , , , , 0 q 0 0 , , , , , , , , , , , , , 0 0 0 0 0 0 , , , 0 0 , , , , 0 0 0 , , , gX, , 0 +X0 , , , q G.G.G.uX/.a.@XX.XXN.K.yXyXH.V.dXdX+X|.+XR.FXxXJXR.T.3.&.H H H H  X:X{ G.+X+Xh h l c u.u.u.DX8 1 < g 8 u.u.C 8 b g kXa.j.sX,X6.6.&XnXH.yXyX-Xj.I.I.V.h.=X;.a y B v T 9.>.x.x.S.v v B B v v v S =.OXf.M.%.V.-X-Xf.;.(.;.W.m.d.;X@.@.).P *.*.*.Y Y Y Y p O.O.O.#. .#.#.} p #.#.E.a.a.a.#.#.p #.*.#.} E.I.I.a.a.a.a.b.}.a.h.W.(.S S T ,.A._.v.v.v.v.v.v.T.A.=.T T T ,.>.x.M.H.wX-X-XV.V.I.d.m.W.(.e 9.9.;.=Xd.E.L u m n m u Y p p p p ZXp p p p p p p p p Y Y p p p p p #.#.#.p p *.b.b.*.*.z *.*.*.F.P ",
"8 8 + + + 1 8 8 + + + + + < + + 1 1 < < g g /.b b c l l l i i i i i 0 i 0 q 0 q q q q q q q q h h h l l l l !.l l l !.!.b !.c l l l l l l i i l i i 0 0 0 0 i q q q q q q q 0 0 q q q q i h i q q q q h h h q q q q 0 i i i U U U c g g < _ _ < < D D D 2.2.2.2.2.2.2.rX2./.!.l i i 0 0 U U u.u.u.u.G Z Z G l !././.kXkXH.kX2.D b b b 8 C C C C C C 8 8 C u.U G G G Z Z 0 i h l h q 0 , 0 0 0 0 0 G G Z Z G G G i G G G G , , G , G , , , , , , , , , , , , 0 0 0 0 , , , , , , , , , , , , , 0 0 0 0 0 0 , , , , , , , , , , , q , q , Z Z Z 0 +Xq q 0 , 0 q h q h uXI.@XX.XXN.1XK.yXI.uXh G.5X|.R.R.FXJXR.R.T.T.A.H H H H  X:Xt.+X+XG.h h i U u.u.DXu.C 8 g g 8 C C C 8 g /.kXH.j.e.6.6.&X&XnXwXwXyXyXH.kXkXV.n.LX(.S B B T T ,.,.>.>.9.S S v v a a v v 9.OXf.V.kXkXH.H.I.m.=Xm.d.E.b.).@.).F.*.p Y Y Y Y Y p p p O.O.O.#.#.#.#.} E.E.h.h.bXj.a.1.1.#.} E.h.m.m.6X6X6Xh.I.1.D.1.d.l.(.(.;.;.,.p.A.lXT.T.v.v.t.A.p.=.T c.T c.S.>.k.x.{.{.x.OXm.h.f.l.;.S a c.T 9.OXh.E.} L u m m I L Y p O.p O.p p p #.p #.p p p p Y p p p p p p p L L L L p Y p p Y p Y Y p p ",
"8 8 + + + 1 8 8 + + + + + + + + 8 8 1 < < g g /.g b b c l l l l l i i i q q q q h q q q q h q q q q q h h h l l !.!.b b b g b b c l !.l l l h q q q q q q q q q q q q q q q q q q q q h i i i q q q h h h h h q q 0 q i i i G 0 i l c g g D < < < D Y.D /.k 2.2.2.2.rX2.kX/.!.h 0 0 0 G U u.C C C u.U G G U c b b !./.kXkX2.4 D 1 b 8 8 C C C C C C 8 8 c U G G G Z Z Z , i l !.!.h q , , , , , G , , , G , G , G , G , , G , , , , , , , , , 0 0 0 , , , , 0 0 , , , , 0 , 0 , , , , , 0 , , , , , 0 0 0 , , , , 0 0 0 , , , , , 0 q , , G G 0 0 i h 0 G.0 0 G.q G.uXI.@XX.XXN.1XK.yXI.uXn.G.t.5XR.R.R.R.s.s.T.R._.H H H H  X:Xt.G.G.q G., G G u.C DXu.u.u.b 8 8 1 8 C 1 g /.kXH.yX4Xe.&X&XnXwXwXwXnXyXH.kX9XdX5XLX(.v B B T T =.,.=.=.=.S S S S a e a S 9.x.M.kXkX}.}.#.} E.HXE.} b.).).@.).F.*.p p p Y p Y p p ZXZX#.O.#.ZX#.} E.d.m.=XW.l.x.bXI.H.I.d.m.=XW.;.e M e l.h.H.D.;XI.m.=Xl.l.l.S.9.>.k.lXlXOXOXLX=.=.v B B B c.S.S.e B c.S.c.,.;.l.l.;.9.v B c.T ,.OXd.kX} L u u u u u Y Y p p p p p p p p p p p Y p p p p Y p Y Y L L u u u u u u u u t u u u u ",
"+ + + + + + + + + + + + + _ < + 8 8 8 + < g g g b b b b b b b b b b l l h h h h h q q q h h q h q q q q h q h h l l l !.!.!.b !.c !.l l l h h h q q q q q q q q q q q q q q q q q q q q 0 0 0 0 q q q h h h h q q 0 q q q i 0 i i l l b /./.D D _ D D D D D D 4 2.2.2.2.2.9X/.!.!.l i U u.C C C C u.U U U u.b b b g /./././.g 1 8 8 1 + 8 C 8 8 C 8 8 8 b c U G G Z Z Z , q h l l h q , 0 0 , , , , , , , , 0 , , , , , , , , , , , , , , , , q 0 , , , , , 0 0 0 , , 0 , 0 , , 0 , 0 , 0 , , , , , , , , , , , , 0 q q q q , , , , 0 i i G G G 0 0 h 0 0 0 0 0 0 G.uXV.;X@XXXN.N.1XyXyXd.h G.G.+XR.R.R.s.s.s.T.R._.H H H H  X{ t.G.G.G.Z Z Z G U u.C DXu.c b b 8 8 C C g D /.rXH.yX4X6.&XnXnXnXwXnXnXM.M.uXuXuX5XOX;.T B T v T =.=.=.=.=.=.S S S S e S 9.;.f.V.kX}.#.*.*.*.p L p *.*.b.b.P ).).b.*.*.p *.p p p L ZXZXZXZXZX#.#.E.h.=X;.(.S S 9.W.f.I.h.=X;.(.S y y y a ;.x.I.;X;X1.kXI.V.M.M.x.S.T c.>.>.,.=.=.S S v f B B B B B a B B c.B T =.p.,.=.T v B B v ,.{.V.kX} } L u u u Y Y L Y Y p p p p p p p Y L p Y Y Y Y Y Y Y u u u u u u u u t t t u t u u u ",
"< < < < < < + + + + 8 8 + + + + + 8 8 + 1 g b c l c c b b g g g g g b c l h q h q h q h h h q h q h 0 q q i q q q h h h l l l l l l l !.h h h h q q q q q q q q q q q q q q q q q h q q 0 0 q q q q q q q q h h q q q h h h i q h i l l !.!.g < D k k D D D D k 4 2.2.2.2.2.2.9X/.g b c c C C C C u.u.u.u.C 8 8 1 g g /.g g c u.u.u.8 1 8 8 8 8 8 8 8 8 c c U i G , , , 0 q q h h q 0 0 0 0 , , , , , , , 0 0 G , G , , G , , , , , , , , 0 0 0 0 , , , , , 0 0 , , , , 0 , 0 , 0 , , 0 , , , , , , , , , , , 0 0 q h h h q , , , 0 i l l i G G , 0 q 0 G.0 0 0 0 G.n.V.1.@XXXN.1X1XK.yXE.uXG.G.5X+XR.R.s.s.s.s.R._.&.H H H  X:X{ { G.G.G.Z Z G U u.DXC DX1 b b 8 8 C 8 g /.9XH.H.j.bX6XbXM.M.M.{.x.k.k.l.l.l.OXOXW.9.T T T ,.p.p.A.p.p.=.v v a a a S (.;.OXV.H.}.}.}.*.*.*.p *.*.*.#.#.b.b.b.).D.D.}.}.#.*.p L p p p p p ZX#.E.h.=X;.(.S v S S 9.l.m.l.;.(.S S y B B a 9.l.d.1.}.}.}.1.V.f.x.k.c.B T T T S S (.S (.S M S.S.S.B f f v v B v =.=.p.p.p.=.T v v T >.M.H.;X}.}.#.#.L u Y Y L L Y p p p p p L L L L Y L Y L Y L Y u u u t t t t t t t t t t t t t t ",
"< < < < + < < < + + 8 8 8 + + + 8 8 + + 8 c l i i i l c c b b g g /.b b l h q q h h h h h h q q h i h q q q q q h q q q q q h h h h q q h h h h h q q q q q q q q q q h h q h q q q q q q q i i h h q q q q h h h q h h h h h +Xl h +Xh h !.!.b < _ k k k k k 2.D k 2.2.2.2.2.2.2.k D g 1 8 C C C C C 8 8 8 C 8 b DXg DXb c U U U U u.C 8 8 1 1 8 C c c c l U i , , , , 0 0 q q q 0 0 , , , , , , , , , 0 , , , , , , , , , , , , , , 0 0 q q q 0 , , , , , , , , , , 0 , , , 0 , , 0 , , , , , , , , , , , 0 0 q q h h q 0 , , 0 h l c l U G 0 0 q q 0 0 0 G 0 , G.q V.H.@XXXN.N.1X1Xj.I.uXG.G.+XdXdXR.s.s.s.s.R.v.3.H H  X X:X:X{ { { { Z Z G U u.C DX1 g g g 8 8 C 8 g /./.H.H.4X6X6Xf.M.{.x.>.S.,.9.=.9.(.;.;.9.T c.,.>.A._._.t._.A.p.T B B c.S.S.l.m.uXH.;X}.}.}.#.} *.} #.*.b.#.#.#.1.1.1.1.H.kXkX1.1.} p Y Y Y Y p #.} d.m.;.(.S =.v =.=.,.;.;.(.(.(.S a B B B a 9.=Xd.1.*.*.}.a.h.l.S.S.c.B B v 9.;.(.(.S S S 9.S.0XS.9.S S S S v =.=.H A._.A.A.p.=.T ,.OXV.H.H.H.kXa.#.p Y p Y Y Y I p Y L Y L L u u u Y u u u u u t u u t t t t t n t n t t t t t t t ",
"1 1 < 1 < < < < < < 1 8 8 C 8 8 8 + + + c l i 0 0 i i U l c b g g g g !.l q q q q h h h h q q q q h q h 0 h 0 q h h q 0 0 0 q q i q q q q h h h h q q h q q q q h q q h h q q q q q q q q i q l h i q q q q h h h h q G.h +Xh h h +Xq h h h h l b < _ k k 4 4 4 k 2.k 2.2.2.rXrX2.2.4 D g 1 8 C C C 8 8 8 8 C 8 8 1 b C u.U G G G U U u.C 8 1 1 8 c U U U i i i , , , , 0 0 0 0 , 0 , , , , , 0 0 0 0 0 , , Z , , , , , , , , , , , , 0 q q q q 0 0 , , , , , , , , , , 0 , 0 , 0 , 0 , , , , , , , Z , , , 0 q h h l q 0 , , 0 q l b b l i i 0 q q h h i 0 G , , , G.uXH.@XXXXXN.1X1Xj.I.uXG.G.+XdX9XR.s.s.s.s.s.s._.&.H  X X X X:X:X:X{ { Z G G U u.DX1 g g g 1 8 C 8 < /./.H.H.j.6XaXf.f.x.S.c.T T T v S S S a v T ,.k.lXlXT.t.T.T.lXk.,.T c.S.k.{.M.V.H.;X}.}.1.1.a.a.E.} } b.b.}.1.1.E.d.h.h.h.h.d.I.1.#.#.Y Y Y p ZX*.a.d.=X(.S =.=.=.p.p.p.p.=.=.(.9.S B c.c.B a ;.m.d.} *.*.} d.=X;.T B B B B T l.x.l.;.(.S 9 e zX>.;.9.S S S =.=.p.A.3.`.v.v.lX_.p.=.>.OXM.M.M.uXh.d.a.#.p p Y p Y p L u I u u u u u u u u u u u t t t t t t n n t n t n t n t n t n n ",
"g g g g g < < < < < 1 8 8 8 8 8 1 + + 1 c i i i G i i i U l c g < g b c l i 0 0 q q q q q q q 0 h 0 h i h q 0 q l h h q q q q h h q q q q q q h h q q q q q q q q q q q q q q q q h q q q q q q q h q q q q h h h h h h h h !.h l h h G.q q h i l b g D k 4 4 2.2.k k D D 4 2.2.rX2.2.4 D < < 1 8 8 b b 8 C C C 8 8 C u.u.G G G G G U c b 1 1 1 c c U i i i i G , , , 0 0 , , , , , , 0 Z , , , , 0 0 , , , Z , , , , , , , , , , , , 0 q q q 0 0 0 , , , , , , , , , 0 , , 0 , , 0 , , , , , , , , , , , , 0 q h q q 0 , , , 0 q l !.l i i 0 q q h !.l i 0 Z Z , G.q uXkX@XXXXXN.1X1Xj.a.d.uXG.dXdXR.R.s.s.s.s.v.s.v.&.H  XH H  X X X X:X{ { Z Z G G U c b b b 8 8 C 8 < /./.H.H.yXsX6X6Xf.x.e a B T T T T S T B f T >.lXT.s.v.v.v.v.T.lX>.c.,.>.tXM.-XH.;X;XH.kXV.d.h.h.h.d.I.}.}.}.kXV.m.=XW.W.W.l.m.d.a.1.#.u Y p ZXp #.a.V.x.,.=.=.p.A._.lXlXA.,.=.=.9.c.c.B B f 9.l.h.E.#.*.p L n.W.S f B B f v ;.f.V.h.m.W.(.9 zXx.x.l.(.S S S (.p.A._.`.7.v.s.T.T.k.=.;.l.OXOXl.W.W.=Xd.} p Y p p Y Y u u t n t t t t t t u u u t t t t t t t t n n n n n t t t t t t n ",
"c c b b b g g g g g 1 1 1 1 < < < 1 8 b U i 0 i i i i i i U c g g g g c l i i 0 , , q q 0 q 0 q 0 h q h q h q h h h h q q q h h h h h q q q q q q q q q q q q q q q q q q q q q q q q q q q q q q q i q q h q h h h q G.q G.h h h h 0 h q q q i l c b g D 4 4 4 4 k D g b g /./.2.2.2.2.4 k D D g g b c c C 8 8 8 1 C u.U G G G G U c c b 1 1 8 c U i G G , , , , , , , 0 , , , , , , , , , , , , , , , , , , , , , , , , , , , , , , 0 0 0 0 0 0 0 0 0 0 0 0 0 , , , , 0 , , 0 , , 0 , , , , , , , , , , , 0 0 q 0 , , , , 0 q q q i i 0 0 , q q !.!.!.h 0 Z Z , , G.!.kX;XXXXXN.N.1X1Xa.d.uXuXdX9XR.s.s.s.s.s.7.v.v.3.&.H H H H H  X X X:X{ |.Z Z G G i l l l c 8 C C 1 /./.H.;XyX4Xe.&X&Xr.e M B B c.,.T =.T c.B c.A.lXs.s.[.[.`.v._.lX>.,.,.>.k.x.f.M.I.;XI.h.m.OXl.l.l.x.h.I.H.kXuXOX>.9.S S S (.l.h.I.1.#.Y Y Y L J.d.d.M.x.S.,.p.A.lXT.T.T.lXk.,.T v c.c.T v 9.W.m.d.a.#.*.*.E.n.W.9.f B B c.;.OXV.;X;XI.bXm.6XbXnXnXf.l.;.9.(.=.p.t.v.[.[.[.s.R.T.OX=.(.;.;.9.=.S (.W.d.a.*.Y Y Y L u u u t n n n n t t u t t t t t t t t t t t n t n t t t t m t n n n ",
"l l l l l c c c b b b 1 1 < < < < 1 8 c i 0 , 0 i i i G i i c g < g g b c l l i i 0 0 0 0 q q 0 h 0 h i h 0 h i h h q q q q h h h h h h q q q q q q q q q q q q q q q q q q q q q q q q q q , q q q q i q i q h h h h q q q 0 h q h 0 0 q q q i i l c g D D 4 4 4 k < c U q h !./.4 2.2.2.2.2.4 D D Y.b c 8 8 8 8 8 C u.U G G G i c b g g g g b c i G , , , G , , , , , 0 0 0 , , , 0 0 0 0 , , , Z Z , , , 0 0 , , , , , , , , , , , , , , , , 0 0 q q q q q 0 0 , , 0 , 0 , 0 , 0 , , , , , , , 0 0 0 0 0 0 , , , , , , , 0 q 0 0 , , , , , , q l !.h h 0 , G Z G G.+XkX;XX.XXN.N.1X1Xa.E.uXuXdX9XR.s.s.s.s.s.7.v.s._.3.H H H  XH  X X X:X{ |.|.Z Z Z , , , 0 c C C u.b /./.H.yXyX4X4XnXnX&X$.c.B B c.c.=.T T c.B T p._.s.s.v.[.`.v._.A.,.,.,.,.,.,.>.k.f.H.M.l.;.;.9.9.9.;.l.f.V.M.OX;.S v S S (.(.=Xh.I.1.b.#.L HXGXm.=XOXk.>.,.>._.v.s.s.T.T.T.lX>.T v T c.S.,.l.m.d.a.#.*.*.*.L d.m.W.;.S.S.l.f.V.;XD.@.@.@XH.yX@XPXiX-X{.>.;.;.p.LXt.v.[.[.[.s.s.T.A.=.S S S v v S S ;.h.a.*.Y u u u u u m t t n m n n t t t t t t t t t t n t t n t t t m t t t t t t t ",
"q q q q l l l l l c b b b g < < < 1 b c i 0 , 0 q i i 0 0 U c g < < g g b c c l l i i i i q q q q q h 0 h h q h h q q h h q h h q h h q q q q q q q q q q q q q q q q q q h q q q q q q q q q q q q i i i i i h l h h h q q q q q q 0 0 0 q i i i i l b /././.k k < b U G , q h !./.D 4 2.2.2.2.2.D D g b b 1 1 8 8 C u.U G G G l b g g g g g c l i , , , G , , , , , , 0 , 0 0 , , , 0 0 0 0 , , , , , , 0 q 0 0 , , , , , , , , , , , , , , , , 0 q q q q q 0 0 , , , 0 , , 0 , , 0 , 0 , , , , 0 q q q 0 , , , , , , , , 0 0 , , Z , , G.Z , q h h h h , , , G G G.+X9XH.X.XXN.N.1X1Xa.I.uX%.9X9XR.s.s.s.s.s.7.s.s.s._.H H &.&.H &.LX&.:X:X{ |.Z Z Z Z G.Z Z U C C u.DX/./.I.a.4X1X4X4X4X&XhX$.e M c.9.T T c.S.c.T ,.A.T.s.v.v.v.lXA.,.T T T T v v v ,.k.M.{.,.S v v v f v ;.x.{.{.>.a f f y S (.;.=Xh.H.;X;X1.d.=XW.W.;.;.,.c.,.k.lXs.s.s.s.v.lXlXp.T T c.>.k.OXh.E.} p p ZX*.*.} E.d.m.m.m.m.h.I.D.@.@.@.@.@.@.PXPXyX-Xf.x.>.S.,.p.A.v.v.[.[.[.s.s._.p.T v v f f f v S W.h.a.*.u u u u u t t t n t n n n t t t t t t t t t t t t t t t u u u u u u u u t t ",
"q q q q q q 0 i l l l c c c b g g g b c l q 0 0 q q q i 0 i c b < < < < g g g b c c l l l l h q h 0 h 0 h i h i h h l h h h h q q q q q q 0 0 q q q q q q q q 0 q q q i q i q i q i q q q h h l l h i q i q i l l !.l l h h h q q q 0 , 0 i i i i i i l b /././.DXc U G G , , q h !.Y.D 4 2.2.rX2.2.4 D < g g g 8 C C u.u.U U l c g g /.g g b c i 0 Z Z , , 0 , , , , , , i , i 0 G , , , 0 0 0 q q q q 0 0 0 0 0 0 , , , , , , , 0 0 , , , , 0 0 q h h q q 0 , , , , 0 , , 0 , 0 , 0 , , , , , , q h l h q , , 0 0 , , , , , , , , , 0 0 0 , , , q h h q 0 , , G G 0 +X9XH.X.XXN.N.1X1Xa.I.%.uX9XR.s.s.s.s.s.s.s.s.U.R._.H H H &.H &.&.&.&.:X`.{ |.Z Z G.Z { Z G u.C u.DX/.kXI.j.sXsXsXe.bXbX6Xx.hX$.$.>.>.>.S.S.c.T T >.lXT.T._._._.p.=.v v v v v f v T S.tXk.c.v f a a a y c.S.k.0Xc.B a a y S (.W.m.V.H.;X;XI.=X;.(.S S v v T c.lXT.s.s.v.v.v._.A.=.v T c.k.f.M.I.1.*.p Y p *.*.#.} } E.E.E.d.E.b.@.@.! ! ! @.@.@XH.f.l.S.S.S.c.T ,.A.v.v.s.[.s.v.v.A.=.T v f a v y S (.=Xd.} } u t t t t t t n n n n n n n n n t t u t t t t t n t u u u u u u u u u u u u ",
"q q q q q q q q h l l l i i l c b b b c !.l q 0 0 q i i i i c b g < < < < < < < g b b c c l l l h i q 0 q h q h l !.!.!.b l l l q i i i 0 0 0 i i i i i q q q 0 q i q i q i q i q i q q h !.!.!.b !.l q 0 0 i l !.!.!.!.b l l l i i i G U U l i i G G i l b /./.l i i U i i q h G.h l Y./.4 2.2.rXrX2.4 k D g g 8 C 8 C C u.c c b g g /.Y.!.!.l i , Z , , , , , , , , , 0 0 q q i 0 G Z Z , 0 q l l l h q 0 , Z , , , , , , 0 0 0 0 0 0 0 0 0 q q q h q q 0 , Z , , , , , 0 , , 0 , , 0 0 , , , , q l l l i , , 0 q 0 , , Z Z Z 0 0 i i 0 0 , Z G , 0 G.G.q q q i i 0 +X9XH.yXXXXXN.1X1X .I.V.uX9XR.s.s.s.s.s.U.U.pXpXR._.H H H H H H H H H &.:X:X{ { G.{ G.G.G.Z i b b g CXkXI.j.sXmXmXmXsXe.4X4X&X&XM.&Xf.{.x.S.c.T T ,.A.lX_.A.=.=.=.S S y a a a v v T ,.k.>.c.B f a M M a c.S.>.,.T B B B v S ;.OXf.I.H.;XI.x.;.S S v v S v T S.lXT.R.R.s.v._.A.p.=.S v S l.f.I.1.b.b.*.Y Y p *.*.p p *.b.#.#.b.F.b.*.P F.F.F.).a.m.W.(.S v v T c.p.A.T.T.s.v.v.7._.p.=.v f f S S S (.W.m.E.} L HXn t u n n n n n n n n n n n t t t t u t u t t u u u u u u L u u u u u u u ",
"h h h h h h h q h h h q q i i l l c !.c l l i i i 0 0 i i l c b g g g < < < < < 1 1 1 1 b b g b b l i i q h q q h !.!.b g g g b c c l U l i i i 0 i i i i i 0 0 q q i q h h l h h q q q h !./.D D D g !.l q 0 0 l !.b g g g g b c c u.u.c c c c c c c c b b b DXc i G i i q h h h h h !.!././.2.2.2.2.2.2.k D D b c C 8 8 8 b b c !.!.h !.!.!.h 0 0 i q 0 , , Z Z Z , q q , , Z Z G G G Z , i l !.!.!.l q , Z Z , 0 , , , , 0 0 0 0 0 0 0 0 0 0 0 i 0 0 0 0 0 0 i i 0 , , , , q 0 q , , q , , , 0 0 0 0 0 0 , , 0 0 0 , Z Z Z , , 0 i i G G G G Z , 0 0 G.G.0 0 , , G.G./.H.yXXXXXN.1X1X1XI.V.uX9X9X9XR.R.U.pXpXvXpXpXs.3.&.H H H H H H H H  X X X:X:Xt.G.5XuXh h h !.b /.kXkXI.j.sXmXmXmXmX| K.K.yXyXnXM.{.x.S.T B v v T >.k.A.p.=.v v S S S y a a S T ,.k.k.S.c.B f y a S 9.,.A.A.A.p.,.,.T T 9.S.>.l.x.f.nXM.l.;.9.9.v 9.9.9.S T >.lXlXT.lX_.A.p.=.S v f S 9.l.f.I.1.}.#.p p p p p p p *.*.p p *.*.p p *.b.b.}.1.h.W.(.9.S v v v T ,.>.k.lX_._.A.A.A.A.p.T v S (.(.W.=Xm.d.E.L u u u u t t n n n n 5.n n n n n t t u u u u u u u u u u u u u u u u u u u u t ",
"h h h h h h h h h h h h q q q h l l l l l l U i i i 0 0 i l c b g g < 1 1 + + + + + + 1 1 1 < < b l i i i h q q h !.!.b g /.g g 1 b c c c c l i i i i i i i i 0 i q q q q h h h h h q q h !./.4 4 4 4 D g !.h q l l b g g D < + 1 8 8 8 8 8 8 8 8 8 b 8 g g g b b l i i i q h h q h h h h h /./.2.2.2.2.4 2.k D D < g g g g c l l l h h uXuX5XG.G.G.G.Z , h q , , Z 0 h q , gX, , i G G G 0 i l !.c l q 0 , Z , , , G , G , 0 0 0 0 G.0 G.0 +X0 0 0 0 0 0 i l l l i i , , , , 0 0 , , , q , , 0 0 0 , , 0 i i 0 , , , , Z , , 0 0 0 G G G G Z G , q h h 0 q 0 0 , , G.G.uXI.1.@XXXXX1X1X1Xj.I.uX9X9XFXFXJXJXJXJXvXpXs.7.&.H H  XH H H H H  XH H  X X:Xt.5X5XuX5Xn.n.G.h /.kXH.j.j.sXmXmXW K | 1XK.K.yXnXf.k.S.9.v f v S S >.{.{.k.9.S v v S a y y S 9.;.OX{.{.k.T f y f v 9.p.A.A._.7.A.A.p.,.=.,.,.S.c.c.hXL.&XS.9.9.9.S 9.9.c.9.c.c.S.k.k.k.,.,.T v v S S S S ;.OXV.;X;Xb.#.p p p Y p p p p p p Y p Y p p *.b.}.I.m.;.S S S T S 9.,.S.S.>.>.>.p.=.p.p.k.x.k.l.l.W.=Xm.GXHXL L u u u u t t t n m n n n n n n n n t u u u u u u L Y Y Y u u u n u u u u t t t t ",
"h h h h h h h h h h h h q q q q q h l l i l l l l i i i i i l c g < < 1 + + + + + + + + 1 1 < 1 b l i q i h q q q h l l b b g g 1 1 1 8 1 g b c c c c l l l i i l l q q 0 q q h h h h h h c /.k 4 2.4 4 D /.Y.!.l l l b b g < < < + + + + 1 + 1 1 1 1 1 1 g g g g c l i q q q h h h h h h h !././.4 4 2.2.4 2.4 4 4 D D Y.b l i h h h uX%.uXt.{ { { { { n.uX!.h h h h h q , q q q G G Z G i i i l q q 0 , , , , G G , G G G i i i 0 0 0 0 G.0 0 0 0 0 0 i l l c l l i 0 0 , , , , , , , q 0 , , , , G G i l l i 0 , , Z , 0 q i i 0 G G G G Z G q l !.l l i 0 0 , Z G.n.uXI.1.@XXXXXN.1X1Xj.d.uXdX9X9XFXJXJXJXJXU.s.7.&.H H  XH H H H p.H H H H H &.:Xt.5Xf.{.OXLXLXLXt.5XV.H.j.4XsXmXmXmXK 2X1X4X4X&X6XS.9.9.S v f y S S l.M.M.f.l.9.S S S S a a 9.W.x.M.-X-Xx.S.a a v v =.A.A.7.7.7.v.lXA.p.=.T T c.c.B S.hX3XS.T v S 9.;.S.S.S.c.B c.c.c.c.T v v S S y S S S (.=XV.;XD.).b.*.p Y Y Y p p Y p Y i.Y Y Y p #.b.1.a.h.W.(.(.S S 9.S.>.0XS.c.c.,.9.S =.;.x.M.-XV.d.d.d.HXHXL L u u u u u t t m t n n n n n t n t t t u u u u L Y p *.*.p Y u u u t t u t t t n n ",
"q i q q q q q q q q q 0 0 0 0 0 0 q i i i c c c c l l i i i l c g < < + + + + + + + + + 1 1 1 1 b l i i q h h q q q q h l c b b 1 < < < < g g g b b b b b c c l c c l l i i i i q h q q q l g D 4 2.cX2.4 4 D /.!.l l l c b 1 < _ + + + + + + + + + + + < < < < < b c l i 0 q q h h h h q q h !.!./.k 4 2.2.4 4 2.2.4 D g !.h q h h G.5XuX5XOXLXLX;.p.LXLXt.5X5X5XuXuXh G.G.q 0 Z G G G G i 0 q 0 0 , , , , 0 0 , , G G , G i 0 i 0 0 0 0 0 0 0 0 0 0 h l l b b l i i i 0 0 0 , , , , , q , Z Z Z , G i c b c l i , Z Z 0 h l l l i 0 , , Z Z , q l l l U G G G , , , n.uXV.1.@XXXXXN.1X1XyXj.uXh +X+XR.9XJXJXR.7.3.&.H H H H H H =.p.p.p.H &.&.&.3.v.T.{.x.l.;.(.(.;.LXOXM.H.yX4XsXmXmXmXsX| 4X4X4X&XAX9.S 9.9.9.S S S S l.V.H.I.f.l.(.S S S S zXx.f.I.H.;XH.-Xx.S.9.v =.p._.7.v.v.v.v.lX_.>.,.,.T T B f c.S.0X9.S v S ,.k.k.S.c.c.B B T v T c.T v v S S S S (.(.=XI.D.@.@.).*.p Y Y p p p p p i.p p Y p p p #.1.1.d.m.W.;.;.;.>.x.x.k.S.B T T T v v ;.x.-XPX;X1.a.a.E.L L L L u u u u u u u t t m t t t t t t t t t u u u u L p p *.p Y Y u t t u t t t t n n ",
"i i q q q q q q q 0 0 , 0 0 0 0 i i i i l c b b g b c l l l c b g < < < + + + + + + + + 1 1 1 b c l i q q h h q q q q q q l l c b 1 < < < g g g g g g g g g g g g g b b c l l l l l i i 0 i b /.k 4 2.2.2.2.2.D /.!.!.l l c b 1 < < + 8 + + + + + + + < < < < < D < g b l 0 0 q h h h h h q q q l !./.k 4 4 4 4 4 2.4 2.D /.!.!.h h n.t.OXOXl.;.=.=.=.=.LXLXOXt.t.t.t.t.{ |.G.0 Z G G U G , 0 0 0 0 0 G., , 0 0 , , G , G G G i i 0 0 0 0 0 , 0 , , 0 0 i l l l i i q i 0 0 0 , , , 0 0 q , Z Z , i i c b g b l i , Z , 0 l !.l l i 0 0 0 , G.G.q h l U G G G G G , , G.n.d.1.@XXXXXN.N.1XK.j.uXh G.+XdX9XJXJXT._.&.H H H H LXp.p.p.=.=.p.p.&.3.3.`.T.t.lX>.9.S S S S (.l.f.yXj.4XsXmXmXmXsXsX4XK.4X&XAX(.S 9.9.9.a S S (.=XH.D.D.I.h.OXl.l.l.x.f.j.I.;X;X;X;X-Xf.>.T T =.A.T.v.v.[.v.v.lXA.p.,.T c.T v v 9.>.k.k.>.>.>.x.{.{.S.c.B B f v S S.>.S.S S S S S (.(.W.m.a.).@.).F.*.p p Y Y p p p p p p p Y p p p *.#.#.E.d.m.m.OXOXx.{.x.k.c.B B T T T v ,.OXH.PXD.1.} } } } } L L u t t t u u u u u u u u u t u t t u t t t t t u Y Y p p Y Y u t t t u u t t n t ",
"i i i i i i i i q q i i i i i l l l l c c b g g g g b b !.b b b g < < < + + + + + + < < 1 1 g b c i i q q h h q h h q q q q i l c b b g g g g g g g g g g g g < g g g g g b b b c l l i i i l b D k 4 2.cX2.4 2.4 D /.b c l c b 1 1 8 8 + + + + + + + + + < < < _ D D g c i 0 q h h h q q i i 0 i l b /.D k k 4 4 2.2.2.2.2.D /.dXh G.OXLX;.,.=.=.=.=.p.p.p.A.A.p.A.LXLXLX{ G.h i G G U G , , 0 q q q 0 0 0 , , , , G , G i G G , G , , q , , , , , , , q i i i 0 0 0 0 0 0 , , , 0 0 0 , Z Z Z i i c b g g b l i , Z , q l !.l l 0 0 0 0 G.0 G.q q i G G G G G G G , G.n.d.a.@XXXXXN.N.1XK.j.d.h G.G.dX9X9XR.T.`.&.H H p.p.A.p.p.=.=.=.=.p.A.3.`.v.R.T.k.S.a a S S S S zX6XyXyX| sXmXmXmX6X4XyXyXyXM.x.(.S S S S S (.(.W.h.1.@.@.D.1.I.V.V.I.I.H.H.1.;X;XH.V.f.l.,.v T p._.T.T.v.s.v.v._.p.=.=.T T T T 9.>.x.f.M.f.f.M.-XM.x.S.c.B B f S (.x.f.x.W.(.(.(.(.;.W.m.d.b.@.).F.z *.*.p Y p p p p *.p p p p p Y p p *.#.#.a.E.d.d.d.M.M.x.>.9.T T c.T T =.;.m.H.@.).#.} L L L L L u u t n t t u u u u L u u L u u u t t t t t t u u u u L Y Y u u t u t t t t t t t ",
"l l l l l l l l l l l l l c c c b b b b g g g g g g g /.g g b g g < < 1 + + + + + < < < < g g b c l i q q h h h h h h h q q q i i l c c b g g g g g g < g < g D g D < < < < g g g b b c U i l l b g D 4 4 2.2.2.2.2.4 /.b c c c b 1 1 8 + + + + + + + + + 1 < < _ D D D g l i q q q q q i i G G , i l b g D D k k 4 2.2.rX2.2.2.4 dXuXt.LX=.9.=.,.p.LXp.LXA.p.p.=.,.,.p.LXt.5X!.l i G G Z Z , 0 q h h h 0 0 , , , , , G , G , G , G , , , , GX, , , , , , , 0 0 , , 0 0 0 0 , , , 0 0 0 , Z Z 0 l c c b b b c l i , Z , 0 h l h i 0 0 i G.q h h h q G G G G G G G i 0 G.n.uXa.@XXXXXN.N.1XK.j.d.h G.G.dX9X%.T._.:X&.H H p.p.>.p.,.T T v T =.p.A._.T.R.lX>.c.y y a S S S l.6XyXK.| sXmXmX6XbXyXiX@XiX-Xm.;.(.(.(.(.;.W.=Xm.d.;X@.@.@.).D.D.D.PXPX@X;XH.I.d.h.m.l.;.T v T ,.k.T.R.R.T.v._.A.,.=.v v S =.9.;.OXM.-XH.H.H.H.wXM.>.,.c.c.B a S ;.f.I.V.f.=Xl.=X=Xm.h.E.1.).@.).*.*.*.p p Y Y p p p p p p p p p p p p p p p #.} a.a.H.H.V.x.>.9.v T T T =.;.OXM.;X@.).#.p L u u u t u u u t t t t u u u u L L L u u u n t n t n t t t u u u u Y u u u u t u t t t t t ",
"b b b b b b b b b g g g g g g g g < g < g g g g D /.D D /.< g g g < 1 1 1 + + + + + < < < g g b l l q q h h h h !.!.h h h q q q i i i l c b b g g g g g g g g g g < < D < < < < < < < 1 c c U i l l b /.k 4 2.rXrXrX2.4 /.b l c b 1 < + + + + + + + + + + 1 1 < < D k k D b l i 0 0 0 i i G G G i i i l b g D D D D 4 2.2.rX2.rXrX2.kX%.{.>.,.,.p.p.LXLXA._.A.p.=.T T ,.>.OXuXdXh 0 Z G Z , , 0 q h h 0 q G.0 , , 0 , i G , G G Z , Z , , GX, , gX, , , , , , Z , , , 0 , , , , 0 0 0 0 , Z , i c b b b c c i 0 0 , , , , 0 q 0 , , G 0 0 q h h h i i G G G G U l l h G.n.uXa.@XX.XXXXN.1X1Xj.d.h G.G.+X+Xt.{  X&.H H p.p.p.;.9.T v v f B v ,.p._.lX>XlX>.T f f v v v S l.&XyXK.| sXsXsXj.I.;XPXPX;XH.M.OXl.W.l.=Xm.h.d.d.H.D.@.@.@.@.@.@.@.@.@.PX1.I.h.=XW.;.9.T v B c.c.>.lX>XT.lX_.A.>.>.;.(.(.(.;.W.OXM.H.;XD.PXPXSXH.OX;.T c.c.a S (.W.d.;X;XH.I.d.d.d.a.1.).).@.@.P *.p Y p Y p p p p p *.p *.p *.p p Y Y Y Y Y p L } 1.;X;XH.f.l.S S v S =.;.OXM.H.PX@.).b.p u u n n n u u Y u t t t t u u u L u L u u u n n n t n t t t u Y u u u u u t m t t n t t t t ",
"g 1 g g g g g g g < g < g D < < < < < < < < < g g D D D D D < g g 1 1 1 + + + + + + 1 1 g g b c l i q h h h h h h !.h h h q q q q q q i i l c b g g g g g b b b 1 < < g < < g 1 1 < < < < 1 c l i i h !.!./.4 4 2.2.2.D /.!.l c b g < < < + + + + + + + + < < < < _ D k D g b l i 0 , , i G G i G i i q l b g D /.D D 4 4 2.2.rXrXrXrXrX-XM.{.>.p.=.=.H LXLXLXp.=.S 9.;.l.t.uXdXh G., , , , , , 0 0 G.h G.q G.0 0 , , , , G , Z Z Z G , , G gX, q , , q q , , , , , , 0 0 0 0 0 0 , 0 , 0 0 i l b b b c c U G Z , , , , , , , , G 0 , Z Z , q h l l i G G G U l c c l , G.uXI.;X@XXXXXN.1X1Xj.d.h q h !.+X{ :X XH &.&.A.p.;.9.S f f B f B B v ,.>.k.tXk.,.f f f f v v T l.&XyXK.4X| j.j.;X;X;XPX;X;X;XI.d.d.d.d.I.I.a.1.1.}.).).F.! ! ! @.@.@.;XH.I.h.W.(.(.S S S v c.S.c.T ,.>.>.>.p.l.OXf.m.OXl.=X=Xh.V.H.;XD.D.D.PXD.V.OX;.S S a S (.W.m.a.@.@.@.@Xb.1.b.).@.@.@.! ).*.p p p Y p p p p p p #.p *.p *.*.p Y Y t t t t u L } b.D.D.H.f.;.;.;.;.;.OXd.1.@.@.@.).b.p L L L L L L L u HXn n n n t u u L L L L u u u n n n n n t t u u u u u u u u u t n n n n t t ",
"< 1 < < < < < g < < D < < < < < < < g 1 g g < < D D k D D D g g g 1 1 1 < + + 1 1 1 1 b b c l l l q h h h h h h h h h h h h q q q q q q 0 0 i l c b b b b b b b 1 g < < < 1 1 1 8 1 < < _ < 8 c c l l h !.!.!././.4 /./.!.l l c b g < < < + + + + + + + + + + < < < _ _ _ < g c l i G G i i G i i i i i l !.g D D D D D D 4 4 2.2.rXrXrXrXFX%.OXp.=.=.(.;.LXOXOXW.;.(.;.LXt.uXdXh h , , , , G , 0 0 0 G.0 G.0 G.0 0 , i , , Z G , , i q , , , , , , q q i , , , 0 0 0 0 0 0 0 0 0 0 0 , i 0 i l c b b b c l G Z Z , Z , , , , 0 i i 0 Z Z Z , i i i i G 0 +X+Xc Y.b l 0 , uXV.;X@XX.XXXXN.1Xj.( GXq , G.|.:X X X&.&.A.A.A.,.S y y f f B B f f v ,.S.>.S.T f v v v v v =.x.M.yXyXyXj.a.1.;X;X;X1.1.1.1.#.1.#.a.1.1.1.;X).).F.).! F.! ! ! @.@.}.I.h.m.l.;.(.S S S S S ,.>.,.,.,.,.,.T 9.;.m.V.H.I.d.d.d.E.1.D.).@.@.@.D.D.H.n.W.(.(.(.(.W.m.E.b.@.@.@.).).).).).@.@.).b.b.#.p *.p p p *.p p p p p p #.p *.p Y Y t t t t n n u L b.).@.D.H.h.h.m.h.GXE.#.).@.@.! ).).1.1.1.;X}.1.1.} L HXn n n n n t u L u L u L u t t n n n n n t u u u u u t u u t u n u n t t t ",
"< < < < < < < < < g 1 < < < 1 1 1 1 1 1 1 g < D D k k k D D < g g 1 1 < < < + 1 1 8 b b c l l i q q h h h q h h h h uXh h h q q q q q q 0 0 i i l l l l l l c c b b 1 1 < < 1 1 1 8 1 1 < < 1 1 b b b l h h h h !./.!.!.!.i l c b < < < < + + + + + + + + + + + < < < < < _ < b l i i G i G i i i i q q q l b g D D D /.D D /.4 2.2.2.rXrXrXFX5XOXl.;.W.l.m.d.V.h.OXLXLX{ t.h !.h h G., , , G , , 0 0 0 +X0 G.0 0 0 0 , , , , , , i h q q , , , , , , q q q 0 0 0 0 0 , 0 0 q q q 0 0 0 i 0 G i U c c b b c i G Z , 0 , , , i l l l i Z Z Z Z G G G G 0 0 i +XY.Y.b c i 0 h V.H.@XiXX.XXXXXX1X( GXq , G.{  X X&.3.3._.A.p.9.S y y f f B B B f v T c.c.T T v v v B v v ,.{.-X;X;X;X1.1.b.b.b.#.#.} } #.*.*.*.*.#.b.b.).@.).).! ! P ! ! ! @.).a.h.=XW.;.9.S (.(.S (.(.l.OX>.,.=.T T v f ;.m.a.).@.1.a.} #.b.).@.@.@.@.).D.D.d.=X=X=X=X=Xh.E.#.).@.! ! ! ! ! ! ! ! ).b.b.#.#.#.*.#.p p p L L L p } p p p p Y L t t t t n n t u L *.b.).@.).1.a.a.a.} b.! ! ! ! ! ).b.a.I.V.V.I.V.I.a.} L u n n n t t u L L L L L u u t n 5.n n n t t u u u t t u t u t u n t t n t ",
"< < < < < < < < < 1 1 1 1 1 + + + + + 1 1 < _ k k 4 k k k _ < g g < < < < < < 1 8 b c c l l i 0 0 0 q h h h q h h h h h h h q q h q q q q q i i i i 0 0 i i l l l c c b < < < < 1 1 1 1 8 8 + < _ D D g !.h q q h h h l h i l c g < < < + + + + + + + + + + + + < 1 1 1 < _ < g c U i i i i i q q h q q i h l b b !.b Y.D D 4 4 4 2.2.2.2.FX2.kXV.uXm.m.d.H.;XPX;XkXuXn.G.q h h G.G.q , , Z G , 0 0 q 0 0 G.0 G.0 0 0 0 , , , , q h l l q 0 , , , , , 0 0 0 0 0 0 0 , , 0 q q l h q q i i G G G U c c b 1 b l G G 0 i i 0 0 l c b b U 0 0 , G G G G G , 0 +XY.Y.b b c i q uX%.H.iXNXX.X.N.XX1XJ.GXq , Z { :X:X:X`.v._.A.p.S y y S S v v v v v =.=.,.T T v v T T B B c.>.M.wXPXPX;X}.b.b.#.} *.#.p p p p Y Y p p #.b.).@.@.! ! ! ! ! ! ! ).1.h.W.;.9.9.e S S (.(.;.W.m.f.l.=.v v B f y ;.m.1.@.@.).b.b.b.F.! @.! ! @.! F.F.} d.d.d.I.I.1.b.@.! ! ! P P P P ! ! P b.#.#.#.#.} *.*.p L u u u L L p p p p p L u n t t t n t Y u u L p *.F.@.@.).).).! ! ! P P ! @.).a.h.OX>.>.>.l.m.d.I.#.p t n n t u L L L L L L L u t t n n t t t u Y u u t u n m u u u u t u t t ",
"+ + + + + + + + < + + + + + + + + + + + 1 < _ k 4 4 k k D < < g < < < < < 1 1 1 8 b c U i i q 0 0 q q h h h h h !.!.h h q q q q q q h h q q h h h q 0 , , i i l i i U c c b b 1 1 1 1 1 8 8 8 1 < _ D g g !.!.h h h q q 0 i l c g < < 1 + + + + + + + + + + 8 8 + + 1 1 < < _ < g c U i i q q q q h q q 0 q h l c b b g < D D D D 4 4 2.2.2.2.rXkXrXH.;X;XPXPX@.D.kX!.q , q h q , , , , Z Z G 0 i q h 0 G.G.G.G.0 q h q 0 , , 0 h h h q , , 0 , Z Z Z , 0 0 0 0 0 , , , 0 q l !.l l i , , Z G U c b b c c U G G G i c c l l l b g g c i 0 , G Z G G G Z 0 l Y.g 1 u.U i dX9XFXxXwXNXNXBXXXXXXXa.HXGX, Z { { :X`.`.v._.A.=.v f y a v v v v =.,.p.A.A.p.p.=.T T T T S.0X>XwXSXPXD.}.}.}.*.#.p p p p Y p p p p p p *.}.b.).@.@.@.@.@.@.@.@.@.I.m.;.(.S.0XS.S.;.;.l.m.M.-XV.l.=.v v f a S W.d.#.! @.P P P P ! ! ! ! ! ! ! F.b.#.} 1.1.;XD.).).! ! ! ! P P P P P ! P *.p } #.#.*.#.p L L u u J.u I L L p p Y L u t t t t t t t t t u Y Y *.b.).@.@.).).! @.).).@.@.H.h.l.;.=.T =.=.;.l.f.I.E.u t u L L L } } } a.} L L u u t n t t t t t t u u u u t t u t u u t u t ",
"8 + + + 8 + + < < + + + + + + + + + + + < _ k k k k k D g g g g < < < 1 1 8 1 g 1 b l i i q q q q q h h h h q h h !.h q q h h !.!.!.h h h q h h h h q 0 0 q i i i i i i U l c b b 1 < < + + + 1 1 < < D g g g b !.!.l h i l c b g < 1 1 + + + + + + + + + + 8 8 + + 1 1 1 < < < < b c l l h q q q q q q q q q l c b g g < < g g D D 4 4 2.2.2.2.rXrXD.@.@.@.@.D.}./.h , n., q h , Z , i Z G G , , 0 q q 0 0 h h h h l h h q 0 q h h 0 0 G.0 , 0 0 0 0 G., 0 0 0 0 0 , , 0 i l l l q 0 , Z G i c b 8 c c U U i G i l b b c l l b b b c i 0 i G G G G G i i l g < 8 u.l Y.9XFXxXxXMXNXNXX.XXXXXX .HXGX, , |.|.{ `.:Xv._._.p.=.T T v v =.=.=.p.A.A._.lX_.A.p.=.T v B c.0XtXM.-XH.rX}.}.*.*.} p p p Y Y Y Y p *.p *.#.*.}.D.D.D.;X;X1.1.1.;X;XV.OX(.S ,.>.S.S.S.;.x.M.H.;X-X{.;.S v S 9.W.m.} b.! ! ! P P P P ! ! ! ! ! F.b.*.#.}.b.).@.@.@.).@.! ! ! P P P ! P P z p L p } #.*.*.p L u u u u u u L L Y L Y L u u u u t t t n t t t t u L p *.b.F.).F.F.F.F.D.D.;XM.l.=.=.v v v v S ;.l.M.E.} } p } } E.E.E.E.E.a.} } L L Y t m t t n t t Y t m u u m u u m u t t t ",
"+ + + + 8 8 + + < + + + + + + 8 + + + + _ k _ k k _ D g g g g g 1 1 1 1 1 1 1 g g b l i i q q q q q q h h h q q h h q q q !./././././.!.h q h h h h h q q q 0 , q i i i i i U l c b g < < < + 1 1 g g g D /.D D g /.b b b b b g g < < < < < < + + 8 1 1 1 + + + + + + 1 1 1 < < < 1 b c l l h h q q h q q q q l l c b g < 1 1 1 g _ D k 4 4 2.4 2.rXD.D.D.D.D.D.kX/.q , , G.q q , , i U G G , , Z , q h !.!.!.!.!.h !.!.!.!.h h G.h G.0 0 0 G.0 q h h 0 , G.0 +X0 0 0 0 0 q i l i q , Z G i l b 1 b c U U U U U l c b c l i l c b b c l +Xl U U G u.u.l l l g g b c Y.9XFXxXxX'.MXMXNXX.XXXXXX .E.GXq 0 G.|.{ { `.t.t._.A.>.S.S.,.=.=.p.A.A._.7.v.v.v.T._.p.T v B c.c.S.>.x.f.I.}.}.*.} *.p p p Y Y u u p p #.*.#.}.}.1.H.I.d.h.h.h.h.d.V.f.l.=.=.=.,.,.,.c.S.{.-XwXwX-Xf.l.;.;.;.l.m.E.b.! ! ! P ! ! ! ! P ! ! ! ! P *.*.*.b.).@.@.@.@.@.@.@.! ! ! ! ! P ! P z p L L p p p p L u u t u u m u u u u Y u Y Y u L u u u u t t t t t t t u } } *.*.*.*.#.}.}.;XV.OX,.v v v v v v f 9.>.{.I.1.1.a.E.d.h.h.h.h.h.d.E.a.a.} p L u t n n n t t t u t u u t u u u m u t ",
"+ + + + + + + < < < + + + + + + 8 + 8 + _ _ _ _ < < g g g g < < 1 1 < < < < g g g c l i q q q q q q q q q q q q q 0 0 0 h !.D 4 4 4 D !.!.h h q h h h h h q , , q q q i 0 i i l l b b g < < < 1 1 g g g D D D k k D D D g g g g < Y.< < < < + + 1 8 1 1 1 + + + + + + 1 1 1 1 1 1 1 1 g b !.!.h q q h q q q q l l c b 1 1 1 8 8 1 < _ k k 4 4 k 4 cXrX}.rX}.rXrX2./.h h h G.G.G., i U U G , , Z Z 0 !./././.k /.!.h l !.!.!.!.h h h !.h 0 G.0 0 +X0 q h h 0 , , 0 0 0 i i i i q i , Z G i l c b 1 c U U U U U c b b c l i U l c b b c U c Y.c u.u.u.DXb c c b b c Y.9XFXxXxX'.'.MXNXNXX.XXXXXX .E.GXq 0 , |.|.|.t.t.t._.OXk.x.k.k.>.p.A.v.v.7.7.7.7.v.T.lX>.T v v T B v T 9.W.h.a.#.*.*.p p p Y Y Y Y p p p #.#.}.}.kXV.h.=Xl.W.W.W.W.l.l.>.p.=.=.=.=.T T c.S.r.&X&X{.x.x.x.f.f.h.d.1.F.! ! ! ! ! ! P P P ! ! ! ! P b.*.p *.b.F.).@.@.@.@.! ! ! ! ! ! ! ! ! P *.Y u u u Y p Y u t n t t m u u m u u u Y L Y L L u CXt u u u t t n t t L L L L L L L } #.1.I.f.>.=.v v v f f y S y 9.>.M.H.I.d.m.=Xl.W.W.W.l.=Xm.d.E.a.} } L u t t n n t t t u m u u u m u t u t ",
"+ < + + + + < < _ < < + + + + + 8 + 8 + + < + 1 1 1 1 g g g < < < < < < < < g g b c i 0 q q q q q q q q q q i , q q q q l b D 2.rX2.4 /./.!.!.h h q h h q q 0 , 0 0 0 0 0 q i l l l c c b 1 1 < g g g g g D D D k 4 k k D D D < g < < < < < < < + 1 1 + 1 + + + + + + + 1 1 1 1 1 1 g < /.Y.!.h h h h h q q q l c b 8 1 8 8 C C 8 + _ k k 4 4 k k 4 4 cXrXrXrXrXrX2.dXdX!.h G.G., i i G 0 0 , , , h /./.k k 4 /.h q h h !.!.h !.!.dX/.!.h 0 q q 0 , 0 h +Xh G., 0 h 0 i h i i i , G , i c c b g 1 c U G U u.c b g b c i i i U c b 8 c c 8 8 8 C u.C 1 b b c !.!.Y.9XFXxX'.'.'.'.MXNX@XX.XXXXXXXXa.d.q G G Z |.G.5X5Xt.OXOXk.x.x.k.k._.v.s.s.[.[.[.[.7.s.lXp.T v T T T v a S (.m.d.} *.*.p p Y p p p ZXZX#.#.#.1.}.}.V.h.W.(.(.S S S S S =.=.p.p.A.p.p.=.v T 0X3X3X0Xc.c.S.x.V.H.}.D.@.! ! ! P P ! ! ! ! ! ! ! ! ! P *.p #.*.*.b.F.F.F.F.F.).).! ).! ! ! ! ! P *.Y t t t Y Y Y t n n n n t m t t u u Y u Y u L u u u u L u u u u t u u L p L L u n L #.#.H.V.OX,.v v f v y y S y y y T f.-XM.x.;.(.S v v S S (.W.=Xm.d.E.} L L u t n n n t m u u Y m u t u u u u ",
"+ + + + + < _ _ _ < < + < + + + 8 + 8 + 8 + 8 8 1 1 < < < g 1 b 1 1 1 1 g g b b c l q 0 0 q q q q q q q i i 0 i l c l l l !./.4 2.cX2.4 D /./.!.h h q q q q q q q , q q q q h h h l h l l c b g g g g g g g /.D k k 4 4 k k D D < < < < < g < < < < + + + 1 1 8 + + + + + + 1 1 1 1 < < D g Y.!.!.l h h q q i c g < < < + 8 8 8 1 < _ k k 4 4 4 k k 4 2.4 2.2.rXrX2.2.9XdX!.!.h G.Z Z Z 0 h h h !.!././././.!.h q , q GXq h h h !./.4 /.!.q , , G., G.0 0 0 h h 0 0 0 i l i i G G G G i b c b b b c U U U c b 8 b c U i G U U c 8 8 8 8 C 8 8 C u.DXb c l l !.dX9XFXxXxX'.'.'.'.PXPXX.XXN.XXXXX.yXd.q Z G Z Z G.5X5XlXOXk.>.S.,.,.A.lXs.U.[.[.[.[.7.7._.A.=.v v v 9.9.v M M 9 AXd.a.#.*.p #.p #.#.#.#.#.a.a.1.1.;XH.V.OX;.S S S S f v =.p.A._.v.v._.A.p.=.T S.0XS.c.a a 9.l.h.H.D.).F.! ! P P P ! P ! ! ! ! ! P P *.*.p p *.*.*.*.*.}.*.b.F.b.F.F.F.).F.F.P *.p u t t t Y Y Y t n n n m n n u t u Y Y Y u u u u u u u u u u u u L L L } E.E.E.J.E.E.a.H.H.-Xx.S.T v f y y y y a y f B >X-XM.k.,.v v T T T S S S (.W.=Xh.a.} L Y t n n n n t u u u t u t u u u u ",
"+ + + + < _ _ _ _ _ < < + + + + + 8 + 8 + 8 8 1 1 1 < < 1 b c c c c c c c c c l l i q q q q q q q q q i 0 i i i c b b b c c b D 4 4 2.4 4 4 /./.!.h h q q h h h q q q q q h h h l h h q i i l c b g g g g g g g D D k 4 4 k k k D D D D < < < < < 1 1 1 1 1 8 8 + + + + < + + 8 8 + < < D g g b b b l l l l l b _ k k _ _ _ + 1 1 < _ D 4 4 4 4 4 4 4 4 4 2.2.2.2.rX2.rX2.9XdX!.G.h 0 G.G.h h uXuX!./././.h q , GXGXGX, GXGXGXGXGX!./././.!.h q q , , , , , q q 0 0 0 i l i i G , G i U c c c c c c u.U u.C c c c U G G G U U c c C 8 C C C + C C u.c l h +X+X9XFXxXxX'.'.'.'.MXPX@XXXXXN.N.XXX.yXd.GXZ G Z Z G.5Xt.OX>.;.9.9.T ,.A.T.s.s.[.[.[.[.7.A.A.,.T v v v a T B e e :.6XI.1.}.#.b.#.#.#.#.1.1.a.I.d.d.V.H.V.f.l.=.v T T T T ,.A._.v.v.v.v.v.`._.A.,.9.c.M a a S S W.m.H.D.@.F.F.! ! ! ! ! ! ! ! ! ! ! P *.*.#.p #.*.*.*.} *.*.*.*.*.*.*.*.*.b.b.*.*.p Y u t t t Y Y Y t n n n n n n m t u Y u Y u u t t t u u u u L L L } L E.E.E.h.h.h.h.V.-X-XwX-X{.>.T f f S y y y y B B S.tX>XtXS.T v v v T T v T v S (.W.m.E.a.} L t n t t n t u t u m t u u u Y u ",
"1 1 + < _ _ k _ _ < < < < + 1 1 1 1 1 8 + + + + 1 + 1 1 1 b c c U c U U c U l l i q q q q 0 q q q q i i i G i U c g < g b c c g D 4 4 2.4 4 4 /./.!.!.q q h h h h q q q q h h h h h h q q q i l l c b !.b !.b b g g D k k 4 4 k k k k k D _ < < < 1 1 1 1 + + + + + + _ < + + 8 8 8 + 1 1 g g g g g b c l c b g D k k k k _ _ _ _ _ D D 4 kXcX4 4 4 4 kX4 kX2.2.2.2.FXrXrXrX2.dXh !.h G.G.5XuXuXuXuX!.uX!.GXgXgXGXGXGXGXGXGXgXgXGXGXDXDXDXDX!.!.q q q q , , 0 , , , 0 i i i i G G G i U c l U U c u.c c c 8 c U U G i G U U U U u.c C C u.C C C DXu.c i +X+XdXJXxXxX'.'.'.'.MXSXNXX.XXN.N.XXXXX.yXd.GXZ G Z Z G.5XOXp.=.S S v S =.A.T.s.[.[.[.[.7.7.A.,.T v v v v v a c.S.S.$.&XI.H.1.}.}.;X}.1.a.I.I.M.f.x.l.x.f.f.OX>.=.v c.c.T T >._.s.s.[.[.`.v.{ t._.,.S v S S (.S (.W.m.1.@.@.).F.! ! ! ! ! ! ! ! ! ! P b.*.p p #.*.#.*.p p p *.*.*.*.*.p p } p p p p u u u u t Y Y Y Y t t n n m t t t t u u u u u u t t n t t u u L } } a.d.h.h.m.l.l.OXx.{.{.>X7X7X>X0XT v f a y f y B B c.0X0X0XS.c.v f f B B v v T T v S (.=Xd.a.} L u n t t t t m u t t u m u Y Y Y ",
"8 1 + < _ _ k _ _ < _ < < 1 1 1 1 1 1 + + + + 8 8 8 8 8 8 8 8 c C c c c U l l i q 0 q q q q q q q q q G i i U U b g _ < g b c b D k 4 2.cX2.2.4 4 /.!.!.h q h h h h h q q q q q q h h h h q q q q h i i l l l l l c g D k k 4 4 4 4 k k k k D _ g 1 8 8 1 + < + + + + + _ + + + 8 8 8 8 8 8 1 < < < g b b b g < _ _ k k k k k k k D D k 4 4 2.4 kX4 kX4 4 4 2.2.2.2.2.9X2.FXrX2.dXuX5X5X5XuX5XuX5XuXuXuXuXq GXGXGXGXGXGXGXGXGXGXGXGXGXHXd.HXDXHXDXh h !.!.h , Z , , , i l i i G Z G i U l i i i U c u.c 8 c U G U U U U U c c u.u.u.C C u.C 8 8 C u.U i +X+X9XJXxX'.'.'.'.MXxXNX@XXXXXN.N.N.XXXXX.j.gXZ Z Z Z n.OX>.=.v v S S 9.,.k.lXT.v.s.s.s.v.A.p.T v v v T 9.9.v B 0Xr.x.x.f.V.I.1.1.;X;X;XI.M.m.l.9.S S 9.>.l.l.;.9.v B B B c.k.lXv.[.[.[.[.[.v.{ A.,.S S S S (.(.W.=Xd.D.@.@.@.! ! ! ! ! ! ! ! ! ! ! P *.*.#.*.p *.*.p p p p *.p p p p L L u L L L L u u u u u Y Y Y Y Y t n n t m t t t u u u u u t t t n n n n L L #.a.E.h.=XW.(.S 9.,.S.,.c.S.k.>X>Xk.c.S a y f & B & B c.0XS.c.B B f f f f & & f f T T S (.W.h.I.#.L n n t t m t t u m t u u u Y Y Y ",
"1 1 < _ _ k _ _ _ < < < < 1 1 1 1 + + + + + + C 8 8 8 8 1 1 g 1 1 1 8 b c c c l q 0 q , q q q q q 0 i i i U U c c 1 < < < g b g g D k 4 4 4 2.2.4 k /.!.h h q q h h h q h q 0 q h h h h h h h q q 0 0 0 i i l l l l b g D k 4 k 4 4 k 4 k k k _ _ < < 1 1 < < < + + + _ + + + + 8 8 8 8 C C 8 + < < 1 1 b b < < g g _ D k k k k k 4 4 4 4 4 2.4 4 4 4 4 4 k 4 4 2.2.2.2.rX2.9X5XOXOXOXOX5X5X5Xn.t.t.n.n.GXGXGXGXGXGXHXHXHXHXGXGXHXHXHXHXHXDXd.HX/.CXCX/.DXh , , , , , i i l U G G G U c l i G i U c c 8 8 c U G U U c c b b c C 8 C 8 C C C 8 1 b b c i +XdXJXxX'.'.'.'.^.xXwXiXX.XXN.N.N.N.XXXXX.j.GXZ Z Z G.t.OX>.T f f a S v =.p.A._.T.R.R.T._.A.=.,.,.9.v v T ,.S.S.0X0XS.S.l.l.m.d.;X;XH.V.m.l.;.9.y y y a 9.>.l.>.;.9.v f v ,.lXT.s.7.[.[.v.v.v._.p.=.T v S S (.(.=XGX1.@.@.@.D.F.! P ! P P ! ! ! P P *.*.*.*.p p p p p p p Y Y Y Y L u u t t t t u u u u L L p p p p Y Y u t t t t t t t u u u u u t t n n n 5.m I L E.d.h.=X;.(.S S v B T T c.T c.0Xx.k.S.M y f & f B B B B c.c.c.B B y y a a y y y f B T v S ;.f.I.1.} u n n t t t m t u u u Y Y Y p p ",
"1 + _ _ k k _ < < < < < 1 1 1 1 1 + + + + + + 8 8 8 1 1 1 1 1 < < 1 1 b b b b l q q q q q h q q q i , i i U l u.8 1 1 < < g g g g < D D 4 4 4 cX4 4 /.b l h q 0 q h q q h h h h G.h G.h h h h q q 0 q q l l l c l c b g D k k 4 k 4 k k k k k D k _ _ _ < < + + + + + + + + + + + + + + + + 8 + + + + 1 8 1 < < g g < < D D D k D k k k 4 4 4 4 4 kX4 4 k k k 4 4 D 2.2.rX2.%.OX=.;.>.>.OXt.OXLXLXLX=Xn.n.uXHXHXHXHXHXHX5.HXn HXHXHXE.HXE.HXHXHXE.} cX} CXDXq , , , , i l l l U U U c b l i i i U c b 8 8 c U G U c c 8 8 8 8 8 8 8 8 8 8 8 8 b 8 8 c l +X9XxXxX'.'.'.'.xXwXH.yXXXXXN.N.N.N.XXXX .j.GX, i h !.5XOX>.T f a a a v v =.p.A._.lXlXA.A.p.p.k.k.>.;.;.,.S.S.S.S.c.c.T 9.;.;.m.I.H.V.m.W.(.S a y y y a S >.l.l.W.;.9.S T ,.k.lXT.v.v.v.v.v._.A.,.T T c.;.l.=Xm.d.} ).@.@.).).F.! ! P P P P ! ! z *.p *.p p p p p p p p Y Y Y u u u t t t n n n t t u u L L L } p p p L u t m t t t t u u u u Y u t n n 5.5.n m Y L d.h.=X;.9.S S a B v T c.T T T S.S.S.9.a y f f v B T v v T c.T B a y y a a a y y y f B v v ;.m.I.1.} u n t t m t t n t u Y Y Y p Y p ",
"+ < _ _ k _ _ < < < < < 1 1 1 1 1 + + + + + + + + + + 1 1 1 1 1 1 1 1 1 g g b l q q q q q h q q q q i i i U c c 8 1 1 1 1 1 < g g g < D k 4 4 4 4 k D b l l i 0 i i i h h h h 0 h 0 0 q h h h q q h l c b b g b b b g < _ k k k k 4 k k k k k k k k k _ _ < 1 8 + + + + + + 8 + + + + + + + + + + + + 1 1 1 < < < < < < < < D /.D D D k k k 4 4 4 CX4 CX4 k k 4 4 2.2.2.2.kX%.OX=.T T 9.p.LXp.p.=.p.LXOXn.d.E.E.HXu t t t m u L L L L L L J.L L L } *.}.cXCX!.q , , , q i l c c c c b g l U i U c b 8 8 1 C U U U c 8 8 b 8 8 1 + + 8 1 g Y.b C 8 8 b Y.dXJXxX'.'.'.'.xXJX-X-XyXXXXXN.N.N.XXXXXX .E.GXh b Y.dX%.{.>.9.v a T T v v =.=.=.,.,.,.,.,.,.>.{.f.{.OXOXk.>.,.T c.c.c.T v S 9.l.M.M.f.l.(.S v a B B B a v >.l.OXOXl.>.>.>.>.k._._.v.v.v._._.A.,.T T c.S.k.f.I.1.).).@.@.).b.F.).! ! P P P P ! P *.Y Y Y Y Y Y p Y Y p Y Y Y t t n t t t t n n t t t t u u L L p p L L u u t t t n t u u u u L u t t n n 5.5.t Y p E.d.=X;.S S v v f f a 9.9.S v S 9.a a a y f v v =.,.,.,.,.,.,.T v S y y y y y y y y B B v v 9.OXI.}.} u n t t n n n t t u Y Y Y Y Y Y ",
"< _ _ k _ _ < 1 1 1 1 1 1 1 + + + + + + + + + + + + + + + + 1 1 1 1 1 g g g b l q q q q q q q q q q i i i i c c 1 < 1 1 1 1 1 1 1 1 < < _ D D k D < g c l l l l l c l c l l i 0 0 0 0 q l l l l c b b g g g g g g < g < _ _ _ k k k k CXk k k k k k _ _ < 1 1 8 + + + + + + + + + + + + + + + C + + + + 1 1 1 1 < < < < g g < g g g < D k k k 4 4 4 4 4 4 k 4 4 4 4 2.kX9X%.5XOX,.T v v =.=.=.p.=.=.p.l.m.V.E.E.E.L u u m m J.J.J.O.J.J.J.I J.J.L } #.}.}.kXkX/.h G., , 0 i U c b g g b U U U u.c C 8 8 8 8 8 u.C 8 8 8 8 C 8 1 8 8 8 Y.Y.Y.c C C C c Y.9XJX'.'.'.'.'.JXR.%.V.yXX.XXXXXXXXXXXX@X .} DXc b Y./.dXuXl.(.9.9.9.9.T v T =.=.=.v v T T T S.{.M.M.f.{.x.>.c.f B c.c.B f f S S.k.k.l.;.S v f B B B y B T ,.l.OXn.5Xf.f.f.{.k.>.p.p.p.p.p.;.,.T v T S.k.{.-X;X@.@.@.! F.*.*.*.b.P P ! P P P P *.p Y Y Y Y t Y Y i.Y Y Y Y t n n n m t n n n t t t t n u u u u u u u n u u u u n t u u u u u t t t t n n n n t Y L E.h.W.(.S T T v f y a a a S y a a f y f f v =.p.A._.lX_._.lXA.p.=.v S y y y y M M a B B v v ;.OXE.}.*.u n n n 5.n 5.n n t Y Y u t t t ",
"< _ _ _ _ + 1 1 1 1 1 1 1 + + + + + + + + 8 + 8 + + + + + + + + 1 1 1 g g g l i q h q q q h q q q q q i i l c b g < < < < 1 1 1 + + < < 1 < < < < 1 b c c c b 8 b b b b b c l i i i i l c c c b b g < < < < < < < < < _ g _ _ _ _ k k k k k k k _ _ _ < < 1 1 1 + + + + + + + + + + + + + + + + + + + + + + + + + < < 1 1 1 < 1 1 b g _ k k k 4 4 4 4 4 4 4 4 4 4 2.2.9XuX5XOX>.,.9.v T =.p.p.p.p.,.,.p.OXf.h.d.d.HXu m m m J.J.O.J.J.J.I I m m J.L p #.}.}.rXkX!.G.G., , G U c g g g l U U u.c c C C 8 8 8 8 8 8 8 8 8 C C 8 8 8 C C Y.Y.Y.Y.C u.u.l dXFXxX'.'.'.'.xXFX%.%.V.H.@X@XXX .XX .@X .1.CXDXb b g 4 kXV.m.l.l.l.>.>.,.T ,.,.S.,.,.,.T T v B x.f.M.5Xt.OX>.T f B B B B f f v T c.S.c.9.S f f B B & B f v >.OX5XuXV.V.%.M.{.>.c.T v v S S S S S v c.S.0Xx.f.H.@.@.! P *.*.*.cX*.*.z P P P *.*.p Y L Y Y Y Y Y Y Y Y t t t n t t t u u t n n t t Y t t t t t t t HXn HXt u L u L u u u u u t t t n n n n n n u L } a.d.=X(.S T T v f y S S y S a a a f B B f =.p._.T.T.s.s.s.T.T._.A.=.S S S y y a a B B c.B 9.W.n.E.cXp u t n 5.n n n n n n t t n n n n ",
"+ _ _ _ < + 1 + + + + + + + + + + + + + + + + + + + + 8 + + + + + 1 1 g < g l i q h h h h h q q q h q i i l b g g g 1 1 1 1 + + + + + + 1 1 1 1 1 1 1 8 1 1 < < 1 g 1 g g b c l l l c b b 1 1 1 1 < 1 1 1 < < < < < DX< < DX< _ _ _ _ _ _ _ _ _ _ _ < < < < + + + + + + + + + + + + 1 + + + + + + + + + + + + + + + + + 1 1 < 1 1 1 < _ k k 4 k 4 4 4 4 4 k 4 4 k 4 2.2.uXt.LX=.S S S =.>.A._._.k.A.p.p.>.l.l.=Xm.GXHXJ.m I I I J.I J.m J.J.m J.m I p #.}.}.}.kX!.h , , , i U c b b c l c u.u.u.C C C 8 8 8 8 C 8 8 8 8 C C 8 8 8 c 8 8 Y.Y.8 C u.u.l 9XFXxX'.'.'.xXxXFX9X/.kXH.;X@X . . . .a.E.DXDX!.DXCX4 cXcX}.d.d.d.M.f.x.S.,.S.k.k.k.>.>.>.c.T c.x.f.h.n.OXLX,.v f B B B B v v v T ,.,.T S S v B B B B B B =.OXuXkXkXkX%.{.l.S.c.T B B a y y S y y f c.c.T ,.l.d.).@.P p *.*.*.*.*.*.p *.p p p L u u u t t n Y Y t t Y t t u u L L L I L L L L L u t n t t t t t t n u u L L } L } L L L u L u t t n n n n n t u L } a.I.m.W.(.S v v f y y y y S M S a f f B T >.lXT.T.v.[.[.v.v.s.T.lXA.=.S S S y y B B B B T ;.OXd.E.L u u t m n t t t n n n t t t n t t ",
"+ < _ _ < + 1 + + + + + + + + + + + + + + 8 + + 8 + + 8 + + + 8 + 1 1 < < g c i q h h h h h h q q q q i l c b g g 1 1 g + < < < < + + + 1 1 1 1 1 + 1 + + < < < < < < < < g g b b b g g g 1 < < < < 1 1 1 1 < < < < < < 1 < < < < _ _ _ < < DX< < < < < < < < + + + + + + + + + + 1 1 1 1 1 1 1 1 + + + + + + + + + + 1 8 1 < 1 1 1 < D k k 4 4 4 4 4 k 4 k k D D k 2.2./.n.LX;.(.S S 9.>.OXlXlXlX_.A.p.9.;.;.(.W.=Xm.( J.L L u m m m m m J.m m I I O.#.#.}.}.kX/.h , Z , i U U c c l l c c c C c C 8 C C C C 8 8 8 8 8 C C 1 8 8 C 8 8 8 8 + DXu.l !.9XxX'.'.'.'.xXSXrX4 4 kXkXH.a.a.1.a.a.E.DX!.HXDXCXcXcX}.}.}.} } a.H.j.6XW.9.S.>.k.0Xx.x.k.,.T ,.x.M.uXn.{ LXp.T v v B v v =.=.=.=.p.=.=.S S f B B B B v 9.>.f.kX}.}.H.uXOX,.T T T B c.c.a y y y y B B B v S ;.h.).).b.u Y p p p p p Y Y L u u u u u u t t n Y t n u u u L L L L L E.E.E.} } #.p L u u u u u u u u L L } } a.E.E.E.E.} E.} p L u Y t n n n n t u u } a.a.d.=X;.S S y y y a a y y y a a f f T ,.A.T.T.s.[.[.[.[.[.v.s.T._.=.v v f f v B T T T 9.l.h.E.} L u u u u m u u u u t t t n n n t t ",
"1 < < < < + 1 + + + + + + + + + + + + + + + 8 + + + + C + 8 + + + 1 < _ D g b l q h h h h h h h q q q i i c g < < 1 g 1 1 1 + < < + + 8 + + + + + + + + + + + 1 1 < < < < < g g g g g < g 1 < < < < 1 1 1 < _ _ < < + < 1 1 + DX+ DX1 < DX< < < g < < < < < < < + + + + + + + + + 1 1 1 1 1 1 1 1 + + + + + + + + + + 1 8 1 < < 1 < _ k k k 4 k 4 k k k D D D < g D k 4 4 /.n.OXW.;.;.;.LXOXt.t._.OXLX;.S 9.9.9 9 zX=XGXE.L L u n 5.5.m m u I I I I Y O.#.#.}.} /.h , Z G U U U U +Xc c b C C C C b C c 8 c C C C 8 8 8 C 8 1 8 8 C 8 8 8 + CX_ DX!.dXFXxX'.'.'.'.xXSXrXcXcXCXCX/./.V././.DXh q DXDXE.E.a.} #.#.#.*.b.b.a.d.=X;.9.9.S.S.S.k.x.x.>.9.W.f.I.kXuXt.OXp.=.v v v v =.p.p.A.&.A.p.p.=.S v B B T T ,.l.f.kXD.@.@.1.h.W.S v v v T S.S.9.S y S f B B B v S ;.h.D.).b.L L p p p p Y u u u u u u u u u u t t t t u Y L L } } E.E.d.d.d.d.E.E.a.#.} } L L u u L L L } } 1.a.d.h.h.h.d.E.a.} #.} L Y Y t n n n t t u L } a.I.h.l.;.9.a y B B B f y v y v f v T >.lXT.s.v.[.[.[.[.[.7.s.T.lX=.T v v v T ,.S.S.S.W.m.d.} } u u u u I L L I L u u u u u u t u u ",
"8 + < + + 1 1 + + + + + + + + + + + + + + + + + 8 + + + + + + + DX< _ D D D b l q h h h h q q h q q q i i c g < < < < 1 < 1 < < + + + + < < < + + + + 1 8 8 8 8 1 1 1 < < < < g g g < < 1 1 1 < < 1 1 < < _ _ _ < 1 1 DX+ 1 1 + 1 < 1 < < < _ g _ < < < + < + + + + + + + + + + + 1 1 1 1 1 + + + + + + + + + + + + + 1 8 8 < < < < _ k k 4 k k k D D D D g < g b g D 4 cXrXrXkXh.m.=X=XOXt.t.LXLXLXp.=.S 9.S.zX(.W.=Xh.E.L L u n 5.5.n u u L I I I I O.ZX#.#.} E.h , Z G U U U U c Y.Y.8 b 8 C c C C C C C 8 C 8 8 8 8 8 8 1 8 C C 8 DXDXCXcXCX/.!.dXFXxX'.'.xXxXSXrXcXcXCXDX!.q , q q q , , q /.E.E.d.d.bX( d.HX} }.1.I.m.zX9 a 9.v v c.S.k.k.l.W.OXI.D.D.kXuX{.k.,.=.=.=.=.H A._.7.v.v.:Xp.=.S T c.B T ,.l.h.}.D.@.@.@.1.m.;.S S v v ,.x.{.>.9.S S T B T B v 9.l.V.;Xb.b.#.p #.p } L u u t u u u u Y u u t u u n HXu p } } } E.h.m.m.m.m.m.h.h.d.E.a.} } } L L L } } } a.I.d.f.=XW.W.=Xh.d.E.a.} L L Y t n 5.n t t u L } } a.d.m.=XW.9.a B B B B B T 9.T v T ,.lXlXv.7.3.[.[.[.[.[.7.s.R.lX,.=.v T ,.S.>.k.{.{.m.d.a.} L u u u J.L J.L L L L u L u u u u u t ",
"1 + + + + 1 1 + + + + + + + + + + + + + + + 8 + + + + + 8 + + 1 1 1 < D k D g l l h h q q q q q q q i i i l b g < < < < 1 1 + + + + + + 8 + + + + + 8 8 8 8 + + 8 8 1 1 1 1 1 1 g g g g 1 1 1 1 1 1 < _ _ _ _ _ < 1 1 1 + + 1 1 < 1 1 1 < < < _ < < < + < < + + + + + + + + + + + 1 1 1 1 + + + + + + + + + + + + + + 1 8 8 < < < < _ k k k k D D g D g g g 1 1 1 8 8 _ cXD.D.D.}.H.kXkXkXE.uXt.LX=.=.=.,.;.x.m.m.h.d.E.J.L u m u u u J.u L L I m m I I O.#.#.} E.!., Z U c C c c 8 Y.g 8 8 8 C C C 8 C 8 8 8 8 C 8 8 8 8 8 1 8 C c 8 _ cX*.F.*.CX/.dXFXxX'.'.xXxXFX4 _ DXDX!.h , Z Z Z Z q !./.kXV.f.x.AXzXW.l.OXuXH.H.M.l.e a B c.B B T S.k.OXm.h.H.PXPXD.1.V.{.k.,.=.=.=.H &.7.7.v.7.v._.A.p.=.9.S.0Xx.f.V.}.D.@.@.@.@. .bX=X;.(.;.l.{.-X-X{.;.S S 9.T T v 9.l.M.H.;X1.#.#.#.*.#.L u u t t t u u u u t u t u u u u L } } a.E.m.W.W.W.;.W.W.W.W.=Xm.h.E.a.#.} } } #.1.a.d.m.OXl.;.9.(.;.W.=Xh.d.E.E.L L u t n n t t t L L } } a.E.d.m.l.S.S.c.,.S.>.>.>.,.=.=.p.lXT.s.v.[.[.[.[.[.[.s.T.T.A.=.T S 9.k.x.{.f.V.I.I.a.} L u t u u L L L L I L J.u L L L u u u t ",
"1 + + + 1 1 1 1 + + + + + + + + + + + + + + + + C + + C + + 1 1 1 1 < _ D D g c l l q i q q q 0 q i i i i U c b < < < < < + + + + + + + 8 8 8 + + 8 8 8 8 8 + + 8 8 8 1 1 1 1 1 1 1 1 1 1 g 1 1 1 1 _ _ k _ _ < + 1 1 1 + < < < < < < < < < < < < < + < + + + + + + + + + + + + + 1 1 1 + + + + + + + + + + + + + + + 1 8 8 < < < < _ k k k k D < g g g < 1 1 + + 8 C + k cXD.@.@.@.D.@.@.F.kXn.LX(.=.=.=.p.{.M.I.I.a.a.L J.I J.J.u J.u L L m m m I m O.O.ZX#.} DXh , , c 8 8 8 8 Y.8 8 8 8 c C 8 b 8 8 8 C 8 8 8 8 8 8 8 8 1 8 C u.8 CX*.F.F.F.cX/.dXFXxXxXxXxX2./.b DXu.l h G.G.Z Z Z gXDX/.kXV.f.l.:.M a a 9.>.OXM.-X{.S.B B B B c.T c.>.{.M.V.H.PX@.PX;XI.h.OX>.,.T =.p.&.3.7.[.[.[.v.v._.p.=.9.S.x.M.I.;XD.@.! ! ! @.@Xa.bXm.m.f.M.-XwX-X{.>.S v 9.,.S.S.k.f.-XH.I.d.d.E.E.} } L u t t t t t t m u t t t t u u L } #.a.d.h.l.(.(.(.(.9.S S (.(.W.=Xm.d.I.a.a.1.1.H.V.m.W.;.9.T f v S (.;.W.h.d.a.} L u u t n t t t u L L } } a.a.I.M.f.{.x.x.x.k.k.k.>.,.=.p._.T.R.s.s.[.[.[.[.s.s.T.lXp.v v S 9.l.l.OX{.V.H.1.#.} u u u L p } } } L } L L L u L u u t t t ",
"+ + + + 1 1 1 1 + + + + + + + + + + + + 8 + 8 + + + + + + + 1 1 1 8 1 < _ _ g b l l l q q q q q i i i i i i U c b < < < < < 1 1 + + + < + 8 8 + + + 8 8 8 + + < + + + 1 1 8 1 8 g 8 1 1 < < < < < < _ _ k k _ < 1 1 + + < < + _ + < + < + 1 + 1 + + + + + + + + + + + + + + + + + 1 1 1 + + + + + + + + + + + + + + + 1 8 1 < < 1 < _ k k k D D g g g g 1 1 + 8 + C C C + CXcXF.@.@.@.@.@.@.b.E.m.W.;.=.p.LXt.V.rXD.}.1.} L J.J.L J.L L L L m m m m I I O.ZX#.} DXh q i c 1 < + 8 8 8 C 8 C 8 c 8 C 8 C 8 8 8 8 8 8 8 8 8 8 8 c u.u.b CX*.F.F.*.CX!.+X9XFXxXxXFX9X!.q G , , q G.0 0 G , , /.kXV.h.l.S.a B B B T =.p.k.{.k.c.B B B B B T ,.tX-X;XPX@.PXD.H.V.m.l.>.9.T S =.p.3.7.[.[.[.[.v.v._.>.9.c.S.x.M.I.;XD.F.! ).P ).@.@X1.I.I.H.;X;XH.M.x.;.S v T S.k.{.M.-XM.M.f.m.m.m.gXGXHXL L u t t t m t t t n t t u u L L } 1.I.h.=X;.S S v S v S v S S (.(.W.=Xh.I.H.;XH.V.f.W.9.v B B B v T S S (.=Xh.a.} L L u t n n t t n u u L L #.1.;XH.H.-X-XM.{.{.lXk.>.;.=.=.p.lXR.R.R.U.s.s.+Xs.T.lXA.,.v v v a ;.;.;.;.m.I.1.1.} L p L CX#.}.#.} #.#.} L L L u u t n t t ",
"+ + + + + 1 1 1 + + + + + + + + + + + + + + + + 8 + + 8 + + 1 1 1 b 8 < < D g b b c l l l l i i i i i i i i i U c 8 1 < < < + 1 1 + < < + + + + + + 8 8 8 8 + + < < + < + + 1 1 1 1 1 1 < < < < + + _ _ k k _ < + 1 + < < < < + < + + + 1 1 1 + 1 + + + + + + + + + 8 + + + + + + 1 1 1 + + + + + + + + + + + + + + + 1 1 1 < < 1 1 < D k D D < g g g < + + + C C C C C u.DX_ cX}.F.F.).@.@.@.b.E.h.OXOXLXt.5X9XrXSXrXrX1.a.} J.J.u J.m u m J.m m m m I O.ZX#.} DX!.h l b g 1 8 C C C u.C c C C 8 8 8 8 C C C C 8 8 8 8 8 8 8 C u.U b CXcX*.} CXDXl G.dX9XFXFX9XdXh , , gX, , h h l i q h kXI.h.=X;.S f B T c.T T =.,.>.c.v B a a y v T >.M.SXPX@.PXPXI.f.l.;.(.S S S S =.A.7.7.[.[.[.s.s.v.A.,.9.c.c.S.>.x.uXkX}.@.@.! ).@.@.PX@.@.@.PXI.f.l.;.9.v v T >.{.-X-XM.x.>.;.;.;.;.W.=XGX} p u t t t t n n n t t u t u L L } 1.d.=X;.9.9.v v T v v v v v S S S ;.l.M.H.;XH.h.l.(.v v T B c.B v v v (.W.m.E.} } L u n n n t t n n u u L p #.}.;X;XH.-XM.{.k.>.;.,.9.S S =.>.lXR.R.T.s.R.T.T._.p.,.T v T v f v S S (.;.m.d.kX}.}.} CXE.kXkXI.I.a.a.} L L u u n n n n t ",
"< < + + + + 1 1 + + + + + + + + + + + + 8 + 8 + + 8 + + + 1 1 1 1 8 8 1 < < g g b g b c c l i i i i i i U G G G U c b 1 < < + + 1 1 + < < + + 8 8 8 + + + + + + _ _ _ < < + + + + + + 1 1 < < < + 8 < _ k k _ _ < + < < + _ + _ + < + + + + + + < + + + + + + + + + + + + + + + + 1 1 1 + + + + + + + + + + + + + + < 1 1 1 < 1 b 1 < D D D D < g < < < < + 8 C C + C C C C DXDXCXCXcXcXb.).@.).).}.kX%.uXdX9X2.rXrXrXrXrX}.} } I J.J.J.m J.m J.m m m I O.ZX#.} CX/.!.c Y.Y.8 8 C C C u.C C C b C 8 C 8 C c C C 8 8 8 8 8 8 8 u.U U c DXDXDXHXDXU G , +XdX9X9XdX+Xq , q q , q h !.!.h h /.kXV.=X;.(.S v v T T T T =.T 9.v f S S S S S S.{.wXPXPXPXPXH.f.W.(.S S S S S S ,.A.v.v.[.[.v.s.T._.p.=.T B M B T ;.OXh.kXF.@.@.).).@.@.@.@.D.a.m.;.S S v v v T ,.k.-X7Xk.c.f y a S S (.W.gX} *.u t t t m t t t t t t u u L } } a.h.W.S S c.B v S T v a T B a f v S ;.{.-XH.-X{.;.S v T T B c.B B v v S (.m.E.a.} L u t n n t t t t u Y p p } 1.;XH.V.f.x.>.,.9.9.S S y f f ,.>._.lX_._._.lXA.,.T T v f T T v f v S S (.W.h.H.;XrXV.n.n.m.m.m.f.h.d.d.E.L u u n n n u L ",
"< < + + + + + + + + + + + + + + + + + + + + + + + + + 8 + 1 < < < < 1 g < g g g g g g b b c l i i i i U i G U G U U c 1 < < < + 1 1 + < + + 8 8 8 8 + + < + + + _ _ _ _ < < < + + + + + 1 1 < + 1 8 + < _ k _ _ _ < < < < < < + + + + < < < < < + + + + + + + + + 8 + + + + + + + 1 1 1 + + + + + + + + + + + + + < + 1 1 1 < 1 1 b g < < < < g < g < < < + 8 C 8 C C C + C + DXDXDXCXCX} b.).! ).D.D.rX2.rX2.2.2.2.rXrXrXrX}.} } L J.L J.m J.m J.m J.I O.ZX#.#.cXk /.Y.Y.g 8 8 8 C DXu.C C b C 8 8 8 8 C C C c C 8 8 8 8 8 C u.U U C u.U G GXG G G G 0 +X+X+X+Xh 0 q , q q , h !.l h !.kXH.V.l.(.S S S S v v v v v T v v S S S S S ;.k.>X-XH.H.;XH.f.l.9.S a S S S S S ,.A._.s.v.v.s.v._.LX;.S f B B B c.9.;.m.E.#.b.F.F.).).).@.@.D.d.W.S S 9.T ,.,.,.,.S.{.x.S.B B a a S S (.W.gXE.p u t m t t t t t t t t t u L } } d.=X(.S v B B B v v a f f B B B f f v k.M.-X-XOX,.S T 9.B B B c.B B v S (.m.I.a.} L L t n t t t t u Y p *.p L a.I.M.x.l.;.9.S S S a a a B B f T ,.p.p.p.p.,.T v v T B f B T T v v S S S (.x.-XSXH.{.LX;.;.;.;.>.l.OXh.d.E.L L L u u L } ",
"< + + + + < < < < + + + + + + + + + + + + + 8 8 8 + + 1 1 < _ k k _ _ < < < g g g g g g b b c c c c c U U U U G U c c 1 < < < + + 1 + < + 1 1 8 8 8 1 + + + + + + + _ _ _ < < + 1 + + + + 1 + + + 8 1 < _ _ _ _ _ < < < + < + < + + < < < + + + + + + + + + + 8 + + + + + + + + + 1 1 1 < < < < < + + + + + + + + + < + 1 1 1 1 1 1 < < < < 1 1 1 < < < + + + C + C + C C + C C C DXDXDXCXcXb.F.F.D.D.rXrXrX2.2.2.2.2.2.rXrXcXcX} } } } L I m J.m J.I I O.ZX#.#.cXcX4 D Y.Y.b 1 C C u.DXC 8 8 C C C 8 8 8 8 C C C C 8 8 8 c u.U U u.b u.U G G G G G G 0 0 +X+Xh G.q q , q , , h h q h /.rX;XV.l.(.S S S S S f v v S T T 9.9.v v v S S.0Xx.x.x.f.h.f.OX,.T v S S S S S S 9.p._._.v._.t._.p.=.9.S f B B B c.T ;.=Xd.} #.*.#.*.b.).@.@.}.h.W.S S ,.>.lXlXlX>.,.>.S.c.B B B B y (.;.=XGXL L u u t t t m t t t t t t u u } a.gXW.(.S v B c.B f a a B B B B B B f B S.{.M.f.k.9.v 9.T B f B B B v v S (.m.I.a.} L u t t t t n n u Y p p Y L E.d.l.;.9.S y f a a a a B M B B 9.>.>.p.=.=.T T f f a v f v B B f v a S S 9.k.-XwXM.k.,.v v v T 9.,.;.l.m.d.E.} #.#.} HXd.",
"< + 1 + < < _ _ < + + + + + + + + + + + + + + 8 + + + 1 8 < D k 4 k k D _ < g g g g g g g b b b b b b c c U U U c c 8 1 < < + + + + + < < < < < 1 1 1 1 1 1 < < 1 + < _ _ < + + 8 8 + + + + + + + 1 + + < < < < < < _ < < 1 1 1 < < < < + + 1 + + + + + 8 + C 8 + + 8 + + + + + + 1 1 + < < _ + < + + + + + + + + + + + + 1 1 < < < < < < + + + < + + + + + 8 C 8 C C C + C + 8 + 1 1 DXDXCXcXcX}.cXrXrX2.2.4 kX4 kX4 4 4 4 cXcX}.rX}.1.} L J.J.J.m I O.O.ZX#.#.}.cX2.4 Y.Y.b 1 C u.u.u.C C C u.u.u.C 8 8 8 8 C C C 8 8 C c U U U U 8 C u.u.G U G U G 0 G.G.G.q q h q Z , G., q q q !.kX;X;XV.OX;.(.S S S a y v T 9.,.>.>.>.,.T v B c.S.S.9.9.;.l.OXk.,.T v v S (.(.9.;.c.,.A._._.A.A.p.=.S S y B B B B B c.(.=Xd.} #.*.} } }.D.@.@.;XV.l.9.,.>.lXR.VX%.lX>.=.T B B B B B S ;.=Xd.E.L L u u u m t t n n n n t t u u } } =X(.(.S a c.B B a a B B y B B B B B B S.k.x.x.S.9.v T v f f f B B B v S (.m.E.a.} L u t t t t t n u Y Y Y L L E.h.;.S a a y y a a B B B B e B S.x.{.OX,.T c.B B a y f v f v f v B f f f v >.>X7XtXS.T B B B B B T T ,.l.h.I.1.}.1.I.m.=X",
"+ + < < _ _ _ _ < + + + + + + + + + + + + + 8 8 1 + + 1 8 < _ k 4 4 k k D _ < < < < < < 1 b b g g g g g b b c b b 8 1 1 < < + + + + < < _ < < < 1 1 1 1 < < < < < 1 < < + < + + 1 + + < + + + + + 1 + + < < < < < < < < < < < < < < < < 1 1 + < < < + + + 8 8 8 8 + + + + + + + + 1 1 1 + < < + < < + + + + + + 1 1 1 + 1 1 < < 1 < < < < < + + + + + + + 8 8 8 8 + 8 8 8 8 + 8 + + 1 g DXDX_ CXCXcX2.2.2.4 kX4 4 4 4 4 k 4 4 4 cXrXrX}.} } L L I I O.O.O.O.#.#.}.}.cX4 /.!.c b C C u.u.u.U U U U u.C C 8 8 8 8 8 8 8 b 8 c U U U U c C C u.u.U U G G , , , q q , q , G.G.G.G.h !./.4 rXD.SXH.h.=X;.S S a a a T ,.k.lX{.{.lXk.,.T B B B a S 9.(.;.>.>.S.c.T 9.;.;.l.l.hXS.S.,.,.,.,.T S S S v a B B B B B 9.;.=XE.#.b.*.} } 1.}.;XrX;X-Xx.p.A.lXT.R.R.T.T.lX,.v B B B B c.;.=Xd.a.#.L u u u t u t t t t n n t u Y p #.} =X(.(.S S B B f a a a f f B B c.B B B B S.>.S.9.S v v f f & B & B f v S ;.m.E.} } L L u t u t t t u Y Y Y u L d.m.(.S M M a y y B B B e B B M >.f.M.{.;.9.c.B B M a a f B f f f f f f f T S.tX>XS.c.B B B B B B c.v v ;.OXV.H.;XI.h.W.(.",
"1 + < _ _ _ _ _ _ + + + + + + + + + + + + + 8 8 1 + < 1 1 < _ k 4 4 k k k _ _ < 1 1 < < 1 1 g g g < < < g g 1 1 1 < < 1 1 + 1 + + + + < < < g b b c c b b g g < < < < < < 1 1 1 + + + + + + + + + + 1 + < < < _ < < < < < < < < < < < < 1 8 1 1 < < < + + + + 8 + + 8 + + + + + + 1 1 1 1 + + + + + < < + + 1 8 8 8 8 1 1 1 1 < < < < < + + + + 8 1 1 + + + + + + + + + + 8 1 8 1 1 1 1 1 DXDXDX_ k 4 2.4 2.4 4 4 4 4 4 4 4 4 4 4 2.cXrXcX} } } a.O.O.O.O.ZXZX#.b.}.}.kX/.!.l c C C C C u.U U G U u.C C 8 8 8 8 8 8 8 8 8 b c c c c b 8 C C u.u.U U i 0 , , q i G G 0 G.h +X!./.4 cXcX}.D.D.;XkXh.=X;.9.a c.T =.A._.T.T.R.T._.p.=.v f f y S M S 9.,.0X0Xk.k.x.x.{.x.l.hXS.c.T T T v v 9.,.9.v f y y a a 9.W.=Xh.J.p *.#.E.d.h.h.f.f.f.{.k.p._.T.s.s.v.v.T.lX,.T c.S.S.0Xx.m.h.E.L L u t u t u t m n t n n n t t t u } E.gXW.(.S S B B B B B M B B B B B B B c.T T 9.T v S a f f B B B B B B S (.=Xh.E.} L u u t t t u m u Y Y Y u u E.d.OX9.S S S a f B B B B B B a S W.f.-XV.l.,.T B B a a y y y y a a a a f v T >.tXtXc.B B B B B a B B f v T ,.{.-X-Xf.l.9.S ",
"+ + < _ _ _ _ _ < + + + + + + + + + + + + + + 8 1 + < 1 1 g < D k 4 4 k k D _ < 1 + + < 1 1 1 1 < < < < < < g g < < < < + + 1 + + + < < 1 b b c l l l l c c b b g g g g 1 1 1 1 + + + + + + + + + + 1 1 1 < < < < < < < g g g g < g < < 1 1 1 1 1 + < < + + + + + + + + + + + + + 1 1 1 < 1 1 1 1 + < < < + + 1 8 8 8 1 1 1 + + < 1 1 1 + + 8 8 8 8 1 + + < < + < < < + 1 + 1 1 1 1 1 + + + C C < D 4 4 2.4 4 2.4 4 4 2.4 4 4 4 4 2.4 2.cXcXcX} } } } O.O.O.ZXZX#.b.}.kX/.!.h l c 8 8 C u.U G U u.C 8 8 8 8 8 1 8 8 8 8 8 1 b b c b b b b b c u.u.u.q q q , i U U G i h dX/.9X2.cX}.}.}.}.}.H.kXh.=X;.9.T c.T p._.v.v.s.s.T._.A.=.v v y y a S S v T S.tX>X-X-X-XM.x.>.S.c.c.B f f f a S.k.>.9.v y y 9 ;.l.m.d.E.p ZX#.#.d.m.W.W.W.>.>.>.p.A._.v.s.v.7.v.v._.,.T S.0Xx.{.M.V.kX} L n n t t u u t t t t t t n t t n u } a.GXW.;.(.S f B B y B B e B B B f v T T 9.v S v y f f y & & B B B B f S (.m.d.a.} L u t t u t t u u Y Y Y u u L d.OX9.S S 9.S B B B B B B B S S W.f.H.H.{.>.T v B a y y y y y a a y a v v ,.k.{.tXc.B B B y y y a B B B T T x.>X>Xk.9.T v ",
"< < < < _ + < + + + + + + + + + + + + + + 1 8 1 1 1 < 1 1 g < D k k k k k _ _ + 1 + + + + 1 1 1 1 < < 1 1 1 1 1 < < _ < + + 1 + + + < < b c l l i i i i i l l c b g g g g g 1 < + 1 1 1 1 + + + + + 1 1 1 < < < < < g g g g b b g g g g g < 1 1 1 1 + + < _ < _ + 8 + + + + + + + 1 1 1 < < < 1 1 + < < < < + 1 8 8 8 1 + + + + 1 1 1 1 1 8 C 8 8 + + + < < < < Y.< < Y.< Y.+ 1 1 1 + + _ + 8 8 < k 4 4 4 4 4 4 4 4 2.4 2.4 4 4 4 4 4 4 cX2.cXcX} } } } O.ZXO.ZX#.b.}.} /.h q l b 8 + 8 C u.U U u.8 8 8 8 C 8 1 8 8 8 1 1 1 b c c c b b Y.Y.b b DXl q q , i U u.u.U l Y.2.2.rXrX}.}.}.}.I.V.d.h.OXW.9.a B c.,.p._.7.7.v.v.s._.A.=.v v S S S S 9.T v c.x.-XPXPX;XM.k.c.B a B f f B a 9.>.{.x.l.(.9.(.W.=Xh.E.a.#.p p #.E.m.W.(.S =.S =.=.,._.lXv.7.[.v.v.v.A.,.c.S.3X{.M.V.H.}.} u 5.n t t t t t t t n t t t t t u L } } d.m.l.;.9.v B B B & B B B T v v v =.=.=.9.=.S v f f f B B B B B B f S ;.h.a.#.*.L u u t t t m u u Y p L t u L d.m.;.S S S 9.c.c.c.B c.B f S (.=XV.;XPXV.OX;.v f y y y y y a y y S S S 9.l.{.M.x.c.B B y y y y y a B c.T T k.tXk.S.T T T ",
"< _ < + + + 1 + + + + + + + + + + + + + + + 8 1 1 < < g 1 g g < _ k k k k _ < + 8 + + + + 1 1 1 1 1 1 1 1 1 b 1 < < < < + + + + + 1 1 1 c l l i i 0 0 q i i l l b b b b g g g < < < 1 1 1 + + + + + 1 1 1 1 g g < g g b b c c c b b b g g < < < < 1 1 1 + + + < + + + + + + + + + 1 1 < < < < < 1 1 1 < < + + + + + + + + + + + + 1 1 + + + + + + + < < < < g g 1 g < g < < Y.< < < < < _ < g g D k k CXk k k k k k k k 4 4 2.4 2.4 4 4 4 2.kXcXcXkX} } } #.ZX#.ZX1.b.1./.h q l b 8 + 8 8 u.u.u.C 8 1 8 C C 8 8 8 8 8 1 1 b c U i i U l !.Y.g g b l G Z G G U u.c b D 2.rXcXcX}.}.}.kXd.m.OXl.W.;.S v B B B ,.A.v.v.[.v.v.v._.p.=.v a a y S S 9.S S 9.6XH.PXPX;Xf.>.T B B a y a M 9.9.l.V.V.h.m.=Xm.h.( a.1.b.b.p #.a.h.W.(.S v S S S ,.,.lXT.v.7.v.v.v._.p.T T c.S.hXx.m.d.} } u m m m m t t u t m t t t t t u Y L } #.a.d.h.m.l.S.c.c.B f B T T =.=.=.=.p.A.A.A.>.,.=.v f B B B & B B f v (.W.d.a.} L u n n t t t u m u L Y Y u u L E.h.W.9.S S v T T T v B f y S W.h.H.PXPXH.M.l.S a a B a y y y y y y S (.W.{.M.M.x.9.a a a f v v v a B T T v >.k.>.,.T T v ",
"< < + 1 8 8 1 + + + + + + + + + + + + + + + 1 1 1 1 1 1 1 g g < < _ _ D _ < < 1 8 8 + + + 8 8 8 1 1 1 1 8 1 1 1 1 < 1 1 + + < < 1 1 1 b l i q q q q q q q q i i l l c c b g g < < < < < 1 + + + + + 1 1 1 1 g g g b b c l l l l l l !.c b b 1 g 1 < < 1 1 + + + + + + + + + + + + 1 1 < < _ < < < 1 1 1 1 + + + + + + + + + + + + + + + + + + < < < _ _ _ < < < < < g < < < < < + < + < < Y.g g D k k _ _ _ _ _ _ D D k k 4 2.2.2.4 4 4 4 4 2.2.2.cXcX} } } #.#.#.#.b.1./.!.h l b 8 8 8 8 8 C C 8 8 8 8 8 8 8 8 8 8 8 1 8 c U G G G 0 l !.Y.Y.b c i Z Z G U u.8 g D 4 cXcXcXCX*.}.I.h.x.;.S.c.T T B B B B B T A.v.v.v.v.v._.A.p.T f y y f v S 9.S (.W.bX;X@.@.;XOX,.B B a a y a S S (.OXH.H.H.a.I.a.#.b.).).b.*.p } d.=X;.S v v S S S T ,.k.lX_._._.v._.A.=.T B B e 9.;.=Xn.E.} L m m m t t t t t t t t t t u u u L } #.1.H.H.-X-Xf.x.k.0XB v T =.p.p.A.3._._._._._.A.p.=.v v B B & B f f 9.W.m.d.a.} L u t t t t t u m u I Y u u u L E.d.OX;.9.v T v v v f S S 9.;.=XV.D.@.@.D.H.bXAX9.M a v v v f f y S (.;.m.M.V.M.l.9.a a f v v v f v v v v =.>.>.p.,.,.T v ",
"_ < + 1 8 1 + + + + + + + + + + + + + + + + + 1 1 1 1 1 g g < g < < < < < < 1 1 8 + + + + 8 8 8 1 1 1 1 1 1 1 1 < 1 1 1 1 + < < 1 1 8 b l q h q q q q q q q q q q i l l c b b g g < < < + + + + + + 1 1 1 g g b b c l l i i i i i h l l l l c c b 1 1 < < + + + + + + + + + + + + 1 1 < < < _ < < < 1 1 1 1 + + + + + + + + + + + + < < + + + + < _ _ _ k D k D D D D D D D < < + + 8 1 g < Y.D D k k _ DX+ < < _ < _ _ D k 4 4 4 2.4 4 4 4 4 2.2.rXkXcXcX} #.#.#.#.}.1.E.!.h l b 8 C C 8 8 8 8 8 8 8 8 8 8 8 8 8 8 8 b 8 c U G Z G G l c Y.b c i , Z , i b < _ k 4 4 CXCXCXL #.a.d.OX;.a B B f B B B B B B T p.A._._._._.A.p.=.S y y y f B v S (.W.m.a.).@.@.H.OX9.v B a a y y S (.;.m.}.D.D.).).).).! @.).b.*.*.L h.=X;.,.9.9.M (.S T c.>.A._._._._.p.=.v f B B a S ;.=Xh.E.} Y m m n n t t t u t u t u u u u u L L } a.H.H.H.wX-XM.{.k.9.=.p.p.A._.v.v.v.v.v.v.T.lXA.p.T T B B f B B c.>.x.d.I.} L u t t t t t t t J.u u L u t u L } I.h.OXl.;.,.9.9.9.(.;.;.W.=Xh.1.D.@.@.@.@XH.bX=XW.;.;.9.;.9.9.;.W.W.=Xh.I.I.d.m.;.S f f v v v v v v T =.,.>.>.,.,.,.T T ",
"< + < + + + + + + + + + + + + + + + + + + + + + 1 1 1 g g g g < g < < < 1 1 8 8 8 + + + 8 8 8 8 8 1 1 1 1 < < < < 1 1 1 1 + < < + 1 8 b l q q h h q q q q q q q 0 0 q l l c c b g g < < + + + + + + 1 1 1 g g b c l i i i 0 0 0 q q h i i i U U c c b 1 1 1 < < + + + + + + + + + 1 1 < < < _ D _ _ < 1 1 1 + + + + + + + + + + + < _ _ < < < < < _ _ D k k k k k 4 k k k _ _ < + 8 C 8 1 < D D k k _ _ + 1 g g g g < < _ D k k 4 k 4 k 4 4 2.2.2.2.2.cXcXcX} #.#.}.1.1.E.!.h l c C C C 8 1 + 1 8 C C C 8 8 C C C c C b c c U i G G G U U c u.U G 0 G.!./.D 4 cXcXcXCXDXCXp p #.E.m.W.9.v B B y a a B a B c.T =.p.p.A.p.p.=.T T v S a B B B T (.W.m.a.b.@.! @.}.m.;.T f a a a S (.;.=Xd.}.).@.@.@.! @.! ! F.*.*.*.L GXm.OXk.k.k.S.S.9.v T T ,.>.>.>.>.=.v v f B B v S W.m.d.} L u n n n t n t t t t m u u u u L p L E.E.d.d.M.M.f.{.x.k.>.=.p.A._.v.s.s.s.[.[.v.v.s.T.lXA.,.T T f f a S.k.{.M.I.1.} L u n n t t t u m u m u I u u t L } 1.I.M.f.x.OXl.l.l.l.=Xm.h.d.E.}.F.@.@.@.@.@X1.j.h.m.m.{.m.{.m.m.h.h.d.E.} a.E.h.=X(.S f f v v v v v =.p.A.A.A.p.p.p.p.,.",
"+ < + < < < < < + + + + + + + + + + + + + + + + 1 1 1 g < < < < < < g 1 1 8 8 8 + 8 + + 8 8 8 8 8 8 + 1 1 < < < < < 1 1 1 1 < < + 1 8 b l q h q h h q q q q q q q q q q l l l l c b g < + + + + + + 1 1 1 1 1 b l i i i i q q q q q q q 0 i G i i U c c b 1 1 < 1 1 1 1 + + + 1 1 1 1 g < _ D k k k _ < 1 1 < < < + + + 8 8 + + < _ _ _ _ _ _ < < < _ _ D k k k 4 k 4 k k k _ _ + + 8 8 + _ D k k D _ < 1 g g g g g < < < < D D D k k k 4 4 4 2.4 2.2.2.rXcXcXcX}.}.}.kX/.!.!.l c u.C C C 1 1 1 C u.U u.c C u.c 8 8 C c u.c U i i G G G U U G G i 0 dX9X2.2.rXcXcXCXu HXL *.*.} d.=X;.S v B a y y y y y 9.S.,.T =.=.=.T T T v a S S v B B B :.=Xh.a. .! ! ! ! }.uXOX;.9.a e 9.S.l.m.h.E.}.b.F.! ! ! ! ! ! F.b.*.p L E.d.M.M.M.>Xx.>.9.v v v T ,.S.S.;.S f f a v S S ;.m.d.a.} L u n 5.n n t t t u t u u u u L p *.E.GXgX=X=XW.W.;.,.,.=.=.=.LXT.R.s.s.[.[.[.[.[.[.s.s.R.lXA.=.v f f y S.k.{.M.I.1.} } u n n n n t u u u J.u u Y u t u L #.1.I.I.V.M.M.f.M.d.d.d.E.a.} *.}.F.@.@.@.).@.b.1.1.H.kXkXkXkXI.E.a.} O.L L E.E.m.W.9.f f f v v =.=.p._.lX_.A.A.A._.lX>.",
"+ + < < < + + + + + + + + + + + + + + + < < < 1 1 1 1 < < D g D < < < g 1 8 8 8 8 + + + + + 8 + 8 8 1 1 1 1 1 + < < + 1 1 1 + + + 1 1 b l l h h h h h h h h h q q q q q q i i i l c g g 1 + + + + + 1 1 1 1 b b U G i i q q h h h h h q h i i i G i G U c c b 1 < < 1 < 1 1 < 1 1 1 1 g g < k k 4 k k _ < < _ < < < 1 1 1 1 1 < _ _ k k k k _ _ < < < < D D D D k k k 4 k k k k _ _ _ _ _ _ k k D D _ < 1 g b b g g < < < 1 g g < _ _ k k 4 4 4 4 2.4 2.4 cXcX}.}.}.}.rX/.!.!.h c u.u.u.u.C 8 b c i i U l U U U 8 8 c c c l l q 0 , , G G G G G U Y.9XFXrXrXrXcXCXL L L *.*.#.#.d.=X;.S v v v y a S S 9.;.l.,.v v v f B T c.9.9.9.9.S 9.9.;.x.j.1.).! ! ! F.F.}.}.V.m.l.W.l.x.f.V.I.1.}.b.*.b.F.F.! ! ! ! ! P *.Y Y } a.I.-X-X-X{.S.T v v v v 9.;.;.;.e S f v S S ;.=Xd.1.}.} L L u t n t n n t t t u u u u L L E.GX=XW.(.(.(.=.9.9.=.S =.p.t.R.R.s.[.[.[.[.[.[.[.7.U.R.T.k.T v f f a a 9.S.l.m.d.E.} L u t t Y t Y u I u m u u u t u L E.} a.a.I.I.I.H.H.H.1.a.} } } } cXb.F.F.! ! ! @.@.).D.D.D.rXrXkXa.} O.L L } a.a.d.x.;.9.f v v T ,.p._.lXT.v.7.7._.T.R.lX",
"+ + + + < + + + + + + + + + + + + 1 1 1 1 < 1 1 1 1 1 < < < < < g 1 < < + 8 8 8 8 8 + + + + + + + + + + + + + + + + 1 1 1 1 + + + 1 1 g b c l h h h q h h q q 0 q q q q q q q q 0 l b g 1 + + + + + + 1 1 1 1 b c i i 0 0 q h h h h q q q q q q q 0 i i i l c b < _ _ _ < < < g 1 b b b l b D k 4 4 k k k k k k _ < < g g g < _ D k k 4 k k k k k D D < < D D D k 4 k 4 k k k k k _ k _ _ _ k k k D _ < 1 g g g g g 1 + + 1 g g g < _ _ D D k k 4 4 4 4 4 2.4 2.rXrXrXrX/.!.h l c c C u.U u.c l i 0 i h l i G G u.U U l l l h h h G.G.0 , Z G c g 2.rXrXrXrXkXkX} } #.} #.#.p #.E.m.;.S =.T S S (.(.W.OXx.;.9.S f f f B T 9.;.l.m.x.l.m.h.j.a.b.b.! ! ! P F.*.}.}.a.I.d.bXd.I.H.;X;XD.F.F.F.P F.P F.! ! ! ! P *.Y u L } a.H.I.f.l.9.v T T v S (.W.=X=XW.(.S S (.;.=Xd.1.).b.*.L L u u t t n t t u t t u u I L ( GX=X;.(.9.S v v T 9.T =.=.lXR.R.s.[.[.[.[.[.[.[.[.[.s.R.T.k.T f B B f B B e 9.W.m.d.E.#.L u u t t u u u u u u u u t u u L } } } a.} a.a.} 1.}.}.}.1.}.}.}.D.@.).! ! ! ! ! @.@.@.D.D.}.kX} } } #.} } kXI.V.f.hXc.a f v ,.A.lXv.7.7.7.7.7.7.s.R.T.",
"+ + + + + + + + + + + + + + + + + 1 1 1 1 1 1 1 1 1 1 1 < < 1 1 1 1 < < < 8 8 C C 8 + + 8 + + 8 + + + + + + + + + + + 1 1 1 1 1 1 1 1 g g b b l h q q h q q 0 , q q G.q q q q q 0 h !.b 1 + + + + + + 1 1 1 < 1 b l i 0 0 0 q h h h q q q h q q q q q i i l l l < D D D D < g g b c l l i l g D 4 4 4 k k k k k k D D < g g D D k k 4 4 4 4 4 4 k k D D D D D k k k k k 4 4 k k k k k k k k k k k _ _ < 1 1 1 < < < 1 1 + 1 1 < < 1 1 < < _ D k k k 4 4 4 4 4 2.rXrXrXrX2./.!.!.b b 8 c U U U l q q h h h 0 0 G i G i l !.h n.5X5X5XuXuXh q !.D 2.rXrXrXV.kXkXkX} #.b.1.#.#.*.*.E.h.=X;.,.,.;.;.W.=Xm.h.m.;.S a B B B B 9.(.W.h.V.V.d.I.a.b.! ! P ! ! ! ! F.*.*.#.1.1.a.1.;X;XD.D.).).).F.! ! ! ! F.! ! ! ! z p t t u L } a.I.m.;.S v T T T (.W.=Xh.bXh.m.l.l.OXm.d.1.).! P p L u u u u t t m t t m t u u J.J.GX=X(.S S a B f B B T v =.p.R.R.s.[.[.[.[.[.[.[.[.[.[.v.T.lX>.T f B B f B B f S (.W.m.d.1.} L u u u t u u u I u u u u u u L u L L L } } } } }.b.D.D.D.}.D.D.).@.! ! ! ! P ! ).@.@.D.D.cXcX} } E.kXkXV.d.f.{.x.S.c.f f T ,.lXT.s.[.[.[.[.[.[.v.R.R.",
"+ + < + + + + + + + + + + + + + + 1 1 1 1 1 1 1 1 1 1 1 1 1 1 1 8 8 + < < 1 8 8 8 8 8 8 + 8 + + + + + + + + + + + + + + 1 1 1 1 1 1 1 1 g g b c l i q 0 q q q h h h h q h h h q 0 q l b 1 + + + + + + + + 1 < g g b l i 0 , 0 q h h q q h h h h q q q q q i i l b g D D D < g c l i i i q l b /.k 4 4 4 4 k k k k k D D < g D k k k k k 4 k 4 4 4 4 k D D k D k D D D k k k 4 k 4 4 4 4 k k k k D < < 1 1 1 1 < 1 1 1 1 + + 1 1 1 1 g < < < _ D D D k k 4 4 4 2.2.rXrXrX2.2.D D g g b c U c c l h h q 0 0 i 0 0 , 0 h !.uXn.t.m.t.5X%.%.uXdX2.rXrXrXkX%.5Xh.V.kXa.#.b.#.#.p Y *.#.E.h.m.l.l.l.=Xh.V.I.V.f.;.S M c.c.B v v ;.=Xd.H.;X;Xb.b.! ! P ! P ! ! F.b.b.*.#.#.#.b.1.).).@.@.@.@.).! ! ! ! ! ! ! ! ! ! z Y n n t L L } d.m.W.=.S =.=.=.;.=Xh.E.1.a.H.I.-XI.H.}.).! F.z Y u u u u u u t t t t t n u u HX( m.;.(.S y B B B B y y v =.A.JXR.v.[.[.[.[.[.[.[.[.[.v.v._.A.,.f f f B f & B f y S (.l.h.E.} } u t u t t u u u u u u t t t t t u u u L L L *.F.@.@.@.@.@.@.).).).! ! ! ! P P P ).@.@.D.}.cX} kXE.h.h.OXl.;.9.9.M a f f T >.lXT.s.s.[.[.[.[.[.[.R.T.",
"+ + + + + + + + + 8 + + + + + + + 1 1 1 1 1 1 1 1 1 1 1 1 1 1 1 8 1 + < < + 1 8 1 + 1 8 8 + + + 8 + + + + + + + + + + + + + + + 1 1 1 1 < g g b c l l q q q h h h h h q h h h q 0 q l c 1 + + + + + + + + 1 < < g g c l i 0 0 0 q q q q h q h q h l q i q i 0 i l b g D D < b l i , , , 0 h l b /.D k 4 4 k k k k k D < g g D k k 4 k 4 k 4 4 4 4 k 4 k 4 k 4 k D D D k k k k 4 4 4 4 k k k D _ < g 1 g 8 1 1 < 1 < + 1 + + 1 1 1 < 1 1 < < < < _ D k k 4 4 4 2.9X2.rXrXrXrX2.4 D g c l U c c !.!.h 0 , , i i 0 , G.n.n.OXLX;.;.W.LXOX5X-XFXSXrXkXuXOXl.;.W.OXh.E.#.*.*.p Y Y Y p } E.d.h.V.I.I.I.H.H.I.f.>.T B B c.c.T =.;.m.I.;XD.@.@.@.! ! ! P ! ! ! ! F.b.*.p p #.b.b.).@.@.@.@.! ! ! ! @.! ! @.! ! ! z *.Y t t u L L E.d.m.W.(.(.;.l.OXm.d.E.a.a.a.1.;X;XD.@.@.@.! ! P p Y t t u Y u u t t t n u u L E.d.=X(.S S & f B B y & f T =.p.R.R.v.[.[.[.[.[.[.[.[.[.v._.A.,.T f B f v v f f B a f S ;.=Xd.} } L u t n t t t u u t t t n n n n n n u u L } *.F.@.@.@.@.@.! ).! ! ! ! ! P ! ! ! @.@.@.D.}.1.kXd.m.=XW.;.9.v f f a B B B T >.lXT.v.[.[.[.[.[.[.[.R.T.",
"+ + + + 8 + + + + + + + + + + + + 1 1 1 1 1 1 1 1 1 1 1 1 1 1 1 + < < < < + 1 1 + + + 8 8 + 8 + + + + + + + + + + + + + + + + + + + 1 1 < g g g b b c l l h h h h q q q q h q q q i l b 1 + + + + + + + + 1 1 < g g b c l l i q q q q q q q q q q q i q i i i 0 i l b D D D g l i 0 , 0 q q h l !.g D k 4 k k k k k D < g g < D k k k 4 4 4 4 k 4 4 4 4 k 4 k 4 D D k D k 4 k 4 k 4 4 4 D _ D < < g g 1 g 1 < 1 1 + 1 1 + + 1 1 1 1 1 1 < < 1 1 < _ D k k 4 4 D 2.2.2.2.rXrXrX2.4 D b l i i l l h q i i i i i h h uXn.OXW.(.S S (.S ,.lXVXwXwX%.{.l.;.9.9.9.;.=Xd.} *.p Y Y Y Y i.p O.a.E.1.1.;XH.I.V.f.x.>.>.S.c.S.>.>.>.k.f.I.;XD.D.).).@.! ! ! ! ! ! @.F.*.p p p p *.b.).@.@.@.@.! @.! @.! ! @.! ! ! P *.Y t t t t u L L E.d.h.m.m.m.h.d.E.E.} L } } 1.D.@.@.@.@.! ! ! P i.Y t n t t t t t t n t u L } E.d.m.(.S S f & f a f & f T T >.T.T.7.7.[.[.[.[.[.[.[.s.v._.p.=.v f B v v v f y a B v S (.W.h.E.L L Y t n n t t t t t t n n n 5.n n n u L L } *.F.).@.! ! ! ! ! P P P P ! ! ! ! ! F.D.}.kXV.V.h.m.W.(.S S a f y a y y B B T >.lXT.v.`.[.[.[.[.[.R.R.lX",
"+ + + + + + 8 + + 8 + + + + + + + 1 1 1 1 1 1 1 1 1 1 1 1 1 1 1 < _ _ _ < + 1 + + + + 1 + + + + 8 + + + + + + + + + + + + + + + + + + + 1 g < g g g b b l l l h q q 0 0 q q q i i l c b 1 + + + + + + + + 1 1 1 g g g g b b c l h q q q q q q i q i q i i i , G G i b < D D g b l l i l l l l l !.b g D k k k 4 4 k D < g g g < D k k 4 k 4 4 4 k 4 4 4 4 4 4 4 k 4 k 4 4 k 4 4 4 4 k k D < < g g < < < < < 1 1 < 1 < + 1 + + 1 1 1 1 1 + + + 1 1 < _ D D k D 4 2.2.2.2.2.rXrXrX2.4 D g l q 0 0 0 i i l c l l !.!.uXt.LX(.S v S S v v >.{.VX>Xx.>.9.S 9.9.S (.l.d.} p Y Y Y t i.p p O.O.p #.b.1.I.h.m.l.;.S.k.tXS.0Xk.k.k.x.f.-XH.}.}.}.).).@.! ! ! ! ! ! F.*.p Y Y p p *.b.F.).).).! ! ! ! ).! ! ).F.b.*.Y u t n n n u u L } a.a.I.I.I.kXa.} } L } } #.b.).@.@.@.! ! ! ! P *.Y t n n n n t n n n n u L } a.V.m.(.S S f f B B f & f B T ,.lXT.v.7.7.[.[.[.[.s.s.v._.A.=.v v B B f v v f y a B T T S ;.m.d.E.L u n n n n t t t t n n n n 5.5.n t u u L L } *.b.F.! ! ! P ! ! P P P ! ! ! @.).}.kXd.n.m.m.=XW.9.a a a a B B a y f f B T S.k.lXv.v.[.v.s.s.R.R.R.k.",
"+ + + + 1 + + + + + + + + + + + + 1 1 1 1 1 1 1 1 + + + + + + + _ _ _ _ _ < 1 1 1 + + + 8 + 8 + + + + + + + + + + + + + + + + + + + + + 1 < g g g g g g b b l l h q q 0 0 i i i l c b g 1 + + + + + + + + 1 1 1 1 1 g < g g b b l l h i q q i i i i 0 i i i i i G i c g D k D D g b b b /./.b !.b !.g g D D D k k k k _ < g 1 1 < _ D k 4 4 4 k 4 4 k 4 4 4 4 4 4 4 4 4 4 4 4 4 k 4 4 D D g g g g < < < < < < 1 < 1 + 1 1 + + + + 1 1 + + + + + + < < < < D D k 4 4 4 2.2.2.rXrXrX2.2.4 !.h 0 Z Z i c b b c l h h 5XOX;.S f B B B f v ,.k.tXtXS.9.v S 9.9.=.S W.d.} p Y Y Y Y p ZXZXZXp *.*.#.I.m.l.W.;.9.T S.k.k.k.0X>.S.S.k.f.V.}.cX}.D.D.@.@.@.@.).F.F.F.*.p Y Y Y L p p *.*.F.F.F.! ).).F.).F.F.b.*.p u u t n n n t n u L } } 1.a.} } } } L p *.b.F.).@.@.! ! ! ! ! P *.p u t n n n n n n n n n t L } } I.f.;.S v v B B B B B B B c.,.>.lXT.v.`.`.v.v.v.R.T._.A.=.=.T B f B f f f a a M B T T =.p.m.d.E.L t n n n n t t t t n n n 5.n n n n t u u u L L p *.F.F.F.! ! ! ! P P P ! ! @.D.kXn.=XW.W.x.W.e a M B B B B a a f f v v T c.S.k.lXT.R.9XJX9XR.T._.,.",
"+ + + + + + + 8 + 8 + + + + + + + 1 1 1 + + + + + + + + + + + < _ _ k _ _ < + 1 1 + + + + + + + + + + + + + + + + + + + + + + + + + + + < < 1 g g g < g g g b c l l l i i i i l c b g g 1 + + + + + + + + 1 1 1 1 g < < < < g b b c l l l l l i i G i G i i i i G i c g D k k k D D /.D k k D D /.g /.g g D < D k k _ D _ < 1 8 8 + < D k 4 4 4 k 4 4 4 4 4 4 4 4 4 4 4 4 4 4 4 4 4 4 k D D D < g < g < < g < g 1 1 < 1 + 1 + + + + + + + + + < + + + 1 < < D D 4 4 4 2.2.2.2.2.rXrXrXrX2./.!., , i c g g b l q G.t.LX=.v f B c.c.B v T ,.>.>.,.T v v T 9.9.W.m.E.} *.Y Y t Y ZXZX#.#.p ZX*.a.h.l.;.9.T T T c.S.0XS.c.T v f T l.M.}.cX}.}.D.;XD.D.@.).F.b.*.*.p p L L L u L L p *.*.F.F.b.F.b.F.b.b.*.p L u u t t n n t n n u L } } } L L L L *.b.F.! @.@.! ).! ! ! P P *.p L u u t n n n n n n n n n t } } kXh.;.(.v v T B B B B B B B c.,.k.lXlX_.v.T.T.T.T.lXA.=.=.v T B B f f a y a M c.T B T T p.f.I.E.L u n n n n n t t t n n n n n n n n t n t t u u L *.F.).).@.).! ! ! ! ! P @.@.}.h.W.(.S 9.x.S.M a B B B B a B S S S v T T T T c.k.lXR.%.R.T.lXA.=.v ",
"+ 1 + + + + + + + + + + + + + + + 1 1 + + + + + + + + + + + + + _ _ k k _ _ < 1 1 1 + + + + + + + + + + + + + + + + + + + + + + + + + + < < 1 1 8 8 g < < g g g b b c c l c c c b b g < 1 + + + + + + + + 1 1 1 < < < < g g g g b g b b b b c c l U U U U U U U i l b g D k 4 4 4 k 4 4 4 4 4 4 k k D D D D g < D D _ _ _ < 1 1 8 1 < _ k 4 4 4 4 4 4 4 4 4 4 4 4 4 4 4 kX4 4 kX4 4 4 4 4 k D D < g g g g g < < < < 1 1 < 1 + + + + + + + Y.+ < + + 8 8 1 < < D k 4 4 2.2.2.2.2.4 2.rXrXrX2./.!.!.b g g Y.l 0 G.G.t.l.=.v B B B c.v v =.=.p.>.S.c.T v v 9.W.f.V.a.}.*.p Y Y O.#. .#.#.p L #.E.m.;.T T =.=.,.T T c.T v v f f 9.l.d.}.}.}.1.I.V.V.kX}.D.b.*.p p p } L L L u u t u Y *.*.*.*.*.*.*.*.*.L L u u u u t n t t n m u u L p L L u L *.F.! ! @.F.F.F.! ! ! F.z *.L L L u u t n n n 5.5.n n n n t L } a.d.l.;.=.v v v f B B B B B T T =.,.A.lXlXlXlXlX>.,.=.=.T T T B f B a a y y a c.c.T T ,.k.-XH.a.L u t n n n t t t t t n t t m m n n n n n n t u L } }.D.D.D.D.D.D.@.@.@.@.@.D.H.m.(.S S S.r.0Xc.B B B B B B S S S (.,.S.S.c.c.c.T ,.,.,.>.p.>.p.=.S ",
"1 1 + < < < + + + + + + + + + + + 1 1 + + + + + + + + + + + + + < _ _ k k _ < 1 1 1 < < + 1 + 1 1 1 1 1 1 1 1 1 1 1 + + + + + + + + + + < < + 1 8 8 1 < < < < g g b b b b b b b 1 1 1 1 + + + + + + + + + 1 1 1 < < < < g g g g g g g g g g g b b b c c c c c c c c g D k k 4 4 4 4 4 4 4 4 4 4 4 4 4 4 k D D D D < D _ < < 1 1 1 + < < D k k 4 k 4 k 4 4 4 4 4 4 4 4 4 4 4 4 4 4 kX4 4 4 k k k D D g g g g < < g 1 < 1 1 < + + + 1 + + Y.+ + < + + 8 8 1 1 < < D k 2.2.2.4 4 4 4 2.4 rXrXrX2.2.4 D D Y.Y.h G.G.5X5XOX;.9.9.T T T =.=.p.A._._.k.S.c.B v 9.l.bXI.H.1.b.*.p p } #.1.#.#.1.#.1.d.l.9.T =.=.=.p.=.=.9.S y y S S W.m.V.}.1.E.d.m.OXOXm.V.H.1.} L L } } } } L u u t t Y p p #.p #.p #.} L L L u u u t t n n t n n t u u L u u L Y *.P F.! F.F.F.F.F.P z *.p L L L u L u t n n n 5.n n n n n n u } } E.m.OX>.,.,.c.c.T B v f v B v T T ,.,.>.,.>.>.,.T T ,.,.,.T v f f f f y y a c.S.S.,.>.{.-XH.1.} L u t t n t t t u u t u u I m m n n 5.n n t L } a.H.H.H.H.wXH.H.;XD.D.@.PX;XV.l.S S a S.r.0Xc.B B c.B B c.S S (.;.k.k.0XS.c.c.c.c.T T T ,.k.x.l.;.",
"8 8 + < < < + 1 1 + + + + + + + + 1 1 + + + + + + + + + + + + + + < _ k k _ _ 1 1 1 < < 1 1 + 1 1 1 1 1 1 1 1 1 1 1 1 + + + + + + 8 + + + + + + + 1 1 1 1 < < < 1 1 1 1 1 8 1 1 1 1 1 1 + + + + + + + + + + + + + < 1 1 1 1 g < < < < < < < < < < g g b b b b b b b g D k k k 4 4 4 4 4 4 4 4 2.4 4 4 4 4 4 k k D D _ < < 1 1 1 1 + < < < D D k 4 4 4 4 4 4 4 4 4 4 4 4 4 4 4 4 4 4 4 4 4 k 4 4 k D D g g g < < g < g < 1 1 < 1 < + < + < + Y.1 + 1 + 1 1 1 g g D k 4 2.4 2.2.2.4 4 4 4 rXrXrXrXrXrX2.D dX!.h 5X5X{.{.k.>.>.=.=.=.p._._.v.v.T.lX>.c.T B c.AX6XbXI.H.}.*.p p #.1.1.1.1.1.;XH.M.S.T ,.p.A.A.A.A.p.,.S y S (.W.m.d.I.1.d.m.=XW.(.(.W.OXV.a.a.E.E.a.a.a.} } L u t t u L p } L p p p L L L u L u u t t n n t n n n n t L u t u Y Y p *.*.*.*.*.*.*.*.Y Y u u u u L L u u t n n n n n t t t t L L } a.d.h.f.OXk.k.k.S.9.v v v f v v T v v B T B B c.c.,.0Xk.>.,.v v f B f f M c.0XtXtXtXtX>X-XH.H.1.} L u t t t u u u L L L L J.L u t n n n n u L } I.M.f.{.>X{.>X{.M.V.H.PXPX;XM.>.S y a c.3X0XS.c.c.c.c.B S S (.;.l.{.{.0XS.c.c.c.B B B B c.x.M.f.OX",
"8 8 + < _ + + 1 1 + + + + + + + + 1 1 + + + + + + + + + + + + 1 8 1 _ k k k _ < 1 1 1 < 1 1 + 1 1 1 1 1 1 1 1 1 1 1 1 1 + + + + + + + + + 8 + + + < < + 1 1 1 1 1 1 b 1 1 1 + + < + 1 8 + + + + + + + + + + + + 1 1 1 8 g 1 < < < < g < < _ _ _ _ < < < < g g g g g < D k k k k k 4 4 4 4 4 4 4 4 4 4 4 4 4 4 k 4 k D < g b b 8 1 1 < < g g D k 4 k 4 k k 4 4 4 4 4 4 4 4 4 4 kX4 4 4 4 D k 4 4 4 k D D < D g < < g < < 1 1 1 1 + < 1 Y.< < < 1 g 1 1 + + 1 1 g D D k 4 4 4 2.2.2.2.4 D 4 2.2.rXSXrXrX2.9XdXuX5Xt.{.{.{.x.k.,.=.p._.R.R.v.`.v._.>.c.c.c.e :.e W.f.V.a.#.*.#.1.1.1.I.I.I.I.-Xf.S.T ,.A.v.s.s.T.lXp.9.S (.W.h.H.;X;XI.=X(.(.S S S =.l.f.I.I.I.E.I.I.I.a.} L u t t u L p p p p L L L L u L L u u t t n t t t t n n u Y u t n n n t u u L L L u t t t n t t u u L u u u u t t t u u L L L L L L } #.1.1.I.V.M.M.M.x.;.S S S v v v v v f B c.B B B c.0XtX>XlX>.=.=.T v B B S.hXL.>X7X7X>XM.-X-XH.;X1.} L u u u u L L } } } a.a.a.O.L L u t u L } a.h.l.,.,.T ,.,.,.,.l.f.-X;XH.f.>.T f f c.0X0X0XS.c.T v v S S ;.=Xf.M.x.S.c.c.B B B B B B e l.V.H.V.",
"8 8 1 + < < + 1 1 1 1 1 1 1 + + + + + + + + + 8 8 8 1 + + + < < 1 1 < _ _ k _ _ 1 1 1 < < 1 1 1 1 1 1 1 1 1 1 1 1 1 1 1 1 1 1 1 8 + 8 8 8 + + + + + + + 1 + + < 1 1 1 1 1 + + + + + + + + + + + + + + + + + + + 1 1 1 1 1 1 1 < < < 1 1 < < 1 < < < < < < 1 < g g < _ D k k 4 4 4 4 4 4 2.4 kX4 4 4 2.4 4 4 4 4 4 k k D D < < < < < < g g g D D D k D k k k 4 4 k k 4 4 4 4 4 4 4 4 4 4 4 4 4 k 4 4 k k k D k D D _ < g g 1 1 < < < < < < D D D _ < 1 < < < DX< k k 4 4 4 2.2.2.4 4 4 2.2.2.2.2.2.2.rXrXSXrX%.OXW.;.;.S.S.>.=.p.A.v.v.v.`.v.v._.>.c.B B a e M 9.l.f.V.} *.b.1.I.h.m.OXl.l.l.>.S.,.A.v.s.v.[.v.T.lX>.l.f.I.@X@.).1.j.AX(.S S S v S >.f.M.M.m.=Xl.l.=Xm.E.E.L L u u Y L Y p Y Y u u u u u u u u t t n t t t n t n t t t t n n n t t u u u u u t t n n n t t t Y t n n u u L L } #.a.a.kXI.E.a.} } } } } a.a.H.I.m.(.S ,.,.,.,.T T T f f B B B B B S.k.M.-X{.k.p.,.,.S.3XL.L.x.0XS.>.>.>.>.k.f.V.a.1.} L u u L L #.1.1.1.H.H.I.I.a.a.} }.1.a.V.m.l.,.T T T B v T T 9.;.l.{.f.x.S.v B B T c.>.tX{.k.S.,.9.;.W.m.d.I.-Xx.S.T T v B B B B a M W.h.;X;X",
"8 1 1 + + + 1 1 1 1 1 1 1 1 + + + + 1 8 1 1 8 8 8 + + < < + + + + 1 1 1 _ _ _ _ < 1 1 < < < 1 1 1 < < < < < < < < < g g 1 1 8 8 1 8 + 8 + + + + + + + 8 8 + + < + + + + + + + + + + + + + + + + + + + + + + + + + + + + < + + + + + + < + 1 1 < 1 1 1 1 1 1 1 < < < _ D k k 4 4 4 4 CX4 4 4 4 2.4 2.4 4 4 4 4 k 4 4 k k D D D _ _ g < < < D < D D D D D D k k 4 4 4 4 4 4 4 4 4 2.4 4 4 4 4 4 4 k 4 k 4 k k k k k D D < g 1 1 < < + < < D D k k k D _ < _ _ < _ k 4 4 4 4 4 2.4 4 4 2.2.2.2.2.2.2.2.rXSXSXH.f.l.(.S S v 9.,.=.p._.v.v.`.`.7._.A.p.,.v v a a S S ,.OXh.} #.#.1.bX=X;.9.9.T c.c.9.>._.v.[.[.[.s.s.lXk.x.M.H.@.@.@.;Xj.AXe y y S v S ;.x.{.x.;.9.S (.(.W.h.E.L L u u L Y I Y Y u u u u u u u u u u t t t t t t t t t t t t t t t t t t t t t t t t n t n n n t t t n u L p } a.a.I.I.V.V.M.V.I.a.} O.L I O.a.1.I.m.;.>.k.x.x.tXk.>.S.S.c.B B a B B c.k.{.-X%.5X{.OXk.x.{.{.x.S.c.v T T T v ,.>.OXd.1.1.} L L } } a.kXH.I.V.M.f.f.h.h.I.H.;XH.M.l.9.T T B B B f v S S S S ;.>.>.,.v T v T v ,.k.tXtXk.k.OXm.h.V.H.;XI.{.;.S T v B B c.B a S W.h.}.D.",
"1 1 1 1 1 1 1 1 1 1 1 1 1 + + + 1 8 8 8 8 8 8 + + + < < < + + 1 + 1 1 1 < _ _ _ 1 1 1 < < 1 1 1 < < _ D k k D D D _ _ < g g 1 b 1 8 1 8 + + + + + + + + 8 8 + + + + + + + + + + + + + + + + + + + + + + + + + + + 1 + 1 + < 1 + 1 + 1 + 1 + < 1 + < 1 1 1 1 1 1 < < < _ D k k k k 4 4 4 4 4 4 4 4 4 4 4 4 4 4 4 4 k 4 k k k k D D D D D D D g D < D D D D D k k k k 4 4 4 4 4 4 4 4 4 4 4 k 4 4 k 4 4 k 4 4 4 4 k k D D < < g g 1 1 g g D k 4 4 k k D _ D D D D k 4 4 D 4 4 4 2.4 4 4 2.2.9X2.2.rX2.rXrXrXV.OX;.S S y f T c.=.p.A.v.|.v.v.3.A.p.,.T T v v S S S =.l.h.} #.1.I.m.;.9.T T T T T =.k.t.v.[.[.[.[.v.lXk.l.m.I.;X@.).;Xj.hXe a y S v v 9.>.k.S.M y a S (.(.=Xd.} L u u u I Y Y Y u t n t u u u u t t t t t n t n t n t t n t t t t u t t t t t t u t t t n n 5.5.n n u L } } a.I.d.f.f.{.{.x.m.h.d.a.#.L J.L O.a.E.m.W.k.{.>X>X>XtXx.x.k.0Xc.f B B v 9.>.{.M.%.-X%.5XM.>X{.k.S.T v f v v v v S =.;.m.I.H.a.} } } a.d.d.M.f.x.l.>.;.>.l.f.-X-X-Xf.;.T T T B B & B f a v S S =.=.=.=.T T v v v T ,.>.k.tX{.M.V.H.H.}.;XH.f.;.S S v f B c.a a S W.h.}.).",
"1 1 1 1 1 1 1 1 1 1 1 1 < < < + 1 8 8 C 8 8 1 + < _ < + + 1 8 1 + 1 1 1 < _ _ < 1 1 1 + < 1 1 1 < _ k k k k k k k k D D < < g 1 g 8 1 8 1 + + + + + + 8 8 8 8 8 + + + + + + + + + + + + + + + + + + + + + 1 1 + + + 1 + + + + + + + + + < 1 + 1 < + 1 < + < 1 1 < < < < D D D k k 4 4 4 4 4 kX4 4 4 4 4 4 4 4 4 4 k 4 4 4 k 4 k k D D D D D g g g < D D D D D D k k 4 k 4 4 4 4 4 4 4 4 4 4 4 4 4 4 4 4 4 k 4 k 4 k k k D _ < g g g g g D 4 4 4 4 4 4 CX4 k 4 4 4 4 2.4 4 4 4 2.4 4 2.2.2.2.2.rXrXrXrXH.kXuX=X(.S v f f c.c.T p.A.t.5XT.lXA.p.=.v v v S S S v =.(.=Xd.1.1.a.j.l.9.S T c.T T T =.OXv.`.[.[.[.v._.A.,.;.l.m.d.I.I.I.M.k.S.T v v v v =.,.,.c.f y a M S (.W.h.E.L u u I I Y m t t n n t t t t t t u t t t t t t t t t n t t u m u u t t t t t u u u u t t n 5.5.5.t L } } I.h.x.l.>.>.>.,.,.;.W.m.d.a.} } #.#.a.d.=X;.>.k.k.>.>.S.>.x.{.x.S.v B v v 9.l.{.f.%.%.%.%.M.{.>.T v v v v f v v v v =.=.>.f.I.H.a.1.E.d.m.OXl.>.,.9.S S S ;.l.{.M.M.{.,.T v B B f B & B f v v =.=.=.=.=.,.=.=.=.v v v T ,.S.k.M.H.;X}.}.;XkXf.;.S S T B B e M y (.=XE.F.@.",
"< + 1 1 1 1 1 1 1 1 1 < < < < + 1 8 8 8 8 1 + + < < + + 1 1 1 1 + 1 1 8 + < < < 1 8 1 + < < 1 < < _ k k 4 4 4 4 k k k k D _ < < g 1 1 1 1 + + + + + + 8 8 8 + 8 + + + + + + + + + + + + + + + + + + + + + 1 1 1 1 + + 1 + + + + 8 + 8 + 8 < 1 < + 1 < + 1 1 1 1 1 < < < < < _ D D k k k 4 4 k 4 4 4 4 4 4 4 4 4 4 4 4 4 4 4 4 4 4 4 4 D D D D g g g < D g D < g D k k k k k 4 4 4 4 4 k 4 4 k 4 4 4 4 4 4 4 4 4 k 4 4 k k D D < < < < D D 4 4 4 4 cX4 4 4 cX4 4 4 4 2.2.4 4 2.4 4 4 4 2.2.2.rXrXrXrX}.}.kXd.=XW.(.9.c.c.S.0XS.>.>.A.lXlXA.p.,.S S S v S S S =.(.W.n.E.b.1.a.bXl.9.S v T T T ,.p.lXv.7.[.[.v.`.A.=.v S 9.;.l.m.m.x.x.>.S.T v v v =.T =.T T B B a a S S (.h.E.L u u m I I t m n n m n n t u t t t t u t t t t t n t t u u u u I u u t t t t u u u L u t n n n n Y L } I.f.l.,.T v v v S v S (.W.=Xd.a.1.1.a.d.m.W.9.9.T T B f v c.k.{.{.>.T v a S 9.l.f.M.5X5X5X%.{.k.=.v v v v f S f v v v v T 9.l.M.H.1.a.h.=XW.(.=.v v S S S v v 9.>.{.>Xx.,.T v f f B & B f f v =.=.p.A.A.A.p.A.A.p.=.=.v v v T >.f.H.H.rXrXrXkXf.l.9.S S v a 9.a S W.h.#.).@.",
"< + 1 1 b 1 1 1 1 b 1 < < < + 1 1 1 1 1 + + + + + 1 8 8 8 1 < < < 1 1 8 1 < < + 1 8 1 + < < < < < _ k k 4 4 4 k k k k k k D D _ < < g 1 1 + + + + + + + + + 8 8 + + + + + + + + + + + + + + + + + + + + 1 1 1 1 1 1 + 1 + + + 8 + + + + + + + 1 + < + 1 < + < 1 < 1 g 1 1 g < < _ D D D k k k 4 k 4 4 4 4 4 4 4 4 4 4 4 4 4 4 4 4 4 k k k D D D D D D D D D D /.D D D D D k k k k 4 k 4 4 4 4 4 4 4 4 4 4 4 4 4 4 k 4 4 k k D D D D D D k 4 4 4 4 4 4 4 4 4 4 4 4 2.2.2.2.4 2.4 4 4 4 2.rXrXrXrX}.}.cX#.} E.h.m.l.l.k.0X0X0X0XS.,.=.,.p.,.=.T S S S S S S (.(.W.h.E.} b.1.a.d.m.W.(.9.9.,.>.>.>.lXT.v.7.v.v.:Xp.=.v a a S 9.;.;.;.,.,.,.=.=.=.=.p.p.,.,.T B B B a S (.W.GXE.L u u m m I t n n n n n m t t t t t t u t u t t t t t t t u L L L u u u t t t u L L L u u t t n t L } E.h.l.9.T B v v v v S S S (.;.=XV.H.H.d.=XW.(.S T T B B B f T S.k.{.k.,.S v S e l.f.V.n.t.t.%.{.>.=.v T v f f y y f f v v T T ,.M.H.H.d.=X;.(.9.T v v S 9.S v v v S.k.{.k.,.T v f a B B B B f ,.p.A._.t._._._._._._.A.p.=.v v c.>.{.V.V.V.V.V.V.f.OX;.9.S S S S (.W.m.E.b.! @.",
"< 1 1 1 1 1 1 g 1 1 1 < < < 1 1 1 1 + + + < + 1 1 1 8 8 1 + < < < 1 1 1 1 + + 1 1 1 + + < < < < _ _ k k k 4 k 4 4 k 4 k k k k D D < < < 1 1 + + + + + + + + + + + + + + + + + + + + + + + + + + + + + 1 1 1 1 1 1 1 + + 1 + + + + + 8 + + 1 < 1 < 1 + < + 1 + 1 1 1 1 1 1 < g < g _ < _ D D D k k k k 4 k 4 4 4 4 4 4 4 4 4 4 4 4 4 4 4 4 k D D D k k k k k D D D D D D D /.D D k k 4 4 4 4 4 4 4 4 4 4 4 4 4 4 4 4 4 4 4 4 k k k D k k 4 4 4 4 4 4 k 4 4 4 4 4 kX4 2.2.2.2.4 kX4 4 4 rXrXrX}.}.}.}.#.*.*.cXE.E.I.V.f.k.0XS.c.c.T T ;.>.;.=.=.(.S S S S 9.W.=Xh.E.} #.b.#.} E.h.m.=Xl.AXl.k.k.>.lXlXv.v._._.LX(.S a e e B f B T T v =.=.=.p.A.A._._.A.p.,.T B a a S ;.=Xd.L L u n m m I t n m n n n n t n t t t t u t u t t t t t t t u u u L L u u t t u u u u L L u Y t u u } E.d.OX;.T B B B y y y S S S S S W.M.-XV.m.W.(.S v T B B B f f v c.>.k.k.>.9.S S ;.6Xd.d.h.n.5X%.{.>.T T B v f f y y y & f B T T ,.{.-X-Xm.;.(.S 9.c.T v S 9.S f f B c.k.x.k.,.T v v a a y f f T p._.t.T.v.`.v.v.v.v.v.lXA.,.T v c.0Xx.f.m.OXOXOXOXx.x.l.l.(.(.(.;.W.m.d.#.).! ! ",
"1 1 1 1 1 1 < < < 1 < < < < 1 1 1 1 + < < < + 1 1 1 1 1 + < < _ + + + 1 1 + + + 1 1 + + < < < < < D k k k 4 k 4 k k 4 k 4 4 k k D D _ < < 1 1 1 1 1 + + + + + + + + + + + + + + + + + + + + + + + + + 1 1 1 1 1 1 1 1 1 1 + + 8 + + + + + 1 + 1 + 1 + + + + + + + + + + + + < 1 1 < g g < _ _ D k k k k 4 4 k 4 4 4 4 4 4 4 4 4 4 4 4 4 4 4 k k k 4 4 4 4 4 4 k k D D /.D D D D 4 4 4 4 4 4 4 4 4 4 4 4 4 4 4 4 4 4 4 4 4 4 4 k k k k 4 4 4 4 4 4 4 4 4 4 4 2.2.2.2.2.kX2.kX2.2.kXcX}.}.}.}.}.}.#.#.p *.*.*.}.}.D.H.M.k.c.B B B B e >.x.x.l.W.;.;.;.;.zXl.m.d.a.#.#.p *.#.#.#.E.d.d.bXf.x.k.>.>.>.lXlXlX_.A.(.S S 9 e c.B B B B B v =.=.p.A._.T.T.T.lXA.,.T v f S ;.=Xh.E.L L u t n m m t n n n n t n t t t n t t t u t t t t t t t t u u L L u u u t t t u u L u L u u u u L } d.f.>.T T B B a a a S M S S S v 9.f.M.f.l.9.S v B B c.B y a a B v ,.>.k.>.9.S (.AXbXI.d.h.n.5XuX{.k.c.T v f f f y S y f f B B T ,.x.f.f.W.(.S S c.c.B v v S f f B B S.k.x.k.,.T v v a a f B v =.A.T.T.v.`.[.[.[.[.[.v.R.lX>.T a c.S.0Xl.;.(.(.(.;.>.x.f.f.=X=XOXm.h.I.b.).! ! ! ",
"8 8 1 < < < < 1 1 1 < < < < 1 1 8 8 1 + + + 1 1 1 + < < < _ < < + + + + + + + + + + + + + < + < < _ D k k k 4 4 4 k k 4 4 4 4 4 k k D D < < 1 1 1 1 1 + < < < < + + + + + + + + + + + + + + + + + + 1 1 1 1 1 1 1 1 1 1 1 1 + + + + + 8 + 1 1 1 1 + 1 + 1 + + + + < < < < < < < + 1 1 1 1 1 < _ _ D k k k k 4 4 4 cX4 4 4 4 4 4 4 4 4 4 4 4 4 4 4 4 4 4 4 4 4 4 4 4 4 k D D k D k 4 4 4 4 4 4 4 4 4 4 4 4 4 4 4 4 4 4 4 4 4 4 4 4 4 k 4 4 4 4 4 4 4 4 4 4 4 2.2.rXrX2.2.kX2.kXrX}.rX}.}.}.}.}.#.p p p p #.*.}.}.D.I.f.W.9.f B B c.c.hXM.-XI.h.m.m.=Xm.m.bXH.@Xb.#.p p p p *.*.b.b.;XH.M.l.>.,.,.=.>.k.A.p.,.S v y a c.S.c.B B B B v =.p.A.v.s.T.R.T.T._.p.=.v S ;.l.h.E.CXCXu Y Y t m n n t t n n n n n n t t t t t u u t t t t t t t t u u u u u t n t t t u u u u u u u I L a.d.m.,.v T B B M M e e M a S S v T x.{.x.,.T T B f f B y y M e c.T =.>.k.>.=.S W.bXH.;Xa.d.n.n.5XOX>.T v B B v a a a a a B f B B c.k.k.>.9.S v f c.c.B v S v f y B B S.0Xx.k.>.=.v v f y f f v =._.T.s.v.[.[.[.[.[.[.v.R.T.k.9.f B c.c.T v v v v a S.x.-XH.d.d.V.H.;X@.@.@.! ! ! ",
"8 1 1 < < 1 1 b c b 1 < < < 1 1 8 8 8 1 1 1 8 8 C 8 1 < < < < + 1 + + + + + + + + + + + + + < < _ _ D D k k 4 4 k 4 4 k 4 k 4 k 4 k k k _ _ < 1 1 1 1 1 < < < + 1 1 1 1 1 1 1 1 1 1 1 + + + + + + + 1 1 1 1 1 1 1 1 1 1 1 1 + 8 + 8 + + + 1 1 1 1 1 + 1 + 1 + + + + + + + < < + 1 1 1 1 1 1 + < < _ _ _ k k k 4 4 4 4 4 4 kX4 4 2.4 2.4 4 4 4 4 4 4 4 4 4 4 k 4 4 4 4 k 4 4 k 4 4 4 4 4 4 4 4 4 4 4 4 4 4 kX4 kX4 2.4 4 4 4 4 4 k k k 4 4 4 k 4 4 cX4 4 2.kX2.2.2.2.kXdX/.kXrX}.D.}.}.}.}.*.*.p p p p p p p #.#.1.d.=X;.S S v B T T >.M.;XPXD.}.#.} a.1.).).).b.ZXp p *.L L p *.}.H.V.x.;.9.9.v T ,.>.k.k.,.=.T v c.0Xx.0Xc.B B f v =.p._.v.v.v.v.v.T.A.p.,.S.l.x.h.E.} } L L Y Y t 5.5.n t t t t n n t n t t t t t t t t t t t t n t t t t t t t n n n n n n t u u u u u L L a.d.OX,.v v f y f a a a a y y f v T >.0XS.T T B a y y a M a a a v v ,.k.lXk.>.l.f.H.D.@.}.CXh n.n.OX>.c.B v B v f y & y y f B f B c.S.S.9.9.9.f f B B B v S S a a f B B S.k.{.lX>.=.S T a f v T =._.s.v.[.[.[.[.[.[.[.[.s.T.lX,.f B a B v v v T T B c.0Xf.H.H.H.;XD.@.@.@.! P ! ! ",
"8 1 < < < b c U U U c b < < < 1 1 1 1 + 1 1 b u.U c c 8 1 < 1 1 1 1 + + < < < + + + + 8 1 1 < < < < < D D k k 4 4 4 4 4 4 4 4 4 k 4 k k k D _ < 1 1 1 1 < < + 1 1 1 1 1 1 1 1 1 1 1 1 + + + + + + + 1 1 < 1 1 < 1 1 1 1 1 1 + + + + + + 1 1 1 1 1 1 1 + + + + + < + + + + + + 1 1 1 1 + + + + + 1 1 < < _ _ D k k 4 4 4 2.4 2.4 2.4 4 4 4 4 4 4 4 4 4 4 4 4 4 k 4 4 4 4 4 4 4 4 4 4 4 4 4 4 2.4 4 4 4 kX4 4 4 4 4 4 kX4 4 4 4 4 4 4 4 k 4 4 4 k 4 4 4 4 4 /./.9XkX%.uXn.uXkXrXD.D.}.}.cX*.p p Y p p p O.p p #.#.1.h.=X(.S S S S v 9.l.V.PX@.@.! F.! ! ! @.@.@.b.p p p #.p p p *.} d.m.;.S S S v T 9.>.{.{.k.p.,.,.>.{.M.{.hXS.e M S =.p._.s.v.7.`.v._.A.p.>.{.M.j.I.a.} } cX*.Y t n 5.5.n t t u n t t n t t t t t t t t t t t t t t n n n n n n n n n n n n n n t u t t n I } E.h.OX,.v v y y y y a y y y y y f v c.,.c.B B B a y y 9 9 9 S v v ,.k.M.M.M.f.M.H.D.@.@.).}./.h uX{.k.c.B B f B f f f f f f f v v c.,.c.T c.c.B B a B a S S S a a B f B c.k.{.M.OX>.;.,.c.v v =.p._.s.s.[.[.[.[.[.[.[.[.s.T.lX,.f B f B B B T T B B B ;.x.V.kX}.D.@.@.@.! ! P ! ! ",
"1 1 < < b c U i 0 i l c b g < < 1 1 + + < 1 c U U U U c b 1 g < < 1 1 < < < + < + + + 8 1 1 < < < < g < g D D k 4 k 4 k 4 k 4 k 4 4 4 4 k k D _ < 1 1 1 < 1 1 1 1 1 + + + + + + 1 1 1 + + + + + + + 1 1 < < 1 1 g < g < < 1 1 1 1 + + 1 1 < < < < < < < + + 1 1 + + < 1 1 1 1 1 1 1 1 + < < + + 1 8 1 1 < < _ D D k k 4 4 4 4 4 4 4 4 4 4 4 4 4 4 4 4 4 4 k 4 k 4 D 4 4 4 4 4 4 4 4 4 4 2.4 4 4 2.2.4 2.4 kX2.kX4 kX4 4 4 4 4 4 4 4 k 4 4 k k 4 4 4 /.dXuX5X5X5X5Xt.OXLXt.V.H.D.D.}.#.} *.p p Y Y p ZXp p I } #.1.d.=X;.(.(.(.(.;.>.f.H.@.@.! F.! ! ! ! ! ! ! P *.p p ZXp p *.p E.h.l.S S S S S 9.;.OXV.-XM.OXOXOXf.-XH.yXM.x.hX:.S S p.lXT.T.v._._.A.p.p.k.M.-XH.1.a.} *.F.F.CXn 5.n n n t t t n n t n t t t t t t t t t t n t n n n t n n n n n n n 5.n 5.n n n t t n t u L E.h.OX,.v v a y f y y f y & y y S v T T B B B M a y 9 M 9 S S v T >.M.H.H.H.;XD.PX@.@.@.@.D.kXuXV.f.k.c.B v B f B B T c.,.=.=.=.,.,.,.,.T T c.c.a f f y y S y M M B f B ,.k.M.-XM.OXOXl.>.,.,.=.p._.R.s.v.[.[.[.[.[.[.[.v._.>.T f B f B c.c.B B B B f 9.l.h.kX}.D.).@.! ! ! ! ! ! ",
"1 < < g c U i 0 0 , 0 i l b g < < < + 8 1 1 c U G G G i c b g < < g 1 1 1 + < < + + 8 8 8 + 1 < < < 1 < < g < D k k 4 k 4 4 4 4 4 4 4 4 4 4 k D < g 1 g 1 1 1 < 1 1 1 1 + + + + 1 1 1 1 8 8 8 1 + + < < < < g g g g < g g < < < < 1 1 1 < < < _ _ _ _ _ _ < < 1 < < < 1 1 1 b 1 1 g g 1 1 1 < < < < < 1 1 1 1 < < _ D k k 4 4 4 4 4 4 k 4 4 4 4 4 4 4 4 4 4 4 4 4 k 4 k 4 4 4 4 4 4 4 4 4 2.4 2.2.rX2.4 kX2.2.rX2.2.4 kX4 4 D 4 4 4 k k k k 4 4 2.kXuXOXLXp.>.>.>.>.,.=.W.m.V.1.}.#.} p *.p Y p p Y Y Y Y p p p #.E.h.=XW.(.;.W.=Xf.V.1.).).! ! ! ! ! ! ! ! ! F.P *.p p *.*.*.#.E.m.W.S S S S S ;.=Xd.;XPXD.H.kXH.1.D.PXPXPXyXf.l.S S >.lXT.T.lXlXA.>.=.9.;.l.f.j.a.a.}.b.F.F.*.u n t t n n n n n n n t t u t t t n n n n n n n n t n t n n n n n n n n n n n n n t t n n t L } d.m.;.v v f f f f v S S y y a a f B B B B B a a y y y 9 S S S 9.k.V.;XPX@.@.@.@.@.@.@.@.D.;X-X-XM.{.>.c.v f f B v ,.k.lXlXA.A.A.A.A.p.T v c.c.B & & y y S y M B B f v ,.OX5X%.%.uX5Xf.{.{.k.>.p._.T.R.s.[.[.[.[.[.[.v.v.A.,.B B B B B B c.B B f f v 9.l.h.kX}.}.b.F.! ! ! P ! @.",
"1 < < b c i i 0 0 0 0 q h l b g < < + 1 1 g c l i G G G i c b g < < < g 1 < + + + 8 8 8 8 + 1 1 1 1 1 1 g g g < D k k k k 4 4 4 4 cX4 4 4 4 k k D < g g 1 1 1 < 1 1 + + + + + + + + + + 8 8 8 + + 1 < < < < < _ < D < D D < < < < < 1 1 1 < < _ _ k _ k D D _ _ _ < < < < < g g g < < g g g 1 < < < < + + 1 1 1 1 1 < _ D D k k k k 4 k 4 4 4 4 4 4 4 4 4 4 k 4 k 4 k 4 D 4 k k k 4 4 4 4 4 4 2.2.2.2.4 4 kX2.kXkXkX4 4 4 4 k 4 4 2.4 D 4 4 2.kXkXuXOX;.=.=.=.,.,.T v v ;.=Xd.a.b.*.p p *.p p p p Y Y t Y p p } #.a.E.d.h.m.m.h.d.I.1.D.).).! ! ! ! ! ! ! ! ! ! b.*.*.p *.*.*.#.E.h.=X;.;.;.;.W.=Xd.1.).@.@.).F.).).@.@.@.PXH.f.l.S S 9.>.k.k.k.S.S.c.v a S (.W.m.d.a.}.).@.! F.Y t n n n n n n t t t t n t t t t n n n n n n t t t t n t t t n t n n n n n n n n n n n n u L } kXh.l.=.v f f & f S S S f y a a f B B f B a a S y 9 y y S S 9.k.M.;XPX@.@.@.@.@.@.D.;XH.I.V.M.M.{.{.k.S.T B B c.,.lXT.R.R.T.v.v.v.T._.p.T T B f y a a a a a B c.B v S W.OXuX%.uXuXuX%.-X-X7XlX>.A._.T.s.s.[.[.[.[.v._._.p.T B f B B B B B B B T v v (.OXV.}.}.F.F.F.! P P F.! @.",
"1 1 < g b l l q 0 q q q h l c b 8 1 < < < g b c U i G i i l c b g g < < < 1 < 8 + 8 8 + + + + 1 1 1 1 1 < 1 g < < D D k k 4 4 4 4 4 4 4 4 4 k k D D < < < 1 < < < < < + < + + + + + + + + + + + + 1 1 g < D D D D k D D D D D D < < < g 1 1 1 < _ _ _ _ k k k k D D D D D _ D D D _ D D < < < g < < < < < < < < < 1 < < < < D D k k 4 4 4 4 4 4 4 4 4 4 k 4 4 4 4 4 4 4 D /.D D k k 4 4 4 4 /.4 4 4 4 2.4 2.kX4 kX4 kX4 4 4 4 4 2.2.2.2.4 2.rXrX%.t.p.=.,.,.S.,.T T =.9.W.m.d.} *.*.p p p p p *.p p Y Y Y p p #.b.1.1.1.H.I.I.I.a.1.D.).@.@.@.! ! ! ! ! ! ! ! ! P *.p p p #.#.#.a.d.h.m.=X=Xm.h.d.a.b.@.@.! ! F.! ! @.@.PX1.d.x.;.S v v T ,.S.c.c.B B f y S S ;.=Xd.1.).@.@.! F.p t 5.n n n n n t u u t n n t t t t n n t n t t t t t t t t n t t m t t t n n n 5.n n n t L } }.H.V.{.>.9.v f & f S S S v f f f v T T B B v a S y S y S S 9.k.M.wXPX@.@.@.! ! ).}.I.d.f.x.x.x.k.k.k.k.S.c.c.c.,.lXT.R.R.U.s.s.s.s.s.lXlX,.v f f a B M M a a B B v S ;.OX5XV./.!.uXuXV.-X-X7X>X>.,.p.A._.v.s.s.v.v._.A.p.,.T v f f f f & f B a v S 9.W.h.;XD.@.@.F.F.! ! P P @.@.",
"1 1 1 g b b l i q q q q q i l c c 1 < _ < g g b c U i i G i i l c b g g < < 1 1 8 8 + + + + + + + + + 1 1 1 1 < < < _ D k k k 4 k 4 k k 4 k 4 k k D D < < < < < < + < + < + < + + + + + + + + + + 1 1 g < _ D k k k 4 k k k D D D D _ < g 1 1 g g < _ _ k k k k k k k k k k k D k D k _ D D D < < < _ _ < < < < < < < g g g < D D k k 4 k k 4 4 k 4 4 4 4 4 4 4 4 4 4 D D D D D k k 4 4 2.4 4 4 4 2.2.2.2.2.2.4 4 4 2.4 2.4 4 4 2.2.kX2.kXrXrXkX%.OX=.p.>.k.k.>.,.;.W.OXh.d.E.#.p p Y Y p p p *.p p *.p Y p #.#.b.;X;X;X;X;X}.}.}.D.).@.@.@.@.@.! ! ! ! ! P ! P *.*.p p p p #.#.1.a.E.d.d.d.d.E.1.b.).! ! ! ! ! ! @.@.).1.h.=XW.9.v v v S 9.9.T B B B B a S S W.m.E.b.@.@.! ! P p t 5.5.n n t t t Y t u u t u t m t t t t u t u u u u u t t t t t t t t t n n n 5.n t u L } #.}.;XH.M.x.S.c.B f y a S v f f v v =.,.,.T T T v v v a S M 9.>.{.-XSXPX@.@.@.@.).1.d.m.l.;.;.9.,.,.S.S.S.S.c.T ,.A.T.R.R.s.s.s.[.[.[.v.T.lX>.T v v B a a a T v v v v ;.l.h.V.kX/././.V.V.M.>X>XtXS.=.=.p.A._._._._.A.p.,.,.T v v v v B T a a a a 9.9.W.m.I.D.@.@.@.).F.! P P P ! @.",
"1 8 1 g g b c l i q q q 0 i i U c 8 < _ < < g g b c l i G G i i i l c b 1 < 1 + + + + + + + + + + + + + + + 1 1 < < < < _ D D k k k 4 k 4 4 4 k k D < g 1 < < < < + < < + 1 1 + + + < + + + + + + 1 1 g < D k 4 4 4 4 4 4 k k k k D k D < g g g g g < < D k k k k k k k k k k k k k k k k k k k k D k k _ _ 1 1 < < < < g < g D D D D D k 4 4 4 4 4 k 4 4 k 4 4 2.4 4 4 4 k D k k k 4 4 4 4 4 k 2.2.2.rX2.2.2.2.2.2.2.2.4 2./././.uXV.V.V.kXV.%.5XOXp.p.A.OXOXl.l.OXh.d.a.#.*.p Y Y Y Y u p p p p Y *.*.#.#.#.a.a.I.I.I.I.H.1.}.D.).).D.@.@.@.@.).! P P P *.*.*.*.p p p p p p #.#.1.1.a.a.a.a.#.b.).! ! ! ! P ! F.! ).1.d.=X;.(.S v v 9.9.;.9.v v B B B v S (.=Xd.1.).@.@.! F.z Y t n n n t u u t n t t u u t u u u u u u u u L u L u u t n t t u u u u t t n n n u Y p } } 1.;X;XH.I.f.k.S.c.a a a f f v T ,.,.A.A.A.p.,.,.=.v v S a 9.c.k.>X7XwXH.1.b.).@.b.d.=X;.9.v v v f v v T T c.B T p._.s.s.[.[.[.[.[.[.[.[.T.T.>.T v T T v v v T v S 9.;.l.f.V.}.}.cXkXkXkXM.{.k.>.S.c.v S =.,.p.p.p.>.,.=.v v S v S v 9.9.S.S.S.S.zX;.l.f.I.;X@.@.@.@.@.).! ! ! P ! @.",
"1 8 1 < < g b l l i q q 0 0 i U c 8 + < 1 < < < < b c U i G G G G G U c b 1 1 < < + + + + 8 + + + + + + + + + + < < < < < < < < D D k k 4 4 k k k D < g g < < _ < < + + 1 1 1 1 1 1 + + + + + + + 1 1 < D D k 4 k k 4 4 4 4 4 4 k 4 k k D _ < g g g g g < _ D k k k k k 4 4 4 4 4 k 4 k 4 k k k k 4 k k k _ 1 1 g g < < D D D D D /.D 4 4 4 4 k 4 4 4 4 4 4 4 4 4 4 4 4 4 4 4 4 4 k k 4 k D k 4 4 2.2.2././.2.kX2.2.rX2.4 /.G.t.OXOXOXOXt.{.5X{.OXA.p.LXOXOXLXOXd.I.1.b.F.b.*.p Y Y Y Y Y p p p Y Y p *.*.b.a.d.m.m.=X=Xm.m.d.I.}.D.D.D.D.D.D.).).b.b.*.*.p p *.p *.p p Y p p p #.#.#.#.#.#.#.p *.P P P z z P P P F.b.E.m.W.(.S S v v ;.l.l.;.9.T T v v S ;.W.h.1.).).! ! ! F.i.Y t n n HXu u u n HXn t t t t t u u m u J.u L u u u u m t m t u u u u u u u t u Y p } a.E.V.d.V.V.V.M.f.x.S.c.B B B f f T ,.A.lXT.T.T.lX_.A.,.=.v f f v c.S.k.tXx.OXm.d.1.b.I.m.;.S v v v f f f f f B B B ,.A.T.v.[.[.[.[.[.[.[.[.[.s.T.>.=.v T T T T S =.=.;.W.OXh.I.;XD.D.}.D.;XV.{.>.T v B v v v S v v v T T v f f v f S v S ;.>.x.x.f.M.f.f.d.H.D.@.).@.@.@.D.).! ! P ! ! @.",
"1 8 1 < < < g c l l l i i i U c c 8 + + 1 1 < < < g b c U i i i G G G U U c 8 1 < + + + + + + + 8 + + + + + + + < < < < 1 1 g < < D D k k k k k D D < < < < < < < + < g 1 1 1 1 1 1 1 + + + + + + 1 < < _ k k k 4 4 k 4 4 4 4 4 4 4 4 4 k k D D < < g g g g < < D k k k k k k k k k 4 k k k k 4 k 4 cX4 k k _ g DXg g D D k k 4 4 4 4 D 4 k 4 4 4 4 4 4 k 4 4 4 4 4 4 4 4 4 4 4 4 4 4 4 kXcX2.2./.dXuXn.t.OXOXt.uXV.kXV.uXn.LXLX;.(.9.9.;.>.>.>.p.,.=.;.;.LX=Xd.}.).F.F.b.*.p p Y p p p Y Y Y Y Y L L p #.1.d.=X;.;.S.;.S.l.x.M.H.;X1.H.V.V.I.E.a.#.b.*.*.p p p p p Y p p Y p p ZX#.#.#.#.p L L Y Y Y Y Y Y p p p *.} E.gXW.(.S S S S >.m.m.l.;.9.=.T (.;.=Xh.1.).@.! ! ! ! ! F.p L L L p L L u u n n n n n t t n u u u u m u m m u m t n n t u u u L u u u L L #.a.E.d.h.m.OXx.x.l.l.l.>.S.c.B a B B T ,.A.lXT.R.R.T.T._._.A.,.T v f B T T c.S.,.9.W.=Xh.V.f.W.9.v v S S a f B B B B B c.S._.s.[.[.[.[.[.[.[.[.[.[.T.T.p.=.=.T T 9.=.,.p.l.OXf.V.H.;XD.@.).@.D.;Xh.l.9.T c.c.B f y y f f B B B B v f v f v v S 9.>.l.f.V.;X;X;X1.D.@.@.! @.@.D.D.F.! ! ! P ! @.",
"1 8 1 < < < g b b c l l l l c b 1 + + + 1 1 < < _ < 1 b c U U U i i i U U U 8 8 1 + + + 8 + 8 + 8 + + 8 + + + + + + < 1 1 1 1 < < < < _ D _ D _ D D D D _ _ < _ < 1 1 1 g 1 1 1 1 1 1 1 + + + 8 1 + < _ D k k 4 k 4 k 4 4 4 4 4 4 4 4 4 4 k k k D D < < g g g g D D _ k k k k k k k k k 4 k k k 4 k 4 4 k k D _ g g < D D k 4 4 4 4 4 4 4 4 4 4 k 4 4 4 4 4 k 4 4 4 4 4 2.4 4 4 4 4 4 4 4 2.2.kXuXt.LXLX;.(.=.;.OXM.V.M.{.LX;.(.9.S a v T T ,.=.,.,.=.(.;.=Xh.1.).! P z *.p Y p p O.p ZXp Y Y Y p p p #.}.1.m.W.9.a a M M c.S.x.M.I.V.h.m.OX=Xm.GXE.#.*.*.#.p p p p p p i.p Y p p p O.L L u u t t t t t Y Y Y u u L } E.GX=XW.(.(.(.;.m.d.V.h.OXl.W.l.l.m.d.1.).! ! ! F.! ! ! ).b.#.1.#.#.#.} L u u n n n n n t t t t u u u m t n n n n m m t t u u u u L L L } a.I.h.x.l.;.9.9.,.9.9.9.9.9.M B B B B c.>.lXT.s.v.s.s.v.v._.A.p.T B B B B v T T v S S ;.l.f.x.;.v f f a a a f B B B B B c.>.lXs.[.[.[.[.[.[.[.[.[.|.T.lX,.,.>.>.k.k.k.x.{.f.V.I.;XD.@.@.@.@.@.@.H.m.;.S T c.c.B f y y a a B B a B f f f v f f v S 9.W.OXV.;X@.@.@.).@.@.@.! ).D.}.F.F.! ! ! ! @.",
"1 1 1 1 < < g g g b b c c b b 1 < < + + 8 1 1 < < < g 1 b c c c c c U U U U c c 8 1 + + + + C + + C + + + 8 + + + + + + < < < < < < < g g g < < D _ D D D D _ < < g 1 g < < < < < 1 1 1 + + + 8 8 + < _ D k k k 4 k 4 4 4 4 4 4 4 4 4 4 4 4 4 4 k k D D D < g g g < < _ D _ k _ k k k k k 4 4 4 k k k 4 k k k k D D D D k k k 4 4 4 2.4 4 4 4 4 4 4 4 k 4 4 4 4 4 4 4 4 4 4 4 4 4 2.4 4 /.kXkXV.OX;.(.S =.S S =.,.OX{.{.l.;.S S 9.M a a c.9.9.;.>.l.(.(.W.h.1.@.! P z i.Y Y Y p p #.#.O.p I Y p *.*.*.}.}.H.m.9.T B B B B B e l.x.f.m.l.;.(.(.W.=Xd.#.b.*.*.p p p p Y p Y ZXY Y I Y L u t u u t n n n n n t u u u L L } d.gX=X=XW.=Xm.h.I.1.I.d.h.m.h.d.E.b.).! ! P P ! ! @.@.).D.;X1.1.1.a.} } L L u t n n n t t t u u u u t n n 5.n 5.n t t t t t u u L L } E.d.f.l.S.9.v f B T T v v v v a B B B B ,.A.T.s.v.[.[.[.[.v.v._.p.T B B B B v B T v v S 9.>.x.k.S.T f f S y y & B B B B B c.k.T.v.[.[.[.[.[.[.[.[.[.v.T._.,.>.k.{.{.M.-X-X-XH.H.}.D.@.@.@.@.! @.).I.OX;.S a B B B B y a M e c.B B B B f f f T B f f S (.;.m.kX@.@.@.).@.@.! ).b.b.}.b.F.! ! ! ! @.",
"+ + + + 1 1 < < g g b b b g g < < + + + 8 8 1 < < < < < g b b b g b b c c c c 8 8 1 1 + + + + + + + + + + + + + + + + + < < < + < < 1 g g g g g < D D k D _ _ < g < < < < < < < < < 1 1 + + + + + + < _ D k k k 4 k 4 4 4 4 4 4 4 4 4 4 4 4 4 4 4 k k k D D D D g g g < < < D D _ D D k 4 4 4 4 4 k 4 k k k CXk k CX4 k k 4 k 4 k 4 4 4 4 4 4 4 k 4 4 4 4 k 4 4 4 4 4 4 4 4 4 4 4 4 2.4 4 2.kXuXl.(.S v v v v v T >.k.k.,.v f f a a a e S.l.l.{.f.OX;.W.h.1.).! F.z i.Y Y Y u Y p #.#.*.ZX#.#.#.#.#.1.1.;XH.{.,.T B B B B B f 9.;.W.;.(.(.S (.(.=Xd.#.b.*.#.p p p p Y p i.Y Y m Y u u u t u t Y t n n n t t u u u L p } L HXGXGXh.h.d.a.1.1.} a.E.E.E.a.#.F.! ! P ! ! @.@.).}.I.V.h.f.f.h.d.E.E.} L L Y t t n n t t u u t t t n n 5.5.n t m t t t t t u L } a.d.m.l.;.a f f B B c.c.T v v f f B B B B >._.v.v.[.[.[.[.[.v.s._.A.T B B B B B c.T v v v T S.tXtX0Xc.f y y S y f B B B B B c.k.lXv.[.[.[.[.[.[.[.s.R.T.lX>.c.S.>.k.{.>XM.-XH.rXH.}.}.).@.@.! ! ! ).I.m.W.(.S f B B B y a 9.S.S.T f f B f f B T B B B v S (.W.uX}.@.@.@.! ! F.b.*.#.}.*.F.! ! ! ! ! ",
"< + < 1 8 8 1 < < g g g g g 1 1 + + + + 8 8 1 1 1 < < < < g g b g g g g g 1 1 8 1 1 < + + 8 + + + + 8 + 8 + 8 + + + + + + + + 1 < < < < _ D < g g g D _ k D _ _ < < < < _ _ _ _ _ < 1 1 8 + + + + + < < _ k k k 4 k 4 k 4 cX4 4 cX4 4 4 4 4 4 k 4 4 4 k k k D D D g g g g g < < < D D D k k k k k k k k k k k k k k k k k 4 k 4 4 4 4 4 4 4 4 4 4 4 4 k 4 4 4 k 4 4 4 4 4 k 4 4 4 4 4 2.2.kX/.m.W.S v B B B T T T ,.>.,.T T B B f & B S.x.f.V.I.V.h.m.d.} b.).F.b.*.p Y Y Y Y p p p #.#.1.#.a.d.h.h.h.h.M.-X{.>.T T c.S.S.S.c.9.9.(.(.S =.S S ;.=Xd.#.b.#.p } *.p p Y Y Y Y m n t u u u u u t t t t t t t t u u u u L L O.E.J.E.J.E.a.} L } } } a.} } } p *.P P P ! ! @.@.1.d.m.l.l.;.W.l.OXm.h.E.} } L u u t u u u L L u u u t n n n n m u t n n n t t L } a.h.l.9.a B B B B B B a c.v v f y B B B c.>.lXv.[.[.[.[.[.[.v.s.lX>.T f B B B B c.B B v T T c.tX>X0Xc.f y S S S f f B B B B c.>._.s.v.[.[.[.v.s.R.R.R.T.k.,.T T ,.,.>.k.x.f.V.I.kX}.}.).@.! ! ! ! @.}.d.=X;.S v v B f v 9.k.x.k.,.f & B B B B T B B B c.T S (.n.kX@.@.F.F.b.*.p } } } *.b.F.! ! ! ! ",
"< + < + 8 8 1 < < g g g < 1 1 1 + + + + + 8 1 1 1 1 < < < < g g g < < < _ < < < 1 1 1 + + + + + + + + + + + + + + + + + 1 1 8 1 < < < _ D D D < g g g < D D D _ _ < < _ _ D _ _ _ < < 1 1 + + + + + 1 < < D k k 4 k 4 4 4 4 4 4 4 4 4 4 4 k 4 4 4 4 4 k k k k D D D < g g g g g < g < < < D D D k k k k k k k k k k k k 4 k 4 4 4 4 4 4 4 4 4 4 4 4 4 4 4 k 4 k 4 k 4 k 4 4 4 4 2.2.4 2.cX2.uXOX;.v v B v v T =.p.p.p.,.T T T B c.S.0Xx.M.I.;X1.a.E.E.} b.b.F.b.*.*.p Y Y p p *.*.p p #.1.I.h.=XW.W.;.W.l.{.k.>.=.p.A.lXlXlX>.,.9.S S S 9.9.(.W.m.E.#.#.#.p p p p p Y Y Y m n n m t u u u u t n t t t u u u t u u m u L L L L L L L L L u u L u L L L u u Y i.z ! ! @.@.1.d.OX;.9.S T S 9.9.W.=Xh.E.} } L CXL CX} } } } } } L L u t t t u u m n n n n t L } 1.h.;.S f a B M B a y a a S S f f B B B c.>.lXs.[.[.[.[.[.[.s.T._.>.T f B B B B B B v B a v c.0X>XtXS.T v S S S y v v v B c.c.,.A.v.v.v.v.7.s.R.R.R.{.k.,.c.B B v T T 9.,.W.OXh.V.1.D.).@.! F.! @.@.@.a.h.=X;.(.9.9.9.9.l.M.M.{.>.f f B B B B B B B B c.B S (.m.kX@.@.F.*.p L L u L L L *.*.F.F.! ! ",
"+ + + + 8 8 + < < 1 1 1 < 1 1 1 8 + + + + 8 1 1 1 1 1 1 1 1 1 1 1 < < < < < < < 1 1 1 1 1 1 + + + + + + + + + + + + < 1 1 8 1 1 < < _ D k k k D D < g g < < D D _ _ _ < < _ _ k k _ < 1 1 + + + + + 1 1 < D k k k k k 4 4 4 4 4 4 4 4 4 4 4 4 k 4 4 k 4 k 4 k k k k D D < g g g g g g g g g g < < < _ _ _ _ _ k k k k k k 4 4 4 4 k 4 4 4 4 4 4 4 k 4 4 k 4 k 4 4 k 4 4 4 4 4 4 2.4 2.2.2.4 uXOX;.v v v T =.p.A._.lXlXA.p.=.T c.0X{.M.-XH.;XD.1.#.} #.*.#.*.*.*.*.p p p p p p p p *.#.} I.h.=X;.(.S S a c.S.,.p.p._.T.T.v.T.lXA.p.=.S S 9.;.l.h.d.a.#.#.*.p p p p p Y Y m t n 5.n t u u t u t u t t u u t u u u u u u m u u L u u u u u u t t t u t n t t Y Y i.! ).@.D.d.l.;.9.v v f v f v T ;.OXd.1.}.} E.} #.}.}.}.1.1.a.} } } p u u I u t n n n n n u } 1.h.;.S y a a a y y y y S y S S f B B B T >._.s.v.[.[.[.[.[.R.T.A.,.v f f B B B B B B v y y T S.tXtXk.S.T S S S S 9.9.9.c.S.S.,.p.A.v.T.T.T.T.T.lXlX>.c.B B B f f v v v v (.;.OXd.kXD.).@.).F.! @.@.@.).1.d.m.=Xl.W.W.OXM.;XH.M.l.S a a B B B B B B B c.B a (.f.H.@.@.F.} L L u u t t t u Y *.b.F.! ",
"+ + + + + + + < + 1 1 1 1 1 1 + + + 8 + 8 + + + + + 1 1 1 1 1 1 1 1 1 1 1 1 1 1 1 1 1 1 1 1 1 1 + + + + + + + + + 1 1 1 1 g 1 g < _ D k k k k k k D D g g < < _ D D _ < < _ _ _ k _ < 1 8 + + + + + 1 1 < D D k k k k 4 4 4 4 4 4 4 4 4 4 4 k 4 4 k 4 4 4 k 4 4 k k k D D < g g g g g g g g g g g g g 1 < _ _ _ _ k k k k k k k 4 4 4 4 4 4 4 4 4 4 4 k 4 4 k 4 k 4 4 4 4 4 4 4 2.2.2.4 rX2.dXt.>.T v T =.p.A._.v.T.T.T.A.=.=.,.k.>X-X-XH.1.b.#.#.#.b.*.p L p *.p p p p } p p p p p *.} h.=X;.S a a y B B T =.p._.T.s.v.v.v.T.lXA.=.v T S.x.M.I.1.1.#.p p p p p L Y L u u t n m t t u u t t t u u t t u u m u m u u u u t t t u t t t t t n 5.n n n n n n t t p b.).D.H.OX(.S T T a B B B B v v ;.m.V.H.1.1.}.;X;XH.H.I.d.h.d.d.E.} } L L u t n n n n n CX} }.h.;.S a a y y y y y y y S S v v B B B B ,._.T.s.s.s.|.s.|.T._.p.T f & f B B & B B & y y S y T S.tX>XtXk.l.W.W.l.x.x.x.k.0XS.,.=.=.A._.lXlX_.A.>.c.B B B f f f f f v v v S (.W.h.V.1.D.).).! @.! ).).@.@.D.a.I.d.h.h.-XSXPXPXH.x.9.9.c.B B B B B B B B M 9.W.h.;X@.@.}.} L u u n n n n n t L p *.b.",
"+ + + + + + + + + 1 1 1 1 1 1 + + 8 + + + + + + + + + 1 1 1 1 1 1 1 1 1 1 1 1 1 1 1 1 1 1 1 1 1 1 1 1 1 1 + 1 1 + g 8 g 1 1 g < _ D k k 4 4 k 4 k k D D < g g g < < g < g _ _ _ _ _ < + 8 + + + + + 1 1 < < D k k k k 4 4 4 4 4 4 4 CX4 4 CX4 4 4 4 k 4 k 4 4 k 4 k k k D D D < g g g g g g g g g < 1 < 1 + < _ _ _ _ _ _ _ D k k k k 4 2.4 4 4 4 4 4 4 4 k 4 k 4 k 4 4 2.4 4 4 4 2.2.2.rX2.V.f.l.,.T =.p.A._.v.v.v.T.T._.=.,.S.k.k.OXf.d.E.#.#.*.#.*.ZXp L p p #.p #.#.#.*.p p p p p E.=X;.(.S y a B B B B =.A.T.s.v.`.`.v.T._.A.T T S.k.M.-X;X;Xb.#.p L u L p L L u u t m n t t t u u u t t t t t u u t u u t u t u t t t t t t t n n n 5.5.n n n 5.n n t n u } 1.1.V.l.=.v v c.c.e B c.B B f S W.m.I.;X;XH.H.I.M.m.l.;.;.W.=Xh.E.1.#.L u n n n n n n u } 1.h.;.S S a B a y y y y S y S S S B B B B T p._.T.R.R.R.T._._.p.=.v f y a y B B B B B a S S S v T k.>X-X-XM.M.f.M.-X-XM.{.k.c.v v =.=.p.p.,.=.T T B B B & B y f f f f y v S S (.l.n.V.}.).).@.@.).F.! ! @.@.).).D.;XD.PXPXPXPXH.f.;.S.S.S.c.c.B B B B B M ;.OXV.}.D.b.*.L u n t n 5.n t n n u L p } ",
"+ + 8 + 8 + + + + + 1 1 1 1 1 + + + + 8 + 8 + + + + + + 1 1 1 1 1 1 1 1 1 1 1 1 1 1 1 1 1 1 1 1 < 1 1 1 1 1 1 + 1 1 g 1 g 1 g < _ k k 4 4 4 4 k 4 k k D D < g g g g g < < _ _ _ < < < < + 8 + + + + 1 1 < < _ D k k 4 4 4 4 CX4 k 4 4 4 4 4 4 4 4 4 4 4 4 4 k 4 4 4 4 k k k D D < g g g g g g < < 1 1 1 1 < < < 1 1 1 < _ < D D D D k k 4 4 4 4 4 k 4 k 4 k 4 k k 4 4 4 2.2.4 2.4 2.2.kX9XuX{.>.,.T T ,.p._.v.v.`.`.|.t.A.=.T c.S.c.,.l.m.d.} #.#.*.ZXp p O.Y O.ZXp #.ZXp #.p p p p p HX=X;.S y a a B B B c.=.p.T.v.v.[.v.s.T._.p.T B S.0X{.M.H.;Xb.p L u t u L L Y u u m u m t u t u t t t n t n m t m u u m t u u t t t t t t n t n n n n 5.n n n n 5.n n t L } 1.I.m.;.S v f a M a B B B B a a ;.OXV.H.H.M.m.x.l.;.9.S S 9.;.l.m.I.a.L t n n n n n t L } 1.h.W.(.T B B B B B a S S S S S v B B B c.B ,.p.A._._._.A.p.p.=.T a a S y y f & B B & y S a S v v l.M.;XPX;X;X;XH.-XM.{.k.,.T v v v T =.T T v v v f f & y y f y & y y y f v S =.;.OXd.kX}.).@.@.@.! ! ! @.! ).@.@.).@.PXPXSX-Xf.l.9.9.S.S.k.0XS.c.a a a ;.=Xh.I.}.b.*.L u n n n n t Y t t t u u L p ",
"1 1 8 + + + + + + + + 1 1 + 1 + + + + + + + + + + + + + + 1 1 1 1 1 1 1 1 1 1 1 1 1 1 1 1 1 < 1 1 1 < 1 1 1 1 1 1 < < g 1 g < < _ k k 4 4 4 4 4 k 4 4 k k D < g b b g < < < < < 1 + < + 8 8 + + + + 1 1 1 < < _ D k k k k 4 4 4 4 4 4 4 4 4 4 4 4 k 4 4 4 4 4 4 4 k 4 4 4 k k D D D g g g 1 g 1 g 1 1 8 1 1 + + 8 8 1 1 < g g g g D D D 4 4 4 4 4 4 4 4 k 4 k k 4 k 4 4 4 2.4 2.2.2.2.V.5XOX>.9.B B T ,.A._.v.`.`.`.`._.p.=.T T c.B v ;.m.d.} #.#.p p ZXZXp ZXZXO.ZXZXO.#.ZXp ZXp Y p HX=X(.S S a a B B B c.=.p._.v.`.v.s.v._.A.,.T B c.S.>.x.d.1.b.L u t t u u u u L u u m t t t t t t n n n m n t u t t u t t u u t u t t t t t t t t t n n t t n 5.n n t u L } a.V.OX;.T T f a M a y y B M a a 9.l.f.M.f.l.;.9.T v B B B v 9.;.l.h.E.L t n n n t t u L L } d.=XW.9.T B B B T B v T S S S ;.S.0XS.c.B T T =.,.p.p.,.=.v v a S a M y y y f y B f y S S S S S OXI.PXPX@.PXPX;XM.x.>.9.v v f f v v v v v v v v f B y y S v y y y y a f f v v ;.OXuXkX#.b.).@.@.@.! ! ! ! ).! ).@.D.;XI.f.x.>.,.v T 9.S.x.x.0Xc.S 9.;.=Xh.d.} #.} L u t n 5.5.n Y Y u u u u u L } ",
"1 1 8 8 + + + + + + + 1 1 + 1 + + + + 8 + + + + + + + + + 1 1 1 1 1 1 1 1 1 1 1 1 1 1 1 1 1 DX1 1 DX1 1 1 1 1 1 1 < g < g g < < D D k 4 k 4 k 4 4 4 4 4 4 k D D g g g g < < 1 1 8 1 + + 8 8 + + + + 1 1 1 < < < D D D k 4 k 4 k 4 4 4 4 4 4 4 4 4 4 4 k 4 4 4 k 4 4 4 4 4 4 k k k D D < g g g g 1 1 8 8 8 8 + 1 8 8 1 1 1 g b b g g D D k 4 4 4 4 4 4 k 4 k 4 k k 4 4 4 4 4 2.2.2.kX9X5XLX;.9.B B f B S.k.lXv.`.:X`.:Xp.=.=.v B B v S W.m.E.} *.#.p p p p ZXZXp ZXp #.#.ZXp p p Y Y p HX=X(.(.S y a M B B T T p._._._.v.T._.A.p.,.B B B B S ;.=XE.#.L u t t u u u u u u m u t n t t t t n n t n n m n m t u t u t u u t t t t t t t t t u u m u t n n n t t u L E.E.d.OX>.9.c.B T e M a y a a y M ;.l.x.l.;.9.v v y f B c.c.B v v 9.f.E.L t n n n t u u u L } E.h.OX;.T T T T B v v v =.(.;.l.&XL.3XS.B B B v T T v v v f f y y a M y y f y B B a f v S S S (.m.1.@.@.@.@.PX-XOX,.T v v f f f f f f B B v v v B a y y S S y f y a B f B v v ;.OXd.E.} #.b.F.F.! ! P ! ! @.! ).).kXh.OX;.,.,.c.v v T ,.k.x.x.>.;.W.OXd.I.a.} } L u u Y t 5.5.n Y u t u L L L } } ",
"1 8 8 + 8 + + + + 8 + 1 1 + 1 + + + + + + + + 1 1 + + + + + + + + + + + + + + + + + + 1 1 1 1 1 1 1 1 1 1 + + + + < < < g g g < < D k k k 4 k k k 4 4 4 4 4 k k D < < g g g 1 8 8 1 + + 8 8 + + + + 1 1 1 1 g g < < D D k 4 4 4 4 4 4 4 4 4 4 4 4 4 4 4 4 4 4 4 4 k 4 4 k 4 k 4 k k k D < g g g 1 1 8 1 1 1 1 1 1 1 1 < < g g g g g D D 4 4 4 4 4 4 4 4 k k k k 4 4 4 4 4 4 kX2.2./.5X{ =.=.T T B B B c.k.k.A.p.H p.=.=.S v 9.9.9.9.;.m.d.} p *.p p p p p p p #.p #.p p p p Y Y Y Y p L m.W.S S f y B c.c.S.,.,.k.A.A._.A.p.p.,.T B B B B S (.W.h.} p Y t n u Y u u u u u u m t t n n n n n m t n n n n t t u u u u t u u u t t t t t u u u L u L u t t u u u L } 1.I.f.>.T v f B B a y a y y y 9.9.9.;.(.S S T c.B f f B B f f v 9.m.d.L t n n n u u u L L } E.d.m.OX>.,.,.T T T T =.;.OX{.M.-X&X0Xc.B B B c.c.c.v v a c.M y y a a a y y a a M S f f v S ;.l.d.b.@.@.@.).H.f.>.,.T c.T f & f v f f B B f v 9.9.S v S S S S a B a B B v T T ;.m.V.E.L } } *.*.*.*.*.b.! @.@.@.} h.W.;.9.T T B v T c.,.>.>.{.-X-XV.I.H.;X1.a.} L L L u u u u t n 5.u Y p L E.1.E.",
"< 1 8 8 + + C + C + + + + + + + + + 1 + + 1 1 1 1 1 + + + + + + + + + + + + + + + + + 1 + 1 1 1 1 + 1 + + + + + + < < < 1 g g g < D D k k 4 4 4 4 4 4 4 4 4 k k k D D < < 1 1 1 1 + + 8 8 8 8 + + + 1 1 1 1 1 g g g < D k k 4 4 4 4 k 4 k 4 4 4 4 4 4 4 4 k 4 4 4 4 4 4 4 k 4 4 k 4 k k D < g g 1 g 1 1 1 1 1 1 1 1 1 < < g g < < D D D 4 4 2.4 4 4 k 4 k 4 k 4 4 4 4 4 4 2.4 2.2.dXt.LX=.=.S v B B B c.S.S.,.=.,.;.9.S S y 9.9.;.>.m.d.} *.p *.p p p p p p p p p p p p p Y Y Y Y Y p #.E.m.W.(.S 9.c.S.S.S.c.,.>.>.p.>.,.=.9.T B M B a M S (.W.h.#.*.Y t n t Y u u u I m t n n n n n n n n t t n n n t t u t u t u u t u t u t t u t u u u u L L u u u L L L } 1.1.H.-Xx.S.c.T B T a y a y S S S S =.=.=.S v T c.B f & y y f f v 9.m.d.L t n n t t u u u u L } E.E.h.f.{.{.x.lXx.{.{.f.V.-X-X-Xx.S.B B B B B c.B B a e S.S.c.a a T f f f y a v v f v S ;.l.h.a.F.! ! ! ).I.OX,.T T c.B y y f S v f B B B ,.>.>.9.S S v S a a a B f f f v 9.l.h.kX} L L L L p p p L *.F.@.@.@.d.=X(.(.v T c.B B T T T 9.,.x.-XH.H.H.kXI.V.d.d.d.HXL L } } p u u u u L } } a.V.f.",
"< 1 1 + C + + C + C + + + 1 1 + + + 1 + + 1 1 1 1 1 1 + + + + + + + + + + + + + + 8 + + + + + + + + + + + + + + + < < < 1 1 g g < < D D k 4 4 4 k 4 4 4 4 4 k 4 k k k D < < < + + + + 8 8 + 8 + + + < < 1 1 1 g g g g g D k k 4 4 4 4 k 4 4 4 4 4 k 4 4 4 4 4 4 4 4 4 k 4 4 4 4 4 4 4 k D D < < g 1 1 1 1 1 1 1 1 1 1 < < < D D D D k 4 4 4 4 4 4 4 4 4 4 k 4 k k 4 4 4 4 2.2.rX2.dXt.LXLXp.,.9.c.c.B B B v v 9.l.x.x.>.;.zX;.;.W.x.V.;Xb.*.p p p p p p p p p p p p p Y Y Y p Y p p *.#.1.d.m.=Xl.l.l.S.S.c.T T ,.,.9.T T v S a a y a M a S (.=Xd.b.*.Y t n t t u u u u u m t n n n n n n t t t t n t t u Y u u u u t u t u t u t t t t u u u u u u L L p p } E.a.I.I.-X{.x.x.k.S.c.T v S S S v =.,.p.p.,.=.=.T T f f y a a y f S ;.m.d.L u t n n t t t u u u L } } E.E.V.V.V.V.V.I.H.H.;X;XH.f.S.S f B B B B B v v v 9.0Xk.S.c.T B f f f f f y v v 9.;.l.h.H.b.! P ! @.b.I.OX,.T T T B y y v S v f B B a >.x.{.l.;.S v v a a f f B v v 9.>.m.d.} p u t t u L } L } } b.).@.D.m.;.S S v B c.c.B B v v S ,.l.M.H.H.V.f.f.m.m.m.m.m.h.d.E.a.} L u L L u E.I.I.m.l.",
"< 1 + + + + C C 8 + + 8 + 1 1 1 + 1 1 + 1 1 1 1 1 1 1 1 + + + + + + + + + + + + + + + 8 + + 8 + + 8 + + + + + + + + 1 < < 1 1 g < < < D k 4 k 4 4 4 4 4 k k 4 k 4 k k k _ _ _ < < + + + 8 8 + + + + < < < 1 < g g b g g D D k k 4 k 4 k 4 4 4 4 4 4 4 4 4 4 k 4 k 4 k 4 4 4 4 4 4 4 4 4 k D D < g 1 1 1 1 1 1 1 1 1 1 < < D D k k k 4 4 4 2.4 4 4 4 4 k 4 k k 4 k k 4 4 2.2.2.rX2./.5Xt.OXOXx.k.>.,.T v v v S >.f.-X-XM.M.f.x.l.OXM.;XPX).*.p p p p *.p p p p p Y Y Y Y Y p p p *.*.#.#.1.a.I.I.V.f.l.;.9.S v v v c.c.T v v T a y f a a T v ;.m.a.).*.Y Y t n n t u u u m t t n n n n n n t u u u u u Y Y Y u t u u t t u t t t t t t t m t m u u L L } } } E.d.h.m.m.{.x.>X7X7X{.0X9.v =.=.=.=.p._.lXlXA.p.,.T v f f a a a y S 9.l.M.I.} L u t n n n n n t u u u u L L L } } a.1.1.D.D.;X;XV.x.9.S v B B B e c.v v v 9.S.k.k.>.c.B B B B f f T c.S.l.m.d.H.D.@.! P P ! ).I.OX9.v B c.B y y S =.S v f f B >.M.-Xf.l.;.S y y f f B B T ,.>.x.h.E.L L t n n t u L } } } }.D.PXPXf.;.S v B B B B a a v f S 9.>.x.-X-X{.l.;.;.;.;.;.;.W.l.m.M.H.a.L u L E.d.h.{.>.,.",
"< < + + + + 8 C 8 8 + + + 1 1 1 + 1 1 + 1 1 1 1 1 1 1 1 1 + + + + + + + + + + + + 8 + + 8 + + + + + + + + + 8 + 1 + 1 < < < < < < < < _ D k 4 4 4 4 4 4 4 4 k 4 4 4 k k k D _ _ < < + + + + + + 1 + < < < < < < 1 g g g g D D k k 4 k 4 k 4 k 4 4 4 4 4 4 4 4 4 4 4 4 4 4 4 4 4 4 4 4 k 4 4 D _ < g 1 1 1 1 1 1 < < 1 g < D k k k 4 4 k 4 4 4 4 4 4 k 4 k 4 k k 4 k k 4 4 2.2.2.2.2.kX%.M.M.{.k.>.,.=.=.S S (.OX-XPXPX;XH.M.OXl.l.m.H.PX).b.ZXp p p p p p p p Y Y Y Y Y Y p p #.#.#.#.#.#.#.#.1.1.d.=X(.S S v a T S.S.c.v v S S S f S S S (.l.d.b.@.*.Y t t t n t u u u m t n n n n n t t u u u u u Y Y p Y u t t t t t t t t t t t t n n n n u u L } } } E.h.m.=XW.;.;.>.x.>X>XtX>.T v =.p.A.lXlXT.T.T.T.lXA.,.T v B a a y S 9.W.f.I.a.} L u u t n 5.n n t t t n n t t t t u L p #.b.;X;XH.M.l.;.S S v B B B T S =.S S ;.x.{.x.S.T B v v v 9.S.l.{.M.H.;XD.@.@.! P ! ! D.I.x.,.v B c.M a y S =.S v f & B >.M.wXH.f.l.S y y y f v T S.k.f.d.E.} u t n n n t u } a.1.1.;XPXPXPXM.k.c.f B B a v S S S S 9.S 9.k.M.M.k.=.v v v B f v v T ,.OXM.E.} u J.HXh.m.>.,.T ",
"< < 1 + + C + C 8 + + + + + 1 1 + 1 1 + + + + + 1 1 1 1 1 1 1 + + + + + + + + + + + + + + + 8 + + 8 + 8 + + + + 8 + 1 < < < < < < < < D D k k 4 4 4 4 k 4 k 4 4 4 4 4 4 k k k D _ < < + + + + + + + < < < < < < < g g g g g D D k k k k 4 4 4 4 k 4 4 4 4 4 4 4 /.4 4 4 4 4 4 4 4 k k 4 4 k k D _ < g 1 1 1 1 1 < < 1 1 < _ D k k k k 4 4 4 4 4 4 4 k 4 k k k k k k 4 4 4 2.2.kX2.V.%.V.M.{.k.,.=.=.;.(.=.(.l.M.;XPXPXPXV.=X;.(.;.l.V.;X).b.ZXp p p Y Y p Y Y Y Y Y Y Y p p p #.#.#.#.#.p p #.#.a.h.l.9.S y S 9.;.x.x.l.9.S S S S S (.;.W.=Xd.1.).! *.Y t t t t u t u t t n n n t n t t t u u u L Y p p p Y t t t t t t t t t t m t m n n 5.n u p *.#.} E.n.=X;.(.(.S S T 9.S.S.S.T T =.p.A.T.R.s.s.s.R.R.R.lXp.T T B f f v 9.W.m.V.a.} L L u u t n n n n n t t t t n n n n t Y p #.a.H.H.V.f.l.;.9.S v v a f f v S S =.9.{.M.M.{.k.l.l.l.l.OXf.M.I.;XPX@.@.! ! ! ! ! @.D.H.f.S.T B B M M a S S S v f f v >.M.;XPXH.f.l.;.;.;.;.>.l.{.M.H.H.1.p u t u t u L E.E.V.V.V.I.H.H.wX-X{.S.T v T S.>.p.p.p.>.>.9.c.S.x.x.>.T v v v B B B B T =.,.OXd.#.} HXd.h.OX>.c.T ",
"_ 1 8 8 + + + 8 8 + 8 + 1 + 1 + + + 1 + < + + + + 1 1 1 8 8 1 + + + + + + + + 8 + 1 1 1 + + + + + + + + + + + + + + 1 1 + + + 1 1 1 < < _ k k 4 4 k 4 k k 4 4 4 4 4 4 4 4 4 4 k D D _ < 1 1 + + + < < < < 1 1 1 < < < g g g g < D k k 4 k k 4 4 4 4 4 4 4 4 4 4 4 k 4 4 4 4 4 4 4 4 4 k 4 4 4 k k D _ < 1 1 < < < 1 1 1 1 < < _ D k k k 4 4 4 4 k 4 k 4 k CXk CXk k k 4 4 4 2.2.%.5XOXl.k.k.>.,.=.(.;.(.;.l.h.H.;XPX;XI.x.;.(.(.;.OXV.;X1.#.p p Y L u Y Y Y Y Y Y Y Y Y Y p p *.p #.p p t Y p } E.f.W.S f y M 9.W.M.yXM.l.(.(.(.(.(.W.=Xh.E.b.).).P p u u t t t t t t t t n t n t t t t u u L L p *.p p Y u t n t t t t t t t t t t t t t t t Y p *.} } d.=X;.(.S S S v v v v c.c.T T ,._._.v.s.s.[.[.[.s.R.T.lX=.T B B v 9.l.f.V.a.} p u m u u t t n n n n t u u t n n n t Y p #.a.I.M.M.f.{.OX>.,.=.v v v B v v v S 9.(.{.-XH.H.H.H.H.H.H.1.1.b.).).@.@.! ! ! ! ! ! ).D.H.M.k.,.T T T a a v S S T a f S l.M.;XPXD.a.d.h.m.m.h.V.I.H.H.;X1.#.p u Y p } } E.h.m.OXl.l.OX{.{.M.M.{.>.9.=.>.lXT.R.T.T.T.lXk.,.9.S.>.9.S v v v B f B B T T =.l.d.a.} HXd.d.m.,.T v ",
"_ g b 8 1 + + 8 8 + + + + + + + + + + + < < + + + + 1 1 8 8 1 < + + + + + + + + + 1 1 1 1 + + + + + + + + + + + 1 + 1 + + + + + 1 1 1 < _ _ k k k k k k 4 4 4 4 4 4 4 4 4 4 4 4 k k D _ < 1 + + + < < < 1 1 1 < < _ _ D < < D D D k k 4 k 4 k 4 4 4 4 4 4 4 4 4 4 4 4 4 4 4 4 4 4 k 4 4 k 4 4 4 4 k k _ < + < < 1 1 1 + 1 + < < < _ _ k k 4 4 4 4 k 4 k 4 k k k k k 4 4 4 2.2.kX5XLX=.=.9.,.,.9.;.;.;.;.=Xh.I.H.I.V.f.x.W.(.S (.;.OXf.d.E.L L u u u u Y Y Y Y Y p p p p p p p p p p Y Y n n u L E.h.l.9.T 9.;.l.m.H.;XH.M.m.=X=X=Xm.h.E.#.F.! ! P *.L u u u u t u t t t t t n t t t t u u u L p *.*.p Y u t t t t t t t n t t t t t t t t Y Y Y *.*.} a.d.=X(.S S S v S v f f c.c.B T A.T.s.7.[.[.[.[.[.[.R.R.lX=.T c.c.c.k.{.-XH.}.} L u m t u t t t n n n u I u J.u u Y Y p } E.d.{.k.k.k.k.lXk.>.,.S v T B B B a S 9.(.f.H.;XD.@.@.@.@.@.@.@.@.! ! ! ! ! ! ! @.! ).).D.;X-X{.>.,.T a a a f v v S S S ;.m.I.D.@.@.D.b.} } } }.D.@.@.D.1.}.#.p Y p #.} I.h.OX;.9.v v S ,.S.k.x.k.>.=.p._.R.R.R.R.R.R.R.{.>.9.S S S S v v f B f f B v T =.>.h.a.} E.d.V.m.;.T v ",
"_ g b 8 1 1 1 8 1 + + + + + + + + + + + + + + + < < + 1 8 1 < < + + + + + + + + 1 1 1 1 1 1 + + + + + + + + + + + + + + + + + + + + + + < _ k k k k k 4 4 4 4 4 4 4 4 4 4 4 4 4 4 k k k _ _ < < 1 1 1 < < < < _ _ D D D D D D D k k k k k 4 4 4 k k k 4 4 4 4 4 4 4 4 4 4 4 4 4 4 4 4 4 4 4 4 4 4 4 k k _ < 1 1 1 1 + + + + + + < < _ D k k 4 4 4 4 4 4 4 k k k k k 4 4 2.2.2.%.t.p.=.=.,.S.,.9.;.l.W.l.f.H.H.h.W.(.(.(.;.;.(.;.;.>.;.W.GXHXu u u u u Y Y Y Y Y Y p p p p p p p Y Y u n 5.n t L E.d.x.>.;.W.=Xh.I.;X;X;X;XI.E.E.a.;XD.).F.! ! ! z Y u u u u u t t t t t t t t t t t t u u L p p p p Y Y u t t t t t t t t t t t t u t t t t Y Y p p } a.d.=X(.S S v v S S y y f f f T A.T.s.[.[.[.[.[.[.[.s.T.lX,.c.c.S.0XtXM.-XH.1.} L I u u u t t t t n n u u u L L Y *.*.*.a.h.l.9.v T ,.,.>.k.k.>.9.v v T c.c.B a 9.W.h.H.D.D.D.D.@.@.@.! ! ! ! ! ! ! ! ! ! ! F.F.b.b.}.H.M.x.>.9.T T f f f v S S (.W.h.H.D.@.@.@.@.).).).@.@.@.@.D.#.} p p p *.#.a.d.OX,.T v v f f v T c.,.9.=.=.A.T.R.U.[.[.7.v.R.R.lX,.v f y y f v B B B f f f v =.l.h.a.1.a.a.I.f.9.9.T ",
": : : : : : : : : : : : : : : : : : : : : : : : : : : : : : : : : : : : : : : : : : : : : : : : : : : : : : : : : : : : : : : : : : : : : : : : : : : : : : : : : : : : : : : : : : : : : : : : : : : : : : : : : : : : : : : : : : : : : : : : : : : : : : : : : : : : : : : : : : : : : : : : : : : : : : : : : : : : : : : : : : : : : : : : : : : : : : : : : : : : : : : : : : : : : : : : : : : : : : : : : : : : : : : : : : : : : : : : : : : : : : : : : : : : : : : : : : : : : : : : : : : : : : : : : : : : : : : : : : : : : : : : : : : : : : : : : : : : : : : : : : : : : : : : : : : : : : : : : : : : : : : : : : : : : : : : : : : : : : : : : : : : : : : : : : : : : : : : : : : : : : : : : : : : : : : : : : : : : : : : : : : : : : : : : : : : : : : : : : : : : : : : : : : : : : : : : : : : : : : : : : : : : : : : : : : : : : : : : : : : : : : : : : : : : : : : : : : : : : : : : : : : : : : : : : : : : : : : : : : : : : : : : : : : : : : : : : : : : : : : : : : : : : : : : : : : : : : : : : : : : : : : : : : : : : : : ",
": : : : : : : : : : : : : : : : : : : : : : : : : : : : : : : : : : : : : : : : : : : : : : : : : : : : : : : : : : : : : : : : : : : : : : : : : : : : : : : : : : : : : : : : : : : : : : : : : : : : : : : : : : : : : : : : : : : : : : : : : : : : : : : : : : : : : : : : : : : : : : : : : : : : : : : : : : : : : : : : : : : : : : : : : : : : : : : : : : : : : : : : : : : : : : : : : : : : : : : : : : : : : : : : : : : : : : : : : : : : : : : : : : : : : : : : : : : : : : : : : : : : : : : : : : : : : : : : : : : : : : : : : : : : : : : : : : : : : : : : : : : : : : : : : : : : : : : : : : : : : : : : : : : : : : : : : : : : : : : : : : : : : : : : : : : : : : : : : : : : : : : : : : : : : : : : : : : : : : : : : : : : : : : : : : : : : : : : : : : : : : : : : : : : : : : : : : : : : : : : : : : : : : : : : : : : : : : : : : : : : : : : : : : : : : : : : : : : : : : : : : : : : : : : : : : : : : : : : : : : : : : : : : : : : : : : : : : : : : : : : : : : : : : : : : : : : : : : : : : : : : : : : : : : : : : : ",
": : : : : : : : : : : : : : : : : : : : : : : : : : : : : : : : : : : : : : : : : : : : : : : : : : : : : : : : : : : : : : : : : : : : : : : : : : : : : : : : : : : : : : : : : : : : : : : : : : : : : : : : : : : : : : : : : : : : : : : : : : : : : : : : : : : : : : : : : : : : : : : : : : : : : : : : : : : : : : : : : : : : : : : : : : : : : : : : : : : : : : : : : : : : : : : : : : : : : : : : : : : : : : : : : : : : : : : : : : : : : : : : : : : : : : : : : : : : : : : : : : : : : : : : : : : : : : : : : : : : : : : : : : : : : : : : : : : : : : : : : : : : : : : : : : : : : : : : : : : : : : : : : : : : : : : : : : : : : : : : : : : : : : : : : : : : : : : : : : : : : : : : : : : : : : : : : : : : : : : : : : : : : : : : : : : : : : : : : : : : : : : : : : : : : : : : : : : : : : : : : : : : : : : : : : : : : : : : : : : : : : : : : : : : : : : : : : : : : : : : : : : : : : : : : : : : : : : : : : : : : : : : : : : : : : : : : : : : : : : : : : : : : : : : : : : : : : : : : : : : : : : : : : : : : : : : ",
": : : : : : : : : : : : : : : : : : : : : : : : : : : : : : : : : : : : : : : : : : : : : : : : : : : : : : : : : : : : : : : : : : : : : : : : : : : : : : : : : : : : : : : : : : : : : : : : : : : : : : : : : : : : : : : : : : : : : : : : : : : : : : : : : : : : : : : : : : : : : : : : : : : : : : : : : : : : : : : : : : : : : : : : : : : : : : : : : : : : : : : : : : : : : : : : : : : : : : : : : : : : : : : : : : : : : : : : : : : : : : : : : : : : : : : : : : : : : : : : : : : : : : : : : : : : : : : : : : : : : : : : : : : : : : : : : : : : : : : : : : : : : : : : : : : : : : : : : : : : : : : : : : : : : : : : : : : : : : : : : : : : : : : : : : : : : : : : : : : : : : : : : : : : : : : : : : : : : : : : : : : : : : : : : : : : : : : : : : : : : : : : : : : : : : : : : : : : : : : : : : : : : : : : : : : : : : : : : : : : : : : : : : : : : : : : : : : : : : : : : : : : : : : : : : : : : : : : : : : : : : : : : : : : : : : : : : : : : : : : : : : : : : : : : : : : : : : : : : : : : : : : : : : : : : : : "
};
