/* XPM */
static char *_f9021c478314c82e74cf5548bde96f84WehUvfK4j2l4xvO[] = {
/* columns rows colors chars-per-pixel */
"512 512 256 2 ",
"   c #A1A7BF",
".  c #68B60B",
"X  c #66B608",
"o  c #A0A6BE",
"O  c black",
"+  c #B0B6CD",
"@  c #A5AFC5",
"#  c #38BCF5",
"$  c #DDE1ED",
"%  c #A1A8BF",
"&  c #42C0F8",
"*  c #7ACC18",
"=  c #6CCEF9",
"-  c #78CC15",
";  c #65B408",
":  c #92DBF9",
">  c #66B807",
",  c #6BBC0A",
"<  c #7ED4F9",
"1  c #78C916",
"2  c #71D0F9",
"3  c #A5B1C7",
"4  c #78D3FA",
"5  c #61C9F8",
"6  c #81D6FB",
"7  c #A3AAC1",
"8  c #87D7FB",
"9  c #6EBF0E",
"0  c #3DBEF7",
"q  c #67CCF9",
"w  c #99C768",
"e  c #A4E1FC",
"r  c #4FC3F7",
"t  c #A6ACC4",
"y  c #DBDFED",
"u  c #97DDFA",
"i  c #9EDEFA",
"p  c #75C614",
"a  c #53C5F9",
"s  c #A5CB7D",
"d  c #72C211",
"f  c #A6CE7D",
"g  c #69B30D",
"h  c #5CC8F8",
"j  c #8DD9FA",
"k  c #4AC3F7",
"l  c #47C1F6",
"z  c #489B04",
"x  c #9BC66F",
"c  c #B4E5FA",
"v  c #57C7FA",
"b  c #D3D9E8",
"n  c #77D1F9",
"m  c #96C367",
"M  c #4A6F56",
"N  c #62CCF8",
"B  c #439B04",
"V  c #ABE3FB",
"C  c #D0D6E6",
"Z  c #506E4B",
"A  c #C5EDFC",
"S  c #516A4C",
"D  c #ADB4CA",
"F  c #FCFDF2",
"G  c #B8E9FC",
"H  c #9CCA6E",
"J  c #A0C876",
"K  c #D7F3FD",
"L  c #AAD082",
"P  c #FDFEFC",
"I  c #DBE1F2",
"U  c #89BD56",
"Y  c #5F9416",
"T  c #7ACF17",
"R  c #FBFDE7",
"E  c #D1EFFC",
"W  c #6BB90C",
"Q  c #92C660",
"!  c #449E03",
"~  c #90C15F",
"^  c #566E4F",
"/  c #72A34A",
"(  c #AAB0C7",
")  c #9CE2FC",
"_  c #9AC170",
"`  c #A1CC73",
"'  c #FBFBFB",
"]  c #959EB5",
"[  c #4B7654",
"{  c #8AC356",
"}  c #C9D2DF",
"|  c #D7DCEA",
" . c #B1BACF",
".. c #A0C379",
"X. c #507C50",
"o. c #6EAF14",
"O. c #597452",
"+. c #93BD69",
"@. c #87B24F",
"#. c #A5C67D",
"$. c #C0E8F8",
"%. c #F8FDDB",
"&. c #ADCC89",
"*. c #AAC787",
"=. c #83AD4F",
"-. c #BFD3A3",
";. c #7BB645",
":. c #81BC4B",
">. c #49944D",
",. c #F8F8ED",
"<. c #6B8F58",
"1. c #75AA22",
"2. c #8DD6F5",
"3. c #A0A8B8",
"4. c #6BB969",
"5. c #7DB038",
"6. c #A7C186",
"7. c #C7CFDC",
"8. c #658750",
"9. c #9EBD7A",
"0. c #E4F8FD",
"q. c #B4D28F",
"w. c #7AA379",
"e. c #4E9A54",
"r. c #79CEF0",
"t. c #81AD7E",
"y. c #C6DDA5",
"u. c #87B850",
"i. c #4C940F",
"p. c #59A358",
"a. c #9CA3BA",
"s. c #607A56",
"d. c #9FCF62",
"f. c #BEDA9A",
"g. c #BFE791",
"h. c #B8CE99",
"j. c #AAD374",
"k. c #B1C892",
"l. c #4D8B4E",
"z. c #AAE9FE",
"x. c #289417",
"c. c #76A325",
"v. c #9FCAAC",
"b. c #CCD5B4",
"n. c #F5F7DB",
"m. c #A8DEF4",
"M. c #98CF54",
"N. c #A3B1BD",
"B. c #9DD7F0",
"V. c #CEE3F4",
"C. c #EEF9CA",
"Z. c #79BC19",
"A. c #5EC4ED",
"S. c #94B857",
"D. c #5DAE0D",
"F. c #5B7F5D",
"G. c #EFF0C9",
"H. c #86B731",
"J. c #81B47E",
"K. c #4EA007",
"L. c #89D0ED",
"P. c #8DB56B",
"I. c #9FAEB1",
"U. c #6EC9EE",
"Y. c #ADB8C5",
"T. c #59904D",
"R. c #BBE1F4",
"E. c #5B7264",
"W. c #7AB518",
"Q. c #53A70B",
"!. c #657B6D",
"~. c #678767",
"^. c #6E975D",
"/. c #85AE62",
"(. c #B2C098",
"). c #669C19",
"_. c #50654E",
"`. c #78AA3F",
"'. c #6AA047",
"]. c #78A463",
"[. c #50BDE9",
"{. c #CBDCB2",
"}. c #98A7A9",
"|. c #E1F2BB",
" X c #CBEBF9",
".X c #76B93E",
"XX c #8BB75F",
"oX c #139B1F",
"OX c #BBC8A1",
"+X c #C5F3FF",
"@X c #B6EFFE",
"#X c #9AB675",
"$X c #B5E381",
"%X c #7FC420",
"&X c #87BF26",
"*X c #CFE6A7",
"=X c #A7B6BA",
"-X c #A7B78C",
";X c #D2E0B6",
":X c #70B436",
">X c #628B25",
",X c #D9E8BB",
"<X c #B0DAF0",
"1X c #D9DCC6",
"2X c #8FA496",
"3X c #778D80",
"4X c #8EBF3F",
"5X c #546A5D",
"6X c #889B96",
"7X c #C3DBEF",
"8X c #EEE81E",
"9X c #B7DA88",
"0X c #85A644",
"qX c #E5E8D1",
"wX c #99C851",
"eX c #B8C4D8",
"rX c #ECE7B1",
"tX c #68A812",
"yX c #C4CDAD",
"uX c #80938C",
"iX c #6E837B",
"pX c #73B04F",
"aX c #75C5DC",
"sX c #6CB165",
"dX c #90C938",
"fX c #8BDFFD",
"gX c #E3DC99",
"hX c #75993E",
"jX c #EEF0E0",
"kX c #ABDC73",
"lX c #9BAD7F",
"zX c #98AE9F",
"xX c #398A24",
"cX c #90A767",
"vX c #F7E150",
"bX c #A1C05F",
"nX c #EFFDFE",
"mX c #8EAE15",
"MX c #B4D2E7",
"NX c #B1BFC0",
"BX c #EBDB6D",
"VX c #A1B7AB",
"CX c #837F52",
"ZX c #D7D716",
"AX c #DAD18D",
"SX c #86CA89",
"DX c #D3C776",
"FX c #77C17E",
"GX c #879960",
"HX c #8FBF92",
"JX c #E0D169",
"KX c #B1C612",
"LX c #77C9B9",
"PX c #56B225",
"IX c #6CB7B5",
"UX c #C8BC68",
/* pixels */
"O O O O O O O O O O O O O O O O O O O O O O O O O O O O O O O O O O O O O O O O O O O O O O O O O O O O O O O O O O O O O O O O O O O O O O O O O O O O O O O O O O O O O O O O O O O O O O O O O O O O O O O O O O O O O O O O O O O O O O O O O O O O O O O O O O O O O O O O O O O O O O O O O O O O O O O O O O O O O O O O O O O O O O O O O O O O O O O O O O O O O O O O O O O O O O O O O O O O O O O O O O O O O O O O O O O O O O O O O O O O O O O O O O O O O O O O O O O O O O O O O O O O O O O O O O O O O O O O O O O O O O O O O O O O O O O O O O O O O O O O O O O O O O O O O O O O O O O O O O O O O O O O O O O O O O O O O O O O O O O O O O O O O O O O O O O O O O O O O O O O O O O O O O O O O O O O O O O O O O O O O O O O O O O O O O O O O O O O O O O O O O O O O O O O O O O O O O O O O O O O O O O O O O O O O O O O O O O O O O O O O O O O O O O O O O O O O O O O O O O O O O O O O O O O O O O O O O O O O O O O O O O O O O O O O O O O O O O O O O O O O O O O O O O O O O O O O O O O O O O O O O O O O O O O O O O O ",
"O O O O O O O O O O O O O O O O O O O O O O O O O O O O O O O O O O O O O O O O O O O O O O O O O O O O O O O O O O O O O O O O O O O O O O O O O O O O O O O O O O O O O O O O O O O O O O O O O O O O O O O O O O O O O O O O O O O O O O O O O O O O O O O O O O O O O O O O O O O O O O O O O O O O O O O O O O O O O O O O O O O O O O O O O O O O O O O O O O O O O O O O O O O O O O O O O O O O O O O O O O O O O O O O O O O O O O O O O O O O O O O O O O O O O O O O O O O O O O O O O O O O O O O O O O O O O O O O O O O O O O O O O O O O O O O O O O O O O O O O O O O O O O O O O O O O O O O O O O O O O O O O O O O O O O O O O O O O O O O O O O O O O O O O O O O O O O O O O O O O O O O O O O O O O O O O O O O O O O O O O O O O O O O O O O O O O O O O O O O O O O O O O O O O O O O O O O O O O O O O O O O O O O O O O O O O O O O O O O O O O O O O O O O O O O O O O O O O O O O O O O O O O O O O O O O O O O O O O O O O O O O O O O O O O O O O O O O O O O O O O O O O O O O O O O O O O O O O O O O O O O O O O O O O O O O O ",
"O O O O O O O O O O O O O O O O O O O O O O O O O O O O O O O O O O O O O O O O O O O O O O O O O O O O O O O O O O O O O O O O O O O O O O O O O O O O O O O O O O O O O O O O O O O O O O O O O O O O O O O O O O O O O O O O O O O O O O O O O O O O O O O O O O O O O O O O O O O O O O O O O O O O O O O O O O O O O O O O O O O O O O O O O O O O O O O O O O O O O O O O O O O O O O O O O O O O O O O O O O O O O O O O O O O O O O O O O O O O O O O O O O O O O O O O O O O O O O O O O O O O O O O O O O O O O O O O O O O O O O O O O O O O O O O O O O O O O O O O O O O O O O O O O O O O O O O O O O O O O O O O O O O O O O O O O O O O O O O O O O O O O O O O O O O O O O O O O O O O O O O O O O O O O O O O O O O O O O O O O O O O O O O O O O O O O O O O O O O O O O O O O O O O O O O O O O O O O O O O O O O O O O O O O O O O O O O O O O O O O O O O O O O O O O O O O O O O O O O O O O O O O O O O O O O O O O O O O O O O O O O O O O O O O O O O O O O O O O O O O O O O O O O O O O O O O O O O O O O O O O O O O O O O O O O O ",
"# # # # # # # # # # # # # # # # # # # # # # # # # # # # # # # # # # # # # # # # # # # # # # # # # # # # # # # # # # # # # # # # # # # # # # # # # # # # # # # # # # # # # # # # # # # # # # # # # # # # # # # # # # # # # # # # # # # # # # # # # # # # # # # # # # # # # # # # # # # # # # # # # # # # # # # # # # # # # # # # # # # # # # # # # # # # # # # # # # # # # # # # # # # # # # # # # # # # # # # # # # # # # # # # # # # # # # # # # # # # # # # # # # # # # # # # # # # # # # # # # # # # # # # # # # # # # # # # # # # # # # # # # # # # # # # # # # # # # # # # # # # # # # # # # # # # # # # # # # # # # # # # # # # # # # # # # # # # # # # # # # # # # # # # # # # # # # # # # # # # # # # # # # # # # # # # # # # # # # # # # # # # # # # # # # # # # # # # # # # # # # # # # # # # # # # # # # # [.[.[.U.< fX) ) z.z.z.z.z.) j L.r.r.r.U.A.[.[.# # # # # # # # # # # # # # # # # # # # # # # # # # # # # # # # # # # # # # # # # # # # # # # # # # # # # # # # # # # # # # # # # # # # # # # # # # # # # 0 0 0 0 # # # # # # # # # # # # # ",
"# # # # # # # # # # # # # # # # # # # # # # # # # # # # # # # # # # # # # # # # # # # # # # # # # # # # # # # # # # # # # # # # # # # # # # # # # # # # # # # # # # # # # # # # # # # # # # # # # # # # # # # # # # # # # # # # # # # # # # # # # # # # # # # # # # # # # # # # # # # # # # # # # # # # # # # # # # # # # # # # # # # # # # # # # # # # # # # # # # # # # # # # # # # # # # # # # # # # # # # # # # # # # # # # # # # # # # # # # # # # # # # # # # # # # # # # # # # # # # # # # # # # # # # # # # # # # # # # # # # # # # # # # # # # # # # # # # # # # # # # # # # # # # # # # # # # # # # # # # # # # # # # # # # # # # # # # # # # # # # # # # # # # # # # # # # # # # # # # # # # # # # # # # # # # # # # # # # # # # # # # # # # # # # # # # # # # # # # # # # # # # # # # # # # # # # [.[.[.[.[.[.[.aXfXz.@X@Xz.z.z.z.z.z.z.e e ) ) fXn A.[.[.[.# [.# [.# 0 # [.# # # # # # # # # # # # # # # # # # # # # # # # # # # # # # # # # # # # # # # # # # # # # # # # # # # # # # # # # # # # # # # # # # # # # # # # # # # # # # # # # # # # ",
"# # # # # # # # # # # # # # # # # # # # # # # # # # # # # # # # # # # # # # # # # # # # # # # # # # # # # # # # # # # # # # # # # # # # # # # # # # # # # # # # # # # # # # # # # # # # # # # # # # # # # # # # # # # # # # # # # # # # # # # # # # # # # # # # # # # # # # # # # # # # # # # # # # # # # # # # # # # # # # # # # # # # # # # # # # # # # # # # # # # # # # # # # # # # # # # # # # # # # # # # # # # # # # # # # # # # # # # # # # # # # # # # # # # # # # # # # # # # # # # # # # # # # # # # # # # # # # # # # # # # # # # # # # # # # # # # # # # # # # # # # # # # # # # # # # # # # # # # # # # # # # # # # # # # # # # # # # # # # # # # # # # # # # # # # # # # # # # # # # # # # # # # # # # # # # # # # # # # # # # # # # # # # # # # # # # # # # # # # # # # # # # # # # # # # [.# [.[.5 = U.aXaXr.u z.@XG G c c G G G G G G z.z.z.) 8 U.[.[.[.[.[.[.l [.[.[.# [.# [.# [.# # # # # # # # # # # # # # # # # # # # # # # # # # # # # # # # # # # # # # # # # # # # # # # # # # # # # # # # # # # # # # # # # 0 0 0 # # # # # # # # # # ",
"# # # # # # # # # # # # # # # # # # # # # # # # # # # # # # # # # # # # # # # # # # # # # # # # # # # # # # # # # # # # # # # # # # # # # # # # # # # # # # # # # # # # # # # # # # # # # # # # # 0 # # # # # # # # # # # # # # # # # # # # # # # # # # # # # # # # # # # # # # # # # # # # # # # # # # # # # # # # # # # # # # # # # # 0 # # # # # # # # # # # # # # # # # # # # # # # # # # # # # # # # # # # # # # # # # # # # # # # # # # # # # # # # # # # # 0 0 0 0 0 0 0 0 0 # # # # # # # # # # # # # # # # # # # # # # # # # # # # # # # # # # # # # # # # # # # # # # # # # # # # # # # # # # # # # # # # # # # # # # # # # # # # # # # # # # # # # # # # # # # # # # # # # # # # # # # # # # # # # # # # # # # # # # # # # # # # # # # # # # # # # # # # # # # # # # # # # # # # # # # 0 # # # # [.A.4 fXfXu 2.L.B.m.G G G $.G G G $.G $.G G c G @Xz.) L.U.[.[.[.5 N N N 5 h r [.[.[.[.r r r l l 0 # # # # # # # # # 0 0 # # # # 0 0 0 0 # # # # # # # # # # # # # # # # # # # # # # # # # # # 0 # 0 # 0 # 0 # 0 # # # # 0 0 0 0 0 0 0 # # # 0 0 # # ",
"# # # # # # # # # # # # # # # # # # # # # # # # # # # # # # # # # # # # # # # # # # # # # # # # # # # # # # # # # # # # # # # # # # # # # # # # # # # # # # # # # # # # # # # # 0 0 # # # # # 0 0 0 0 0 # # # # # # # # # # # # 0 # 0 # # # # # # # # # # # # # # # # # # # # # # # # # # # # # # # # # # # # # # # # # # # # # # # # 0 # 0 0 0 0 0 0 # 0 # 0 # # # # # # # # # # # # # # # # # # # # # # # # # # # # # # # # # # # # # # # # # # # # # # # # # # # # # # # # # # # # # # # # # # # # # # # # # # # # # # # # # # # # # # # # # # # # # # # # # # # # # # # # # # # # # # # # # # # # # # # # # # # # # # # # # # # # # # # # # # # # # # # # # # # # # # # # # # # # # # # # # # # # # # # # # # # # # # # # # # # # # # # # # # # # # # # # # # # # # # # # # # # # # # # # # 0 0 # # # [.r 2 fXz.z.z.e V V c G G $.$.$.$.$.$.$.$.$.$.c G G @XV u 2.r.U.U.n 4 4 4 4 4 2 q q q = 2 = = N v l [.# [.# l # # # # 0 # # # 0 0 0 0 0 # 0 0 # 0 0 # 0 0 0 0 0 0 0 0 0 0 0 0 0 0 0 0 0 0 0 0 0 # 0 # 0 # 0 # 0 0 # # # # 0 # 0 0 0 0 0 0 # # 0 0 # # ",
"# # # # # # # # # # # # # # # # # # # # # # # # # # # # # # # # # # # # # # # # # # # # # # # # # # # # # # # # # # # # # # # # # # # # # # # # # # # # # # # # # # # # # # 0 0 0 # # # # # 0 0 0 0 0 0 0 0 # # # # # # # # 0 0 0 0 0 0 # # # # # # # # # # # # # # # # # # # # # # # # # # # # # # # # # # # # # # # # # # # # # # 0 0 0 0 # 0 # 0 0 0 # # # # 0 # # # # # # # # # # # # # # # # # # # # # # # # # # # # # # # # # # # # # # # # # # # # # # # # # # # # # # # # # # # # # # # # # # # # # # # # # # # # # # # # # # # # # # # # # # # # # # # # # # # # # # # # # # # # # # # # # # # # # # # # # # # # # # # # # # # # # # # # # # # # # # # # # # # # # # # # # 0 # 0 # 0 # 0 # # # # # # # # # # # # # # # # # # # # # # # # # # # # # # # # # 0 0 0 0 0 0 0 0 0 # # # # # 0 0 0 # # [.A.6 ) z.z.c c c G G $.c $.c G G $.c c R.$.R.$.$.A A G G V i B.2.8 8 6 8 8 fX6 < 4 4 6 6 6 6 4 q h [.[.[.[.l l [.0 0 0 # # # 0 0 0 0 0 0 0 0 0 0 0 # 0 0 0 0 0 0 0 0 0 0 # 0 # 0 # 0 # 0 # 0 # # # # # # # # # # # # 0 0 0 0 # 0 0 0 0 # # # 0 0 # # ",
"# # # # # 0 # # # # # # # # # # # # # # # # # # # # # # # # # # 0 # 0 # # # # # # # # # # # # # # # # # # # # # # # # # # # # 0 # 0 # # # # # # # # # # # # # # # # # # # 0 0 0 # 0 # 0 # 0 # 0 # # # 0 0 0 # # # # # # # 0 0 0 # # # # # 0 0 # # # # # # # # # # # 0 0 0 0 # # # # # # # # # # # # # # # # # # # # # # 0 # # # # 0 # 0 # 0 # # 0 # # # # 0 0 0 # # # # # # # # # # # # # # # # # # # # # # # # # # # # # # # # # # # # # # # # # # # # # # # # # # # # # # # # # # # # # # # # # # # # # # # # # # # # # # # # # # # # # # # # # # # # # # # # 0 # 0 # # # # # # # # # # # # # # # # # # # # # # # # # # # # # # # # # # # # # # 0 # 0 # # # # # # # # # # # # # 0 0 0 0 0 0 0 0 0 # # # # # # # # # # # # # # # # # # # # # # # # # # # # # # # 0 0 0 0 0 0 0 0 0 # 0 0 # # 0 0 0 # # # [.A.< ) z.z.c c G G $.G $.G $.G $.G $.$.$.$.$. X XA E +X+X+XG c V i j 2.2.j j j 8 8 6 6 6 6 6 4 4 = 5 h A.h h h a r r l l # # # # 0 0 # 0 0 # 0 # 0 # # 0 0 0 0 0 0 0 0 0 0 0 0 0 0 0 0 0 # 0 # # # # # # # # # # # # 0 # # 0 0 0 0 0 0 # # # 0 0 # # ",
"# 0 0 0 0 0 0 0 0 0 0 0 0 0 0 0 0 0 0 0 0 0 0 0 0 0 0 0 0 0 0 0 0 # 0 0 0 # # # # # # # # # # 0 # 0 0 # 0 0 # 0 0 0 0 0 0 0 0 0 # 0 0 # # # # # # # # # # # # # # # # 0 0 # 0 0 0 0 0 0 0 0 # 0 # 0 0 # # # # [.# [.# [.# [.# [.# [.# [.# # 0 0 # # # # # # 0 0 0 0 0 0 # 0 # # # # # # # # 0 0 0 0 0 0 0 0 0 0 0 0 0 0 0 0 0 0 0 # # # # # 0 # # # 0 # 0 # 0 0 0 0 0 0 0 0 0 0 0 0 0 0 0 0 0 0 0 0 0 0 0 0 0 0 0 0 0 0 0 0 0 0 0 0 0 0 0 0 0 0 0 0 0 0 0 0 0 0 # # # # # # # # # # # 0 0 0 0 0 0 0 0 0 0 0 0 0 0 0 0 0 0 0 0 0 0 0 0 0 0 0 0 0 0 0 0 0 0 0 0 0 0 # 0 0 0 0 # 0 0 # 0 # 0 # 0 # # 0 # # # 0 # # # 0 # # # 0 # # 0 # 0 0 0 0 0 0 0 0 # 0 0 0 # # # # # # # # # # # 0 # 0 0 0 0 0 0 0 0 # # # # # # # # # # # 0 # 0 0 # 0 0 0 0 0 0 0 0 0 0 0 0 0 0 0 0 0 0 0 0 0 0 0 0 0 0 0 # 0 0 0 0 # [.[.[.r.i z.G G c G G G G $.G G G G G G A A A E E E E K K K K +X+X@Xc e i B.2.: j 8 8 8 6 < < 4 4 4 4 4 n 2 2 2 = = q N 5 a l 0 # # 0 0 0 # 0 0 0 # 0 # 0 # # # # # # # # # 0 0 0 0 0 0 0 0 0 # # # # # # # # # # # # # # # 0 # # # 0 # # 0 # # 0 0 # # ",
"0 0 0 0 0 0 0 0 0 0 0 0 0 0 0 0 0 0 0 0 0 0 0 0 0 0 0 0 0 0 0 # 0 0 0 # 0 # 0 # 0 # 0 # 0 # 0 # 0 0 # 0 0 # 0 0 0 # 0 # 0 0 # 0 0 # 0 0 # 0 # # # # # # # # # # # # 0 # 0 0 0 0 0 0 0 0 # # 0 0 0 0 # [.# [.# [.# [.[.[.[.[.[.[.[.[.[.[.[.[.[.# [.0 0 0 0 0 # 0 # # 0 0 0 # 0 0 # # # # 0 0 0 0 0 0 0 0 0 0 0 0 0 # 0 0 0 # 0 # 0 # 0 # 0 # # # # # # # 0 0 0 # 0 0 0 0 0 0 0 0 0 0 0 0 0 0 0 0 0 0 0 0 0 0 0 0 0 0 0 0 0 0 0 0 0 0 0 0 0 0 0 0 0 0 0 0 0 0 0 0 0 # # # # # # # # # # 0 0 0 0 0 0 0 0 0 0 0 0 0 0 0 0 0 0 0 0 0 0 0 0 0 0 0 0 0 0 0 0 0 0 0 0 # 0 0 # 0 # 0 0 0 # 0 0 0 0 0 0 0 0 0 0 0 0 # 0 0 0 0 0 0 0 # 0 0 0 0 0 # 0 # 0 0 # 0 0 # 0 # 0 # # # # # # # # # # # # # # # # # # # 0 # 0 # 0 # # # # # 0 0 # 0 0 # 0 # 0 # 0 # 0 # 0 0 0 0 0 0 0 0 0 0 0 0 0 0 0 0 0 0 & & 0 0 0 0 # [.[.[.aXL.i c G G c c $.G G G G G c G G G A +XK K E K K K K K K K E +XA c m.B.B.B.2.2.2.8 < r.r.U.r.n < 6 6 6 6 8 6 6 6 4 4 = h l # # # # 0 0 0 0 # 0 0 # # # # # # # # # # # 0 0 0 0 0 0 0 0 0 0 # # # # # # # # # # # 0 0 0 # 0 # # # # # # # # # # # # ",
"0 0 0 0 0 0 0 0 0 0 0 0 0 0 0 0 0 0 0 0 0 0 0 0 0 0 0 & & & & & 0 0 & 0 & 0 0 0 0 0 0 0 0 0 0 0 0 0 & 0 0 0 0 0 0 0 & 0 0 0 0 0 0 & 0 0 0 0 0 0 0 0 0 0 0 0 0 # 0 0 0 0 0 0 0 0 & & & 0 0 0 0 0 0 # # [.[.[.[.[.[.[.[.[.[.A.U.A.[.[.[.[.[.[.[.[.[.l l l & 0 0 0 0 0 0 0 0 0 0 0 0 # 0 # 0 0 & & & & & & l & l 0 0 & 0 0 0 0 0 0 0 0 0 # # # 0 # 0 # 0 0 0 0 0 0 0 0 0 0 0 0 0 0 0 0 0 0 0 0 0 0 0 0 0 0 0 0 0 0 0 0 0 0 0 0 0 0 0 0 0 0 0 0 0 0 0 0 0 0 0 0 0 0 0 0 0 0 0 0 0 0 0 0 0 0 0 0 0 0 0 0 0 0 0 0 0 0 0 0 0 0 0 0 0 0 0 0 0 0 0 0 0 0 0 0 0 0 0 0 0 0 0 0 & 0 0 0 0 0 0 0 0 0 0 0 0 0 0 0 0 0 0 & 0 0 0 0 0 l 0 & 0 0 0 & 0 & 0 & 0 & 0 & 0 & 0 & 0 0 0 0 0 0 0 0 0 0 0 0 # 0 0 # 0 0 # 0 0 0 0 0 0 0 0 0 0 0 0 0 0 0 0 & 0 0 0 0 0 0 0 & 0 0 0 0 0 0 0 0 0 0 0 0 0 0 0 0 0 0 0 & 0 & 0 [.[.[.[.A.r.: V G G c R.c c c G G c c V m.V c G +X+XK K K E K K E K +XK +XA c m.B.L.B.2.2.L.r.r.r.U.aXU.U.n 6 8 8 8 j 8 8 6 6 6 4 q r [.# 0 0 0 0 0 0 0 0 0 0 # # # # # # # # # # # # # # # # # # # # # # 0 # # # # # # 0 # # 0 # # # # # # # # [.# [.# [.# # ",
"0 0 0 0 0 0 0 0 0 0 0 0 0 0 0 0 0 0 0 0 0 0 0 0 0 0 0 0 & 0 0 & 0 & 0 l 0 0 l 0 l 0 l 0 l 0 l 0 & 0 0 0 & 0 & 0 & 0 0 & 0 & 0 & 0 0 0 & 0 0 & 0 0 l 0 0 l 0 0 0 0 0 0 0 0 0 0 & 0 0 & 0 0 0 0 # [.[.[.[.[.[.[.U.r.< < 8 j fXu 2.r.aXaXaXaXA.[.[.[.[.[.[.0 0 0 0 0 0 0 0 0 0 0 0 0 0 # 0 0 0 & & & & & & & & & & 0 0 0 & 0 & 0 & 0 0 0 0 0 0 0 0 0 0 0 0 0 0 0 0 0 0 0 0 0 0 0 0 0 0 0 0 0 0 0 0 0 0 0 0 0 0 0 0 0 0 0 0 0 0 0 0 0 0 0 0 0 0 0 0 0 0 0 0 0 0 0 0 0 0 0 0 0 0 0 0 0 0 0 0 0 0 0 0 0 0 0 0 0 0 0 0 0 0 0 0 0 0 & 0 0 & 0 & 0 & 0 & 0 & 0 & 0 & 0 & 0 & 0 0 & 0 & 0 & 0 & 0 & 0 0 & 0 0 & 0 & 0 0 0 & 0 l 0 0 0 l 0 l 0 & 0 l 0 & 0 & 0 & 0 l 0 0 0 0 0 0 0 0 0 0 0 0 0 & & & & & & & & 0 0 0 0 0 0 0 & 0 & 0 0 0 & 0 0 & 0 & 0 & 0 & 0 0 0 & 0 0 0 0 0 0 0 0 0 0 0 0 0 0 0 & 0 0 l [.[.[.[.A.aXj e z.G G G c G $.G G G V m.B.B.B.m.m.c A A E E  XE E K K K  XA A c B.B.B.B.i : L.r.aXaXaXaXaXU.< 8 j fXj 8 8 6 6 6 4 4 = v l 0 [.0 0 0 0 0 0 0 0 0 0 0 0 0 0 0 0 0 0 0 # # # # # # # # # # 0 0 0 # 0 0 0 0 # [.# [.# # [.# [.# [.[.# [.# [.# [.# [.",
"0 0 0 0 0 0 & & & & & & & & & & & & & & & & & & & & & & & & & & & & & & & l 0 l 0 l 0 l 0 l 0 & & & & & 0 & & & 0 & & 0 & & & & & & & 0 l & & & & 0 l & 0 l 0 0 0 0 0 & 0 & 0 & 0 0 0 & & 0 [.[.[.[.A.A.A.aX< fXz.z.z.z.@X@X@Xz.e i ) ) ) j r.U.[.[.[.[.[.[.# 0 # 0 0 0 0 & 0 0 0 0 0 0 0 0 & & & & & & & 0 & 0 & & & 0 & & & & & 0 0 0 0 0 0 0 0 0 0 0 0 0 0 0 0 0 0 0 0 0 0 0 0 0 0 0 0 0 0 0 0 0 0 0 0 0 0 0 0 0 0 0 0 0 0 0 0 0 0 0 0 0 0 0 0 0 0 0 0 0 0 0 & & & & & & & & & & & & & & & & & & & & & & & & & & & & & & & & & 0 & & 0 & & 0 & & 0 & & 0 & & & 0 & & & 0 & & & 0 & & 0 & & & & & 0 & & & & & 0 l 0 l & l 0 l 0 l 0 l 0 l & & & l 0 l 0 & 0 l 0 0 l 0 0 l 0 0 l & & & & & & & & & l & l & l & l 0 l 0 l & & & & & & & & & & 0 & & & & 0 & & & & 0 & 0 & 0 & 0 & 0 0 0 & & 0 [.[.[.A.aXaXL.u V c c c G G G @XG G z.V i B.L.L.B.i V G A A A  X XE E K E  XA $.c m.B.m.V z.z.e B.2.L.L.L.L.L.L.2.j fXfXj j 8 6 < 4 4 = N v l 0 0 0 0 0 0 0 0 0 0 l 0 l 0 l 0 l 0 l 0 l 0 0 0 [.0 0 0 0 0 0 0 0 0 l # [.0 l # [.# [.[.# [.[.[.l l r [.[.[.# [.[.0 ",
"0 0 0 0 0 & & & & & & & & & & & & & & & & & & & & & & & & & & & & & & & 0 & & & & & & & & & & & & 0 & & & & 0 & & & & & & & & 0 & 0 & & & & 0 & & & & 0 l 0 l 0 0 0 & 0 & 0 & & 0 # 0 & 0 # [.[.A.= 6 8 j : ) @X@X+X@X@X+X+X+X+X@X@X@X@X@Xz.u 2.aX[.[.[.[.[.[.[.[.# 0 & & 0 0 & 0 0 0 0 0 0 & & & & & & 0 l 0 l & & & & & & & 0 & & & & & & & & & & & & & 0 & 0 0 0 0 0 0 0 0 0 0 0 0 0 0 0 0 0 0 0 0 0 0 0 0 0 0 0 0 0 0 0 0 0 0 0 0 0 0 0 0 0 0 0 0 0 0 0 & 0 & & & & & & & & & & & & & & & & & & & & & & & & & & & & & & & & & & & & & & & & & & & & & & & 0 & & & & & & & & & & & & & & & & & & & & & & & & & & & & & & & & l 0 l & & & & & & 0 & & 0 l 0 0 0 l 0 0 l 0 0 l 0 0 & & & & & & & & 0 & 0 & 0 0 & & 0 l 0 & & & & 0 & & & & & & & & & & & & & & & & 0 & & 0 & & 0 & & 0 l 0 [.[.[.r.6 : 2.B.m.c G G c c c G G G G z.V i 2.L.L.L.u z.@X@X+XA A  X XA  X XA A $.c m.m.V @X@X@Xz.V V V V e i : 2.2.< 8 8 8 j j 6 4 2 = = N v l 0 [.0 0 0 0 0 0 0 0 0 & & & & & & & l 0 l 0 l & & & & l l l l l 0 [.& l 0 [.0 [.[.[.[.r r h h N N N = 5 a r A.r r a ",
"& & & & & & & & & & & & & & & & & & & & & & & & & & & & & & & & & & & & & 0 & 0 0 l 0 0 & 0 & 0 & & & 0 & & & & 0 & 0 & 0 & & & & & & 0 & 0 l 0 & 0 & & 0 & 0 0 & 0 l 0 l 0 & & 0 0 & l & [.# [.h 4 fXz.z.z.@X+X+X+X+XA +X+X+X+X+X+X@X@X@Xz.z.) L.L.L.r.U.U.A.[.[.[.0 & 0 & & 0 & 0 0 0 0 0 & & & 0 0 0 0 0 & & & & l & 0 & & & & & & & & & & & & & & & 0 & & & 0 0 & & & & & & 0 0 & & & & & & & & & & & & & & & & & & & & & & & & & & & & & & & & 0 & & & & & & & & & & & & & & & & & & & & & & & & & & & & & & & & & & & & & & & & & & & & & & & & & & & & & & & & & & & & & & & & & & & 0 & & & & & & & & & & l l & & l & l & l 0 l 0 & & & & & & & & & & & 0 0 l & & & & 0 0 0 & 0 0 0 & 0 0 0 & & & & & & & & l & & l & & & & & & & l & & & & 0 & & 0 & & & & & & & & & & & & 0 & & l [.[.U.6 ) z.e m.m.G G G c V m.V V z.z.z.) u 2.L.r.2.: ) @X@X@X+XA A A $.$. XA A $.G c c G @X@X@XG G G @X@X@Xz.) 2.L.r.r.4 < 6 6 4 2 q N h v a l 0 0 0 & 0 0 0 & 0 l & & & & & & & & 0 l & l & & & & l & 0 l 0 l l 0 [.[.[.[.[.[.r 5 N N = 2 4 4 6 6 6 4 = = = = 2 2 ",
"& & & & & & & & & & & & & & & & & & & & & & & & & & & & & & & 0 l 0 l 0 l 0 l 0 l 0 l 0 l 0 & & & & 0 & & & 0 & & & & & & 0 & 0 & 0 & & & & 0 l 0 l 0 l 0 l 0 l 0 & 0 & 0 l 0 & 0 l 0 0 l [.[.[.A.6 ) z.@X@X@X@X+X+XA A  XA A +XA G c V m.m.c G z.V z.z.) j r.U.[.[.[.0 & & 0 & 0 & & & & & 0 & 0 & & & [.0 l & & l l & & & & k & & & & & & & & & & & & & & & & & & & & & & & & & & & & & & & & & & 0 & & & & & & & & & & & & & & & & & & & & & & & & & & & & & & & & & & & & & & & & & & & & & & & & & & & & & & & & & & & & & & & & & & 0 & & & & 0 & & & & & & & & & & & & & & 0 & 0 & & 0 0 0 & l & l 0 & & & k k l & & l l l l l 0 0 & & & & 0 & & & & & & & 0 & & & & & & 0 & & & & & & l l 0 & & & & & & & & & l l & l l & & & & & l & l 0 & & 0 & & & & & & & & & & & & & & & l 0 [.[.A.2 fXz.z.G c G G G c V m.m.m.e V V ) u j < r.r.< 8 fX) z.@X@X@XG G $.$.$.A A A @XA @XG G V V V z.G @X@X@X@X) j r.U.U.U.= 2 = = N h h a r k l & 0 & & 0 & 0 & 0 0 0 l 0 l 0 l 0 & & & & 0 & & & & & 0 l 0 l l [.[.[.l [.[.[.A.= 4 4 6 6 6 8 fXfXfXfX8 6 6 6 8 8 fX",
"& & & & & & & & 0 & 0 & 0 & 0 & 0 & 0 & 0 & 0 & 0 & 0 l 0 & 0 l 0 l 0 l 0 l 0 [.0 l 0 [.0 l 0 & 0 & & & 0 & & 0 & 0 & 0 & & & & & & 0 & 0 l 0 & 0 & 0 & 0 l 0 & & & & & 0 & & & 0 l # l l l [.[.A.2 fX) ) z.V c G $.$.$.$.A A +X@Xc m.B.B.<XV G A +X+X+X@Xz.fX4 A.[.[.0 & & & & & 0 & 0 & 0 & & & 0 [.0 & [.0 l & k & 0 0 & & k & & & & & & & & & & & & & 0 & & & & & & & & & & & & & & l & l & l & & & & & & & l & l & l & & l & l l l l l & & & & & & & & & & & & k & & k & & & & & & & & & & & & & & & & & & & & & & & & & & & 0 & & & & & & 0 & & & & 0 & & & & & & & & & & & & & & & & & 0 & 0 & & 0 l & & & & l & & l & l l & 0 0 & & & & & & & & & & & & & & 0 0 0 & & & & & & & & & & l & 0 & & & & & & & & & l l l & & & & & & l & l & & & 0 & & 0 & & & & & & & & & & & & & l l [.l A.4 fX) z.G G A G $.c m.B.B.: u u u : 8 6 n U.U.r.4 6 fX) z.z.z.G G G c c $.$.A A @X@Xc e B.B.i e V z.z.@Xz.) 8 r.U.A.A.N N 5 h h a r r l l l l l 0 l & & & & & & & & & 0 l 0 l 0 l 0 l & & 0 l 0 l & & l [.l [.r h 5 h A.U.2 6 8 8 8 fXfXfXfXfX8 8 j j j j fXfXfX",
"& & & & & & l & l & l l l & l l l & l l l & l l l & l l 0 l l & l 0 l 0 l 0 l & 0 l & & l 0 l & l & & & l & & & l & & l & & & & & & & l & & & l & l & l & l 0 l 0 0 l 0 l 0 l 0 & 0 [.0 0 l l [.A.N 6 fXfX: u i m.m.m.R.c @X+X@XG V B.B.B.B.V G A A +X+X@X@Xz.8 A.[.[.l & 0 & 0 & & & & & & & 0 & & & 0 l 0 l 0 & & & 0 0 & & & & & & & & & & & & & & & & & 0 & & & 0 # # 0 & & & & & & & l & l & & & k & l & l & l & l & l l & & l 0 l & l & l & & & l & l l & k & & & & & & & k & k & & & & & & & & & & & & & & & & & & & & & & & & & & & & & & & & & & & & & & & & & l l & & l & & & 0 & & & l 0 0 0 & 0 & & & 0 & 0 0 0 l & l & l l 0 l # 0 0 & k & & & & l & & 0 0 0 0 & k k & & 0 & & k & & 0 0 & & & & & & & l & l l & l & & & & & & l & l 0 & & & & & & & & & & & & & & & & & l 0 l [.A.= 8 ) e z.G G G G V m.B.2.2.2.8 8 < n 2 q A.A.A.U.n < 8 : u e z.z.c V m.m.R.G @X@Xz.e B.L.L.2.: u ) ) z.fXfX6 2 N A.A.h v a a r r k k k k l l & l & & & & & & & l & l l l l & l l l 0 l 0 l l 0 l 0 l 0 l [.r h = 4 4 4 4 6 j 8 8 8 8 j : : : j j j j j j j 8 8 ",
"& k & k l l & l 0 l 0 l 0 l 0 l 0 l 0 l 0 l 0 l 0 l 0 l l 0 l 0 l l l l l l & l l & l & l l & l & l & l & l & l & l & l & l & l & l l & & & & & & & & & & & & & l & & l & & & l 0 0 0 0 l l l l l h N 4 4 < < L.L.2.B.B.V z.@X@Xz.i B.2.B.B.e z.@X+X@X+X@Xz.) 8 U.[.[.l l & l & & & & & & & & & l & & l & & & & & 0 0 0 0 0 l & 0 0 & 0 & & 0 & 0 0 0 0 l l l l l & 0 # 0 & & & & & & l 0 l & & l l & & & l & l l & l & & & & l & & l & & & l & l l l l & l & l & & & l & & k & & & & & & & & & & & & & & l & & & l & & l & l & & & & & & & & & & & & & & & & & & & & l & & l & l & & & & & & & & l l l l & & 0 & & 0 0 0 0 0 l & & 0 l l # # # 0 l l k k l l l l [.l [.0 [.& l l & & & & & & & & 0 & & & & & & & & & & l & l & & & & & l l & l 0 l 0 l & l l & l l & l l & l l & l l l l [.[.A.q 4 j u e z.z.z.z.e u 2.L.< < n n 2 = 5 A.[.[.A.A.U.U.r.L.2.: ) e e m.B.B.m.@X@Xz.V : L.r.r.r.< 8 fXfXfXfX< 2 N h A.r r l r l [.k l l l l l & l & & & & & & & & & l & l 0 l l l 0 l l l l l l l l l l l l k A.N 4 fXfXfXfX8 fX8 fX8 8 8 fXj j j j 8 j j 8 8 < 4 ",
"& & l & l l & l l l l l l l l l l l l l l l l l l l l l l l l l l l & l & l l & l l & l l & l l l & l l & l l & l l & l l & l l l l & l l & l & l & l & l & l & & & & & & & & & & & 0 0 & l l l [.k A.N N U.U.U.aXr.L.2.u ) e ) u : j 2.j : u i z.G @X@Xz.) fXn A.[.[.l l l & l & & & & & & & & & & & & & & & 0 & & & 0 & & & 0 0 [.0 l l 0 l & [.0 [.l [.k k k l 0 & l l l & & & & 0 [.l l & & & l l l l l & l & l l l & l & & l & l 0 l & & l l l l & l & l & & l & & l & & & & & l & & l & & & & & & & l l l l l l l l l l & & & & & & & & & & & & & & & & & & & l & l l & l & & & & & & & & & k k k l & & & & k l l l l & & 0 l 0 l 0 l l [.l [.[.[.[.[.[.[.[.[.[.[.l [.[.l l l l l k k k & 0 0 0 & & & & & & & & & & & & & & & & & & 0 l & l & l & & & & l & l l l l l l l l l & l 0 l [.r h = 4 8 : ) ) ) ) u j < r.n n n = = 5 A.A.[.[.[.[.A.A.U.r.r.2.: : : 2.2.B.i z.z.z.u 2.r.U.U.U.U.r.2 2 = U.N N h a r l [.[.l [.k l [.l l l l l l & l l l & & & & l l l l l l & l l l 0 l l & & l 0 l 0 l l [.r h = 4 6 6 6 6 6 6 6 6 fX8 8 8 8 8 j j j j 8 6 n r.",
"l l l l l l l l & l & l l l l l l l l l l l l l l l l l l l l l & l l & l & l l & l l & l l & l & l l & l & l l & l l & l l & l & l & l & l l & l & l & l & l & l l l & l l l & & 0 0 & & l l l l [.l k [.[.[.A.A.U.< 8 : u u u : j fXj fXj j : i ) e ) ) j n U.[.[.l l l l l l l l l & l & & & & & & & & & & & & 0 & & & l l l [.0 [.[.[.[.[.[.[.[.[.[.[.[.[.[.[.[.[.0 l l l l l & & & & & & l l l l l l l l l l l & l & l & l & l & l l & l l l l l l & l l l & l & l & & l & l & l & l & l l l l l l l l l l l l l l l l l l l l l l l l l l l l & & & & & & & & & l & & & & & & & & & & & k k k k k l l l & l k k k k k l l & & & k l l [.l [.[.[.A.A.U.2 2 U.[.[.[.[.[.[.[.l [.l [.l l l l l l [.& l & & & & & & & k & & & & & & & & l l l & & l & l l l l l l l l l l l l l l l l l 0 l [.A.5 q 2 < 8 j 8 8 6 4 2 = = q q q 5 v r l l [.[.[.[.A.A.2 n < 8 8 2.L.L.2.: u u fX8 n U.A.A.[.A.A.A.A.A.A.A.[.r l [.l l l [.l l l l l l l l l l l l & l l l l l l l l l l l l l l l l l 0 l l l l l l [.l [.[.r h = 4 4 4 4 4 4 4 6 6 6 6 6 6 8 8 j fXj 8 6 4 r.",
"l l l l l l l l l l l l l l l l l l l l l l l l l l l l l l l l l l l l l l l l l l l l l & l l l l l l l l & l l l l l & l l l l l l l l l & l l l l l l l l l l l l l l & l & l & & & l l l & [.# [.l [.[.[.[.A.U.4 6 8 fXfXfXfXfXfXfXfXfX8 8 8 2.2.2.r.U.U.A.[.r l l l l l l l l l l & l & k & k & & & & & & & & & k k l l [.l A.A.r A.A.A.A.A.A.A.A.A.[.[.[.[.[.[.[.[.[.l l & l l & & & & & l l l l l l l l l l l l l l l l l & l l & l l l l l l l k & l & l l & l & l & k & l & l l l l l l l l l l l l l l l l l l l l l l l l l l l l l l l l l l l l l l l l & l l l & l & & & & k k k k l l [.l l [.l l l l l l l l l l l k k k l [.[.A.U.r.L.2.: ) ) 8 U.A.A.A.[.[.[.[.[.[.[.[.[.[.[.[.l [.l [.l & k & & & & & & & & & & & & & l l l l l l l l k & k & k k & k & k & k & k l l l l l l A.A.5 U.2 n n 2 2 = 5 h h h h a r r r l [.l l [.k [.A.5 = n < 6 < < < < 8 8 8 6 4 2 5 A.[.[.[.[.[.[.[.[.[.k [.l & [.l l k l l l l l l l l l l l l l l l l l l l l & l l l l l l l l l l l 0 l l l l l l l l [.r h q 2 2 2 2 = = 2 n n n n n < 8 8 j 8 6 6 n r.",
"l l l l l l l l l l l l l l l l l l l l l l l l l l l l l l l l l l l l l l l l l l l l l l l l l l l l l l l l l l l l l l l l l l l l l l l l l l l l l l & l l l l l l l l l & & & l l l l & l l 0 l [.0 [.[.[.A.q 2 2 < 6 6 6 4 4 4 4 4 4 4 r.U.U.U.A.A.A.r r r k l l l l l l l l l l k & & k & & & & & & & & & & k l l [.A.5 = 4 4 4 n 4 n n n n r.U.A.aX[.A.A.A.A.[.[.[.l l l l & & & & & l l l l l l l l l l l l l l & l & l l & l l l l l l l l l l k l & l l & k & l & l & l l & l & l l l l l l l l l l l l l l l l l l l l l l l l l l l l l l l l l l l l k & & r & & r & k k l k k k [.[.[.[.[.[.[.[.[.[.[.[.[.[.l l l k r r [.A.U.< : ) z.G @X@Xz.V : 2.L.r.U.[.[.aXU.U.= U.A.[.[.[.[.[.[.[.l l l & & & & & & & & & & & & k & l l & l l l l l k k k k l k k k k k & k k & k l l l [.l r A.A.5 q 5 5 5 h a r r r r l l l l l 0 0 l l l [.[.A.5 = 2 n n n n 4 4 4 4 4 2 q h r l [.k [.k [.r r k k k k l l k l l k l k k k l k l l l l l l l l l l l l l l l l l l l l l l l [.l l [.l l l l [.l [.l [.r h N = = q 5 5 q q q = = n n < 6 6 6 < n 2 = ",
"l l l l l l k l l l l l l l l l l l l l l l l l l l l l l l l l l l l l l l l l l l l l l l l l l l l l l l l l l l l l l l l l l l l l l l l k l l l l l l l l l l l l l l l l l & l r l r l l [.l [.l l l [.l k [.r h h 5 q q N = N N N N N 5 A.A.A.A.[.[.r r l k l l l l k l l l l l l l k k & k & k k & k & & & r l [.[.[.A.2 fXfX) ) ) ) ) ) ) ) ) j < r.r.< < 4 = A.[.[.[.l l l l l & & & l l l l k l l l l l l l l l l l l l l l l l l l l l l l l l l l l l l l & l l l l l l l l l l l l l l l l l l l l l l l l l l k l l l l l l l l l l l l k l l k l k & k & r & & r & & l k [.k [.A.A.A.A.A.[.[.[.[.[.A.A.A.A.[.[.[.[.[.[.[.A.A.< ) @X@X+X+XE A A @XG z.z.) L.aXaXr.2.u ) : < r.U.A.A.[.[.[.[.[.l l & & & & & & & & & & & & & l l l l l l l l k l k k l k l l l l k k l k k k l l l l l [.r a v r a a r r l r l l l l & l l & l l k k k [.r h N N 5 q = 4 4 4 4 4 2 q h a r l l r l l l r r a r k k k k l l l l l k k k k k l l l l l l l r l [.l l l l l l l l l l l l l l l l l l l l l l l l [.l r a v h h h A.A.A.A.A.U.q = 2 n n 4 n 2 2 r.= ",
"l l l l k l l k k k k k k k k k k k k k k k k k k k k k k k k k k k k k k k k k k k k k k k l r l r l r l r l r l r l r l r l r l r l r l r l k l k k k k k l l l l l l l l l l l l r r r l l l r l r l l l l k l [.l r r [.[.[.A.A.r r r a r [.[.[.[.[.[.r k k & & & l l l l l l l l [.l l l l k l k & & k & k & r l [.[.[.A.U.8 ) z.z.z.z.z.z.z.z.z.z.) z.) ) ) ) ) fXn A.[.[.[.[.l l & & & & l l l k [.k l [.k l l l l l l l l l l l l l l l l l l l l l l l l l l l l l l l l l l l l l l l l l l l l l l l l l l l l l l l l l k l k l k l l k k k l k l k l k l k k l k k & k k l [.[.[.[.A.r.r.r.aXaX[.aXaXr.< r.r.U.A.A.[.[.[.[.[.aXU.: z.+X+XE E E  XE +X+X+X+X@XV B.L.m.G @X@X@Xz.) ) 2.aXaX[.[.[.[.l l l & & & & & & & & & & k & l l l l l l k k k k k k k k k k k k k k k k k k k k r l [.l l r r l l r l l l l k l l & l & & k k k k k k r r a v A.A.A.N 2 4 4 4 2 q h a l [.l r r l [.l r r r k k k k k & l l l l k l k k k l k l k l r [.l r l r l l r l k k l k l k l l l l l l l l l l l l l l l [.r r r l [.r r [.[.A.h q = = = 2 2 2 = = 2 2 ",
"l l l l k l k k k k k k k k k k k k k k k k k k k k l l l k l k k k k k k k k k k k k k k k l k k l k k l r l r l l l l l l l l l l l l k l k l k l k l l k k k k k k k k k l l r l l l r l r l l r l r l k k l l l l l r l [.[.[.[.k [.k [.l k [.l r r r k k k & k & l k l l [.k [.[.[.[.[.[.A.A.[.[.[.[.[.r [.[.[.[.[.A.A.U.8 ) z.z.z.z.z.V c V c V c z.z.z.z.z.z.z.) fX< U.A.[.[.[.l r & r l l l l k k r r r l r l [.l l k k k k r r l l k k k k k k k k k k l k l k l k l l k l l l l l l l l l l l l k k k k k k k k k k k l l k l k k l l k l k l k k l k k k k l k & k k k l k [.[.[.[.aXr.fXz.) 2.L.aXaXL.) z.z.) u L.U.aXU.aXaX[.aXaXB.@X+XK K E E E E K E E +XA A $.c $.A +XK +X+X+X@XV B.L.r.A.A.[.[.[.l l k k k & k k k & & & & l k l l l l l k k k k k k k k k k k k l l l l l l l l l l l l l k l l l l l l l l & & l l l k k k k k k k k r r r l [.r v N N N N h v a r l l l l r l l l l r k l & & & & l l l l l l l l l l l l r l r r l r [.l r l k k k k k k k k k k l k l k l k l l r l l l l l l l l [.l [.r r r r a h N = = = 2 2 2 2 2 2 2 ",
"k k k k k k k k k k k k k k k k k k k k k k k k k k l l l l l k k k k k k k k k k k k k k k k k k k k k k k k k k l l l l l l l l l k l k l k k l k l k k l k k k k k k k k k r l r l r l l l r l l r l k r l k l l l l l l l l l k k l k k k l r r k k k k k k k k k k k k l [.A.A.A.[.A.A.U.U.U.U.A.A.[.A.A.A.[.[.A.A.U.n j ) z.z.z.c c c c c c c c c c V c V z.z.z.z.) ) 6 U.A.[.l l l r r k l l l k r a r r r l l l l l k k a a r r r l k k k k k k k k k k l k l k l k l k l k k k k k k k k k k k k k k k k k k k k k k k k k k k k k k k k k k k k k k k k k k l & l r k r l [.A.[.aXr.2.) @X+X+Xz.V m.m.V @X@X@X+X@X) 2.2.u 2.L.aXL.L.m.A +XK K K E K E E E E E E +XE E E E E K K K +X+XA G z.) 2.r.A.[.[.l l l k l r & l & l & & l l k l l l l l k k k k k k k k k k k l l l l l r l r l l l l l l l l l & l & l & & & l l r l k k k k k k k k [.l r r r r r a a a r r r r r r r r l l l l [.l l l l l r & r k k k l r r l r [.l r [.l r [.l r l r l r l r k k k k k k k k k k k k k k k k k k k k l r k k k l k k k k k r a v h 5 N N q = = = = = = = ",
"k k k k k k k k k k k k k k k k k k k k k k k k k k l l l l k k k k k k k k k k k k k k k k k k k k k k k k k k k k k k k k k k k k k k l k l k l k k l k k k k k k k k k k k k r l l r l r l r l r l r r k k k k k l & l l k k k k l k k l k k k k k k k k k k k k k k r r [.A.q = U.U.r.< 8 j j 6 < r.n n 4 2 U.A.[.A.r.j ) z.z.z.G c c $.R.$.c $.c c c c c c c c z.z.z.z.fXn 5 A.[.l l k r r l l l k r r a r r r r k k k k k k k k l l l l k k k k k k k k k l k k l k l k l k k k k k k k k k k k k k k k k k k k k k k k k k k k k k k k k k k k k k k k k k l k r l l l r r A.[.A.U.L.u z.@X+X+X+X+X+XA +X+X+X+X+X+X+XG V c @X@Xz.V V c $.+XK K E E  XE E  XE E E E E K +XE K E K E K E E E E +X@Xz.fXr.A.[.[.[.[.l [.[.l [.l r l l l l l l l l l k k k k k k k k k k k k k r l r l l l l r l r k k k k k l l & r & r & r l l r r k k k k k k k r k k r k r r k A.r a [.r r r l r l r r r r r l r l r l r & r & k k k r l l r l l [.l r l r k r [.r k [.r k k k k k k k k k k k k k k k k k k k k k k k k k k k k k k k l k k k r r a v h h 5 h N h N h h ",
"k k k k k k k k k k k k k k k k k k k k k k k k k k l l l l l k k k k k k k k k k k k k k k k k k k k k k k k k k k k k k k k k k k k k k k k k k k k k k k k k k k k k k k k k k r r l r r l r r r r l k k k k k k k l l k k k l k k l k l k l k k k k k k k & a & l l [.[.A.q 6 fX: : : i e e ) ) ) u u ) ) fXn U.aXaXL.) z.@Xz.c c c $.R.R.$.R.c $.c $.c c c c G G z.z.z.fXn A.[.[.[.l l r r l l k k r r r r r r l r k k k k k k k k l l r r l r l r k k k k k k k k k k k k k k k k k k k k k k k k k k k k k k k k k k k k k k k k k k k k k k k k k k k k k r r l l r r r r [.[.A.r.u @X+X+X+XK +XK E E +XE A E +X+X+XA A A +X+X+XA A A E K E E K E  XE E I E E  XE E K K K E E E E E E K E K +X+X@X) r.A.[.A.k [.[.A.A.[.[.[.l r k l l l k k k k k k k k k r r r r r r k k k r l r r r r l r l r k k k l l k k l l r & r l r r l r r k k r r r l r r k r k k r k [.r r r r r r r l r l r l l r l r l l r & r & r k r l r r l r l r l r r l r k k k k k k k k k k k k k k k k k k k k k k k k k k k k k k k k k k k k k l l k k r r r [.r [.a a a a a a r ",
"k k k k k k r r r r r r r r r r r r r r r r r r r r r r r r r r r r r r r r r r r r r r r r k k k k k k k k k k k k r r r r r r r r r r k r k k r k k k k k k k k k k k k k k r k k r l r l r k k k k k k r k k k k k k k k k k k k k k k k k k k k k k k k r r r r l [.r A.U.n fX) z.z.V V V c z.z.z.) z.z.z.) j L.L.L.B.e z.z.c c c c R.$.c R.$.R.c c G c R.c G G G V i : L.U.A.[.[.[.[.[.l l l r r r r l r r r r a r k k k k a a k k l l l r r r r r r r r k k k k k k k k k k k k k k k k k k k k k k k k k k k k k k k k r l r r r r r r r r r r r r r r r r r l r r r r r [.[.[.aX2.z.+X+X+XE E E E E E E E  XE K E E  XE +XE E E K E +XE +XE E K E E E E E E E E E K K K K +XK E E K E E E K K +X+Xz.L.aX[.A.A.A.A.A.U.A.A.[.[.r r k k l k k r r r r r r r r r r r k r r r r r r l r [.r r r r r k k k k k l r l r l r l r l r r r l r r r r r r [.r l k k r l r l r r r r r r r r r r r r r l r l r r r l r l k k k k r l r l r l r l r r r k k k k k k k k r r k k r k r k r k r k r r k r r k k k k k k r r r k k k k k k k k [.r [.r [.r r r r r r r ",
"r r k k r r k r r r r r r r r r r r r r r r r r r r l r l r l r r r r r r r r r r r r r r r r r r r r r r r r r r r r r r r r r r r r r k k k k k k k k k k k k k k k k k k k k r k k k k k k k k k k k r k k r k k k k k k k k k k k k r r r k r k k k k r k r r l r r 5 5 2 6 ) z.z.G c c c c G c c z.z.z.z.z.) i i i e V z.c c c c R.c c R.c c c c $.c c c c G G z.m.2.aXaXaXaXA.A.5 h A.r l r r r r & r l r r a a a k r k r a k a k l l r r r r r r r r r r r k k k k k k k k k k k k r k r k r k r k r k r k r k r k r k r r l r l r l l r l r l r l r k r l r r r l r r r [.[.aXaX: @X+X+XK E E E E E E E E E E E E E E E K E E +XE E E E E E E K K E E E E E E E K K K K +XK E +XE E E E K E E +X+Xz.L.aXaXaXr.r.< j : 8 r.U.A.r r r l k r r r r r r r r r r r a a r r r r r r r r r r r r r r r r r r k k k k r l r l r l r r r r r r r r l r r l l r l k [.k r r l r r r r r r r l r l r l r r r l r l r l r r a k r k r r r l r r r r k k k k k k k k r r r r r r r r r r r r r r r r r r r r r r r r r r l r r r r r r r r r r r r [.r r r r r r [.r ",
"r r a k a k r r r r r r r r r r r r r r r r r r r r r r r r r r r r r r r r r r r r r r r r k r r l r r l r r l r r r r r r r r r r r r r r r r r r r r r r r r r r r r r r r r r r r r k k k k k k k k k r r r k a k k k k k k k k r r r l r r k a k a k r r r r r r A.5 = n 8 ) z.z.c G $.$.$.$.G G c z.z.z.z.z.z.z.c c c c c G G c G c $.c c c $.c c $.c c c c G V i L.aXaXL.L.< 6 < 4 N A.r [.r r r r a r a a a a a a r l [.r k A.r [.r r r r r r r r r r r r r r r r r r r r r r r r r r r r r r r r r r r r r r r r r r r r r r r r r r r r r r r r r r r r r r r l r r [.A.[.A.L.) @X+X+XK K K E K K K K E E E K E E E K K K E E E +X+XK +XE E K E E K K K E E K E K K K K E E E E E E E E K K +X+XG B.aXaXL.i V z.@X@Xz.u n A.A.r r k k r r r r r r r r r r a a a a a r r r r r r r r r r r r r k a r r r r r r r r r r r r [.r [.r r [.r r [.r [.l k k k k r r r r r a r r r r r r r r r r l r l r r r r r r k a k r r r r r r l r r r r r k k a k k k r r r r r r r r r r r r r r r r r r r r r r r r r r r r r r k r k r k r r r r r A.r a r r r r r ",
"r r r a k a k r r r r r r r r r r r r r r r r r r r r r r r r r r r r r r r r r r r r r r r r r r [.r r r [.r r r [.r [.r [.r [.r [.r l r r r r r r r r r r r r r r r r r r r r r r r r r r k k k k k r r r r r r k a a a k k k r r r r r r r r r r k r k r r r r r [.A.A.U.n 8 u V c c G $.R.R.R.c R.c c c c c c G G G G c c c G G G G c G G G G G G $.c G c G z.z.V e B.B.B.u ) ) ) fXfX2 h A.r r r r a a v a a r r r a A.[.[.[.A.A.h h a r r r r r r r r r r r r r r r r r r r r r r r k r k r r k r r k r r k r r k r r k r k r r k r r k r k r r r r k r r r r r r r r r r [.A.U.fXz.@X+XK K E  XE K K E E E E E E E E E E K E E +XE +X+XK +XE A E E K E K K E K E E E E E +XK +XK E K E K K K K +X+X+XG m.B.V G +X+X+X+X@X) r.A.[.[.r r r r r r r r a a a a a a a a a a a r r r r r r r r a r r r a r r r r r r r r r [.r r r r r r r r r r A.r r [.r r k r k r r a a a k a r r r r r r r r r r k r k r r r r r r a k r k r r r r r r r r r r r k k a k a r r r r r r r r r r r r r r r r r r r r r r r r r r r r r r r r r k A.k r r r r r r a a r r r r ",
"r a r r r a r r r r r r r r r r r r r r r r r r r r r a a a r r r r r r r r r r r r r r r r r r r r r [.r r r [.r r r r r r r r r r r r r a a a a a a a a a r r r r r r r r r r r r r r r r r r r r r r r r r r k a a k a a k A.r r r r [.r r r r r r r k r k r r r [.A.5 U.r.8 ) z.z.c c G $.$.$.G G G G G c c c c G G G c c c c c G G G G G G G G c G $.c G G G G z.z.z.z.z.z.z.z.z.fXfX2 5 A.r A.r r a a v a a r A.A.A.[.[.[.[.A.A.A.A.A.r r r r r r r r r r r r r r r r r r r r k a r a r a a k a a r a a r a a r a a r a r r r r r r r r r r r k a r a r a k a r r r r r A.A.A.r.fXz.@X+X+X+XE E E K K K E E E K K K K K K K K E E +X+X+XA A $.$. XE E E K K E E E E  X$.$.E E E +XK +XE E E +X+XA +X+X+X+X@X+X+X+X+X+X+X@Xu r.A.[.r a a a r r r a a a a a a a a a a a a a a a a a a a a r a a a a r a r k A.r r r r r r r A.r r A.r r A.r r r r r r r r r k a r r r r a k a r r r r r [.r r r r r r r r r r r k a k a a a r r r r r r r r r r k a a k a r r r r r r r r r r r r r r a r r r a r r r r r r r r r r r r r r r k k k r k A.r a r a a r r r r ",
"r r r a r r r r r r r r r r r r r r r r r r r r r r a a a a a r r r r r r r r r r r r r r r r r [.A.r A.r [.A.r [.A.[.A.r A.r A.r A.r A.r r a k a k a k a k r r r r k r r r r r r r r r r r r r r r r r r r r r a a a a a a k k k A.k r r r r r r r r r a k k k r r r A.A.U.n j ) z.z.G G G G G c c G G G z.c c c $.$.$.G $.c c c c c G z.G c G c c c c $.$.c c G z.@Xz.z.z.) ) ) u j 6 4 q A.A.A.A.A.A.[.[.A.r A.A.A.5 = U.U.U.r.U.aXA.[.[.A.r r r r r r r r r r r r r r r r r r r a r a k a k a r r r r r a k a k a k k a r r r r r r r r r r r r r r r r r r a r r r v r r r A.A.r.fXz.@X@XA A A +XE K K E E E E E E K K E K K K +X+XA $.c c R.<X<XR.$.E E E K E E +XA $.R.R. XE K K K +XK +XA $.$.G @X+X+X@X+X@X@X@X+X@X@Xz.j U.A.[.r a a k a a a a r a a a a a a v v a a a a r a r a a a a a a a a a a A.k r r A.r r A.r r r r a a r a r r r r a r a a a a a a k r r r a a k a r r r r r r r r r r a r r r r r r a a a k r r r r r r r r r r r a r k a k r a a a a a a a a a a a a a a a a a r a a r a r r r r r r r r a a v a a v a a k a a a a a a a a a ",
"r a r r r r r r r r r r r r r r r r r r r r r r r r r a r r a r r r r r r r r a a a a r r r A.r A.[.[.[.A.[.A.A.5 q = q q U.5 5 h A.A.r r r a a a a a a a a a a k r r a a r r a r r r r r r r r r r r r r r r r a k a a a a a v r r r A.r a r a r r a k r r a r k A.r A.5 = 4 j ) z.z.z.@XG G c c G c c V m.<Xm.c R.G G G G $.c c c G G c c c c c c $.c $.c R.m.m.V V V e i : 2.2.L.r.r.U.A.A.A.A.A.A.[.A.[.[.[.A.U.r.j ) ) i i ) u : L.r.U.A.A.r r r r a r r r r r r r r r r r a a r a r a r a r a a r r a r a k a k v k a k a r r r r r r r r r r r r r r r r a a a r a r k [.A.A.r.fX) V V R.R.$.A E K K K E E E E E E E E E K K E A $.c m.m.<XB.B.<X$.A E E +X+X+XA $.R.<X<X$.A +XK K +X+XA c c m.m.V z.V e V V V z.z.z.) : r.U.A.A.a v a r a a r a a a a a a a a v a a v a a a a a a a a a a a a a a a a a a a a a a r a a a a a a a a a a a a r a v a a a a a a r r r a a a a r a r r r r r r r a a a a a r a a a a a a r r a r r r r a r r a r r a r a r a a a a a a a a a a a a a a a a a a a a a a r a r r a r a r r a v a v a v a v a a a v a v a a a ",
"r r r r r r r r r r r r r r r r r r r r r r r r r a r r a r r r r r r r r r r a v v a A.A.A.A.A.A.A.[.A.[.A.A.U.4 8 fX8 8 6 6 4 2 5 A.A.r r r a k a a k a a k k a r a k a a a a a a r r r r r r r r r r r r r r a a k a k a a a a a a a a a a r r r r r r r r a r r r A.q 2 6 8 : u ) z.z.z.c c G z.c V m.B.B.<XR.c c G G G G c V c G G G G c c $.R.c $.$.c R.<X<Xm.m.i u 2.2.L.r.U.U.A.A.A.A.A.A.A.aXaXU.aXaXaXaXL.) @X@X@X+X@X@X@X@Xz.) fXn N A.[.r a a a r r r r r a a r a a r a a r a r a a a a r a r r r a k v k k a k v a a a a a a a a a a a a r a a r r a v v r r a r r A.A.4 j : B.B.<X<XR.$.A E K K K E E E E K E E K E +X+XA c m.m.B.B.B.B.m.c A A A +X+X@XG c m.<X<XR.$.A +X+X+XA c m.m.B.B.u : 2.L.L.2.j u ) fX8 4 U.A.A.r a a a a a r a r r r r r r a a a a a a a a a a a a a a a a a a a a a a a a a a a a a a r a a a a a a a a a a a a a a v a a a a a a a a a a a a a a a a a a a a a a a a a a a a a a a a a a a a a a a a a a a a a r a a a a a a a a a a a a a a a a a a a a a a a a a a r a a r a r a a a a a a a a a a a A.a a a a a a a ",
"r r r a r a r a r r a r r a r a r r a r r a r r a r A.r A.r A.r a a r a r r r a a a A.A.A.A.5 U.U.A.A.A.A.aXr.< fX) ) ) u fXfXfX6 2 5 A.r r r r a k k a r k r a r a a a a a a a a a a a a a a a a a a a r r a r a k a a a a a a a a a a a a a v a r a r a r a a r r A.h N 2 4 < 6 8 : ) e e V z.z.V V m.B.B.B.m.c c c G c c V V m.V c G c G c $.c $.R.$.$.c c V m.m.B.B.B.B.2.L.r.U.aXA.aXA.A.A.aXaXL.2.: : 2.L.2.) @X+X+X+X+X+X+X+X+X@X@Xz.6 2 5 A.A.a v a a r r a a r A.a A.a A.a a r a a k a r a a r a a a a v k a v k v k a a v a a a a a a a a a r a r a a a v v r v v a r A.A.r.2.: i m.<XR.R.$. XE K K K K E E K K K E K K K +X@Xc m.B.B.i B.B.i V c G G c c V V m.m.B.B.m.c G $.G G c V m.B.B.j 2.L.r.U.U.U.n 6 6 6 n q A.A.r A.a a a a a r r r r r r r r a a a a a a a a a a a a a a a a a a a a a a a a a a a a a a a a a a a a a a a a a a a a a a a a a a a a a a a a a a a a a a a a a a a a v a v a v a a a a a a a a a a a a a a a a a a a a a a a a a a a a a a a a a a a a a a a a a a a a a a a a a a a A.a a a a a a a a a a a a a a r A.a a ",
"a a A.r a A.r A.a r A.a r A.a r A.a r A.a r A.a a a r A.r a a a a a a a a a a A.A.A.5 q = 2 4 4 4 4 r.U.U.r.6 fX) ) ) ) u ) ) fXfX6 = A.r r r r r r r r r r r r a a a a a a a a a a a a a a a a a a a a a a a a a a a a r a v v v v v a v v a a a a a a a a r a a a r A.N = 2 2 n < 8 j u u e e e i B.2.B.B.e V G G z.z.z.V i B.B.i V c V c c G G $.c R.c c G c c m.B.: B.: i ) : L.aXaX[.aXaX[.aXL.i z.@Xz.V e z.@X@X+X@X@XG G @X+X+X+X@Xz.8 2 U.A.A.a a a a a a a a a a A.a A.a a A.a r a a a a a a a a a a a a v v k v v a v v a a a a a a v a a a a a a a r a v v a v v h A.A.aXaXL.i V c $.$.$. XE K K K 0.K K K K K K K E K +X+X+Xz.e i u u u : : i e e m.m.i i m.u B.B.B.m.V V c V m.m.i B.u : 8 < U.A.A.A.U.N = = = q h A.r r a a v a a r a a a a a a a a a a a a a a a a a a a a a a a a a a a a a a a a a a a a a a a a a a a a a a a a a a a a a a a a a a a a a a a a a a a a a a a a a a v a a v a v a a a a a a a a a a a a a a a a a a a a a a a a a a a a a a a a a a a a a a a a a a a a a a a a a a a a a a a a a a a a A.a a a a A.a a a a a ",
"a a a a a a a a a a a a a a a a a a a a a a a a a A.a a a A.a r a a a a a h a A.A.5 2 4 fXfXfXfXfXfXfX6 L.j u ) ) ) ) i i ) ) ) fX< U.A.A.r r r a a a a a a a a a a a a a v a v a a a a a a a a a a a a a a a a a a a a a v a a a a a v a a v a a a a r a a a a a A.r h h N q q U.U.r.< 2.j : u : 2.L.L.L.2.i V z.z.z.z.V i u 2.L.2.i e V V c G G G $.$.c c c G c V i B.B.i z.@Xz.e 2.r.aXaXaXaXL.B.G +X+XG V m.V z.z.z.V m.m.m.c @X+X+X@X) 6 2 5 A.A.A.a a a v a a r A.a r A.a a a v a a A.a a a a a a a a a v a v v v v v a v a v a a v v a v v v a a a a a a v v v a a A.A.A.aX[.aXL.e G +X+X+XE E K K K 0.0.0.0.K 0.0.K K K K +X+X@Xz.) u j j j 8 2.: u u u B.: B.u u u u B.i m.m.m.m.B.B.B.u u : 6 2 A.A.A.A.r A.A.A.h h r r [.r a a a a a a a a a a a a a a a a v a v a v a v a v a v a v a v a v a v a v a a v a v a v a v a v a v a a v a v a v a v a v a v a a v a v a a a v a a a a v a v v a v v a v a v v a v a v a a a a a a a a a a a a a a a a a a a a a a a a a a a a a a a a a a a a a a a v a h a v A.v a h a v A.a h a v a v a v a v a v a v ",
"a a a A.a a a a a a a a a a a a a a a a a a a a a a a a a a a a a a a a v h a A.A.= < fX) ) z.z.z.z.) u u u ) ) ) e e i i ) ) fXfX< U.A.A.a a a A.v h h v v v a a v a v a a v a v a v a a a a a a a a a a a a a a a a a a a v v v v v v v v v v a a A.a a a a a a a a A.h h N 5 U.U.U.r.< 6 2.2.L.L.L.L.L.2.2.u i i ) ) i u 2.L.L.L.L.2.i e z.G G G G G G c c z.V e u 2.2.u V @X@X@XV i B.B.B.B.B.c A +XA V B.B.B.: u B.2.L.L.B.m.G @X@Xz.u < 2 5 A.h v a a v v a a a a A.a v v v a v a a a a a a v a v a v v v v v v v v v v v a v v v a v v v v v v a a a a a v v h h A.A.U.U.aXaXaXB.z.@XA +XK K K K 0.0.0.0.0.0.0.0.0.0.K K +X+X+X@Xz.u 8 < n n r.< 8 : : u u u u fXu : : : u u i u B.u : : : : 8 4 q h A.r h a r r r [.r [.r r a a v a a a a a a a a a a a a a a a a a v a a v a a a v a a v a a v a a v a v a a v a a v a a v a a a v a a a a a a v a a a a a v a a a v a v a v a a a a a v a v v a v v v v a v a a v a a v a v a a v a v a v a a a a a a a a a a a a a a a a a a a a a a a a a a v v a h a a v v v a a v a v a a v a v a h a v a h a v a ",
"v h v v v v h v h h v h h h v h h h v h h h v h h v v v v v v v v a v v v h A.A.U.2 6 fX) ) ) ) ) e ) i i ) e e i e e e e e ) ) fX6 n U.5 h A.A.v A.h h A.a a v v v v a v v v v a v v v v v v v v v v v v v v v v v v v v v v v v v v v v v v v h v v v v h v h v h a a a h A.h A.5 U.= n < < r.r.L.L.< < L.L.2.2.2.2.2.8 2.2.< < L.L.L.2.u e V G G G G G z.V V e u 2.L.L.2.i z.@X@X@XG @X@X@XG A +X+X+XA m.B.L.L.L.L.L.L.L.L.L.B.i e u 2.r.r.q 5 A.h a a a v v v a v v a v a h v v v a v a v a v v a v v v v v v v v v v v v v v v a v v a v v v v v v v a a a v h h 5 U.n 8 j 2.aXaXB.c $.A K K K K 0.0.0.0.0.nXnXnXnXnX0.0.K K A @Xe : L.r.U.U.U.U.U.4 8 j : fXfXfXfXfXfXfX) fXu u u u u u fXj 8 4 = N h a v h a r r r a a r a a a v v a a a a v v v v v v v v h v v v v v v v v v v v v v v v v v v v v v v v v v v v v v v v v v v v v v v v v v v v v v v v v v v v v v v v v v v v v v v v v a v v v v a v v v v v v v v v v v v v v v v v v v v v v v v v v v v v v v v v v v v v v v v v v v v v v h a v h v v v v h v h v v h v h v h v v v h a h v v ",
"v v v v v v v v a v v a v a h a v a v v a v v a v v v v v a v a v v v h A.h A.A.U.n 8 fX) ) z.) e i i i i i m.i e V e V e e ) u : 8 6 4 N A.A.A.A.A.A.A.A.A.A.h v v v v v v a v v v v v v v v v v v v v v v v v v v v v v v h v v h v v v h v v v v v v v a h a v v a a h v h h h N N q 2 4 < < < < 6 6 6 < < < L.2.< < < < < n n r.r.r.L.2.: i e V c c V V e ) u 2.L.L.L.2.e @X+X+X+X+X+XK +XK +X+X+X+X@XV u 2.L.r.r.r.U.U.r.L.L.2.2.2.L.r.U.U.A.A.h v a a v v h v a A.v h a h a v v v a a v a a a a v a v v v v v v v v v v v v v v v v v v v v v v v v v v h h A.h q 6 fX) z.) i B.m.$.$.A E K K K 0.0.0.nXnXnXnXnXnX0.0.K E  XR.m.L.r.U.U.A.A.A.A.U.2 6 fXfXfXfX6 6 < < 6 fXfXfXfXfXfXfXfX8 < n = N h v a a a a a a a a a a a v v v v v a a v v v v v v v v v v v v v v v v v v v v v a v v v v v v v v a v v v v v v v v v v v v v v v v v v v v v v v v v v v v v v v v v v v v v v v v v v v v v a v v v v a v v v v v v v v v v v v v v v v v v v v v v v v v v v v v v v v v v v v v v v v v v v v v v v v a h v v v a v v v v a v v a v v v v v v v v ",
"v v v v v h v h v h v h v h v v h v h v h v h v h v h v v v v v v v h v v h A.N U.4 j fX) ) ) e i i m.i i m.i e V V e e e i ) u j 8 < 4 U.A.A.A.A.5 U.U.5 A.5 h 5 v v v v v v v v v v h h h h h h h h v v v v v v v h v h v v v h v v h v v h v h v v h v h v v h v A.a a v h h h A.5 N = 4 4 < 6 6 < < < < < < 6 6 6 6 < 4 n 2 U.r.n n < < 2.2.u i e e i u : : j 2.L.L.L.2.) @X@X+X+X+X+X+XK +XK E +XA G e : 2.< n r.U.U.r.< < n L.< < < < = = q q N 5 h a a v h a h v A.h h v v v v v v v v v v v v a v v v v v v v v v h v h v v v v v v v v v v N v v v v v h A.5 = fX) z.@X@XG G $.$.A E  XE K K 0.0.0.0.nX0.nX0.nX0.K K  XR.<XL.L.aXU.A.A.A.A.A.5 q 4 6 6 6 < 2 = U.= 4 6 6 6 8 8 8 6 6 4 2 q 5 h h v a a a v a v h v v h v v v v v a v a v v h a h v h a h a h v h v v v v v v v v v v v v v v v v v v v v v v v v v v v v v v v h v h v h v h v h v v v v v v v v v v v v v v v v v v v v v v v v v v v v v v v v v h v h v v v v v v v v v v v v v v v v v v v v v v v v v v v v v v v v v v v v h a h v h v h a h v h v h v h v h v h h v h a h v h v ",
"v v v v v v v h v v h v v h v h v v h a h v v h a h v v h v h v h v h h h h A.U.N r.6 fXu ) ) i i i i e i i i m.e e e e i i u j 2.r.r.U.U.U.U.U.U.r.n 4 4 n q 5 h h h v v v v v v v h v h h h h h h h h v v v v v h v v v h h v h v h v h v h v v h v v h a h v h v a a v h h N h h h 5 N = 2 4 4 n 2 2 2 4 4 4 < 4 4 4 4 2 = U.U.= 2 4 < < < 2.2.2.B.2.2.2.8 8 6 < < < 2.L.u e V c G G A +X+X+X+X+XG c i 2.L.r.n 2 = U.2 4 6 6 < < < 6 6 6 4 4 4 4 2 N h A.A.a h A.h A.h v h v v v v v v a v v a v a v a a a v v v v v v h A.h h h h h h v h v h h v N v h h A.h A.5 2 fXz.@X@X@XA A $.A  XA  X XE E K 0.0.0.0.0.0.0.0.0.K K  XR.B.L.aXaXA.A.A.h a A.h 5 = 2 2 2 = U.A.A.U.= 2 n n 2 2 2 = = q N A.A.A.h A.h h v h h v v h h h h 5 v v v v v v h v h v h a h h v h v h a h v v v v v v v v v v v v v v v v v v v v v v v v v v v v v v h v h a h v h v v h h v h h v h v v v v v v v v v v h h v v v v v v v v h v h v h v h a h v h v h v v v v v v v v v v v v v v v v v v v v v v v v v v v v v v v h v h v h a h v h v h a h a h a h a h a h a h h a h a h ",
"h h h h h v h v h h h h h h h h h h h h h h h h h h h v v v h v h h h h h N A.h U.r.n 6 j : : j : u i ) i u u i i e e e i u : 2.2.L.U.aXU.r.U.r.n 6 8 fXfXfXn 5 5 h h h v v v v v v h h h h h h h h h h h h h h h h h h h v h v h v h v h v h v h h h h h h h v h h h a v v h v h h h A.5 q = = = q q U.q = 2 2 2 2 = = q N 5 5 A.N 2 4 4 6 6 8 2.L.L.L.8 6 < < < 6 6 6 < L.2.2.2.B.m.V c G A +X+XG V i L.aXaXU.U.U.5 q 2 4 6 6 4 < 4 6 4 6 4 4 4 4 2 = 5 A.r A.A.h A.h A.h h v v v v v v v v v v v v a v v a a v v v v A.A.A.A.A.U.A.A.U.A.A.U.A.A.A.A.A.A.A.A.A.A.A.r.: z.@X@XA $.A A  XA  X X X XE E K K 0.0.0.0.0.K K K K E $.m.L.L.U.A.A.A.A.A.h h 5 5 5 5 U.5 A.A.A.A.5 5 5 5 U.5 A.5 A.5 h A.a A.h h h h h N 5 h a A.h h h h h h h h h v h h v h h h h v h h v h h h h v v v v v h v v v v v v v v v v v v v v v v v v v h h h h v h v h h h a h v h v h v h v h v h h h h h h h h h v v h v h h h h h v h v h v h h v h h h v h h v v v v v v v v v v v v v v v v v v v v v v v v v v v v h v h v h h a h h h h v h v h h h v h h h h h v h h v h h h v ",
"h h h h h h h h h h h h h 5 5 5 h h h h h h h h h h v N v N v N v N h h h A.h A.A.U.U.r.< 8 j 2.2.: : : j 2.: u ) e e ) i u : j 2.L.r.r.6 6 6 6 8 j fXfXfXfX< q 5 5 h h h v v v h h h h h h h h h h h h h h h h h h h h h h h h h h h h h h h h h h v h h h h h h v h v h h h h h h h h h 5 5 5 5 5 A.5 A.q q q 5 5 5 5 5 h A.h A.N 2 4 4 6 6 6 6 < < < 6 6 6 4 < < < 4 n r.r.L.L.L.2.B.B.m.c G z.V i 2.L.U.A.A.A.A.A.q 2 4 4 4 n n n 4 4 4 4 4 2 2 = q 5 A.A.A.h h A.h h 5 5 h v v v v v v v v a a v v v v v v v v h A.A.aXaXaXaXaXaXL.aXr.aXaXaXaXaXaXA.aXaXU.aXaXaXaXB.c G A A A A A A  XA A  X X XE K K K 0.K 0.K K K K K +X+XG V : < U.A.A.a h h 5 h A.A.A.A.5 A.A.A.A.A.A.5 A.A.A.A.A.h A.h h A.h h h 5 5 5 N N 5 h h 5 h h h 5 h h h h h h h h h h h h h h h h v h v h h h h h h h h h h v N v v v h v v v v h v v v v h h v h a h A.h v A.v h h A.v h A.v h h v h h h v h h v h h v h h h h v h v h h h v h h h h v A.v h a h h v h h h h h h h h h h h h h h h h h h h h h h h h h h h h h h h h h h h h h h h h h h h a h h A.v h a h A.v h h a h h h ",
"h h h h 5 h h 5 h N 5 N h N N N 5 N 5 N h N 5 N h N N v N v N v h h h N h h A.5 A.A.U.r.n 6 8 6 8 8 j 8 2.L.2.: ) ) u u u : : : : : 2.8 fXfXfXfXj 8 j fXfXfX6 = q 5 h h h v N h h h h h h h h h h h h h h h h h h h h h h h h h h h h h h h h h h h h h h h h h h h h h v h v h h h h h h h h h h A.5 A.5 A.h A.5 A.h h A.h h h h N = 2 4 4 6 6 6 6 < < 4 4 4 4 4 n 2 = U.U.r.r.r.< 2.2.2.B.i ) i : 2.L.r.U.U.A.A.A.A.5 = = 2 2 = = = = = 2 = = q q 5 5 h A.a A.A.h A.A.h 5 5 h 5 v v h h v v v a a v v 5 v v h h h A.aXU.L.B.B.B.B.<X<X<X<XB.B.B.L.aXaXL.L.L.L.aXaXaXL.m.c A A $. XA  XA A $.A $.$.A A  XE E K K K K K E E E E +X@X@Xz.: n U.A.A.A.A.N A.A.A.A.A.U.A.h h h h h h h h 5 h h h h N h h h 5 5 h 5 h 5 h 5 5 5 h 5 5 5 h 5 h N h 5 h h h h h h h h h h h h h A.h h h h h h h N h N h v h h h v h h h h h h h h h h v h h h h h h h h h A.h h h v h h v A.h A.a h h h h h h h h h h h h h h h h h h h h v h h h h h A.h h A.h h h h h h h h h h h h h h h h h h h h h h h h h h h h h h h h h h h h h h h h h h h h h h h h h h h h h h h h h h h h ",
"h h h h h h 5 h N v N v N h N 5 h h N v N v N v N v N v v N v N h N h h h N h h 5 5 q = n 4 < < n < 6 < < < 2.j : : j j j j j : ) ) ) fXfXfXfX< < < < 6 8 8 4 = q 5 h A.h h h N v h h h h h h h h h h h h h h h h h h h h h h h 5 h 5 h 5 h 5 h h h h h h h h h h h h h h h h h h h h h h h h h h h h h h 5 A.5 5 5 5 5 5 h h h N N N q = 2 4 4 4 4 n 2 = = = = q q 5 U.A.A.U.= 2 4 < 6 8 2.2.2.2.< n r.r.U.A.A.h h h h 5 5 q 5 5 U.5 U.5 q q q 5 5 5 5 A.h A.v A.A.A.a h h 5 5 v h h 5 h v v v a a a v h h h N N A.aXaX2.c +XE K K K K K K K E E $.<XR.G G c m.L.aXL.B.c $.A A  X$.$.$.A A G G G G c R.R.$.$. XE E E  X X X XE A @X@Xe : r.aXA.A.U.N U.A.A.aXA.A.A.A.5 A.h h A.h h v h h h h h h h N h 5 5 5 5 N h N h N 5 5 h A.h 5 5 A.N h N h 5 h h h h h h h h h h h v h h h h h h h h h h v h h h h h h h h h h h h h h h h h h h h h h h h h h h h h h h h h h h h h h h h h h h h h h h h h h h h h h h h h h h h h h h h h h h h h h h h h h h h h h h h h h h h h h h h h h h h h h h h h h h h h 5 h 5 h 5 h 5 h h h h h h h h h h h h h h h h h h h ",
"h h h h 5 5 h h h 5 5 5 v N 5 5 N 5 h 5 5 5 5 5 h N v N h h h h h h h h h h h h A.5 5 q q = = = 2 r.r.r.r.n < 8 j j j j 8 2.8 : fX) ) ) fXfX6 r.r.r.r.< < < n q U.5 A.h h N h h 5 h 5 h h h h h h h h h h h h h h h h h h h h h h h h h h h h h h h h h h h h h h h h h 5 h 5 h h h h h h v h h h h N h h h 5 5 N N N N N N N N N 5 5 5 N q = = = = = q 5 A.5 5 5 5 5 A.A.A.A.U.q 2 2 4 n n r.r.n r.U.U.U.U.A.h A.h h h h 5 5 A.5 A.A.A.A.5 h A.5 A.h A.v h v h h h h h h h v N N 5 h v 5 v v a a a r r a h v A.A.A.aXL.c K 0.nXnXnXnXnXnXnXnXnXnXnX0.0.0.0.0.E R.MXMXR.$.A A A  X$.$.$.A A G G V m.B.B.<X<XR.$.A  X X X XE  X XA A @XV 2.aXaXaXr.4 n r.U.aXU.U.U.A.U.A.h h h v h 5 h 5 h 5 h h N h h N v N v N v N h N h h h 5 h 5 A.h N A.h N h h 5 5 5 5 5 5 5 5 h h A.h h h h h 5 5 5 h 5 h 5 h h h h h h h h h h h h h h h h A.h h A.h h h h h h h h h h A.h h h h h h h h h A.h h h A.h h h h h h h h h h h h h h A.h h h h h h h h 5 5 5 5 5 5 5 5 5 5 5 h h h h h h h h h h h h h h h h h h h h h 5 h h 5 h h 5 h h h h h h h h h h h h h h h h h h h h ",
"h h h h h h 5 h 5 5 h 5 5 5 N h h 5 5 h 5 h 5 h 5 h 5 h h h h 5 h h 5 h 5 h h h 5 h 5 5 5 5 U.5 U.U.U.U.= 2 n < 6 6 6 6 < < < 6 j fX) fXfX< r.r.r.r.n < < 4 2 q 5 5 h h 5 h N h h 5 h h h h h h h h h h h h h h h h h h h h h h h h h h h h h h h h h h h h h h h h 5 h h h h 5 5 h 5 v 5 h N v N v h N h N h N h 5 h 5 h 5 h 5 5 h h h 5 5 q q q q 5 5 A.5 h 5 A.5 A.5 A.A.A.5 q N 5 q = = U.= = q U.5 A.A.h h h h h h h h 5 5 A.5 5 h 5 h A.h A.h h v v h v h h 5 N h h h h 5 5 h h 5 v 5 h h v v v a a h A.A.A.aXaXB.A 0.nX' P P P P P P nXP nXnXnXnXnXnXnX0.0.E  X XA A A E A $.$.A A @X@X@XV i B.B.B.m.c G A A  X X X XE E A A A m.L.aXaXL.fX) fXfXj 8 2.< < r.U.U.A.A.A.v h h v 5 h h h 5 h h N v N v 5 5 5 h N h N h h 5 h h 5 5 h 5 N h h N h h 5 5 5 5 5 5 h h h h h h h 5 5 5 5 h h 5 h h 5 h h h h h h h h h h h h h h h 5 5 5 5 h 5 h 5 h 5 h 5 5 5 5 h 5 5 h 5 h A.5 h h h h h h h h 5 h h h h h h h h h h 5 h 5 h 5 h 5 5 5 5 5 5 5 5 5 5 5 5 5 5 h h h h h h h h h h h h h h h h h h h h h h h h h h h h h h h h h h h h h h h h h h h h h h h h ",
"5 5 5 5 h h h 5 h 5 5 5 h N h N 5 5 h N h 5 5 5 5 h N h N 5 5 5 5 5 5 5 h N 5 N N 5 5 5 5 5 5 A.A.A.A.5 U.= 2 n n n n r.r.r.r.r.< 6 8 8 4 2 U.U.U.U.n n n 2 = q 5 5 A.h h N h 5 h h h h h h h h h h h h 5 5 5 5 5 5 5 5 5 h h h h h h h h h h h h 5 5 5 5 5 5 5 5 5 5 5 5 5 5 h 5 5 h 5 5 h 5 N h h N h 5 N 5 h h h h h 5 5 5 5 5 h h h h 5 5 5 5 5 5 5 5 A.h 5 5 5 5 5 5 h h 5 N 5 h A.5 U.5 U.q 5 5 A.5 A.A.A.h v N h h 5 5 5 5 5 A.5 N 5 h h h v h h v v v h h h 5 N A.A.A.A.A.A.A.A.5 5 5 A.A.A.5 A.A.N A.A.aXaXB.$.K nX' P F P F P P P P P P P ' P P nXnXnXnX0.0.0.E A A A A $.$.G +X@X@Xz.z.u 2.2.i V G G A A A  XA  XA E A A @XR.B.B.B.i z.@Xz.z.z.z.) ) ) fX8 n U.5 h h h 5 5 5 h 5 5 5 5 N h N v 5 v 5 5 h 5 h h 5 5 5 5 5 5 5 5 h N 5 N h 5 N h N h 5 5 h h h h h h 5 5 h 5 5 5 h h h h h h h h h h h h h h h h h h h h h h h h 5 h 5 h 5 h 5 h 5 h h 5 h 5 h 5 h 5 h 5 h 5 5 A.5 5 A.h 5 h h h h h h h h h h h 5 h 5 h 5 h h h h h h h h h h h h h h 5 5 5 5 5 5 5 5 5 5 5 5 5 5 5 5 5 5 5 5 5 5 5 5 5 5 5 5 5 5 h h h h h h h h h h h h h h h h h h ",
"5 5 5 5 5 h h h 5 5 h 5 5 5 N 5 v N h 5 5 h 5 h N h h 5 h h 5 5 5 5 5 5 5 N N N N N 5 5 A.5 A.5 5 5 A.5 5 U.q = = U.U.U.U.U.U.2 r.r.n 4 = U.U.U.5 U.= = = q q q 5 5 h 5 5 5 N h h 5 5 5 5 5 5 5 5 5 5 5 5 5 5 5 5 5 5 5 5 h h h h h h h h h h h 5 5 5 5 5 5 5 5 5 5 5 5 N h 5 5 5 5 5 h 5 5 h h h N h N h N N 5 h h h h h h h h h h 5 5 5 5 5 5 5 5 A.5 A.5 5 5 5 5 5 5 5 h 5 5 5 h A.A.5 5 A.5 5 5 5 h A.h h h h h h N N 5 5 5 U.5 5 N 5 N h N h 5 h v N v N h N 5 A.U.A.U.aXA.aXaXU.U.U.U.aXA.aXU.U.U.U.U.A.aXU.2.c K nXnXP P F F F F P F P P F ' ' P P ' ' P P nXnX0.K E  X$.$.R.$.G @X@X@Xz.) : 2.2.u ) z.@X@XA A A A A A A A A $.$.c m.V z.@X@Xz.z.@X@X@X@X@Xz.fX< U.U.A.5 5 h 5 v 5 5 5 5 5 h 5 h 5 5 5 5 v 5 5 5 5 N h 5 5 5 5 A.N 5 h N h N h N h N h N h 5 h A.5 h 5 h 5 h 5 h 5 h h h h h h h h h h h h h h h h h h h 5 5 5 5 5 h 5 5 5 A.N h 5 5 5 5 h 5 5 h 5 5 h 5 A.5 A.5 5 5 h 5 5 h 5 5 5 5 5 5 5 5 5 5 5 h 5 5 h 5 5 5 5 5 5 5 5 5 5 5 5 5 5 5 5 5 5 5 5 5 5 5 5 5 5 5 5 5 5 5 5 5 5 5 5 5 5 5 5 5 5 5 5 5 5 h h h h h h h h h h h h h h h h h ",
"5 5 5 5 5 5 h h 5 5 h N v N v N 5 5 5 h 5 h 5 5 h 5 5 5 5 5 5 5 5 5 5 5 5 5 5 N N 5 5 5 5 5 5 5 5 5 5 U.5 5 5 U.5 5 h A.5 5 q U.U.U.= = q 5 5 A.U.5 q q 5 5 5 5 5 5 h 5 N 5 5 5 h 5 5 5 5 5 5 5 5 5 5 5 5 5 5 5 5 5 5 5 5 5 5 5 5 5 5 5 5 5 5 5 5 5 5 5 5 5 5 5 5 5 5 N h N 5 5 5 5 5 5 v 5 5 5 h N h h N h N 5 h 5 h h h 5 5 h h h 5 5 5 5 5 5 5 5 5 5 5 A.5 5 5 q 5 5 5 h h 5 h h h 5 5 5 U.5 5 5 h h 5 h A.5 h h h h h 5 5 A.5 5 U.5 h h N h N N h N v v v N 5 U.U.A.aXaXaXaXaXL.L.B.2.L.L.L.aXL.L.L.r.aXaXaXL.m.+X0.nXP P P F P P P F P P P P P P P P P ' P P nXnXnXK E  X$.R.<XR.c G @Xz.) u : 2.2.2.u ) z.G G G A A A A A A A A A $.G c c V e i ) z.@X@X@X@X@X) 8 r.U.A.5 5 5 5 5 5 5 5 N A.N 5 5 5 5 5 5 5 5 5 N h 5 5 5 5 5 5 N A.N h N h N A.N h N h N 5 N 5 5 h 5 A.N A.5 h N 5 h h h h 5 5 5 5 5 5 5 5 5 5 5 5 5 5 5 h N h N h N N A.N N N A.N h N A.N N A.N 5 5 A.5 5 5 5 h 5 5 A.h 5 5 5 5 5 5 5 5 5 5 5 5 5 5 5 5 5 5 5 5 5 5 5 5 5 5 5 5 5 5 5 5 5 5 5 5 5 5 5 5 5 5 5 5 5 5 5 5 5 5 5 5 5 5 5 5 5 5 5 5 5 5 5 5 5 5 5 5 5 5 5 5 5 5 5 5 5 5 5 5 ",
"5 5 5 5 5 5 h h 5 5 5 5 5 N 5 5 5 h 5 5 5 N h 5 5 h 5 v N h 5 5 5 5 5 5 5 5 5 h h 5 A.5 A.U.5 5 5 5 5 5 5 5 A.5 5 5 5 5 h N N 5 5 5 5 q 5 5 5 5 h h 5 5 h h 5 5 5 5 h 5 5 5 5 h 5 5 5 5 5 5 5 5 5 5 5 5 5 5 5 5 5 5 5 5 5 5 5 5 5 5 5 5 5 5 5 5 5 5 5 5 5 5 5 5 5 5 5 N A.N 5 5 5 5 5 5 5 5 5 5 5 5 5 5 5 5 N 5 h N 5 N 5 5 5 5 h 5 N 5 5 5 5 5 5 h A.5 A.5 5 5 N 5 N 5 5 h h h h A.5 5 5 5 5 5 A.5 5 5 h 5 5 5 5 5 5 5 5 5 A.5 5 5 5 5 A.5 5 N h h 5 v 5 5 5 5 U.U.aXaXr.L.L.L.B.B.c A A $.c R.R.R.c c m.L.aXaXB.G 0.nXnXnXF P P P P P P P P P P P P P P ' P P nXP nX0.K E  XR.<X<X<Xm.V V ) u : 8 < < L.2.u e z.c G G A @XA $.$.$.A +XA G c e B.L.L.2.u ) z.z.z.z.) 2.U.U.A.5 5 5 5 5 N 5 5 N U.N 5 5 5 5 5 5 5 5 5 h N h N 5 5 A.5 5 N 5 N A.N N N A.N A.N A.N A.N A.5 5 N A.N N 5 5 h 5 h h 5 5 5 5 5 5 5 5 5 5 5 5 5 5 5 5 5 5 5 N A.N h N N A.N N N A.N N N A.N N A.N 5 5 A.5 A.5 5 5 5 5 A.5 5 5 5 h 5 5 h 5 5 h 5 5 A.5 5 5 h 5 5 h 5 5 h 5 5 h 5 5 5 5 5 5 5 5 5 5 5 5 5 5 5 5 5 5 5 5 5 5 5 5 5 5 5 5 5 5 5 5 5 5 5 5 5 5 5 5 5 5 5 5 5 5 5 5 5 5 5 5 ",
"5 5 5 5 5 5 A.5 5 5 5 5 5 5 q 5 5 5 5 5 5 h 5 5 h 5 5 5 5 5 5 5 5 h 5 5 5 N 5 N A.N 5 5 N q 5 5 5 5 5 q 5 5 5 5 q N N N N N N 5 h 5 q q q 5 5 5 h h h h 5 5 5 5 5 h h 5 N 5 5 5 h 5 5 5 5 5 5 5 5 5 5 5 5 5 5 5 5 5 5 5 5 q q q q q q q q q q 5 5 5 5 5 5 5 5 5 5 5 5 N N N 5 5 N 5 5 5 5 5 5 5 5 5 5 5 5 5 N N N N N 5 N N N N 5 N N N 5 5 5 5 h 5 h 5 5 5 5 N N N 5 5 5 5 5 5 h 5 5 5 5 U.5 A.h h 5 5 5 5 5 5 5 5 5 5 5 5 5 A.5 U.5 5 5 h 5 h 5 5 5 5 5 5 5 U.A.U.aXL.i V c $.$.E K 0.nX0.0.0.K 0.0.K E <XL.L.<XE nXnXnXF F P P P P P P P P P P P P P ' ' ' ' ' 0.0.K K E  XR.<XMXMXB.B.i u j 8 < r.r.r.L.2.u i i e c G G G c R.$.A A A G V B.L.aXaXL.2.: i ) ) ) : < U.U.A.5 5 5 5 N 5 5 5 N A.5 5 5 5 5 5 5 5 5 5 5 5 N h 5 5 5 U.5 U.A.N N N A.N N N N N N N h N A.N A.N h N A.N 5 5 h h h 5 5 5 5 5 5 5 5 5 5 5 5 5 5 5 5 5 N h N N 5 N N h N N h N N N N N N 5 N 5 5 A.5 5 5 5 A.5 5 A.5 5 5 5 h 5 5 5 h 5 5 5 5 5 5 5 N 5 5 5 5 5 5 N A.5 5 5 5 5 h 5 5 5 5 5 5 5 5 5 5 5 5 5 5 5 5 5 5 5 5 5 5 5 5 5 5 5 5 5 5 5 5 5 5 5 5 5 5 5 5 5 5 5 5 5 5 5 5 5 5 ",
"5 5 A.U.A.U.A.U.5 U.5 5 5 5 5 5 5 N v N 5 N 5 N 5 N v N v N 5 5 5 5 5 5 N N N N N U.N U.N U.q 5 5 5 q 5 N 5 q q q q N N N N N N 5 5 q q q 5 5 5 5 5 5 5 N N N 5 5 5 5 5 N N 5 5 5 5 5 5 5 5 5 5 5 5 5 5 5 5 5 5 5 5 5 5 5 5 5 5 q 5 5 5 q 5 5 q 5 5 5 5 5 5 5 5 5 5 5 U.5 5 5 5 5 5 5 5 5 5 5 5 5 5 5 5 5 5 N 5 N 5 N N 5 N 5 N N N N 5 5 5 5 5 5 5 5 5 5 U.5 q N q q 5 5 5 5 q 5 5 5 5 5 5 5 5 A.h 5 5 5 5 5 5 5 5 5 5 5 A.5 5 5 5 5 A.5 A.5 5 5 h 5 5 5 5 5 A.aXaXL.B.@XK 0.0.0.nXnXnXnXnXnXnXnXnXnXnX0.E R.R. X0.nXP P P F P P P P P P P P P P P P ' ' ' ' ' ,.jX$ $ E K K  X$.R.R.m.B.2.2.< n U.U.A.U.r.< 8 : : i e V V V <X<XR.G @X@Xz.e B.L.U.U.r.< 8 j : : j 6 n r.U.U.5 U.5 q 5 q 5 N 5 U.N 5 5 5 5 5 5 5 5 5 5 5 5 5 5 5 5 5 5 5 5 N A.N N N A.N A.N A.N N 5 N N N A.N N N N A.N A.5 5 5 5 5 5 5 5 5 5 5 5 5 5 5 5 h 5 5 5 N 5 h 5 5 5 5 5 N N 5 5 5 N 5 N N N 5 N 5 5 A.5 A.5 5 A.5 5 5 5 5 5 5 N N N N 5 5 5 5 N 5 N N 5 N N U.N A.N 5 5 A.N 5 5 5 5 5 5 5 5 5 5 5 5 5 N 5 5 5 5 5 5 5 5 5 5 5 5 5 5 5 5 5 5 5 5 5 5 5 5 5 5 5 5 5 5 5 5 5 5 5 5 5 5 ",
"N U.U.U.U.U.U.U.U.U.U.U.A.A.5 5 N 5 5 N N N N N N N N N N N N N N N N N N N N U.N N N U.N N 5 q 5 q 5 N q 5 N 5 N 5 N 5 N N N N N 5 q 5 q 5 q 5 q 5 5 N N 5 N N N N N N N N N N 5 5 5 5 5 5 5 5 5 5 5 5 5 5 5 5 5 5 5 5 5 5 5 5 5 5 5 5 5 5 5 5 5 5 5 5 5 5 5 5 5 5 5 5 5 5 5 5 5 5 5 5 5 5 q 5 5 q 5 q q 5 N 5 5 5 5 N N 5 5 5 5 5 q 5 q 5 q 5 5 5 5 5 5 5 q 5 N 5 5 5 q 5 q 5 q 5 5 5 5 5 5 q 5 5 5 5 5 5 5 5 5 5 5 5 5 5 5 5 5 5 5 5 5 5 5 5 5 5 5 5 5 5 A.U.U.r.B.V +X0.nXnXnXnXnXP P nXP P nXP nXnXnXnXnXnXnXnXP nXP P P P P P P P ' P P P P P P P P P P P ,.jXjX$ jX0.nXnX0.0.+Xc i 2.< n 2 U.U.A.A.U.r.6 j : : u i m.m.<X<X<Xc G z.V i : 2.r.U.U.2 4 6 < 4 4 2 = q U.A.5 5 5 5 q N q N N N N N 5 5 5 5 5 5 5 5 5 5 5 N q 5 5 q 5 q 5 N N N U.N N N N N N N U.N N U.N N N N U.N N N N N N N N N N N N 5 h 5 5 5 5 5 h h h h 5 5 h h h 5 5 h 5 N N h 5 A.5 U.5 U.N A.N A.5 5 5 U.5 A.5 A.5 5 5 N N N N N N N N N N N 5 U.5 U.5 N U.N 5 N 5 U.5 5 5 5 5 5 5 5 5 5 N N N N N N N N N N N N 5 5 5 5 5 5 5 5 5 5 5 5 5 5 N N 5 5 5 5 5 5 5 5 5 5 5 5 5 5 5 5 5 ",
"U.U.= r.r.r.r.r.r.n r.r.= U.U.5 5 A.h 5 N N N N N N N N 5 5 N N q q N N 5 N N N N U.N N U.N U.N N 5 N N 5 N N N 5 N N N 5 N 5 q 5 N N 5 N N 5 N 5 N N N 5 q N 5 N 5 N 5 N 5 N 5 N 5 5 5 5 5 5 5 5 5 5 5 5 5 5 5 5 5 5 5 5 5 5 5 5 5 5 5 5 5 5 5 5 5 5 5 5 5 5 5 5 5 5 5 5 5 5 5 5 5 5 5 5 q 5 q 5 q 5 5 5 q 5 q 5 q 5 q 5 q q 5 q 5 q 5 q 5 5 q q 5 q q 5 q 5 q 5 q q 5 q 5 5 q 5 q 5 q 5 q 5 5 q 5 5 5 5 5 5 5 5 5 5 5 5 5 5 5 5 5 5 5 5 5 5 5 5 5 5 5 5 5 U.U.L.: m.$.K nXnXnXP P F F F P P P P P P P nXnXnXnXnXP P P P ' ' P P P P P P P P P ' P P P P P F P F ,.,.0.nXnXnXnX0.K +XV : L.r.U.U.5 5 U.U.U.U.r.L.2.B.B.m.m.<XB.<X<Xm.V m.i : 2.< r.U.A.q = 2 2 = = = q U.5 5 U.5 q q N N N 5 N N 5 N 5 q 5 5 U.5 5 5 q 5 q 5 5 q q 5 U.5 q 5 q N N N U.N N U.N N N N 5 N N U.N N N N U.N 5 N N N N N N N N U.h 5 5 5 5 N N 5 h 5 5 5 h 5 5 q 5 5 5 5 5 5 5 5 A.5 A.N U.N N N N U.N 5 5 U.5 5 A.5 q N N N N N N N N 5 N 5 q 5 N N U.N U.N U.N A.N 5 N 5 5 5 5 5 5 5 5 N 5 N 5 N N N N N N N N N N q 5 q 5 5 5 5 5 5 5 5 N N N 5 5 5 5 5 5 5 5 5 5 N q q q q q q ",
"U.r.< 8 j j : : : : j 8 < n = U.U.A.5 N N = N N N N 5 5 5 5 5 q q = q 5 U.N N U.N N U.N N N N q N q q N q q N q q q q N q q N q N q N q q N q q q q N q q N q N q q N q q N q q N N N N N N N N N N N N N N N N N N N N q 5 q 5 q 5 q 5 q 5 q 5 q 5 q 5 q 5 q 5 q 5 q 5 q 5 q 5 q 5 q 5 q q 5 q q 5 q q q q q q q q q 5 q q 5 q q q q q 5 q q q 5 q q 5 q q 5 q q 5 q q 5 q q q q 5 q q q q q q 5 q 5 5 q 5 q 5 q 5 q 5 q 5 q 5 5 q 5 5 q 5 U.5 5 5 5 5 5 5 U.U.6 i V $.K 0.nXP P P F P F ' P P P P P P nXP P P P nXP ' ' ' P P P P P P P P P P P P ' ' ' F P P P nXnX0.nXnX0.0.+X+X@Xi 2.r.U.U.N U.A.U.A.A.aXU.L.B.m.V c c c R.R.R.R.R.m.m.B.L.r.U.U.U.5 q q q q q U.q q q U.5 5 q 5 q q N N N N N q q q q q 5 q q q q q q q q q 5 q q q q q U.q N N N N N N N N N U.N N N N N N N N N N 5 U.N N 5 N 5 N N 5 5 5 5 5 N q = q 5 5 N N U.U.q = q U.U.5 q q q U.5 U.5 U.N N = N N N N N 5 5 U.5 U.5 q N N N N N N N N N q q q N U.N q N N N U.N N U.N 5 q 5 5 5 q 5 5 N N 5 N N N N N N N N N 5 q 5 5 U.5 5 5 5 N N N N N N N N N N N N N N N N N N N q q q q q q ",
"r.< : ) ) ) e e ) ) ) fXj < r.U.U.U.U.N N N N 5 5 q q U.U.A.5 q q q q 5 5 q N N N N N N = N N q q N q q N q q N q N q q N q q N q q N q N q N q N q q N q N q q N q q N q q N q q N N N N N N N N N N N N N N N N N N N N q 5 q 5 q 5 q 5 q 5 q 5 q q 5 q q 5 q q q 5 q q 5 q q 5 q q 5 q q q q q q q q q 5 q N q q q q q q q q q 5 q q q q q q q q q q q q q q q q q q q q q 5 q q q q 5 q q q q q 5 q 5 q 5 q 5 q 5 U.5 q 5 q 5 U.5 q 5 q 5 N q 5 q 5 q U.U.U.L.B.m.R.E 0.nXP P P F F ' P P P P P P P P nXP P P P P ' P P P P P P P P P P P P P P ' ' F ' nXP nXnXnXnX0.K +XA G z.i 2.r.U.U.= U.U.U.A.aXaXaXaXL.V A A +XE E E E E A $.c m.B.L.r.U.U.q q q 5 U.5 U.5 U.5 q q q q U.q q q q q q N N q q q q q q q q q q q U.5 q U.q q 5 q 5 q N 5 q q N q q N q N N N N q N q N U.N q N U.N 5 q N N U.N 5 q 5 q q q q q = = q U.U.U.U.aXU.U.U.r.U.U.U.U.U.U.U.U.U.5 U.N U.N U.= N U.N U.N q q 5 q q q N N N N N N N N q N N q N N U.N U.U.N U.N N N U.N q q 5 q 5 5 q N N N N N N N N N 5 N N q q 5 5 q q 5 N N N N N q q q q N N N N N N N N N N q q q q q q q ",
"L.2.) ) z.V z.V z.e ) ) fXj < r.n r.U.U.U.U.U.U.r.n n n n 2 = = q U.q U.q q q N = = N = N q q q N q q N q q N q N q N q N q N q N q q N q q q N q N q N q q N q N q N q N q N q q q q q q q q q q q q q q q q q q q q q q q q 5 q q q q q q q q q 5 q q 5 q q 5 q 5 q q 5 q q 5 q q 5 q q q q q q q q q q q q q q q q q q q N q q q q q q q q q q q q q q q q q q q q q q q q q q q q q q q q q q q q q q q q q q q q q q 5 q q q q q q q q q 5 q 5 q 5 q 5 U.U.aXL.B.<XE 0.nXP P P P ' P P P P P P P nXnX' nXP P P P ' ' P P P P P P P P P P P P P P ' ' nX' nXnXnX0.0.K A c V m.B.L.r.U.U.U.= U.U.U.U.aXaXaXL.B.A +XK K K K K 0.K K +XA c i L.U.U.U.= = q q q U.q q q = q = q q q q q q q q q N q q q q 5 q q q q U.5 q q q q q 5 q q q U.5 q U.N q q N U.q N U.q q q q N U.N q N q q q q q 5 q q q q q U.5 U.5 U.U.U.U.U.U.U.U.r.aXr.r.L.L.L.r.r.U.r.U.r.U.U.U.U.U.= U.U.= q q N q q q U.q U.5 U.q q N N N N N N N q q q q U.q N U.N U.N U.N U.N N N N N q N q q q 5 q N N N N N N N N N q q q q 5 q q q N N q q q q q q q q q q q q q q q q q q q q q q q q ",
"2.i e z.V V V V e e e ) ) u j 8 < r.U.aXU.aXU.r.< fXfXfXfX8 < n = U.U.q q q q = N N q q q q q q q q q q q q q q q q q q q q q q q q q q q q q q q q q q q q q q q q q q q q q q q N q q q q q q q q q q q q q q q q q q q q q q q q q q q q q q q q q q q q q q q q q q q q q q q q q q q q q q q q q q q q q q q q q q q q q q q q q q q q q q q q q q q q q q q q q q q q q q q q q q q q q q q q q q q q q q q q q q q q q q q q q q q q q q q q q q q q U.U.aXL.B.R.K nXnXP P P F P F P P P P nXnXnX0.nX' P P P P ' P P P P P P P P P P P P P P P nXF ,.0.0.0.K K K $.R.m.B.L.L.r.U.U.r.r.r.r.< 2.2.L.L.B.m.c +XK 0.K K 0.K 0.0.K +X+XG e L.U.U.U.= = q = = = = q = U.q q q q q q q q q q q q q q q 5 U.q U.5 q 5 q U.q q q q U.q q q q q q q q q q q q q q q q q q q q q q q q q q q N q q q 5 q 5 q 5 q U.U.U.U.U.U.r.L.L.2.: i i ) V V i B.L.L.L.L.L.L.r.U.U.U.U.U.U.q U.q U.q q N q 5 U.q q U.q = N = N = N = q q q q q q U.q q U.N U.N U.N = N = N q q q q q q q q q N q N N q N q q q q 5 U.q 5 q q q q q q q = q = N q q q q q q q q q q q q q q q q ",
"i e V V V V V V V e z.V ) ) ) : L.r.r.U.r.r.< 8 fXfX) ) fXfX8 4 = U.U.q = q q q = q = q q q q q q N q q q N q q q q q q q q q q q N q q q q N q q q q q N q q q q q q q q q q q q q q q q q q q q q q q q q q q q q q q q q q q q q q q q q q q q q q q q q q q q q q q q q q q q q q q q q q q q q q q q q q q q q q q q q q q q q q q q q q q q q q q q q q q q q q q q q q q q q q q q q q q q q q q q q q q q q q q q q q q q q q q q q q q q q q q q U.U.U.r.L.B.c K nXnXnXnXP P P P ' P P P ' nX0.jX0.nX' ' P P P ' P P P P P P P P P P P P P P ' nX,.0.K K  XV.$.$.c B.L.L.aXaXr.aXU.U.r.j ) z.z.G G G A +XK K K K K E K K 0.K K +X@XV 2.r.U.= = = = = = = = U.q q U.q U.q q q q q q q q q q q U.q q q 5 U.q U.5 q 5 q U.q q q q U.q q q q q q q q q q q q q q q q q q q q q q q q U.q q q q q q q q U.q U.r.r.L.L.L.B.e z.@X@X@X+X+X+X+X@XG c c G z.i 2.r.U.aXU.r.U.U.U.q U.q U.q U.q U.q U.q q U.= N = N q q q q q q q q q q U.q = U.N = U.N U.N q q q q q q q q q q = q = q q q q q q q q q q q q q q N = = N = = = = q = q = q = q = q q q q q q q q ",
"V V V V V V V V V V e e i u u 2.L.r.L.2.j : : : : u u fXfXfX8 < r.U.= = = q = q q q q q q q q q q = q q = q = N = N = N = N = N = q = N = N = q = N = q = N = N = N = N = N = N = q q = N = q q q q = N = q q q q = N = q q q q q q q q q q q q q q q q q q q q q q q q q q q q q q q q q q q q q q q q q q q q q q q q q q q q q q q q q q q q q q q q q q q q q q q q q q q q q q q q q q q q q q q q q q q q q q q q q q q q q q q q q q q q q q q q q = U.U.L.: V @X+XK 0.0.nXnXnXP ' ' ' nXnXnX0.K E 0.nXnXnXP P P ' nX' nXnX' nX' ' P P P P nXP nX' nXnX0.0.E V.V.A A c m.L.L.aXaXaXaXaXL.u @X+X+X+X+X+X+XK K E E  X XE K K K K K +XG V : L.r.2 2 = = = = = q q q U.q q q q q q q q q q q q q q q q q U.q q q q q q U.q q q q q q q q q q = q = q = q = = q = q = U.= = q = q = q q N N q N q q q q U.q U.r.< : i e V G A +X+XK K +XK +XK +XE E +X+X+X@Xe 2.L.r.L.aXU.U.r.U.= = q = q q q U.q q U.q q q q = q q q q q q q U.q U.= q U.= q q = = = N = N q = q q = = q = = = q q q q q q q q q q q q q q q = q = = = N = = N = = N = = N = = q = q q q q q ",
"V V V V V V V V V V e e i u u : 2.2.j u ) ) u : 2.2.8 j j j 8 < n 2 = U.q = q = q q = q = q = q = q = N = q q = q = q = q = q = q = N = q = q = q q = N = q = q q = q = q = q q = q = q = q = q = = q = q = q = = q q q q = q q = q = q = q = q = q = q = q = = q = q = q = q = q = q = q q = q q q = q q = q q q q q q q = q = q q = q q = q q q q q q q q q q q q q q q q = q q = q q = q q = q q q = q = q = q = q = q = q = q = q q = q = = = = q = = = = r.r.: z.@X@XA E K 0.nXnXnX' nXnX0.0.K E K jXnXnXnXnXnXnXnX0.0.0.0.0.nX' ' ' ' P P P P P P P P ' ' 0.K  X XA +X+XG m.B.L.L.L.L.L.B.V +X+X+X+XA  X XA +XA $.$. X XE K K K +X$.c i 2.L.r.U.= = = q q q U.= q = = q = = = = q q q q q q q = q = q = q = = q = = = q = q = q = q = q = q = U.= = U.= N = U.= = N = q = U.= q = N = = N = = N = N = U.r.< : ) @X@X+X+X+XK K K K K K K K E K K K  X+X+XG V m.B.B.L.L.r.U.r.r.= r.= = = = = U.q q q q = q q q = q q q q q = q q = U.= = U.= U.q = = = = q = = = q = = = q = = q q q q q q U.= q U.q q q = q = N = = = = = = N = = = = = = = = q q q q q q ",
"V V e e e e e V z.z.e e ) u u u u u ) ) ) ) fX2.L.L.L.8 8 6 6 < 4 n 2 = q = = q = = q = = q q = q = q = q = q = q = q q = q = q q = = q q = q = q = q = q = q q = q q = q = q = q = = q = q = q = q = q = q = = = q = = = = = = = q = = q = = q = = = = = = q = = q = = = q = = = q = = = q q = q = q q = q q = q = q = q q q q = q q q = q q = q = q = q = q = q = q = q = q q = q q = q q = q q = = q = = q = = q = = = q = = = q = = q = = q = = = = q = U.= r.8 ) z.z.c $.A K K 0.0.nXnX0.K E  XE K 0.nXnXnXnXnXnXnX0.K E K K 0.0.' ' ' P P P P P P P P nXnX0.K E  X XA +X+XG m.<Xm.m.m.m.R.A +XK E  X X$.$.$.A G c R.R.$.A A A A $.c m.B.L.r.U.U.U.= U.q U.q = = = = = = = = = q q q = q q q q = q = = = = = q = = q = q q q q = q q q = q = q = N = = q = = N = = = q = q = = U.= = = N = = N = = = = = 2 < : z.@X@X+X+XK +XK K K E K K K K K K  XR.$.A A A @X@XG V i 2.L.r.r.r.= 2 = 2 = = q = = = q = q = q = q = = = U.= U.= U.= = = = = = = = = q = = = = = = = = = = = = q q q q q q q = = = = = = = = = = = = = = q = = = = N = = q = q = = = = = = ",
"e e i i i i ) e ) ) ) ) u u : : u ) fX) ) fX2.L.r.U.r.r.r.n r.n 2 = = q = = = = = = = q = = q = q = q = = q = = = q = = = = = = = = = = = = = q = = = = = q = = = = = q = = q = = q = = q = = = = = = = = = = q = = = = q = = = = = = = = = = = = = = q = = = = = = = = = = = = = = = = = = q = = q = = q = = = q = = q = = = = q = = = q = = q = = = = = = = q = = = = = q = = q = = q = = q = = = = = q = = = = = q = = = = = = = = = = = q = = = N = = = = = r.< j u e e V c A A E K K K K E V.V. XK 0.nXnXnXnXnXnX0.K E  XV. XI E 0.nX' ' P nXP nXP nXP nXnX0.E  X X X XE E A A $.A A E A E E K K E  X X$.$.$.@XG m.B.<XR.$.$.$.$.$.c m.B.L.L.r.r.r.r.= = = = = q = = = = = = = = = = = = = = = q = = q = q = = q = = q = = = = q = = = U.= = q = = = N = U.q = = = = = = = = = = = U.= U.= U.= U.= N = U.r.< j ) z.G G A +XA  XE E E K K K E  X XR.<XR.$.A +X+X+X+X+X@Xz.) 6 r.U.2 2 2 2 2 = = = = = q = = = = = = = = = = q = = = U.= 2 = = = = q = = = = = 2 = = = = = = = = = q = = = = U.q = = = = = = = = = = = = = = = = q = = q = = = = = = = = = = ",
"i u u : j j u u u u u u j 2.2.2.: : fXfXj 8 < r.U.aXU.r.r.r.U.U.U.= q U.q = N = N = = = = q = = = = = = q = = q = = = = = = = = = = = = = = = = = = = = = = = = = = = = = = = = = = = = = = = = = = = = = = = = = = = = = = = = = = = = = = = = = = = = = = = = = = = = = = = = = = = q = = = = = = = = = = = = = = U.= = = q = = = = = = = = = = q = q = = = = = = q = = = = = = = = = = = = = = q = = = = q = q = = = = = = = = = = = = = = = N = = = N = = U.U.r.< 8 2.: B.i V c $. X X X XV.$.$.V.E K 0.0.K 0.K K K E  X$.$. X XE K 0.0.nXnXnXP nXnXP nXnX0.K  XV. X X X XE K K E K K K K K K K K E E A A $.G @Xz.B.B.B.m.G G $.G G c V m.B.2.2.8 6 n 2 = U.= = U.= = = = = = = = = = = = = = = = = q = U.q = U.= q = = = U.= = U.= = = = = q U.= q = = = = = = = = = = = = = = = = = U.= U.= = = = r.N 2 r.n 8 : ) e V c c c R.$.$.A E K K A $.R.<X<XR.R.A +X+XK +X+X+X@Xz.j r.r.2 r.= = = = = = = = = = = = = = = = = = = = = = = = = = = = = q = q = = 2 2 = 2 = = = = = = = = = = U.= q = = = = = = = = = = = = = = = = q = = = = = = q = = = = = = = = ",
"j j 8 8 < 8 j j j j j j 8 < < < 8 8 8 8 6 < n r.U.U.U.U.U.U.U.r.= U.= = = = = = = = N = = = = = q = = = = = = = = = = = = = = = = = = = = = = = = = = = = = = = = = = = = = = = = = = = = = = = = = = = = = = = = = = = = = = = = = = = = = = = = = = = = = = = = = = = = = = = = = = = = = = = = = = = = = = = U.= = = U.= = U.= = U.= = U.= = U.= = U.= q = = = = = = = = = = = = = = = = = = = = = = U.= = U.= = U.= = = = = = = = = = = = = = = = = = = = = = U.r.r.r.r.L.2.: e c A  X$.$.$.$.$.$. X X X X X XE A A A $.G G $.A  XE E K 0.nXnXnXnXnXnXnX0.K  X X$.$. XA E E K K K K K K K K K K E E  XA $.c c V m.B.L.B.V G @XG G G G c c V z.) ) j < r.2 = = = = = U.= q = = = = = = = = = = = = = = = = = q = = = = = = = = = = = = = = = = = = = = = = = = = = = = = = = = = = = = = r.= = 2 U.= = = = 2 r.< j : : u i m.m.m.m.c G A +X+XG c m.<Xm.m.R.$.A +XK +X+X@X@X) j < r.2 2 U.= U.= = = = = = = = = q = = = 2 = = 2 = = = = q = = = = = U.= = 2 2 2 2 2 2 2 = r.= = = = 2 = q = = 2 2 = = = = = = = 2 = = = = = = = = = = = = = = = = = = = = = = ",
"< < < r.r.r.< < < < < < < r.r.r.n n n n n n 2 r.U.= r.r.U.= = = U.= = = = = 2 = = 2 = = = = = = = = = = = = = = = = = = = = = = = = = = = = = = = = = = = = = = = = = = = = = = = = = = = = = = = = = = = = = = = = = = = = = = = = = = = = = = = = = = = = = = = = = = = = = = = = = = = = = = = = = = = = = = = = = = 2 = = 2 = = = = = = = = 2 = = = = = = = = = = = = = = = = = = = = = = = = r.= = = = 2 = 2 = = = = = 2 = = 2 = = 2 = = = = = = = = = = = 2 2 2 = U.U.U.r.L.: V G $.$.G $.c $.$.$.$.$.$.$.$.$.$.G c V V V c G $.$.V.I K 0.nXnXnXnX0.K E  X X$.$.A A A +XE K E E E K K K I K E  X X$.R.R.m.m.B.B.L.B.m.G @X@X@XG @XG @X@X@Xz.z.) : < r.2 = = = = = = = = = = = = = = = 2 = 2 = = = = = = = = = = = = = = = = = = = = = = = = = = = = = = = = = = = = = = = = = = = = = U.= U.2 = = = = = U.2 r.r.< L.L.L.L.L.B.i V z.G G G c V m.m.m.m.R.c G +X+X+X+XG V i 8 < r.n 2 = U.= = = = = = = q = = = = 2 2 = 2 2 = 2 = 2 2 = 2 2 = r.U.= U.r.2 2 2 r.= = r.= = = U.= 2 = = = = = 2 2 = = = = 2 2 2 = 2 2 2 2 = = = = = = = = = = = = = = = = = = ",
"r.r.r.r.U.r.r.n n n n r.r.U.r.U.r.r.r.r.= r.= = = = = = r.= n = n 2 2 2 2 = = = = = 2 = 2 = 2 = = 2 = = 2 = = 2 = = 2 = = 2 = = 2 = = 2 = = 2 = = 2 = = 2 = = 2 = = 2 = = 2 = = 2 = = 2 = = 2 = = 2 = = 2 = = 2 = = 2 = = = = = = = = = = = = = = = = = = = = = = = = = = = = = = = = = = = = = = = = = = = = = 2 = 2 = = = = = = = = 2 = = 2 = = = 2 = = r.= = = = = = = = = = = = = = = = = = = = = = 2 = = = = = = = r.= = r.= = = = = = = = = = = = 2 = = = 2 2 2 2 = U.U.r.< j e @X@XG G G G G G G G G $.G A @X@Xz.e i B.B.B.V G A  X X XK K K K K E  X X X$.$.$.$.A A A A E  X XE I I I I I I V.V.7X<X<X<XMXB.L.L.m.z.@X@X@X@XG G @X@Xz.@Xz.z.) j < r.2 = 2 = = = = = = = = 2 = 2 = 2 = 2 = 2 = = = = = = = = = = = = = 2 = 2 2 = 2 = 2 = = = = = = = = = = = = = 2 = = 2 = 2 = 2 = = 2 = = = = = = = = = r.2 r.r.r.r.r.r.r.L.: i ) e e e e e e V V V m.V c G @XG c e u 2.L.r.r.r.r.= 2 2 2 = = = = = = = = = = = 2 2 = 2 2 2 2 = 2 2 2 r.= r.r.r.r.U.r.U.r.r.r.r.U.U.r.U.U.U.= U.= = = = = = = 2 = = 2 = 2 2 = 2 = = 2 2 2 2 2 2 2 2 2 2 2 = = = = = = = ",
"r.= U.U.U.U.r.r.r.2 r.r.= r.U.= U.= = = U.= = r.= 2 = 2 = n = n 2 2 2 4 2 2 = 2 2 2 = 2 = 2 2 2 2 = 2 2 = 2 2 = 2 2 = 2 2 = 2 2 = 2 2 = 2 2 = 2 2 = 2 2 = 2 2 = 2 2 = 2 2 = 2 2 = 2 2 = 2 2 = 2 2 = 2 2 = 2 2 = 2 2 = 2 2 2 2 2 2 2 2 2 2 = 2 2 = 2 2 = 2 2 = 2 = 2 = 2 = 2 = 2 2 = 2 2 2 = r.= 2 2 = r.= 2 2 = r.= = 2 = r.= 2 r.= 2 = r.= = r.= 2 = = 2 = 2 2 2 = 2 2 2 = r.= 2 2 2 = r.= 2 2 = 2 = 2 = 2 2 2 2 2 2 = 2 = 2 = 2 2 2 2 2 = 2 = = 2 2 2 2 = = = 2 2 2 2 = = U.r.r.2.u z.z.@X@Xz.z.V z.z.G G @XG @XG z.e u 2.L.L.B.V @XA A  XV.V. X XV. X X XA A A A A G c R.R.$. X XV.I I I I I I I V.V.7XR.7X<X<XMXMXMXB.c @X@X@Xc m.m.V e ) ) ) fXj < r.r.= = 2 2 = = = = = 2 2 2 2 2 2 2 = 2 2 2 2 2 = 2 2 2 2 = 2 2 = 2 = = 2 = = 2 = = = 2 2 2 2 2 2 2 2 2 2 2 2 2 2 2 2 2 2 2 2 2 2 2 = 2 = 2 = 2 2 2 2 2 2 2 r.= r.U.r.U.r.L.2.: ) ) ) ) ) ) e ) e V e e e V V V i : L.r.r.r.r.2 2 = 2 2 2 2 2 = = 2 = = = = = 2 2 = 2 2 = 2 = r.= r.r.U.r.r.r.L.L.L.L.r.r.r.r.r.r.r.r.r.r.r.U.U.U.U.= q = = 2 2 2 2 2 2 2 2 2 2 2 2 2 2 2 2 2 2 2 2 2 2 2 2 2 2 2 2 2 2 ",
"= r.= = U.U.2 = 2 2 2 = r.= r.= 2 = r.= = r.= = 2 = n = r.= = = 2 2 2 2 2 = 2 = 2 = 2 = 2 = 2 = = 2 = 2 = 2 = 2 = 2 = 2 = 2 = 2 = 2 = 2 = 2 = 2 = 2 = 2 = 2 = 2 = 2 = 2 = 2 = 2 = 2 = 2 = 2 = 2 = 2 = 2 = 2 = 2 = 2 = 2 = = 2 = 2 = 2 = 2 2 = 2 = 2 = 2 = 2 = 2 2 = 2 2 = 2 2 = 2 = 2 = = 2 2 = 2 = 2 2 2 = 2 = 2 = r.= 2 = 2 = = = r.= 2 = 2 = 2 = r.= 2 = 2 = = 2 2 = = 2 2 = 2 = 2 = 2 = 2 = 2 = 2 2 = 2 = = 2 = = 2 = 2 = 2 = = 2 = = 2 = = 2 2 = 2 = 2 2 = = = 2 2 2 = U.U.U.r.L.: ) ) ) ) u : u i e V z.z.V e u : 2.L.r.L.2.e @X@XA $.$.V.$. X X$.A A A A A G G c <XMX<XR.$. X XV.$ $ $ $ $ $ I V.V.7X7X7X<XMXMXMXMX<XR.m.m.B.L.L.2.L.2.2.< < r.r.U.= = 2 2 2 2 = = = 2 = 2 2 2 2 = 2 2 = 2 = 2 = 2 2 = 2 = 2 2 = 2 2 2 2 = 2 2 = 2 2 2 = 2 2 2 2 2 2 2 2 2 2 2 2 2 2 2 2 2 2 2 2 2 2 2 2 2 2 2 2 = 2 2 2 n 2 = 2 2 r.2 r.r.r.< j fX) ) ) ) ) u u u ) i u : : : 2.2.L.r.r.r.U.r.2 U.= = r.= 2 = r.2 2 = 2 2 2 2 2 2 2 2 2 2 2 r.2 r.r.U.r.r.L.j u ) i u u u ) u : j 2.2.L.L.r.< r.r.U.U.= = 2 2 2 2 2 2 2 2 2 2 2 2 2 2 2 2 2 2 2 2 2 2 2 2 2 2 2 2 2 2 2 ",
"2 = r.U.r.2 r.2 r.2 r.2 r.= r.= r.2 = r.= 2 n n 2 n r.= n = r.2 = 2 = 2 = 2 2 2 = 2 2 2 = 2 2 2 2 = 2 2 = r.= 2 2 = r.= 2 2 = r.= 2 2 = r.= 2 2 = r.= 2 2 = r.= 2 2 = r.= 2 2 = r.= 2 2 = r.= 2 2 = r.= 2 2 = r.2 = 2 2 2 2 = 2 2 2 2 2 2 2 2 2 2 2 2 2 2 2 2 2 2 2 2 2 2 2 2 2 2 2 2 2 2 2 2 2 2 2 2 2 2 2 = 2 2 2 2 2 r.2 n 2 n 2 2 2 2 r.2 2 2 2 2 2 = 2 2 2 2 2 2 2 2 2 2 2 2 2 2 2 2 2 2 2 2 2 = 2 2 = r.2 = 2 2 2 = 2 = = 2 = = r.= 2 2 2 = 2 2 = r.2 = 2 = = 2 2 = = U.r.r.r.r.L.2.j j 2.L.L.L.2.: u u u : 2.2.L.r.r.r.r.2.u z.@XG G $.$.$.$.G G G G G z.c c V m.B.MX<XR.V. XI $ $ $ $ $ $ $ V.y V.7X7X7X7X7XMXMXMX<X<XB.L.L.L.L.aXL.r.r.r.r.= = = = = 2 2 2 2 2 2 2 2 2 2 2 2 2 2 2 2 2 2 2 2 2 2 2 2 2 2 2 2 2 2 2 2 2 2 2 2 2 2 2 2 2 2 2 2 2 2 2 2 2 2 2 2 4 2 4 2 4 2 4 2 2 2 2 2 2 2 2 2 2 2 2 2 2 2 = 2 2 2 2 2 2 r.r.r.< 6 j j j j 2.2.2.2.2.2.2.L.L.L.r.L.r.r.r.r.= = 2 = r.= U.= r.2 = r.= r.= r.= r.= r.2 2 r.2 r.2 r.r.U.r.L.L.u ) z.@X@XG z.z.z.z.z.V e i i u : : j < r.r.r.2 n 2 2 = 2 2 2 2 2 2 2 2 2 2 2 2 2 2 2 2 2 2 2 2 2 2 2 2 2 2 2 ",
"2 r.2 2 r.2 r.2 2 r.2 2 2 2 2 n 2 2 r.n r.n r.n r.2 n n 2 n = n = r.= 2 2 = 2 2 2 2 2 2 2 = 2 2 = n = r.2 2 2 = r.2 2 2 = r.2 2 2 = r.2 2 2 = r.2 2 2 = r.2 2 2 = r.2 2 2 = r.2 2 2 = r.2 2 2 = r.2 2 2 = r.2 = 2 2 2 r.= 2 2 2 2 2 2 2 2 2 2 2 2 2 2 2 2 2 2 2 2 2 2 2 2 2 2 2 2 2 2 2 2 2 2 2 2 2 2 2 2 2 r.= 2 r.= n = 2 = 2 = r.= 2 2 = n = n = r.2 2 2 2 2 2 2 2 2 2 2 2 2 2 2 2 2 2 2 2 2 = 2 r.= r.2 2 2 2 r.2 = r.= = r.= r.2 = 2 = = 2 2 = r.2 2 2 2 = 2 = 2 = = = 2 U.r.r.r.r.r.L.r.r.r.r.r.r.L.L.2.2.L.L.r.r.r.r.r.r.L.2.u z.z.@XG G G G z.V i i e i i B.B.B.MXMX<XR.V. XI $ $ $ $ $ $ $ $ $ | | b b C C C 7X7X7X<XMXL.aXL.aXL.aXr.r.r.= = = = 2 2 2 2 2 = 2 2 2 2 2 2 2 2 2 2 2 2 2 2 2 2 n 2 2 2 n 2 2 n 2 2 2 2 2 2 2 2 2 2 2 2 2 2 2 2 2 2 2 2 2 2 2 2 4 2 4 2 4 2 4 2 4 2 2 2 2 2 2 2 2 2 2 2 2 2 = = = 2 n 2 n = r.r.r.r.r.< < L.r.r.r.L.r.r.n r.r.r.U.r.r.r.n 2 r.2 = 2 2 = r.= r.r.= r.U.r.= r.U.r.r.2 r.r.2 r.r.r.r.r.aXL.2.u z.@X@X+X+XA A A G A G G G G G z.z.z.) u 2.r.r.r.n n 2 2 2 2 2 2 2 2 2 2 2 2 2 n n n n n n n n n 2 2 2 2 2 2 2 ",
"2 2 2 r.2 r.2 2 r.2 2 r.2 n n 2 r.2 r.2 n n n n n r.n n n n n 2 2 2 r.= r.2 2 2 2 2 r.= 2 r.2 2 2 r.2 2 2 2 r.2 2 2 2 2 r.2 2 2 2 r.2 = 2 r.2 2 2 2 r.2 2 2 2 r.2 2 2 2 2 r.2 2 2 2 2 2 2 2 r.2 2 2 2 r.2 2 2 2 r.2 = 2 2 r.2 2 2 2 2 2 2 2 2 2 2 2 2 2 2 2 2 2 r.= 2 2 2 2 2 2 r.= 2 2 2 2 2 2 2 2 2 2 2 2 2 2 2 2 2 r.2 n r.2 2 2 n r.= n = r.= n = 2 r.= 2 2 r.= 2 2 2 2 2 2 2 2 2 2 2 2 r.= n = 2 2 2 2 = r.= 2 2 2 = r.= = 2 = = r.= r.2 n = n 2 2 2 r.2 n 2 2 2 = = = U.r.n < < r.r.n r.r.r.r.r.r.r.r.r.r.r.r.r.r.U.2 2 r.r.L.2.u z.z.z.z.z.z.) : 2.2.2.L.L.L.B.MXMX<X7XV.V.I I $ $ $ $ qX$ qX$ $ V.| | b C C 7XC 7X7X7X<XB.L.L.L.L.r.r.r.= = = 2 2 2 2 2 2 2 2 2 2 2 2 2 2 2 2 2 2 2 2 2 2 n 2 2 n 2 n 2 n 2 2 2 2 2 2 2 2 2 2 2 2 2 2 2 n 2 4 2 4 2 4 2 2 4 2 4 2 2 4 2 2 4 2 4 2 4 2 2 2 2 2 4 2 4 2 2 = 2 2 2 n n n 2 r.n r.r.r.r.r.r.r.r.r.r.r.r.r.r.r.2 U.r.r.n n n = 2 = 2 2 2 2 r.r.U.r.r.r.r.r.r.r.r.r.r.r.r.r.r.r.r.U.r.L.L.2.u V @X@X+XA A A A A A A A A A A G A @X@X@XV u 2.L.r.r.r.2 r.2 2 2 2 2 2 2 2 2 2 2 n n n n n 2 2 2 n 2 2 2 2 2 2 2 ",
"n n n n n 2 r.2 2 2 n 2 n n n n r.2 n r.n n n r.n n n n n 2 n n r.n = r.= 2 r.= r.= 2 2 n = 2 r.2 2 2 2 r.2 2 2 2 r.2 n 2 n 2 n 2 n 2 n n n 2 n 2 n 2 2 n n n 2 n 2 n 2 n 2 n 2 n n n r.2 n 2 n n 2 n 2 n 2 n n 2 n n n n 2 n 2 2 2 2 n 2 2 n 2 2 2 2 2 2 2 2 2 2 2 2 2 2 r.2 2 2 2 2 2 2 2 2 2 2 2 2 2 2 2 n 2 r.2 n 2 2 2 2 r.n 2 n 2 n n n n n n n 2 n n n n n n 2 n 2 n n n 2 n r.2 n 2 n n 2 n n n 2 n n 2 n n n 2 n 2 n n 2 r.n 2 2 n 2 n n 2 n 2 n 2 n n n 4 n 2 2 2 2 n n < n < n n n n n r.n n 4 r.r.r.n n n 2 2 2 r.4 4 r.r.6 : u u ) u u 2.L.L.r.L.L.L.L.L.<X7XV.V.V.I I $ $ $ $ $ $ $ $ $ $ $ $ | b b b b b b 7X7X7XMXB.B.B.L.L.r.r.r.= 2 = 2 4 2 2 2 2 2 2 2 2 2 2 2 4 2 2 2 2 2 2 n 2 2 n n n 2 n 2 2 4 2 4 2 2 2 2 n 2 2 n 2 2 2 4 2 4 2 4 2 4 2 4 2 4 2 4 2 4 2 4 2 4 2 4 2 4 4 2 4 4 2 n 2 n 2 n 2 2 2 n n 2 n 2 n n n 4 4 4 n n n r.r.n r.r.2 n n 2 2 n n n n n n = 2 2 2 r.n r.r.r.r.L.L.L.2.2.L.L.L.L.L.L.r.L.r.aXL.L.B.i V @X@X+XA A A $.A $.A  X$. X$. XA A A A @XG z.i j r.r.r.r.2 r.2 2 2 2 2 2 2 2 2 2 2 n 2 2 2 r.r.2 2 2 2 2 2 2 2 2 ",
"n n n n n n 2 4 r.n n n n n n n n n n n n r.n n n n r.= r.2 r.= r.= r.2 r.r.2 r.2 r.2 r.= n r.2 n r.n n 2 r.n r.n n n n n n n n n n n n n n n n n n n n n n n n n n n n n n n n n n n n n n n n n n n n n n n n n n n n n n 4 n 4 4 n 4 n 4 4 n n n n n n n n n n n n n 2 n n n n n n n n n n n n n n n n n n n n n n r.n n n n n n n n n n n n n n n n n n n n n n n n n n n n n n n n n n n n n n n n n n 2 n n 2 n n 2 n n 2 n n 2 n n n n n 4 n 4 4 4 4 4 4 4 n 4 n n 4 4 n n n n n r.n n n 4 4 4 4 4 4 4 4 n 2 n n 2 2 2 n 4 n r.r.r.n < < < < r.r.r.r.L.aXL.B.m.R.V.V.I $ $ $ y y $ $ $ $ $ $ y $ $ | | b b b | b b 7Xb 7X7XR.R.<XB.L.L.r.r.r.2 2 2 2 4 2 2 2 2 2 2 2 4 4 2 2 2 2 2 n 2 2 2 n 2 n n 2 n n 2 2 2 2 2 2 2 2 2 n 2 n n 2 n n 2 n 2 4 2 2 4 2 4 2 2 4 2 4 2 4 2 4 2 4 2 2 2 2 4 2 2 4 2 n 2 2 2 n 2 n 2 2 n = n 2 n n n 2 n n n n 2 n 2 n 2 n 2 2 n 2 n 2 2 r.n = 2 = = 2 n < < 2.2.L.2.u i ) ) ) i i u : : B.L.L.aXL.B.V z.@X@XA @XA A A A A  XA  X X X X X$.$.A G G @X@Xz.u 2.r.r.r.r.r.r.r.= 2 2 2 2 2 2 2 2 2 r.r.r.r.= r.2 2 2 2 2 2 2 2 ",
"n n n n n n n n n n n r.n n r.2 n n r.n n n n n r.n n n n r.2 r.n n r.n n = r.2 r.= r.2 r.= r.2 n n n r.n n n n n n n n n n n n n n n n n n n n n n n n n n n n n n n n n n n n n n n n n n n n n n n n n n n n n n n n n n 4 4 4 4 4 4 4 4 4 4 n n n n n n n n n n 2 n n n 2 n 2 n 2 n 2 n n n n n n n n n n 2 n n 2 n n r.n n n n n n n n n n n n n n n n n n n n n n n n n n n n n n n n n n n n 2 4 2 n n 2 n n 2 n n 2 n n 2 n n n n n n 4 n 4 n n n n n n 4 2 4 n 4 4 4 4 4 n n n n n 4 n n 4 2 4 4 2 4 2 4 n 2 n n n n 4 4 n 2 2 r.r.n n r.r.L.r.r.L.L.B.B.m.$.V.V.I y y y y $ $ $ $ $ $ $ y $ y $ $ | b C b b b b b 7Xb 7X7X7X<X<XB.B.L.L.r.r.2 2 4 2 2 n n r.2 2 2 2 2 2 2 2 n 2 2 n 2 n 2 n n n n n 2 n n n 2 4 2 4 n n 2 4 n 4 n 4 n n 4 2 n 2 4 2 4 2 4 4 2 4 4 4 2 4 2 4 2 4 4 2 4 2 2 4 2 4 2 n n n 2 n 2 n 2 n n n 2 n n 2 n 2 n 2 n 2 n 2 n 2 n 2 n 2 2 2 n n = n n r.2 n n < 8 u ) ) V z.z.@X@X@X@X@X@XG @Xz.V i L.L.L.B.V G @XA A A A $.A  XA A A A  X X X X X XA A A +X@X@Xe 2.r.r.U.r.U.r.r.2 2 2 2 2 2 2 4 2 2 = r.= r.n n 4 4 4 4 n n n n ",
"n n n n n n n n n n n n n n n n n n n n n n n n n n n n n n n n n n n n n r.n 2 n n n r.n n n n r.n 2 n n n n r.n n n n n n n n n n n n n n n n n n n n n n n n n n n n n n n n n n n n n n n n n n n n n n n n n n n n n n 4 n n n n n n n n n 4 n 4 n 4 n 4 n 4 n n 4 n 4 n 4 4 n 4 n 4 n n 4 n n 4 n n 4 n n n n n n n n n n n n n n n n n n n n n n n n n n n n n n n n n n n n n n n n n n n n 4 4 4 4 n n n n n n n n n n n n n n n n n n n n n n 4 n n n n 4 n n n n n n n n n n n n n 4 n 4 4 2 4 4 4 4 4 n n n n n n 4 4 n n 2 2 r.r.r.r.r.L.L.L.L.B.<XR.$. X XI $ y y y y y $ y $ $ $ $ $ y $ y y | b b C C C C C C b b b 7X7X7X<X<XB.L.L.r.r.r.n n n n 4 n 2 2 r.2 n n n 2 n 2 n 2 n n n 2 n n 2 n n 2 4 2 4 2 2 2 2 4 2 4 2 4 4 n n n n n 4 4 4 2 4 4 4 4 4 4 2 4 4 4 4 4 4 4 2 4 4 4 4 4 2 4 4 n 2 n n n n n n n 2 n n 4 n 4 4 4 4 4 4 n n n n n n n n n n 2 2 n n n n n n n 6 j : ) z.@X@X@X+X@XA +XA +X@X+X@X@XG V B.B.B.m.c G G A A A A A  XA A E E E A  X X X XA A A @XG c e B.L.L.r.L.r.r.r.r.n n 2 2 = 2 2 2 4 2 2 2 r.2 n n n n n 2 n 2 2 2 ",
"4 n 4 n 4 n 4 4 n 4 4 n 4 4 n 4 n n n n n n n n n n n n r.n n n r.n 2 r.n n n n n r.n n 2 n r.n n n n n n n n n n n n n n n n n n n n n n n n n n n n n n n n n n n n n n n n n n n n n n n n n n n n n n n n n n n n n n n n 4 2 4 4 4 2 4 4 4 2 4 2 4 2 4 2 4 2 4 n 4 2 4 n 4 2 4 n 4 n 4 4 2 4 n 4 2 4 n n n n n n n n n n n n n n n n n n n n n n n n n n n n n n n n n n n n n n n n n n n n n 4 2 4 2 4 n n n n n n n n n n n n n n n n n n n n n n n 4 n n n n n n n n n n n n n n n n 4 4 2 4 n 4 n 4 4 n n n n n n n n n n n r.n n r.r.r.r.L.L.B.<X<XR.V.V.I I I y y y y $ y $ y $ $ $ $ y $ y $ y | b b C C C b C b C C C b b 7X7X7X<X<XB.L.L.r.r.r.r.n 4 n n r.= 2 n 2 n n 2 4 2 4 n 2 n n n n n 2 4 n 4 2 4 2 4 2 2 4 4 4 4 n n 2 n 4 n n n n 2 4 4 2 4 2 4 4 4 4 4 4 2 4 2 4 4 4 2 4 2 4 4 4 2 4 4 4 n n 4 2 4 n 4 n 4 2 4 n n n n n n n 4 4 4 n 4 2 n 2 n n n r.n r.n n 4 < 8 : u e z.@X@XA A A A A A A A A A A A G c c R.c G $.A A A A A A A A  X X X X XE A A A A A A $.m.B.B.L.L.L.L.L.L.r.< n n n 2 2 2 2 2 2 2 2 4 n n n r.2 2 n n n 2 n n 2 ",
"4 4 4 4 4 4 4 < 4 4 < 4 < n < 4 < 4 < 4 < n < < n n n n n n n n n n n n n n n n n n n n n n n n n n n n n n n n n n n < n < n 4 4 4 4 4 4 4 4 4 4 4 4 4 4 4 4 4 4 4 4 4 4 4 4 4 4 4 4 4 4 4 4 4 4 4 4 4 4 4 4 4 4 4 4 4 4 4 4 n 4 4 n 4 4 4 n 4 4 4 4 4 4 4 4 4 4 4 n 4 4 n 4 n 4 4 n 4 n 4 n 4 4 n 4 4 4 n 4 4 n n n n n n n n n n n < n n < n n < n 4 4 4 4 4 4 4 4 4 4 4 4 4 4 4 4 4 4 4 4 4 4 4 4 4 4 4 4 4 4 4 4 4 4 4 4 4 4 4 4 4 n 4 4 4 4 4 4 4 4 n 4 n 4 4 4 4 4 4 n 4 4 n n n n n n n 4 4 4 4 4 4 4 4 n n n n n n n n n n n n n r.< L.L.L.L.B.<XR.V.V.I I I I $ y y y y y $ y $ y $ $ $ $ y $ y y | | b b b b C b C C C C C C C b 7X7X<X<XB.L.L.L.r.r.n 4 n n n r.n n n n n n n 4 4 4 n n n n n 4 4 4 2 4 4 2 4 2 4 4 4 4 4 4 2 n 2 n n 4 4 4 4 4 4 4 4 4 4 4 4 4 4 4 4 4 4 4 4 4 4 4 4 4 4 4 4 4 4 2 4 n 4 n 4 n 4 2 4 n 4 4 4 4 4 4 4 4 4 4 4 4 4 4 n 4 n n n n 2 n n r.n < < 8 : i V G G A A A A  XA  X XA A A A A A A G A A $.A A A A A  XA  X X X X XA A A +X+XA +XA A G m.B.B.B.B.i i u : j 6 < n n 2 n 4 2 4 2 4 4 4 4 n n n r.r.r.n n n 4 4 4 ",
"4 4 4 4 4 4 4 n < 4 4 n 4 4 4 4 4 4 4 n 4 < n 4 4 < n n n n n n n n n n n n n n n n n n n n n n n n n n n n n n n n n n n n 4 4 4 4 4 4 4 4 4 4 4 4 4 4 4 4 4 4 4 4 4 4 4 4 4 4 4 4 4 4 4 4 4 4 4 4 4 4 4 4 4 4 4 4 4 4 4 4 n 4 n 4 n 4 n 4 n 4 n 4 n 4 n 4 n 4 n 4 4 4 n 4 n 4 4 n 4 4 4 4 4 4 4 4 4 4 4 4 4 n < n < n < n < n < n < n n < n n 4 n 4 n 4 4 4 4 4 4 4 4 4 4 4 4 4 4 4 4 4 4 4 4 4 4 4 4 4 4 4 4 4 4 4 4 4 4 4 4 4 n 4 n 4 4 n n 4 n n 4 n 4 n 4 4 n n 4 n n 4 4 n < n < n < 4 4 4 4 4 4 4 n n n n n n n n n n n n n n n r.r.r.L.L.L.MX<XR.V.V.I I y y y y y y y y $ y $ y $ $ $ $ $ $ y $ y | b C b C b b b C C C C C C C b b 7X7X7X<XMXB.L.L.r.n n n n n n n n n n n n 2 4 2 4 n n 4 2 4 4 2 4 4 2 4 4 4 4 4 4 4 2 n n n n r.n r.< 4 r.4 < r.4 4 4 4 4 4 4 4 4 4 4 4 4 4 4 4 4 4 4 4 4 4 4 4 4 n 4 2 4 2 4 n 4 4 4 4 4 4 4 4 4 4 4 4 4 4 4 4 4 4 n n n n n n r.r.< r.n < 2.: i V @XG A $. X X X X X$. X X$.A A A A A A A A $.A  XA E A A A  X$. X X XA A A A +XA +XA $.c m.m.V z.z.z.V ) u 8 < n n n 4 4 4 2 4 2 2 4 r.r.r.r.r.r.r.r.r.< < 4 4 ",
"4 4 < r.< 4 < 4 r.< 4 < 4 < r.< 4 < n < 4 4 < 4 < n < n < n < n < n < n n n n n n n n n n n n n n n < n n n n < n < n < n 4 n n 4 4 4 4 4 4 4 4 4 4 4 4 4 4 4 4 4 4 4 4 4 4 4 4 4 4 4 4 4 4 4 4 4 4 4 4 4 4 4 4 4 4 4 4 4 4 4 n 4 4 n 4 n 4 n 4 n 4 4 n 4 n 4 n 4 n 4 n 4 4 4 4 4 4 4 4 4 4 4 4 4 4 4 4 4 4 4 4 n 4 n < n n < n n 4 n n < n n < n < n 4 n n 4 4 4 4 4 4 4 4 4 4 4 4 4 4 4 4 4 4 4 4 4 4 4 4 4 4 4 4 4 4 4 4 4 4 4 n < n < n < n 4 n < n 4 n 4 n 4 n < n 4 4 n n < n n < n n < n n n < n n < n < n < n n n n n n n n n n r.r.L.L.B.B.R.7XV.I I I y | | y y y y y y y $ y $ y $ $ $ $ y $ y y | | C b b C C b C C C C C C C C C b 7X7X7X<X<XB.L.L.< n r.n n n n < n n n n 4 n 4 4 n n n 4 4 4 4 4 4 4 4 4 4 4 4 4 n n r.r.r.n n < < r.< < 4 4 < 4 r.4 4 < 4 4 4 4 4 4 4 4 4 4 4 4 4 4 4 4 4 4 4 4 4 4 4 4 4 4 4 4 4 4 4 4 4 4 4 4 4 4 4 4 4 4 4 4 4 4 n n n n n n r.n L.r.L.2.u e c @XA A A A  XE  X X X XA  XA  XA  XA A A A  X X X X XA A  X X X$. XA A A +XA A A A A A A G G @X@X@Xz.z.) u j < n r.n 4 4 4 4 n 4 r.r.r.L.L.L.L.L.L.L.L.L.r.r.r.",
"4 4 4 4 4 n < 4 < 4 < r.4 < 4 < n < 4 < 4 < n < 4 < 4 < n < n n < n n < n < < < n < < n < < < n 4 n n n < n < n n n n 4 < n 4 4 4 4 4 4 4 4 4 4 4 4 4 4 4 4 4 4 4 4 4 4 4 4 4 4 4 4 4 4 4 4 4 4 4 4 4 4 4 4 4 4 4 4 4 4 4 4 n 4 n 4 n 4 n 4 n 4 n < n < n < n < n < n < n n < n n < n n < n n < n n < n n < n n < n < n n < n < n < n 4 n < n 4 n n n < n 4 4 4 4 4 4 4 4 4 4 4 4 4 4 4 4 4 4 n 4 4 4 4 4 4 4 4 4 4 4 < n < n n < n < n < n n 4 n 4 n n 4 n < n < n n < n n < 4 n 4 n n < n n < n < n < n < n n < n n n n n n 4 4 4 n r.r.L.L.B.B.<XV.V.V.I I y | y y | y y y y $ y $ y $ $ $ $ $ y $ y $ y | b b C b C C b C C C C C C C C C C C C 7X7X7X<XB.2.L.r.n r.4 n < n n n n 4 4 4 4 4 r.n 4 n 4 4 4 4 4 4 4 4 4 n r.n < < < < < L.< L.r.< r.< r.< 4 < 4 < 4 < 4 4 4 < 4 < < 4 4 4 4 4 4 4 4 4 4 4 4 4 4 4 4 4 4 4 4 4 4 4 4 4 4 4 4 4 4 4 4 4 4 4 4 4 4 4 4 n 4 n < r.< r.r.L.< 2.u e c G A A A E A A A  XA  XA A  X$.A  XA A E A A  X X XA E A A  X$. X$.A A A @XA A A A A A A G G G z.z.V z.) : 8 < n n 4 < 4 n r.r.L.L.L.2.2.B.B.L.B.L.2.L.L.L.L.r.",
"n < n < n < 4 < 4 4 < 4 < 4 < 4 < 4 < n < n < 4 < n 4 < 4 < 4 < n < < 4 < n < n < n < < n < n < n < n < n n < n < 4 4 4 n < n n < n n n < n n n < n n n < n n n < n n n < n n n < n n n < n n n < n n n < n n n < n n n < n < n < n < n < n < n < 4 < 4 < 4 < 4 < 4 < 4 < < n < < 4 < < n < < 4 < < n < < 4 < < n < 4 < < n < 4 < n < n n n < n < n < n n < n n n < n n n < n n n < n n n < n 4 4 4 4 4 4 4 4 4 4 4 4 4 4 4 < < n < 4 < n < n < n < n < n < n n < n < n n < n n < n < 4 n < 4 n < n n n r.< n L.n n < n n n n n 4 4 n r.L.L.L.B.<X7XV.V.I I I y y y y $ $ y $ y y $ y $ y $ $ $ $ $ y $ y y | | C C C C C C b C b C b b C b C C C C 7XC 7X7X<XB.2.L.r.< < < n n n n 4 4 4 4 4 4 < < r.< r.< n < < r.< r.L.r.r.L.8 j : : j j 2.< L.< < < < < < 4 < 4 < 4 < < 4 < n < 4 < 4 4 4 4 4 4 4 4 4 4 4 4 4 4 4 4 4 4 4 4 4 4 4 4 4 4 4 4 4 4 4 < 4 < 4 4 4 4 4 4 4 4 4 < n r.n L.< j i e z.G @XA +XA A A A A +XA A A $.$.$.A A A A A E A  X XE E A  X X XA A A A A $.$.$.$.G $.G G c V m.e i u u : 8 6 < n n < < r.L.r.L.L.L.B.m.V c c c c c m.m.B.2.L.L.",
"n n < n n 4 < < < < < < < < < 4 < r.< n < < n < 4 < 4 < 4 < < < < 4 < < < < 4 < n < < n < n < < n < < n < < n < n < n n < n n < n < n < n < < < n < < < n < < < n < < < n < < < n < < < n < < < n < n < n < n < n < n < n n n < n < < n < < n < < n < n < n < n < n < n < 4 4 4 n < 4 4 4 4 n < 4 4 4 4 n < n 4 < < n < 4 < 4 < n < n 4 < 4 4 4 4 4 n < < n < < < n < < < n < < < n < < < < n < 4 < < < < < < < < < 4 < < < < 4 < < < 4 < < n < n < n < n < n < n n < n < n < n < n 4 4 4 4 n < n n < n < n < n n < n 4 n n 4 4 4 < < r.L.L.B.<XR.V.I I I I I y y $ $ $ $ $ y y $ $ y $ y $ $ $ $ y $ y $ y y | b C C C C C C b b b b C b C C C C } C C 7X7X<X<XB.L.L.r.< < 4 n n 4 4 4 4 4 4 r.< r.< L.< L.< L.< L.L.L.L.L.L.j u ) z.) e i u j 2.2.< L.< r.4 < 4 < 4 6 4 < < < < < < < < 4 < 4 < 4 < < < 4 < < < < < < < < < < < < < < < < < < < < < 4 < < 4 < < 4 4 4 4 < 4 r.< < n < 2.j u e V z.G @X+XA A A +XA +XA $.$.R.R.$.A E +XA A A A A A A +XA A A A A A A A A A A G $.G R.R.m.m.m.m.B.B.2.L.L.< L.< < L.< 2.L.L.L.L.L.B.c @X+X+X+XK +X+X+XG c m.B.2.",
"< < n < < < < < < < < < < < < < 4 < 4 < r.< < r.< 4 < 4 < 4 4 < 4 < 4 4 4 < n < < n < 4 < 4 < n < 4 < 4 < n < 4 < 4 < < n < < n < n < < < < 4 < < < < < < < < < < < < < < < < < < < < < < < < < < < < 4 < n < n < n < < < < < < < < < < < < < < 4 < 4 < < 4 < < 4 < < < < < < < < < < < < < < < < < < < < < < < 4 < < < < < < < < 4 < < n < < < < < < < < < < < < < < < < < < < < < < < < < < < < < < < < < < < < < < < < < n < < n < < < < n < n < n < n < < n < < < < < < < < < < < 4 4 4 4 4 4 < < < r.< < < < n < < 4 4 4 4 < 6 < L.L.B.<XR.V.V.I y I y y $ y $ $ $ $ y $ y y $ y $ $ $ $ $ $ $ y $ y $ y y y | | b C C C C C b b C C C C C C C C C b 7X7X<XB.L.L.L.< < < < < < 6 4 4 4 4 < < < L.L.L.2.2.2.2.2.L.L.L.L.2.i V z.z.z.z.z.V e e u j 8 < r.< 4 < 4 4 < 6 6 < 4 n 4 4 6 < < < < < < < < < < < < < < < < < < < < < < < < < < < < < < < 6 < 4 < < < < < < < < 4 < < n < L.8 j u i i e V G G @XA +X+XA G G c c $.$.$.A A A +XA A $.$.$.$.A A A A  XA A A +XA A A $.G G <Xm.m.m.m.m.) B.L.L.L.L.< L.L.2.: i e e e m.V G A +XK 0.0.K K K K K +X@XV u ",
"4 < < < < 4 < < 4 < 4 < 4 < 4 < < < < < < 4 < < < < < < < < < < 4 < < < < < < < 4 < < < < < < < < < < < < < < < < < < < < < < < < < < < < < < < < < < < < < < < < < < < < < < < < < < < < < < < < < < < < < < < < < < < 4 < < < < < < < < < < < < < < < 4 < < 4 < < < < < < < < < < < < < < < < < < < < < < < < < 4 < 4 < 4 < 4 < < n < < < < 4 6 4 6 < 6 < 6 < 6 < 6 < 6 < < < < < < < < < < < < < < < < < < < < < < < < < < < < < < n < < < n < < < n < < n < < < < < n < < n < < 4 6 4 4 < < < < n < n < < < < < < 4 4 < 4 < 4 < L.L.B.<XR.V.V.I I y y y $ y $ $ $ $ y $ y $ y $ y $ $ $ $ y y y $ y $ y $ y y y | b C C C C C b C C C b C C C b C C C 7X7X7XMXB.L.L.r.< 4 < 4 4 6 6 < < 4 n < < 2.2.: u i i i i u B.B.B.i V z.G G G G G V z.z.) : 2.< < < < 4 6 4 6 4 6 < 4 4 4 < 4 < 4 < < < < < < < < < < < < < < < < < < < < < < < < < < < < < < < < < < < < < < < < < < 4 < < < 6 j : u u i e V c c G G G c c R.c c G @XA A +X+X+X+XA G c c $.$.A A A A A A A  XA $.A $.A G c m.m.V c z.z.z.B.L.L.L.L.L.L.u V @X@X@X@XG G A +X+XK +XK K E K 0.K +X@Xz.i ",
"< < n < < < < 4 < < < < < < < < 4 < < 4 < < < 4 < < 4 < 4 < 4 < < < 4 < n < < 4 < < 4 < 4 < < < < < < < < < < < < < < < < < < < < < < < < < < < < < < < < < < < < < < < < < < < < < < < < < < < < < < < < < < < < < < < < < < < < < < < < < < < < 4 < < < < 4 < < < < < < < < < < < < < < < < < < < < < < < < < < < < < 4 < < < < 4 < < < < < < < < < < 4 < 4 6 4 < 4 6 4 < < < < < < < < < < < < < < < < < < < < < < < < < < < < < < < < < < < L.n < L.< < < < < < < < < < < < < < < 4 6 4 6 4 < < < n < < < < < n < < < < < < < L.L.L.<XR.V.V.I y $ $ $ y $ y $ $ $ $ $ y $ y $ y $ y $ y y $ $ y $ y $ y $ y y y | b C C C C C C C C C C C C C C b C b C 7X7XMXMXL.L.L.L.< < 6 6 4 6 4 4 < r.< L.2.u e V z.z.z.z.V V m.m.V c G G G G G z.c V V i : 2.L.< < < < < < 4 6 6 4 6 < < 4 6 4 6 < < < < < < < < < < 6 6 6 6 6 6 6 6 6 6 6 6 6 6 6 6 6 6 6 < < < < < < < < < < < 6 < < < n < 6 8 j j j B.i m.m.V V V V m.m.m.m.c G G @X+X@X@X@XG G c c R.c G G A G A A A  XA $.$.A A A A G c m.V c @X+X@XV B.L.B.B.B.B.m.A +X+X+XA c c G A A @X$.$.$.$.E K +X+X@Xz.i ",
"< < < < < r.< r.< r.< r.< r.< r.< < r.< < < < < < < < < < < < < n < < < < < < < < < < < < < < < < < < < < < < < < < < < < < < < < < < < < < < < < < < < < < < < < < < < < < < < < < < < < < < < < < < < < < < < < < < < < < < < < < < < < < < < < < < < n < < < < < < < < < < < < < < < < < < < < < < < < < < < < < < < < < < n < < < < < < < < < < < < 6 < < < < < < < < < < < < < < < < < < < < < < < < < < < < < < < < < < < < < < < < < < < < < < < < < n L.< < < < < < < < < < < 6 < 6 < < 4 < < < n < < n < < < < < < < < 2.L.L.<X<XV.V.I I y $ y $ $ y $ y $ $ $ $ y $ y $ y $ y y y $ y $ y $ y $ y $ y y I | b C C C C C b C b b C b C C C C C C C C 7X7XMXB.L.L.L.L.< < 4 6 6 6 4 < < < 2.: i V z.z.z.G G G c V V c c G c c G G G G c e i : 2.2.L.6 6 < < < < 4 < 4 < < 6 < 4 < < < < < < < < < < < 6 6 6 6 6 6 6 6 6 6 6 6 6 6 6 6 6 6 6 6 6 < < < < < < < < < < 6 6 4 < < n < 6 8 2.2.2.B.B.i i m.m.m.m.B.m.m.m.V c G G G G G G V m.m.m.m.c G G A A A A  XA  XA A G A @XG V m.m.R.@X+X+X@Xc m.c c R.R.$.E K K A $.<Xm.c z.c m.m.<XR.R.A +XA A G V u ",
"< < < < < < < < < < < < < < < < < < < < < < < < < < < < < < < < < < < < < < < < < < < < < < < < < < < < < < < < < < < < < < < < < < < < < < < < < < < < < < < < < < < < < < < < < < < < < < < < < < < < < < < < < < < < < < < < < < < < < < < < < < < < < < < < < < < < < < < < < < < < < < < < < < < < < < < < < n < < n < < < < < n < < < < < < 6 6 6 < < < < < < < < < < < < < < < < < < < < < < < < < < < < < < < < < < < < < 8 < < < < < < < < < < < < < < < < < < 8 < < < 6 < 6 6 6 < 6 4 < < < < < < < < < < < < < < L.2.L.B.<X<XR.V.I I y y $ $ $ $ y y $ y $ $ y $ y $ y $ y y y y y y $ y $ y $ y $ y y y | | C C C C C b C b C b C b C C b C b C C C 7XMXMXB.L.L.L.< < < 4 4 4 < < L.2.2.: e V z.G G z.@XG G c c c c c c c c G G G V e i u 2.2.2.L.< 2.< < < < r.< < < < < 6 < < < < < < < < < < < 6 6 6 6 6 6 6 6 6 6 6 6 6 6 6 6 6 6 6 6 6 6 6 6 6 6 6 6 6 6 6 6 6 < < n < < < 2.2.L.L.2.2.B.i i i i i B.i i m.m.e V V V V V V m.m.m.m.m.V c G G G $.$.A A A A A A G G c m.m.R.c A +X+X+X+X+X+XK +XK K K K K A $.m.m.e e i m.B.m.m.c c R.c c m.m.B.",
"< < < < < < < < r.< < r.< < r.< < < < < < < < < < < < < < < < < < < < < < < < < < < < < < < < < < < < < < < < < < < < < < < < < < < < < 6 6 6 6 6 6 6 6 6 6 < < < < < < < < < < < 6 6 6 6 6 6 6 6 6 6 < < < < < < < < < < < < < < < < < < < < < < < < < < < < < < < < 6 6 6 6 6 6 6 6 6 6 < < < < < < < < < < < < < < < < < < < < < < < < < < < 6 6 6 6 6 6 6 6 6 6 6 6 6 6 < < < < < < < < < < < < < < < < < < < < < < < 8 < 8 < < 8 < 8 < 2.< 8 < 8 < < 8 < 8 < 8 < 8 < < 8 < 6 < 6 6 4 6 6 6 < < < < < < < < < < < < < 6 2.L.B.<XR.V.V.I I $ y y $ $ $ $ $ $ $ $ $ $ y $ y $ y $ y y | y | y y y y y y y y y y y y b C C C C C C C 7Xb C b C b C C C C C C C C 7XMXMXMXL.L.L.L.< < < < < < 6 8 j u e z.G z.z.G G G G c c c G c c c c c G G G V V e u 2.2.L.L.L.< L.< L.< L.< 6 < 6 6 < 6 6 6 6 6 6 6 6 6 6 6 6 6 6 6 6 6 6 6 6 6 6 6 6 6 6 6 6 6 6 6 6 6 6 6 6 6 6 6 6 6 6 6 < < < n < < n < < L.L.2.: u i i i i i i i i i i i i e e e i i i B.u m.V V V m.V c $.$.A A A G G c V m.m.m.V $.A +XK 0.K K K K 0.0.0.0.0.K A G V e e ) u u B.i m.V m.m.m.m.<XB.B.",
"6 < 6 < 6 < < < < < < < < < < < < 6 < 6 < < < < < < < 6 < 6 < 6 < 6 < 6 < 6 < < 6 < < 6 < 6 6 6 6 6 6 6 6 6 6 6 6 6 6 6 6 6 6 6 6 6 6 6 6 6 6 6 6 6 6 6 6 6 6 6 6 6 6 6 6 6 6 6 6 6 6 6 6 6 6 6 6 6 6 6 6 6 6 6 6 6 6 6 6 < < 6 6 6 6 6 6 6 6 < 8 < 8 < 2.< 6 < 8 < 6 6 6 6 6 6 6 6 6 6 6 6 6 6 6 6 6 6 6 6 6 < < < < < < < < < < < < < < < < 6 6 6 6 6 6 6 6 6 6 6 6 6 6 6 6 6 6 6 6 6 6 6 6 6 6 6 6 6 6 6 6 6 6 6 6 6 6 < 6 < 8 < < 6 < 6 < 8 < 8 < 8 6 6 8 < < < 8 < < 8 < < 8 < 6 6 6 6 6 6 6 < < < < < < < < 6 6 < 8 < 2.B.B.R. XV.I y y y y y $ $ $ y $ y y $ I I $ y $ y $ y y | y | y y y y y y y y y y y $ y b C C } C C 7XC C b C b C C b C C C C C C C C } MXMXB.L.L.L.r.< < < < < 2.8 j i V z.z.G G G G G G G G G G G G c $.G G c V V V i u 2.L.L.L.2.2.2.2.2.2.8 2.< 8 < 6 < 6 < < 2.< < 6 < < 6 6 6 6 6 6 6 6 6 6 6 6 6 6 6 6 6 6 6 6 6 6 6 6 6 6 6 6 6 6 6 6 6 6 6 < < < < L.< L.L.< L.2.: u i i e e e i i i i i i i i i i u u : : u i e e e m.m.c R.c G G c c V m.m.m.m.V c G A +X0.K 0.K K 0.K K 0.K K +XG c e i u u : : : : i i m.m.<X<X<X<XB.",
"6 6 < 8 < 6 < < < < < < < < < 6 < 6 < 6 < 6 6 6 6 8 < 6 < 6 < 6 < 6 < 6 < 6 < 6 6 < 6 6 < 6 6 6 6 6 6 6 6 6 6 6 6 6 6 6 6 6 6 6 6 6 6 6 6 6 6 6 6 6 6 6 6 6 6 6 6 6 6 6 6 6 6 6 6 6 6 6 6 6 6 6 6 6 6 6 6 6 6 6 6 6 6 6 6 < 6 < 6 < < < 6 < < 6 < < < < < 6 < 6 < < 6 6 6 6 6 6 6 6 6 6 6 6 6 6 6 6 6 6 6 < 6 < < < < < < < < < < < < < < < 6 6 6 6 6 6 6 6 6 6 6 6 6 6 6 6 6 6 6 6 6 6 6 6 6 6 6 6 6 6 6 6 6 6 6 6 6 < 6 < 8 < 6 < 8 < 8 < 8 < 8 6 8 < 8 6 6 8 < 8 < 8 < < 2.< 6 < 6 6 6 6 6 6 6 < 6 < < < < 6 < 6 < 8 6 2.2.B.<XV. XI I | y $ y y $ $ y $ y I I I I y I $ y $ y y | y | | | $ | $ | y y y y y y y y | b C C C C C C 7Xb C C C C C C C b C C C C C C MXMXMXMXL.L.L.< < < < < 6 2.2.u e z.G z.z.G z.G G G G A G A G G G G G c V m.m.B.B.2.L.L.2.2.: : u u u : j 2.8 6 8 8 < 2.6 < 6 2.< 6 2.< 8 6 6 6 6 6 6 6 6 6 6 6 6 6 6 6 6 6 6 6 6 6 6 6 6 6 6 6 6 6 6 6 6 6 6 < < < < < < < < L.2.j : u u u u i u u i i ) i ) u u u : 2.2.2.: u ) e e i m.m.V m.m.V m.m.m.i i i i m.m.V G A E E E K K K K K K +XA G V i i u : j j : : u i i m.m.<XR.<XR.7X",
"6 < 6 < 6 6 8 6 8 6 6 6 6 6 6 6 6 6 6 6 6 6 < 6 < 6 < 6 < 6 < 6 6 < 6 < 6 < 6 < 6 < 6 < 6 < 6 6 6 6 6 6 6 6 6 6 6 6 6 6 6 6 6 6 6 6 6 6 6 6 6 6 6 6 6 6 6 6 6 6 6 6 6 6 6 6 6 6 6 6 6 6 6 6 6 6 6 6 6 6 6 6 6 6 6 6 6 6 6 < 6 < 6 6 6 < 6 6 6 < 2.6 6 6 < 2.< 6 < 8 6 6 6 6 6 6 6 6 6 6 6 6 6 6 6 6 6 < 6 < < < < < < < < < < < < < < < < < < 6 6 6 6 6 6 6 6 6 6 6 6 6 6 6 6 6 6 6 6 6 6 6 6 6 6 6 6 6 6 6 6 6 6 6 6 6 6 8 < 8 < 8 < 8 < 8 6 8 6 8 6 8 6 8 6 8 < 8 < 2.< 8 < 8 < 6 6 6 6 6 6 6 < 6 < 2.< < < < < < 2.8 8 2.2.<XR.V.V.I I y | $ $ $ $ $ $ I I y I y I I y $ $ y y y y | y | y y y y $ y y | $ y | $ y | C C C C 7XC C C C C C C C C b C C C C C C C C C MXMXB.L.L.L.< 6 6 6 < < 2.2.: i e V V V c G G G c c G G G G G G G G V V m.B.B.L.L.B.: i i ) ) z.z.) ) : j 8 2.8 8 6 < 6 8 < 6 6 6 < 6 < 2.< 8 < 2.< 8 < 2.< 8 < 2.< 8 < 2.< 8 < 2.< 8 < 2.< 2.< 8 < 8 < 8 < 8 6 6 < < < L.< L.< 2.j j 2.2.j j j j : : : u : : : j 2.2.2.2.2.u ) ) e e m.m.m.m.m.m.i i i i i ) i u u m.m.c $.$.$. XA +X+X+X+X@XG V i 2.2.2.2.2.j u i i e m.R.R.R.7X7X7XV.",
"6 8 6 8 6 6 6 8 6 6 6 6 8 6 8 6 6 6 6 6 6 6 6 6 8 6 6 6 8 6 8 6 8 6 8 6 8 6 8 6 8 6 8 6 6 6 6 6 6 6 6 6 6 6 6 6 6 6 6 6 6 6 6 6 6 6 6 6 6 6 6 6 6 6 6 6 6 6 6 6 6 6 6 6 6 6 6 6 6 6 6 6 6 6 6 6 6 6 6 6 6 6 6 6 6 6 6 6 6 6 6 6 < < 2.< 2.< 2.< < 6 < 8 6 6 6 8 6 6 6 6 6 6 6 6 6 6 6 < 2.< < < L.< L.2.L.2.2.L.2.< 2.L.2.< L.< < 2.< < 6 < 6 6 6 6 6 6 6 6 6 6 6 6 6 6 6 6 6 6 6 6 6 6 6 6 6 6 6 6 6 6 < < < 6 < 6 < 6 6 6 6 6 8 < 8 < 8 6 6 8 6 8 6 8 6 8 6 8 6 < 6 < 8 < 8 < 6 8 6 6 6 6 6 6 6 6 6 < 6 < 6 < < 2.< L.2.L.B.<XV.V.I I y y y y $ $ $ $ $ y I I I I I I I $ y $ $ y | | | | | y y $ | y y y y y y y y | C C C C C C C C C C C C C C C C C C C C } C C C C MXMXMXB.L.2.8 6 < 2.< 2.2.B.u i i e e V V c c V V V c c G G @XG c V V V e B.B.B.i e V V z.z.z.z.z.z.u j 2.2.8 8 8 < 8 < 8 < 2.< 8 < 8 < 8 < 6 < 8 < 6 < 8 < 6 6 < 2.6 6 < 8 6 8 6 8 8 6 8 6 8 8 8 < 8 < 8 6 6 6 8 < < 8 < < < 8 8 2.8 L.2.8 8 8 8 8 8 j 8 8 8 2.8 2.2.2.2.: u ) ) e e e e m.e i i ) ) ) ) ) ) ) u u B.m.m.<X<XR.c G @X@XG V e u : 2.2.2.2.2.2.: i e V R.R.R.7XV.7XV.y ",
"6 6 6 6 8 6 8 6 8 8 8 6 8 6 8 6 8 6 6 8 6 8 6 6 6 6 8 8 6 8 6 8 6 8 6 8 6 8 6 8 6 8 6 8 8 8 8 8 8 8 8 8 8 8 8 8 8 8 8 8 8 8 8 8 8 8 8 8 6 6 6 6 6 6 6 6 6 6 6 6 6 6 6 6 6 6 6 6 6 6 6 6 6 6 6 6 6 6 6 6 6 6 6 6 6 6 6 6 8 6 2.6 8 6 6 8 6 8 6 8 8 < 2.< 6 6 6 6 6 6 6 6 6 6 6 6 < 8 6 2.< 2.L.2.2.2.L.2.2.B.B.: 2.2.2.2.L.2.2.2.< 8 < 8 8 6 6 < < < 6 8 6 6 6 6 6 6 8 6 6 6 < < < < 6 < 6 < < < 6 6 6 < 8 6 8 6 6 6 6 8 6 8 8 6 8 6 8 8 8 8 8 6 8 6 8 8 8 8 8 8 8 6 8 8 6 8 6 8 6 6 6 6 6 6 6 6 6 6 6 6 6 < < < L.< L.L.L.B.<X7XV.I y y y y $ y y $ $ y I $ I y I y I y y $ $ $ y y | y | y y y | | y y y y y $ $ $ y | b b C C C C C C C C C b b b C C C C C C C C C C C MXMXMXB.L.2.2.2.2.< 2.8 2.: : u i i i i e e e e m.m.V c z.c c c V V c z.c V e V V z.z.V e V z.z.z.) u 2.2.2.2.8 8 6 8 < 8 6 8 6 8 8 < 8 8 8 8 8 8 8 8 8 8 8 2.8 6 8 8 6 8 < 2.6 8 8 8 8 8 8 8 < 8 8 < 8 6 6 8 6 < 8 8 < 2.< L.6 2.8 6 < < 8 < 8 8 8 8 2.8 2.8 2.6 2.6 2.j : u u ) ) ) i i i i ) ) ) ) ) ) ) fXu u : u i m.m.m.m.V c c c V i u : j 2.2.< 2.2.2.B.B.m.R.R.V.V.V.y y y y ",
"8 6 8 6 8 6 8 6 8 6 8 8 6 8 8 8 6 8 6 8 6 6 6 8 8 6 8 8 8 8 8 8 8 8 8 8 8 8 8 8 8 8 8 8 8 8 8 8 8 8 8 8 8 8 8 8 8 8 8 8 8 8 8 8 8 8 8 8 6 8 8 8 8 6 6 8 6 8 8 8 8 6 8 8 6 8 8 8 8 6 6 6 6 6 6 6 6 6 6 8 8 8 8 8 6 8 8 8 6 8 8 8 8 8 8 8 8 8 8 8 < 8 < 6 6 6 6 6 6 6 6 6 6 6 6 < 2.< L.2.L.2.2.: u i i m.m.m.V V e i B.B.2.2.2.2.2.2.2.8 6 6 < < < < 6 6 6 6 6 6 8 8 8 8 8 6 6 6 6 6 6 6 6 6 8 < 2.6 8 2.< 8 8 6 8 6 8 6 8 8 6 8 8 8 8 8 8 8 8 6 8 6 6 8 6 8 6 8 6 8 8 8 8 6 8 6 8 6 8 6 2.6 6 8 6 6 6 6 6 6 < < < 2.L.L.B.B.<XV.V.I y y $ y $ y $ y $ $ $ $ $ $ I $ y $ y y $ $ $ y | | | y y y y | | y y y y $ I y | | b b C C } C C C C C C b C b b C C C C C C C C C } } MXMXMXMXB.2.L.2.2.2.8 j j : u u u u i i i i i i i e V V c V V m.m.c G z.z.z.z.z.V V e ) e ) e ) ) : 2.2.L.2.2.8 8 8 8 8 < 8 8 < 8 8 8 8 8 8 8 6 8 8 8 8 6 2.< 8 2.6 2.8 2.6 2.8 8 8 8 8 6 2.8 2.< 2.8 < 8 < 8 < 8 < 8 < 8 8 6 < 2.< 2.8 8 8 < 2.8 2.6 8 6 2.6 2.6 2.8 j j : : u u u u i u B.u u u fXu fX: : : : : : : u i i e e e e e i u : j 8 8 8 2.2.L.2.B.<X<XR.V.V.I $ y I y y ",
"8 8 8 8 8 8 8 8 8 8 6 8 8 8 6 8 6 8 6 8 8 8 8 6 8 8 8 8 8 8 8 8 8 8 8 8 8 8 8 8 8 8 8 8 8 8 8 8 8 8 8 8 8 8 8 8 8 8 8 8 8 8 8 8 8 8 8 8 8 8 8 8 8 8 8 8 8 8 8 8 8 8 8 8 8 8 8 8 8 6 6 6 6 8 8 8 6 8 8 8 8 8 6 8 8 8 < 8 8 8 8 8 8 8 8 8 8 8 8 8 2.< 8 < 8 6 6 6 6 6 6 6 < < 6 8 2.L.L.L.L.B.B.e z.@XG @X@X@X@X@XG c V m.m.i i : 2.L.L.L.2.8 8 < < < L.< < 8 8 8 8 6 6 6 8 8 8 6 6 8 2.6 2.8 8 8 8 8 8 8 8 8 8 8 8 8 6 8 8 6 8 8 6 8 8 8 8 8 8 8 6 8 8 fX6 fX6 fX6 8 8 6 8 8 6 6 8 6 6 8 8 6 8 6 8 6 8 6 6 < 8 8 2.2.L.B.B.<X7XV.I $ y y y $ y $ y y $ $ V.$ $ $ $ $ $ $ y y $ $ $ y | | | y y | | | | y $ y y $ $ y | | b C C C C C C C C C C C b C C C C C } C C C C C C 7.7.MXMXMXL.B.L.2.L.8 2.j j j j : : : : : B.u B.i i e e V V V m.V m.c z.z.z.z.V V e e i i ) e ) ) ) : 2.2.2.2.8 < 2.< 8 8 8 8 < 8 8 8 8 8 6 8 8 8 8 8 8 8 8 8 2.8 8 8 8 8 8 8 8 < 2.8 2.8 2.6 8 8 8 8 < 2.8 8 8 8 8 2.8 8 2.6 8 8 6 8 6 6 8 8 8 8 8 8 8 8 8 8 8 2.< 2.8 8 j 8 j j j j 2.B.2.B.2.2.2.2.j j 2.2.2.2.2.2.: : u ) u u i i i i u j 2.8 2.8 2.L.L.B.B.<XR.V.V.I y y y y y y ",
"8 6 8 8 6 8 8 6 8 8 8 8 6 8 8 8 8 8 8 8 8 6 8 8 8 8 8 8 8 8 8 8 8 8 8 8 8 8 8 8 8 8 8 8 8 8 8 8 8 8 8 8 8 8 8 8 8 8 8 8 8 8 8 8 8 8 8 8 8 8 6 8 8 8 6 8 8 8 6 8 8 8 6 8 8 8 6 8 8 8 8 8 8 6 8 8 8 8 8 8 8 8 8 8 8 8 8 8 8 8 8 8 8 8 8 8 8 8 8 8 8 8 8 8 6 8 6 6 6 6 8 8 8 2.2.2.2.2.L.B.B.B.m.G +X+X+X+X+XE +X+XA A G @XG G c m.B.2.2.2.2.L.2.2.2.2.8 2.L.< 2.2.8 2.< 2.8 6 2.8 2.8 8 8 8 j j j j j 8 j 8 8 8 8 8 8 8 8 8 8 8 8 8 8 8 8 8 8 8 8 8 6 fX6 6 6 fX8 8 8 8 8 8 8 8 8 6 8 8 8 8 6 6 6 6 8 6 6 6 6 6 8 2.2.B.B.<XR.V.V.I $ y y $ y $ y $ y $ $ $ $ y $ $ $ $ $ y $ I y $ y | | | | | | | | y $ $ $ y y $ | | b b b C C C C C C C C C C C b C C C C C C C C C C C } 7.MXMXMXMXB.B.2.L.2.2.2.8 j j 2.j 2.2.j 2.j : u i ) ) e i i i m.m.V z.z.z.V e e i i i i i ) ) ) u : 2.2.2.2.2.8 8 8 8 8 8 8 8 8 8 8 8 8 8 8 8 8 8 8 8 8 2.8 8 8 2.6 2.8 8 2.8 2.8 8 8 6 8 2.8 8 L.8 2.8 < 2.< 2.< 8 < 8 6 2.6 2.6 2.6 2.6 8 2.8 8 8 8 2.8 2.8 < 2.8 2.8 2.8 2.8 2.2.L.L.L.L.2.L.2.2.< 2.8 2.6 2.2.2.2.j : : : 2.: u u u : 2.2.6 2.2.2.L.B.B.<XR.V.V.I I y y y y y y ",
"8 8 8 8 8 8 8 8 fX6 8 fX6 8 8 8 8 8 6 8 8 8 8 8 8 8 8 8 8 8 8 8 8 8 8 8 8 8 8 8 8 8 8 8 8 8 8 8 8 8 8 8 8 8 8 8 8 8 8 8 8 8 8 8 8 8 8 8 8 8 fX6 8 fX8 8 8 fX8 8 8 fX8 8 8 fX8 8 8 8 8 8 8 8 8 8 8 8 8 8 8 8 8 8 8 8 8 8 8 8 8 8 8 8 8 8 8 8 8 8 8 8 8 8 8 8 8 8 8 8 8 8 2.2.2.B.u i m.B.B.<XR.$.+XK +XK +XE E E E A A A +X+XA c m.B.B.L.B.2.2.2.j j 2.2.2.L.2.2.2.2.2.L.2.2.2.2.2.2.2.2.j j j j j 8 j 8 j 8 8 8 8 8 8 8 8 8 8 8 8 j 8 j 8 8 8 8 8 8 6 fX8 fX6 8 8 8 2.8 8 8 8 6 8 8 6 8 8 8 8 8 8 8 8 8 6 6 8 j 2.2.B.<XR.V.V.I I $ y $ y $ y $ y $ $ $ V.$ $ $ $ y $ $ $ y $ I y y y | y | y | b | | $ $ y y y y | b b b C C C C C C C C C C C C C C C C C C C C C C C C } } 7.MXMXB.B.L.L.L.2.2.2.j 8 8 8 2.8 2.2.2.2.j : u u u u u u u i i e V V V e i B.B.B.B.u u u u u u : 2.2.2.j j 8 8 8 8 8 8 8 8 8 8 8 8 8 8 8 8 8 8 8 8 8 8 8 8 8 8 8 8 8 8 8 8 8 8 8 2.8 8 8 8 8 8 8 8 8 2.8 8 8 8 2.8 8 8 8 8 8 8 8 8 8 8 8 8 8 8 2.8 8 8 8 8 2.6 2.< 2.< 2.< L.L.< L.2.L.2.L.2.< L.2.< 2.8 8 2.6 2.2.2.2.2.2.2.2.2.j : 2.2.2.2.L.2.2.B.B.<X7XV.V.I I $ y y y y y y ",
"8 8 8 8 8 8 8 8 6 8 8 6 8 8 6 fX6 j 6 fX8 8 8 8 8 8 8 8 8 8 8 8 8 8 8 8 8 8 8 8 8 8 8 8 8 8 8 8 8 8 8 8 8 8 8 8 8 8 8 8 8 8 8 8 8 8 8 8 8 8 8 8 8 8 8 8 8 6 8 8 8 8 8 8 8 6 8 8 j 6 fX8 8 8 8 8 8 8 8 8 8 8 8 8 8 8 8 8 8 8 8 8 8 8 8 8 8 8 8 8 8 8 8 8 8 8 8 8 8 8 8 j 2.j B.i e c c c R.R.$.A E K K K E E E E E E  XE K K E A G m.B.B.B.B.i i i i u : 2.2.: : u u u : 2.2.2.L.2.2.2.2.2.2.2.2.2.j 8 8 8 j 8 8 8 8 8 8 8 8 8 8 8 8 8 8 j 8 8 8 8 8 8 8 6 8 8 8 j 8 8 8 8 8 8 8 8 8 8 8 8 8 8 8 8 8 6 8 8 6 8 2.2.B.B.R.V.V.I I $ $ y y y y $ y $ y $ $ $ $ $ I $ $ $ $ $ $ I y y y y y | | | b b b | y $ y y y y | b b b b b b b C C C C C C C C C C C C C C C C b C C C } } MXC MXMXMXMXB.L.2.2.2.2.8 8 8 8 2.8 8 8 j j : : : j 2.2.2.B.: : i i i i i B.B.2.2.2.: : : : : : : j j j j 2.8 8 8 8 8 8 8 8 8 8 8 8 8 8 8 8 8 8 8 8 8 8 2.8 2.8 2.8 2.8 2.8 2.8 2.8 8 8 2.8 2.8 8 2.8 8 8 8 2.8 8 8 8 2.8 8 8 8 8 8 8 8 8 2.8 2.8 8 8 2.8 8 2.8 8 2.8 2.< 2.8 < 2.2.2.2.2.8 2.2.8 8 8 8 8 < 2.< 2.2.2.j j 2.2.2.j j 2.2.2.2.L.2.B.B.<X<XR.V.V.I I $ $ y y y y y y ",
"8 j 8 fX6 fX8 8 j 8 j 8 fX8 8 8 8 8 8 8 8 j 8 fX6 j 8 8 8 8 8 8 8 8 8 8 8 8 8 8 8 8 8 8 8 8 8 8 8 8 8 8 8 8 8 8 8 8 8 8 8 8 8 8 8 8 8 8 j 8 j j 8 fX8 fX8 j fX8 fX8 j fX8 j fX8 fX6 8 8 j 8 j 8 8 j 8 j 8 8 8 8 8 8 8 8 8 8 8 8 j 8 8 8 8 2.8 2.8 8 8 8 j 8 8 8 8 8 8 2.2.B.: e G A A A A  XE E E K K K K E E E E E E E K K K E  XR.<X<Xm.V V c V V e e i i i e e e e e i : 2.2.L.2.L.2.L.2.2.2.2.8 2.8 8 8 8 8 8 8 8 8 8 8 j j 8 j j j j j 8 8 j 8 j 8 j 8 2.8 2.8 j 2.8 8 8 8 8 8 8 8 8 8 8 8 8 8 8 8 8 8 j 2.B.B.<XR.V.I I y y $ y $ y $ y $ y $ $ $ $ V.$ $ y $ $ $ $ I y y y y y y y | | b C b | y y y y y y | | | | | b b b C C C C C C C C C C C C C C C C C b C C C } 7.} MXMXMXMXB.B.B.L.2.2.j 8 8 8 8 j j 8 j j j j j 2.2.2.2.2.2.B.: : : : B.2.2.L.B.2.: 2.: : : j j j 2.j j j 8 8 2.8 8 2.8 8 2.8 j 8 j j 8 j j 8 j 8 j j j 8 j j j j 8 j j 8 j j j j 2.j j j 8 2.8 8 8 8 8 8 8 8 8 8 2.6 8 8 8 8 8 8 8 8 j j j 8 j j j 8 j 2.8 2.8 8 8 2.8 2.8 2.2.2.2.2.2.2.8 8 8 8 8 8 8 8 8 2.8 2.j j j j 6 8 j j 2.2.L.2.2.B.B.<XR.R.V.I I I y y y y y y y y y ",
"8 8 8 8 8 8 8 8 8 8 8 8 8 8 8 j 8 j 8 j 8 8 8 8 8 8 j 8 8 8 8 8 8 8 8 8 8 8 8 8 8 8 8 8 8 8 8 8 8 8 8 8 8 8 8 8 8 8 8 8 8 8 8 8 8 8 8 8 8 8 fX8 j 8 j 8 8 j 8 8 8 j 8 8 j 8 8 8 8 j 8 j 8 8 8 8 j 8 8 8 8 j 8 8 8 8 8 8 j 8 j 8 8 8 8 8 j 8 j 8 j j j 8 j 8 j 8 j j : 2.L.2.i V A +X+XK K K E E E E K K K K K K K E E K K K 0.K E  X$.$.$.$.G G G c c c V V V V c z.z.V V m.i B.B.2.B.2.2.2.2.2.2.2.8 8 8 8 8 8 8 8 8 8 j 8 j 8 j 8 j j j 8 j 8 j 8 j j j 2.j j 2.j 2.8 2.8 j 8 j 8 j 8 8 j 8 8 8 8 8 8 8 j 2.2.B.m.R.V.V.I y y y y y y $ y $ y $ y $ $ $ $ $ $ $ $ $ $ $ $ y y y y y y y | b b b C b | | | | y y y | y | | | b b C C C C C C C C } C C C C C C C C b C C C } } } C } MXMXMXB.B.B.B.2.j j j j j j 8 j j 8 fXj 8 2.2.2.2.2.2.2.B.2.B.2.2.2.B.2.2.: 2.: j j j j j j j j j j 8 j 8 8 8 8 j 8 8 j 8 j 8 8 j 8 8 j 8 j j 8 j j 2.j 8 j j 8 j j j 8 j 8 j j 8 j j 8 8 2.8 8 2.8 8 2.8 8 8 8 8 8 8 8 8 8 j 8 j 8 j j 8 j 2.j j j j 8 2.j j 8 j 8 j j j j j j j j j j j j j j j j 2.8 2.2.2.j j j 8 8 8 8 2.2.2.B.B.B.<XR.R.V.V.I I y y y y y y y y y y ",
"j j j 8 j 8 j 8 j 8 j 8 8 j 8 8 fX8 j 8 fX8 j j j j 8 8 8 8 8 8 8 8 8 8 8 8 8 8 8 8 8 8 8 8 8 8 8 8 8 8 8 8 8 8 8 8 8 8 8 8 8 8 8 8 8 8 j j 8 8 fX8 j 8 fX8 j j 8 fX8 j 8 fX8 j j 8 j 8 fX8 fX8 j 8 j j 8 8 j 8 j 8 j 8 8 j 8 8 8 8 j 8 2.8 2.8 j j j j j j j j j j j 2.L.2.B.c A +XK K K K K K E K E K K K K 0.0.K K K K 0.0.K 0.K E E  X X$.$.c G G c G G z.G G G c c V V e i i i i i B.: B.: : j j j j j 2.j 2.j j j 8 j j j j j j 8 j j j j 8 j j 2.j 2.2.2.2.2.2.2.j j j j 8 j 8 8 8 8 8 8 8 8 8 j 8 j 2.B.m.R.R.V.I y | y y $ y y $ y $ y $ y $ $ $ $ $ V.$ $ $ $ I $ I y y y y y y | | b C C b | | | | y $ $ $ $ y y y | b C C C C C C } C } C C C C C C C b b b C C } } } 7.} MXMXMXMXB.B.L.B.2.j j j j j j j j j j j j 8 2.2.2.: 2.2.2.2.2.2.B.j j j : 2.: 2.j 2.j j j j 8 j 8 j j 8 j j j j 8 j j 8 j 8 j j 8 j j 8 j j 2.j j 8 j j 2.j 2.j 2.j 2.j 2.j j 2.j 2.j 2.j 8 8 2.8 8 2.8 8 2.8 j 8 8 8 8 8 8 8 j j j 2.j 2.j j 8 2.j 8 j j j j j j j j j j j j j j j j j j 8 j j j j j j 2.2.2.2.2.j 8 j 8 8 2.2.B.B.<X<XR.V.V.V.I I y | y y y $ y y y y y ",
"8 j 8 j j j j 8 j 8 j 8 j 8 j 8 j 8 j j 8 j j 8 j 8 j 2.8 2.8 2.8 2.8 2.8 2.8 2.8 2.8 2.8 2.8 2.8 2.8 2.8 2.8 2.8 2.8 2.8 2.8 2.8 2.8 j 8 j j 8 j 8 j j 8 j 8 fX8 j 8 j j 8 j j 8 j j j j 8 j 8 j j j 8 j 8 j 8 j 8 j 8 j 8 8 8 j 8 8 2.j 8 2.j j j j j j j j j j j 2.B.L.B.B.V A +XK K K K K K K K K K E K K K 0.0.K 0.0.0.0.0.0.K 0.K K E  X$.$.R.$.G G G G G c c c c c c c c c V V e e e i i u : j j j 2.j 2.j 2.j 2.2.2.j 2.j 2.j j j 8 j 8 j j j j 2.j 2.2.j 2.j 2.j j 2.j j j j 8 j 8 j 8 8 8 8 j 2.2.B.B.<XR.V.V.y y | y $ y y $ y y $ y $ y $ V.$ y $ $ $ $ $ $ I $ y | y y y y y | | b C C C b | | | y $ I I I I $ y | b C C C C C } C } C } C C C C C b b b b b C } } } 7.} } MXMXMXMXB.B.B.2.: j j j j 8 j 8 j fXfXj j j j j : j 2.2.2.2.2.j : : : : j j j j j j j j 8 8 8 8 j j j j 8 j 2.j 8 j j j j 8 j j j j j 8 j j 2.j 2.j 2.j 2.j j j 2.j j j 2.j j 2.j j j 8 2.j 8 2.j 8 2.j j j j 8 8 8 8 8 8 j j j j j j j 2.j 2.j j j j j j j j j j j j j j : fXj j j j j j j : : j j 2.2.2.2.j 2.j j j j 2.2.B.B.<X<X7XV.V.V.I I I y y | y y y y y y y y ",
"j j j j 8 j 8 j 8 j 8 j 8 j 8 j j j j 8 j j j j j j j j j j j j j j j j j j j j j j j j j j j j j j j j j j j j j j j j j j j j j j j j j j fXj j fXj j fXj j j j fXj fX8 fXj j fX2.j 8 j j j j j 8 fX8 j 8 j 8 j 8 j j 8 j 8 j 8 8 j 8 2.j 2.8 j j j j j j j j 2.2.2.B.B.B.m.c A K K K E K K K K K K E K E E K K 0.0.0.0.0.0.0.0.0.0.0.0.K K  X X$.R.$.G G c c R.m.V c c c G G G z.G z.c z.z.z.e ) u : : : : B.B.B.B.B.B.2.2.2.2.2.2.j j j j j j j j j j 2.j 2.2.2.j j 2.j j j j j j j j j j fX8 fX8 j 2.B.B.<XR.V.V.I y y y y y $ y y $ y $ y y $ $ $ $ $ $ y $ $ $ $ $ I y y y y y y | | b C C C C C b | | y I $ I $ I I y | b C C C C C } } 7.} } } C } C C b b b b b } } } 7.7.7.7.} MXMXMXB.B.B.B.: : j j j j fXj fXj : j j j j : : j : 2.: : j j : : : : j j j j j 8 j j j j j j j j j 2.j j j j 2.j j j j j j 8 j j j 2.j j j j j j j j j j j j j j j j j j j j j j j j j j j j j j j j 8 j j j j j j j j j j j j j j j j j j j j j j j j j j j j j j j fX: : fX: : : : j : j j j 2.2.2.2.2.: : j j j j 2.B.B.<X7X7XV.I I I I I | y y y y y $ y y y y y ",
"j j j j j j j j j j j j j j j j j fXj : j fXj j fXj j j j j j j j j j j j j j j j j j j j j j j j j j j j j j j j j j j j j j j j j j j j j j j j 8 j j j j j j j 8 j j j j j j j j j j j j j j j j j j j j j j j j j j j j j j j j j j j j j j j j j j j : : j 2.2.B.L.B.m.c $.A K K E E K K K K K K K E E E E K K 0.0.0.0.0.0.0.0.0.0.0.0.K  XV.V.$.$.$.$.c R.<X<Xm.R.c c G G G G G G G z.G G z.z.e i B.B.B.B.B.B.B.B.B.B.L.B.2.B.2.: : 2.2.j j : : : : : : : j : 2.: j j j j : j j j : : j 8 fXj j 2.2.B.<XR.V.V.I y | y y $ $ y $ y $ y y $ y y y $ y y $ y $ y y y y y I y y y y | | b b C C C C C C | y $ y y y y $ $ y | | C C C C } } 7.7.7.7.7.} } } C C C b b C } } } 7.7.7.7.7.} MX<XMX<XB.B.B.: 2.j j j 8 fX8 fXj j j j j j 2.j j j j : j j j : j j j j j j j j fXj j fXj j j j j j j j j j j j j 2.j 2.j j 2.j j j j j j : j : j : j : j : j : j : j : j : j : j j : j j : j j : j j j j j j j j j j j j j fXj : j j j j j j j j j j j j j j j j : : fX: : fX: j : j j : j 2.2.2.2.2.: j 2.2.j j : u i m.R.V.V.I I I I I I y y y $ y $ $ $ $ $ $ y ",
"j j j j j j j j j j j j j j j j j j j j j j j j j j : j j j j j j j j j j j j j j j j j j j j j j j j j j j j j j j j j j j j j j j j j j j j j j j j j j j j j j j j j j j j j j j j j j j j j j j j j j j j j j j j j j j j fXj j j j j j j j : j j j : : j 2.2.B.B.B.B.<X$.A K E K E K K K K K K E E  X X X XE K K 0.0.0.0.0.0.0.0.0.0.0.E  XV.V.V. X$.$.R.R.<X<XR.m.R.R.c G G G G G G G G G c V m.m.B.B.B.<XB.<X<X<X<XB.<XB.B.B.B.: B.2.2.j j fX: : : : j 2.j 2.j : j j : : j j j : : j j j j j j 2.B.<X<XR.V.I I I y y y $ y $ y $ y y $ y y $ y $ y $ y $ y $ y $ y y y $ I $ y y | b C C C b C } C | y $ y y y y $ $ y | | C C C C } } 7.7.7.7.7.} } } C } C C C } } } } 7.7.7.7.7.MXMXMX<X<X<XB.B.B.2.2.j j j fXj j j j j j j B.j j : j j j j j j j j j j j j j fXj j fXj j j : j j j j j : j : j : j j j j j 2.j j 2.j 2.j : j : j : j : j j : j j : j j : j j : j : j : j : j : j j : j j j j j j j j j j j j j fXj fXj j j j j j j j j j j j j j j : : : : j : : : j j : j j 2.2.2.j j : j 2.2.2.2.B.B.m.R.V.V.I I y I y y y y y y $ y $ $ $ $ $ $ y ",
": j : j : j : j : j : j : j : j : j : : j : : j : : j j j j j j j j j j j j j j j j j j j j j j j j j j j j j j j j j j j j j j j j j j : j j : j : j : j j j : j : j : j j : j j : j : j : j : j : j j : j j j j j j j j j fXj j j j j j j : j : j j : j 2.2.2.B.i m.m.<XR.$.E K K E K K K K K K E E  X$.$.$. X XE K 0.K 0.0.0.0.0.0.0.0.K E  XV.V. X XE A $.$.$.R.R.R.R.R.c $.$.G $.G G $.c $.c c R.<X<X<X<X7XR.R.R.R.7X<X<X<X<X<XB.B.B.B.2.2.: : : : : j j 2.j 2.j : : : j : j 2.j : j j j j : : : B.<X<X7XV.I I I | y y $ $ $ y y y $ y y $ y y y $ y y y $ y $ y y y y $ I I I $ y | b C C C C C C C | y $ $ y y y y y y | b C C } C } } 7.7.7.7.7.} } } } 7X} } } 1X} } } 7.7.7.7.7.} } } MXMX<XB.B.B.B.B.j : j j j fXj j j j j j j j j : j j j j j j j j j j : j j : j j j j : j j j : : : : j : j : j : j B.j : : j : : j : j j j : j j j j : j j : j j : j j : j j j : : j : : j : : : j j j j j j j j j : : j j j j j j : : j j : : : : : : : : : : : : : : : : j : j j j j j 8 j j j : : : : 2.B.B.B.<XR.R.V.I I y I y y y y y $ y y y $ $ $ $ $ $ y ",
"j : j : j : j : j : j : j : j : j : j j : j j : j j : j : j : j : j : j : j : j : j : j : j : j : j : j : j : j : j : j : j : j : j : j j : j : j : j j : : j : j : j : j : j : j j j j : j : j : j j : j : j : j fXj j j fXj j j j j : j : j : j : j : : B.2.B.i e c G R.$. XK K K E E K E K K K E  X$.$.R.$.$. XE K K K K K K K K 0.0.0.K E  X X XE K K K E E A A A A $.$.R.$.R.$.R.$.V.R.V.R.V.R.R.V.R.7X7XV.V.V.V.V.7X7X7X7X<X<X<X<XB.B.B.: : : : : j 2.: j 2.2.: : : : : : j 2.2.: 2.2.: u i i m.m.R.R.V.V.I I y y | I $ $ y y y y $ y y y $ y $ y y y y y y y y y y y I I $ I $ y | b C C C } C C C | y $ $ y y y y y y | b C C C } } } 7.7.7.7.7.} } } } } } } } } } 7.7.7.7.7.7.} } MX} MXMXMX<XB.B.B.2.: j : fXj j j j j j j j j j j j j : j : j j j j j j j j j j j j : j : j j j : 2.: 2.: B.j B.j : j : j B.j : 2.: j : 2.: j j : j : j j : j j : j j : j j : j : : j : : j : : j : : j : j : j : j j : j fXj j : fX: j : j : : j : : : : : : : : : : : : j j : j j j j j j j j j j : : : : 2.B.B.<X<XR.V.V.I I I y y y y y y y y $ y $ $ $ $ $ $ y ",
"j j j j j j j j j j j j j j j j : j : : j : : j : : : : : : : : : : : : : : : : : : : : : : : : : : : : : : : : : : : : : : : : : : : : : j : j : j : j : j : j : j : j : j : j : : : : j : j : j : : j : : j fX: j : fXj j fXj j j : j : : j : : 2.: : : : B.u e c A A A  XE E K E E E E E E K +XE A $.R.R.R.$. X XE K K K K K K K 0.K 0.0.K E  XE K K K K K K K K K +XE  X$.R.R.R.V.R.V.V.V.V.V.V.V.V.V.I V.V.I I I V.| 7X7X7X7X7X7XMXMXB.B.B.B.B.: : : 2.j 2.j j : : : u : : : : : B.B.B.i e V V c c $.V.V.I I I y y y I I $ y y y y y y $ y y y $ y y y y y y y y $ y y $ I I I $ y | b C } C C C C b | y y $ y y y y y | b b C } C } } 7.7.7.7.7.7.} } } } } } } } } } 7.7.7.7.7.} 7.7.} } } } MX<X<XB.B.B.B.: j fX: fX: j j j j j j j j j j j : j : : : : : j j j j : : : : : : : : : : : : : : j : : j B.: : : j : : : : B.: : : : : : : 2.: : : : 2.: : : 2.: : : : : j : : j : : j : : : : : : : : : : : j : : j : : j : : j : : : : : : j : : : : : : : : : : : j : j j j j j j j j : : : j 2.B.B.<X<X7XV.I I I $ $ y y y y y y $ y y y $ $ $ $ $ $ y ",
"j : j : j : 2.: j : 2.: : 2.: j : : j : : j : : : j : j : j : j : j : j : j : j : j : j : j : j : j : j : j : j : j : j : j : j : j : : : : : : : : : : : : : : : : : : : j : : j : : : : : : j : : : fX: j : : j fXj : : j fXj : : j : : : : : j : : : : u u i V @X+X+XK E K K K E E  X XA E +X+XA $.c c R.c R.$.$.A E K K K K K 0.K K 0.K K E E K K K 0.K K K K K K K E E V.7X7XV.7XV.V.V.V.V.I V.I y I I I y I I y | b b b 7Xb 7X7X7XMXMX<XB.B.B.B.: 2.: 2.j : : j : u u u u : : B.u B.m.e c c G $.$. XV.I I I y y y y y I y y y y y y $ y y $ y y y y y y y y y y y $ y I I I y y | b b C C } } C C | y y y y y I y y | | b C C } } } } } } 7.7.} } } } } } } } } 7.7.7.7.7.7.7.7.} 7.} 7.} 7.} MXMX<X<XB.B.B.: : : : j j j j j j j j j j : : : : fX: j : j : : : : : : j : j : j : : : : B.: : : : : : : : : : : : B.j : : j : : B.j : B.: : : B.j : : : B.: : : B.j : j : : j : : j : j : j : j : : : : j : : : : fXj : : : : : : j : : : : : : : : : : : : : : : : : j j j j : : u : : : j : : B.B.<X<XV.V.V.I I I $ $ y y $ y y y y y y y $ $ $ $ $ $ y ",
"j 2.: 2.: j : 2.: j : j j : j : : : : : : : : : : : : : : : : : : : : : : : : : : : : : : : : : : : : : : : : : : : : : : : : : : : : : : : : : : : : : : : : : : : : : : : : j : : : : : : : : : j : j : : fX: : : : j fX: fXj j : : : j : : : : : : : u u i e z.@X+XK K K K K K E  X$.$.A A +X+XA G c V V V R.R.c $.A E +XK K K K K K K 0.K K K K K K E  XE E E K K K E  XV.7X7X| V.| V.I I I I I I I y y y | y y y | C C C C b C 7XC 7X7X<X<X<XB.B.B.: : : j j : : : : u u i i ) e e V V c G $.$.$.V.V.V.I $ $ y y y y y I y y y y y y y $ y y $ y y y y y y y y $ y y I y y y y | b b C C C } } C b | y y y y I I y y | b b C C } } } } } 7.} 7.} 7.} } } } } 7.7.7.7.7.7.7.7.} 7.} 7.} 7.} } } } MXMXMX<XB.B.B.: : : u : : : : : : : : j : j : j : j : : fX: j : : j : : : : : : : : 2.: : j B.: j B.: : : : j B.: : : : : B.: : : : : : : : : : : : B.: : : : : : : : : : j : : j : : : : : : : : : : : : : fX: j : : : : : j : : : : : : : : : : : : j B.: B.: : : : : : j j : : : : j j B.: B.i m.R.R.V.I I I $ y $ $ y $ $ $ y y y y y y $ $ $ $ $ $ y ",
": : : : : : : : : : : : : j : : j : : : : : : : : : : : : : : : : : : : : : : : : : : : : : : : : : : : : : : : : : : : : : : : : : : : : : : : : : : : : : : : : : : : : : : : : : : : : : : : : : : : : j : j : j fXj : j fX: fX: j : : : 2.: : 2.: B.: i i e z.@X+X+XK +XK +XK +XA $.c G G @X@XG c V V m.m.<Xm.V c A A +X+XK K K  XE E K K K K K E  XV.V.V.V.V. XE  XI V.I y | | y y I y I I I I $ $ $ $ y y y y $ | b b C C b C b C C 7X7X<X<X<XB.B.: 2.: : : : : B.u B.i i e e V z.G G G $.$.$.V.V.V.$ $ $ $ y y y y y y y y y y y y $ y y $ y y y y y y $ $ y y y $ y y y | | b b C C C } } 7.} b | y y y y I I y y | b C C } C } 7.} 7.} } 7.} } } } } } } 7.7.7.7.7.7.} 7.} } 7.} } 7.} 7.} } 7XMXMX<XB.B.B.: : : : : : j : j : j : j : : fX: : : fXj : j : : j : : : j : : : : : : : : : : : : : : B.j B.: : : : B.: : : : 2.: : : 2.: B.: : : : : : : 2.: B.j : B.: : : : : : : : : : : : : : : : : : : j : : : j : j fX: : j : : : : : : : : : u : : : : : B.j : j : j : : : : : B.2.B.B.i m.R.R.V.V.I I y y | $ $ y $ y I I y $ y y y $ $ I I I I y ",
": : : : : : : : : j : : : : : : : : : : : : : : : : : : : : : : : : : : : : : : : : : : : : : : : : : : : : : : : : : : : : : : : : : : : : : : : : : : : : : : : : : : : : : : : : : : : : : : : : : : fX: : fXu fX: : fX: fX: : : : u : : u : : : 2.: : u i e V G A +XE +XK K +XA $.c c G G G z.z.V e m.i B.B.m.V c G G A A A +XA  X X XE K 0.K E  XV.7X7X7XV.V.V.I I I I I I I I y I y y y y y y y $ $ $ y y y $ $ $ | | b C C b C C C C 7X7XMX<X<XB.B.: : : : : : : B.i i e V z.z.@X@XG $.$.V.V.V.V.$ $ $ $ $ y y y y y y y y y y y $ y y y y $ y y y $ y y y y $ y $ y y | b b C C C C C C } 7.} b y y y y y I I y | | b C C } } } 7.7.} 7.} } } } } } } } } 7.7.7.7.7.7.7.} } 7.} } 7.} 7.7.7.} } 7XMXMXMXB.B.B.B.B.: : B.j B.: : : : : : j : j : j : j : : : : : : : : : B.j B.j B.: B.2.B.j B.: B.2.: : : : : B.: : B.: : B.: : : B.: : : : j B.: 2.: : : : : : : : : : u : : u : : : : : : : : : : : : : : : : : : : : : : : : : fX: : : : : : : : : u : B.: : : : : : : j : : j B.2.B.B.B.m.m.R.V.V.I y y y | y $ $ y y $ I V.$ V.$ y y $ $ I I y I y ",
": : : : : : : : : : : : : : : : : : : : : : : : : : : : : : : : : : : : : : : : : : : : : : : : : : : : : : : : : : : : : : : : : : : : : : : : : : : : : : : : : : : : : : : : : : : : : : : : : : : : : : : : j u : fX: : : : : : : : : u : : : B.2.2.: u i e e V G A A A +X+X+XA G G G z.z.z.z.V e i i B.B.B.i e V c G G G A A $.$.$. XE K K K E V.7X7X7X7Xb V.I V.I I I I I I I $ y y y y | | b b | y $ $ y y y $ $ $ | b b C C C C C 7XC 7X7XMX<X<XB.B.B.: u : B.: u i i e z.z.@X@XG $.$.V.V.V.$ $ $ $ $ y y $ $ $ y y y y y y y y y y $ y $ y y y y y y y $ y y y $ y y | b C C C C } C } } 7.} b y y y y y $ y y | b b C C } } 7.7.} 7.} } } } } 7.} } } } 7.7.7.7.7.} } } 7.} 7.7.} 7.} 7.} } } } MXMXMX<XB.B.B.u B.: B.: : j : : : : : : j : j : : : : : : : : : B.j B.j : : B.j : : : : B.j : 2.: B.: B.: : : : : : : B.: : : : : : : : : : : : : : B.: : : : : : : : : : u : : : u : : : : fX: : fX: : fX: : : : : : : : : : : : : u : u : : : : : : : u : B.: : : : j : 2.2.B.2.B.B.B.<X<XR.V.V.I I y | y y y $ $ $ y y $ y $ $ $ y y $ $ $ I I $ y ",
": : : : : : : : : : : : : : : : : : : : : : : : : : : : : : : : : : : : : u u u u u u : : u u : : : : u : : : u : : : : : : : : u : : : : : : : u : : : : u : : u : : : : u : : : u u : u u : : u : u u u : u u u : u : u u : : : : u : : : : B.: : : : u B.u i i i V c c $.G A G G c c V V V e e e i i B.: B.u u i e V c c G G G $.$.$.$.A A  X X$.V.7X7XV.| V.$ V.$ I I I I $ I y y y y y y y | b b | y y | y y y y $ y y y | b C } C C C C C 7X7X7X<X<X<XB.B.B.u u u B.i i e e V z.z.c R.R.V.V.$ V.y y $ $ $ $ $ $ $ y y y y $ y y y $ $ y $ y y y | y y y y y y $ $ y y | b C C } } } } 7.7.7.7.C b y I I y | y y | b C C } } } } 7.7.7.} 7.} } } } } } } } } } 7.7.7.7.} } } } } } 7.} } 7.} 7.} } } } } MXMXMXB.m.B.: B.: B.: : : : : : u : u u u : u : u : u : u : : : u : u : : : : : B.: : : B.u u u : u : u B.: u B.: u : : : B.: : : : B.: : : B.: : : B.: B.: B.: u u : u : : u : u : u : : : : u : u : u : : : : : : : : : : u u u u u u u u u u u B.u u u u u : : : 2.: : B.B.B.<X<X7XV.V.V.I I y y y y y $ $ $ $ y | | | | y $ $ y $ $ $ $ $ $ $ ",
": : : : : : : : : : : : : : : : u u u u u u u u u u u u u u u u u u u u u u u fXu : u u u u fXu u u u u u B.u u B.u u : u u u u u u fXu u : : u : u u : u : u : u : u u : u : u u : u : u : u u : u : u : u u : u u u u u : : u u u : u : u : : : B.: : u u u i i i m.m.R.c c c c z.V V e e e e i i i u u B.: : : u i e V V c c c G G $.$.$.$.$.V.V.7XV.| V.$ y V.$ $ V.$ $ y y y y y y y y | y | b b | y y y y y y y I I I y | b C C C C C 7Xb C 7XC 7XMX<X<XB.m.B.B.u u i i i e e V V m.R.R.V.V.I y y y $ $ y $ y $ y $ $ $ $ y y y y y $ y $ y y | | y y y y $ y $ $ y y | b C } C C } } } 7.7.7.} b y I I I y y y | b C } } } 7.} 7.7.7.7.} } } 7.7.} } } C } 7.7.7.7.7.7.} 7.} 7.} } 7.} } } } 7.} } 7.} MXMX<XMXB.m.B.u : u : u u : u : u : u : u u : u : u : u : u u : u : u : u B.u u : u u : u : : B.u u u u u u u u u u : u : u : B.u : u : B.u : u : : : : : u : u : u u u u u u u u u u u u u u u u u u u u u u u u u u u u u u u ) u u u ) u u u u u B.u i u u u u j j : : B.B.<X<X<X7XV.I I $ $ $ $ $ $ $ y $ I I y | b b | y $ $ y $ $ $ $ $ $ $ ",
": u : u : u : : u : u : : u : : u u : u : u : u : u : u u u u u u : u : u : u u u u u u fXu u u u : u u u u u u u u : u u u u : : u u u : u u u u u : u u u u u u u u : u u u u : u B.u u u : u u : u u u u u u u u u : u u u : u : u u u : u u u : : u B.u i u i i i m.m.V V V V V e e i i i i i u u i u i u B.: : i i m.e V c R.c R.c R.R.R.V.R.V.V.V.V.y V.y y V.$ $ y I I y y y y | | | | | | b | | y I y y y y y y I I y | b C } C C b C C C C C 7X7XMX<X<X<XB.i B.u i i i i e e V m.R.R.V.V.I y y y I I I I I I $ $ $ y $ y y y y $ y $ y $ y y y | y y y y y $ $ $ | | b C C C C } } 7.7.7.7.} b | I I I y y | b C } } 7.7.7.} 7.7.7.7.} } } 7.7.7.} } } } 7.7.7.7.7.7.7.} } } } 7.} } } } } 7.} 7.7.7.} MXMXMX<XB.B.B.B.u : u u : u fXu u u u : u u u u u u u u : u : u u : u u u : u u : u u : u u u u : u : u u : u : u u B.u u u u u u u u u u u u B.i u i u u u u u u : u u u u u u u u u u u u u u : u : u : u u : u : u : u u u u u u u u u u u u i u B.u u u u u u j B.i B.B.<X<X7XV.I I $ $ $ $ $ $ y $ y I $ I y | b b | y $ $ y $ $ $ $ $ $ $ ",
"u : fXu u : u : u : u : u : u : u u u u u u u u u u u u : u u : u u u u u u u u u u u u u u u u u u u u u u u u u u u u : u u u u u u u u u u : u u u u : u : u : u u u u : u u u u u u B.u u u u i : u u u : u u : u u u u u u u u u : u u B.u B.u B.u u u u i u i i m.i m.e e e e i i i u u u u u u u u u i u B.B.B.i m.m.m.m.c c R.$.R.R.7XV.7XV.$ V.$ y y y y $ y V.$ y y y y | | | | b b b b b | | y I y y y I y I I y y | b b C C C C C C C C 7XC 7X7X<X<X<Xm.m.i B.i u i i i m.m.<XR.7XV.V.I y y y I I I I I y $ $ $ $ y $ y y y y $ y $ y $ | y y y y $ $ y $ $ y | b C C } C } } 7.7.7.7.7.} C | y I I y | b b } } 7.7.7.7.} 7.7.7.7.7.} 7.7.7.7.} } } 7.7.7.7.7.7.7.7.} 7.} 7.} 7.} } 7.} 7.7.7.7.7.} MXMXMX<XB.B.i u : u : u u : u u u u u u u u : u : u : u u u u B.u u u : u u u B.u u u u u : u u u B.u u u u u u u u u i B.u u i B.u u u u B.u u u u B.u u B.u u u u u : u : u u u u u u u u u u u u u u u u : u u u u u u u u u u u u u u u u u i : u u u u u u : : : B.B.<X<X7XV.I I y y $ $ $ $ $ $ I $ I I I y | b b | y $ $ y $ $ $ $ $ $ $ ",
"u u u : u u : u : u : u B.: u : u u : u u u u : u u u u u u u u u u u u u u u u u u u u u u u u u fXu u u u u u u u u u u u : u u u u u u u u u u u u u u u u u u u u u u u u u u u u u u i : i : u : i u i u i u i u i u u u : u u u i : i u u u u u u u i u i i u i i i i m.e i i i i u u B.u u u i u i i i u u i B.m.m.m.<XV R.R.$.R.R.V.7XV.V.$ V.I $ y y y V.y $ $ $ I y y | | b b b C b C b b | y I I y y y y y $ I I y y | b b C b C C C C C C C 7X7X7X7X<X<X<Xm.B.i u i i i m.m.<X7XR.V.I I y y y y I I I I $ y $ y $ $ y y y $ y $ y $ y $ y y y y y $ y y $ $ | | b C C C } } 7.7.7.7.7.7.} C b | y I y | C C } 7.7.7.7.7.7.} 7.7.7.7.7.7.7.} } } } } } 7.7.7.7.7.7.7.7.} } } 7.} } } } 7.} 7.7.7.7.7.} MXMX<X<XB.B.u u u u u fXu u u u : u u u u u u u u u u B.u u u u B.u u B.u u u u u B.u u B.u u u u u u u u u u u u i u i u i u i u i B.u u i u u u u u u u u u u u u u u u u u u u u u u u u u u u u u u u u u u u u u u u u u u u u u u u u u i u B.u u u ) u u u B.B.<X<X7XV.V.I I y y $ $ $ $ $ $ y I y I y y b b b | y $ $ y $ $ $ $ $ $ $ ",
"u u u u u u u u u u u u u u u u u u u u u u u u u u u i B.u u i u u u u u u u u u u u i u u u ) u ) u ) u u u u u u u u u u u u u u u u u u i u u i u i u i u i u i u u i u i u u u i u u u i u i u i u u u u u u u u u i u u i u u i u i u i u i u u i i u i i u i i B.i i i i i i i i i B.i i i i i u ) u u i i B.m.B.m.<X<XR.R.R.V.V.V.V.V.| V.I I $ $ | $ y $ y y I $ I y | | b b C C C C C C b | y I I y y y y I I I $ y y | | b b b C } C C C C C C 7X7X7X<X<X<Xm.m.B.B.i B.i B.<X<XR.V.V.I I y y y y $ I I I y $ $ $ $ y $ y y y $ y $ y $ y $ y $ y $ y $ $ $ $ y | b C C C } } 7.7.7.7.7.7.7.} C b | | | b C } } 7.7.7.7.7.7.} } } 7.eXeXeX7.} C C } C 7.7.7.7.7.7.7.7.7.} 7.} } 7.} 7.} } 7.7.7.7.7.} } } MXMX<XB.B.i u u u u u u u u u u u u u u u u u u u i u u i u u i u i u u i u u u u i u u i u i u i u i u i u i u i u i u i u i i u i u i u i u i u i u i u u u u i u u u u u u u u u u u u u u u u u u u u u u u u u u u i u u i u i u i u i u u u : u u ) u u u B.<X<X7XV.V.I I I I $ $ $ $ $ $ I y $ I I y | b C C b y y $ y $ $ $ $ $ $ $ ",
"u u u u u u u u u u u u u u u u u i u u u u u u u u u u i u i B.u i u i u i i u i i i u i i i u u u u u ) u ) u u ) u i u u i u u u u u u i u i u i u u u i u u i u u i u i u u i u u u i u u u u u u u u i u i u i u i u u i u i i i u i u i u i u i i u i i u i i u i i i i i i i i i i ) i i i ) i ) u ) i u m.i m.m.<X<X7XR.7XV.V.V.V.V.V.V.I $ I $ y y y y y $ y I $ I y | | b C C C C C C b b | y I I y y y y y y I I I y y | | | b C C C C C C b b C C 7X7X7X<X<X<Xm.m.B.B.m.<X<XR.7XV.V.I y y y y y $ I I I I $ $ y $ $ y y y $ y $ y $ y $ y $ y $ y $ $ $ $ $ y | | b b b b C } } 7.7.7.7.7.7.} C b b b C } } 7.7.7.7.7.7.7.} } 7.eX .Y. .eX} C b C C } 7.7.7.7.7.7.7.7.7.} 7.} 7.} } } } } 7.7.7.7.7.} } MXMX<X<XB.i u u u u u u u u u u u u u u u u u u i u u i u i u u i u u i u u i u i u i u i u u i u u i u u i u i i u i i u i i u i u i i u i u i i u i i u i u u u u u u u u u u u u u u u u u u u i u u u i u u i u u u u i u ) u u ) u i u ) u u u u u u i i i m.<XR.V.I I I I I I $ $ $ $ $ $ $ I y I y y | b C C | y y $ y $ $ $ $ $ $ $ ",
"i i i i i u u i u i u i u i u i u u u i u i u i u i i u i u i i u u i u i i u m.u i i i i u i i i i ) u u ) u ) u u u ) u ) u u i u u i u i u i u i u i i u i i u i i u i u i i u i u i u i u i u i u i i u i u i u i u i i i i u i i i i i i i i i u i i u i i i i i i i i i ) i i i i i i ) i i i i i i i i i B.m.m.<X<X7X7X7XV.V.V.I I I I $ $ I y y y y $ y I I $ I $ I | | b C C C } C C C b | y I I I y y y y I I I I y y y y | | b b C C C C b b C b C 7XC 7X7X<X<X<Xm.m.m.m.<X<XR.V.V.| y y $ y y y $ I I I y $ $ $ $ y $ y y y $ y $ y $ y $ y $ y $ $ $ $ $ $ $ $ y y | | | | C } } 7.7.7.7.7.} } } C C } 7.7.7.7.7.7.7.7.7.7.7.eX .( 7 (  .7.C b C C C } } 7.7.7.7.7.} } 7.} 7.} } 7.} } 7.7.7.7.7.7.7.} } MX<X<XB.i u u u u u i i i u u u u u u u i u u u i i u i u i i u i i u i i u i u i u i u i i u i i u i i u i i i i i i ) i i ) i i i u i i i i u i i u i u i i u u u u u u u u u u u u u i u i u i u i i u i u i u i i u ) u u u u u u u u u ) u u i u i i i m.R.R.V.V.I I I y I I $ $ $ $ $ $ y $ I I y y b b C C b y y $ y $ $ $ $ $ $ $ ",
"i i i i i i i u i u i u i u i u i u i u i u i u i u i u i i u u i i u i u i i u i u i u i u m.u i u i u ) u ) u ) ) ) u u u u u u i u i u i i u i i B.i u i u i B.i u i B.i u i i u i i i i i u i i i i u i u i i i u i i u i i i i u i i i u i i i i i i i i u i i i i i i i u ) i i ) ) ) ) ) i ) u i u i u m.m.m.<XR.R.V.V.V.I | I I I I $ I $ $ y y y $ y y $ I $ I $ I y | b C C C } C C b b | y I I I I y y y y y I I I y I I I | b C C C C b b b b C C C C 7X7X7X<X<X<X<X<X<X<X7XV.V.V.I y y y $ y $ $ I I I $ y $ $ $ $ y y $ $ y $ y $ y $ $ $ $ $ $ $ $ $ y y $ $ $ $ $ $ y | b C } 7.7.7.7.7.7.7.7.7.} 7.7.7.7.7.7.} 7.7.7.eXeX .( 3.3.7 D eX7.C C C } C } } } } 7.} 7.} 7.} } } } } } } } } 7.7.7.} 7.} } MXMX<XB.B.i i i i u i B.i i i u u u u i u i i i u i u i i u i u i u i u i i u i i u i i u i i u i i u i i u i i i ) i i i i i ) i i i i i i i i i i i i i u i i i i i i i i i i i i i i i i i i u i i u i u i u i i u i i i i i i i i i ) u u ) ) u u B.m.m.<X$.V.V.I I I I y I I $ $ $ $ $ $ I $ y I y y b C C C b | y $ y $ $ $ $ $ $ $ ",
"i i i i u i u i i i u i i i i i i i u i u i u i i u i i u i u i u u i u ) u i ) i ) i ) i ) i i m.i i i u ) u ) ) u u u u i i i u i i u i i B.i u i i i i B.i i u i i i u i i B.i i u i u i u i i u i i i i i i i i i i i i i i i i i i i i i i i i i i i i i i i i i u ) u i u i ) u ) u ) u u i i i i B.m.B.m.<XR.R.R.V.V.I I I I y | y y y y y y y y y y y I $ I $ I $ I | b b C C } C C C b | | | I I I I y y y y I I $ y I I y | | b b C C b b b b C b C C C b 7X7X<X<X<X<X<X<X7XR.V.V.I y y y $ $ $ y $ I I I $ $ $ $ $ y $ y y $ y $ y $ y $ $ $ $ $ $ $ $ $ y $ $ $ $ $ $ $ y | b C } 7.7.7.7.7.7.7.7.7.7.7.7.7.} } } 7.7.7.7.eX+ t 3.a.3.% @ + eX7.C C C C } } } } } } } 7.} 7.} } 7.} } } 7.7.} 7.7.7.} } } MX7X<X<XB.i i u i i B.i i u i i i i i i i u i i i u i i u i i i u i i B.i u i B.i i u i i i i i i i i i i i i i ) i i ) i ) i i i ) i i i i i i i i i i i i i i u i i u i i i i u i u i i u i i i i u i i i i i i ) i u i u i u i u i u u u i ) i i B.B.<X<XR.V.V.I I I y I I I $ $ $ $ $ $ $ $ y I I y | b C C C b | y $ y $ $ $ $ $ $ $ ",
"i i i u i i i ) i i i i i i i ) u i i i i i i i i i i u u u u ) i ) u ) i i ) i u i i ) i i i i i i i ) ) u ) ) u ) ) ) i i u u i i i i i i i i i i i u i i i i i i i i i i i i i i i i i i i i i i i i i i i i i i i i i i i i i e i e i i e i e i i i i i i i i i i ) i ) u ) u ) u u ) ) ) i i i m.B.m.m.<XR.R.R.V.V.V.V.I I I I y y y y y y $ y y y y y y y I $ y y | | | b b C C C C C C C b | y y I I y y y y y I I I I I I I I | | b b b C b C b b b C C C C C 7X7X7X7X<X7X<X7XV.V.I I y y y y $ y $ $ $ I y y y y $ y $ y $ $ $ $ $ $ y y y y $ y $ $ $ $ $ y y $ $ $ y y y y y | C } 7.7.7.7.7.7.7.7.7.7.7.7.7.7.7.7.eXeXeX .D @ % 3.3.  % 7 @ D  .7.C C C b C C } 7.} } } } } 7.} } } } } } 7.7.7.7.7.7.} } } MX<X<Xm.m.i i i i B.B.i i i i i i ) i i i i i i i i i i i i i i i i i i i i i i i i i i i i i i i i i i i i i i i i i i i i i i i i i i i i i i i i i i i i i i i ) i i i i i i i i i i i i u i i i i i u i i u i u i i i i i i i i i i i i ) i i B.m.<XR.V.V.I I I y y y $ y $ $ $ $ $ $ y y y $ I y | b C C b b | y y y y $ y y y $ $ ",
"i i i i u i i i i e i ) i ) i i i i i i i i i i i i u i i i i i i i i i ) u ) i i i ) ) i i i m.) m.i i ) ) ) u ) ) u i i u i i i i i i i i i i i i i i i i i i i u i i i i i u i i i i i i i i i i i e i e e i e e i e e i e i ) i i i ) i i i i ) i e i i i i i e i e e ) i i u ) u u ) ) ) m.m.m.m.<X<X<XR.7XV.V.V.V.I I I I | y y y y $ y $ $ $ $ y y y y V.$ y | | b b b b b b C C C C C C C | | | | y | y | y y y I y I I y y | y | | b b C C C b b C C C C b C C 7X7X7X7X7X7X7XV.I I y y y y y y y $ $ $ y y y y y $ y $ y $ $ $ $ $ $ $ y | y y y $ $ $ $ $ y y y y y | y y y y y C } 7.7.7.} 7.} 7.} 7.7.7.7.7.7.eXeX .D ( t 7 % 3.% % % % % % % ( eX7.} b | | C C } } } C } 7.7.} } } } 7.7.7.7.7.} 7.} 7.} } MXMX<Xm.m.i i i i B.i i i i i ) i i i ) i i i i i i i i i i i i i i i i i i i i i i u i i u i i u i i u i i i u i i i u i i i u i i u i i u i i i i i i i i i i i i i i i i i i i i i i i i i i u i i u i i i i i i i u i i i i i i e i i i i e m.m.<XR.V.V.I I I I y I y I y $ $ $ $ $ $ y y y y I y | b b C b b | y y y y $ y y y y $ ",
"i i i i i i i i e i i e i i e i e i ) i i i i i i i i i i i ) i ) i ) i i i e e i e e e i i i m.i m.i m.i i ) ) ) i i i i i i i i i i e i i i i i i i i i i i i i i i i i i i i i e i e i i e i e i i e i e i e i ) e i ) i e i i e i e i e i e i e i i i e i e i i e i i i i ) i ) ) ) i i m.m.m.<X<X<XR.R.7XV.V.| I I I I I y y y y $ y $ y $ $ $ $ $ y y $ $ y y | | b b b C C C C C C C C C C b | | | | | | | | | y y y y y | | | | y y b b b C C b b b C C C b C C C 7XC 7X7X7X7XI V.I y y y y y $ y $ $ $ y y y y y $ y $ y $ $ $ $ $ $ y | y | y y $ $ $ $ $ y y y y y y y $ y y | C } 7.7.} } } } } } 7.} 7.7.7.eXeX+ @ 7 % 3.3.% % % % % % % % % 7 (  .7.C b | b C C C C C } 7.7.7.} 7.} } } } } } 7.7.7.7.} } } MX<X<Xm.i i m.i B.i m.i i i i i ) i i ) i i i i i i i i i i i i i i i i i i u i i i i i i i i i i i i i i i i i i i i i i i i i i i i i i i i i i i i e i i i i i e i i i i i i i i i i i i i i i i i i i i i i i i i i i i i e i i i i i i m.m.m.R.R.V.I I I $ y $ $ I $ I $ $ $ $ $ $ $ y y y y y | b b C b | | y y y $ $ y y y y $ ",
"i ) e i e e i e i e i e i e i i i i i i e i i i e i e ) e e e e i i i i i i e e i i i i i i m.m.B.m.m.m.i m.e i ) i i i i i i i i i i u i i ) i i i i i i i i i i i i i i i i e i i e i e i i e i e i e i i e i e i i e i e i e i i e i i e i i e i i e ) i e ) e i i e i e i i i ) i m.m.m.<X<X<X<X7X7XV.V.I I y y I I I I I y y y I $ $ y $ $ y $ y $ y y $ I y | | b b C C C C C C C C C C C C b b | | b | | | | | | | | | b b | | V.y y | b b b b b b C C C C b b 7XC C b b b | | I I y y y y y y y y y y y y y $ y y $ y $ y $ $ $ $ $ $ y y | | y y y $ $ $ $ y y y | y y $ $ y y | C } 7.7.} } } } } } 7.} 7.} 7.eX+ t   o o a.o % % % % % % % % % 3.o 7 + eX} b b b b b b C C } 7.7.} } } } } } 7.} } 7.7.7.7.} MX7X<X<Xm.i e i i i m.i i e ) i ) i e ) i e i i i i i i i i i i i i i i i i i i i i i i i i i i i i i i i i i i i i i i i i i i i i i i i i i i i i i e i i e i e i i i e i i i i i i i i i i i i m.i i m.i i i m.i i e i i i i i i i i m.<X<X<X<XR.V.V.I I I $ $ $ y $ $ $ I $ $ $ $ $ $ y y y y y y b b C C b | | y y y $ $ y y y y $ ",
") e ) e ) e i e i e i e i e i e e i e e i e e i e i e e e e e e i e e e e i e i m.i i m.B.m.m.m.<Xm.B.m.m.m.m.m.m.m.m.m.m.i m.i i i i i e e i e e e e e e e e e e e e e ) e i e i e i e i e e i e i e i e i e i e i e i e i e i e i e i e i e i e i e i e i e i i e e i i e i e e m.m.m.m.<X<X<X<X7X7XV.V.I I I y y y I I y I I $ I $ $ $ $ $ $ $ $ $ $ $ $ V.y y | | b C C C C C C C C C C C C C C b C b b b b b b b b | b b C b b b | y V.| | b b b b b b C C C b b b C b 7Xb | | | I I I y y y | $ | $ y y y y y y y y $ y $ $ $ $ $ $ $ y y | | | | y y y $ $ $ $ y | y y y $ $ y y | C } 7.7.} } } } 7.} } 7.7.} 7.eXD % o   o a.o                   o o   t (  .eX7.C b | | b C C } } } } } } } } } } } 7.} 7.} } } } <X<Xm.e e e e i i e i i e i e e i e i e i e e e e e i e e i e i i i i i i i i i i e e e e e e e e e i e i m.i i m.i i m.i i m.i i i i i i i i i e i i e i i i e i e i i e i e i e i e i e i i i i i i i i i i e e e i e i i i i i m.i <X<X<X7XV.V.V.I y y $ $ $ $ $ $ $ I $ y y y $ $ $ y y | y | b b C C b | | y y $ $ y y y y y $ ",
"e e e ) e ) e i e e e e e e e i i e i i e i i e i e i e e e e i i i i m.i m.i m.m.m.m.m.m.e V c c R.R.R.m.m.m.m.m.m.m.m.<XB.m.m.i e e e e i i i i i i i i i i i i i i i i i e ) e i e e e i e e e e e e e e e e e e e e e e e e e e i e e e i e i e e e ) e e e e i e m.e m.m.m.m.m.m.m.<X<X<X7X7X7XV.I I I I I y y y y $ $ $ y $ $ $ $ $ $ $ $ $ $ $ $ $ $ $ | | | b b b C C C C C C C C C C C C C C C C C C C b b b b b C C C C C b | y y | | | | b b b C C C b b b C b b b | | | I I I y y y y y $ $ | y | $ y y y y y y y y y $ $ $ $ y y | | | | | y y y y $ $ y y y $ y y y y | | | b } 7.7.} } } } } } 7.7.7.7.7. .( o o   o a.o                       3.o o % @  .eX} b b b b C C C C } } } } 7.7.} } 7.} 7.} } } MXMX<Xm.m.e e e i i i e e i e ) i e e ) e i e i i i i e i i e i i e i i i i i i i i e i i i i i i i i i i i i e i i e i i e i i e i i e i i e i e e e e e e e e e e i e i e i e i e i e i e i e i i i e i m.i i e e e e e i e i m.i <Xm.<X<X7X7XV.I I I y $ $ $ y $ $ $ $ I $ y y y y $ $ y y y | | b b C C C | y y $ $ $ y y y y y $ ",
"e e e ) ) e e e e i e i e i e e i e i e i e e i e i m.m.m.e m.m.m.m.m.m.m.m.m.m.m.m.m.m.c G A +XE E  X$.$.R.R.<X<XR.R.V R.m.<Xm.m.V V V e e e e e e e e e e e e e e e e e e e i e e e i e e e i e i e i e i e i e i e i e i e m.e i e e i e e m.e i e e e ) e ) e e i e m.i m.m.m.m.<X<X<XR.R.V.V.V.y y y $ $ y y y y y y y y $ $ $ $ I $ $ $ $ $ $ $ $ $ y y y | | b C b C C b b b b C C C C C C C C C C C C C C C C b C C C C C C b | | y | V.| | b b b C C C C b b b C b b | | y y I I y $ y y $ | $ | y y | y y y y y y y y $ $ $ $ y y y | | | | | | y y y $ $ $ y $ $ $ y y | | | y b C } 7.} } } 7.} 7.} 7.7.7.eX .7 a.a.  o a.o                     o o a.a.a.o 7 D  .eX7.} C C C C C C C C } 7.7.7.7.} 7.} } } } } 7X<X<Xm.m.i i i e i e e e e e e e i e i e i e i e i e i e i e i i e i e i e i e i i i e i e i e i e i e e e i e i e i e i e i e i e i e i e i e i e e e e e e e e e e i e i e i e i e i e i e i e e i e i e e e e e e e e m.i i i m.<X<XR.7XV.V.I I I y $ $ $ $ $ $ $ $ $ $ y y y $ $ y y y | | b b C C C C | y y $ $ $ y y y y y $ ",
"m.e i e e e e i e e e e e e e e e e e e e i e e e e m.m.V V V m.m.m.m.c R.<X<X<X<X<X<XR.$.+XK K 0.K K E E  X$.$.$.$.A A $.$.R.c V m.m.V e m.) e e i e e e i e e e i e e e i e e e i e e e i e e e e e e e e e e e e e e e e e i e m.e e m.e e e e e e e i e i e ) e m.m.m.m.<Xm.<X<X<X7XR.V.V.V.y $ $ y y y y y y y y y y | y y y $ $ $ $ $ V.$ $ $ $ $ | y | | b b b b b b b | | | b b b C C C C C C C C C C C C C C C C C C } C C b b | | y y | | | b C C 7XC 7Xb C C b C b | | y I I I y y $ | | $ | $ | y | y y y y y y y $ y $ $ y y y | | | b b | | y y y $ $ y $ $ $ $ y | | b | y | C } 7.} } } } } } 7.} } 7.eXD % a.a.    o o o                 o a.a.o o o o % 7 @ (  .eXeXeX7.7.} } } } } 7.7.7.} } } } } C } 7XMX<X<Xm.m.i i ) e e e i e i e e e e e e e e i e e e m.e e e i e e i e i e i e i e e e e e e e e e e e e i e e e e e e e e e e e e e e e e e e e e e i e e e e e e e i e e e e e e e e e e e e e e i e e e e i e e e e e e e i e m.m.R.R.7XV.V.I I I y y $ y $ $ $ $ $ $ I $ y y y $ $ $ y | | | b b C C C C | y y $ $ $ y y y y y $ ",
"m.m.m.e e e e e e e e i e e i e e i e i e e e i e m.V c $.$.$.$.$.$.$.$.$.R.R.R.<X<X<XR.A K 0.0.0.0.0.0.K K E E E K K K E E A $.c R.m.m.m.e m.e e e e e e e e e e e e e e e e e e e e e e e e e e i e e i e i e i e i e i e m.e e e m.e e e e e e e e e e e ) e e e i m.m.<Xm.<XR.R.7X7X7XV.V.I I $ $ $ $ $ | y y y | | | | | y y $ $ y $ $ $ $ $ $ $ $ y | | | b b b b b b | y y | | | b b C C C } C } C C C C C C C C C C C C C C C b b | y y y | | b C C C C C C C C C b b | y y I I I y y $ y $ | $ | y | | y | y y y y $ $ $ y y y y y | | b b b | | | y y y $ y $ $ $ $ y y | b | y | C } 7.} } } } 7.} 7.} C 7. .( % o o   %   o o o o o o o o o o o o o a.o o   %   o a.% t ( +  . .eXeXeXeXeXeX7.eX7.7.7.} 7.} } } MXMX<Xm.m.i e e e i e e e e e i e i e e e e e e i e i e i m.e i i e i e i e i e i i e e e e e e e e i e e e e e i e e i e e i e e i e e i e e i e e e e e i e e e e e e i e e i e i e i e m.e i e e e e i e e e e e e i e e e m.e m.R.R.V.V.I I y y y y $ $ $ $ $ $ $ $ $ $ y y y $ $ $ y y | b C b C C C C | y $ $ $ $ y y y y y $ ",
"<Xm.m.e e e e e e e e e e e e e m.e e m.e m.e m.e V c A E E E E  XE E K K  XV.V.V.V.V. XE 0.0.0.0.0.0.0.0.0.0.0.0.0.0.0.0.K K E $.$.R.m.m.e e m.e e m.) m.) m.) e e e e m.) e m.e e m.e e m.e e e e e e e e e e e e e m.e e e m.e e e e e e e e e e e e e e e e m.e m.<X<X<X<XR.7X7XV.V.V.I I $ $ $ $ $ $ | $ | y | | | | | | y y $ $ $ $ $ $ $ $ $ $ y | | | b b C C b b | y I I y y | b b C C C C C C C C C C C C C C C C C C C C C C b b y y y y | b C C C 7XC 7XC C C b b | | y y I I $ $ y y | | $ | | | y | y y y y $ $ y y $ y y y y | b b b b | | y y y y $ y $ y $ $ y y | | | | | C } 7.} } } } } } } 7.7.eX( %     % % % o o o o o o o o o o o   7 % o o o     o a.a.a.a.o 7 t @ ( ( D D +  . . . .eXeXeXeXeXeXeXeXeXMX<Xm.m.e e e i e e e e e e e e e e e e e e e e e e e e e e e e e e e e e e e e e e e e e e e e e e e e e e e e e e e e e e e e e e e e e e e e e e e e e e e e e e e e e e e e e e e e e e e e e e e e e e e e e e e e e V m.R.R.V.V.I I I I y y y $ $ $ $ $ V.$ $ $ $ y | y y $ $ y | | b C b C C C C | | $ $ $ $ y y y y y $ ",
"R.m.m.m.e V V e e e e e V e e e e e e e e e m.m.m.c A K K 0.0.0.0.0.0.0.0.K K K K K K K K 0.0.0.0.0.0.0.0.0.0.0.0.0.0.0.0.0.0.K E  X$.R.m.m.m.V m.m.e m.e V e e e e e ) e e e e e e e e e e e e e e e e e e e m.e m.e m.e m.e e e e m.e e e e e e e e V e V m.m.V m.<X<X<X<X7X7XV.V.V.I I y y $ $ $ $ $ $ $ y | | | | b b | | | y $ $ $ $ y $ $ $ $ y y | b b b C b b b | | y I I I y | b b C C } C } C C C C C C C C C C C C C C C C C C b | | | | b b C C C C C C C C C C b | y y y $ $ $ $ $ $ $ | $ | | y | y y y y y $ y $ y y y y y | | b b b b | | | y y $ $ y y y $ y $ y y | | y b C } } } 7.7.7.7.7.7.7.eXD   a.o   %   o o o o o o   o o o o o     7 7 %   o o o o   o o o           % % 7 7 7 t t @ 3 3 ( D D 3 @ D eXMX<Xm.V V m.m.e e e e e e e e e e e e e e e e e e e e e i e e i e i e i e e e e e e e e e e e e e e e e e e V e e V e e V e V e V e V e V e e e e e e e e e e e e e e e e e e e e e e V e V e e e e e e e i m.e m.m.m.m.V R.R.V.V.I I I I $ $ y y y $ $ $ $ $ $ $ $ $ y y y $ $ y y | b C b C C C C b b | y $ $ $ y y y y $ $ ",
"$.c m.m.V V z.V V e e V V e V e e e m.e m.m.<X<XR. XK 0.0.nXnX0.0.0.0.0.0.0.0.0.0.0.0.0.0.0.0.0.0.0.0.0.0.0.0.0.0.0.0.0.0.0.0.0.0.K  XR.<X<Xm.R.m.m.m.m.m.V e e e ) e e V ) e e e e e ) V ) e e e ) e e e e e e e e V e V e V V e V e e e e e i i e V V V m.m.m.<X<X<X7X7X7X7XV.V.I I I $ y y $ $ $ $ $ $ $ | | b b b b b b | | y y $ $ $ $ $ $ y | y | b C C C b b | | y I I I $ y | | b b C C C } C C C b | | b C C C C C C C C C C C C C C C b C C C C C C C C b C C C b | y y $ $ y $ $ $ $ $ $ y | | y y y y y $ $ y y y y y $ $ $ y | C } C C | y y y y $ $ $ y y y y $ y y | y $ y | C } } } 7.7.7.7.7.7.eX( %                           o o a.a.a.o o                                       % % 3.3.3.3.3.3.o   % % % @ 3  .eXMXm.V m.V V e i i i i e e e e e m.e m.e m.e e e e e e e e e e e e e e e e e e e e e e e e e e e e e e e e e e e e e e e e e e e e e e e V e e e e e V e V e V e e V e V e e V e e e e e e e e e e e e e e e m.m.R.R.R.R.V.V.I y y y y $ $ $ y y y y y y | $ y y y $ $ I $ y y | | b b b C C C C C | y y $ $ y $ $ $ $ $ $ ",
"A R.m.m.V V V V V z.) z.) z.e e e e e e m.m.<X<XR. XK 0.0.nXnXnX0.0.0.0.0.nXnX0.,.0.0.nX0.0.0.0.0.nX0.0.nX0.0.0.' 0.0.0.0.0.0.0.0.K  XV.R.$.$.A A G c V m.e e e e e ) e ) V m.e e V V V ) V ) z.) V ) z.) V e e V e V e e e V e V e e e e e e e e ) V V V m.m.<X<X<X7X7Xb 7X| y | $ $ y y | y $ $ $ y $ $ $ | | b b C b b b b b | | y y y y y | | | | b b C C C b b | y y $ $ y y | | b b b C C C C C b | y y y | | | b C b b C C C C C C C C C C C C C C C C C b b C C C b | y y I $ $ $ $ $ $ y $ y y y $ $ $ $ $ y y y y y y $ I I y | C C C b b b y y y y y $ $ $ y y y y y y y $ y | b C } 7.7.7.7.7.7.7.eX .7 o                           o o o o a.o o                                       % 3.3.3.3.3.3.3.o o o % % % @ 3  .eXMX<Xc V V m.m.m.m.e i e e V e e e V e V m.V m.e e e V e V e V e V e e V e e e e e e e m.e e e e V e e e e e e e e e e e e e V e V e V V V V V V V V V V e e e V e e e e V e e V e e V e e e ) e ) e e e V m.R.<XR.R.R.V.I $ y y y y $ $ y y | | | | y y y $ $ $ $ I I I y | | b b C C C C C C C b | y I $ y y $ $ $ $ $ ",
" XR.<X<Xm.m.m.V V V V ) V ) e V V V e V m.m.m.R.$.E 0.0.0.nX0.0.0.,.0.,.0.' 0.0.0.0.0.0.0.0.K 0.0.0.0.0.0.0.0.0.0.0.0.0.0.0.0.0.0.0.E  XE E K K +X+XG c V e e e V e V e e ) V ) V ) V ) V V ) V ) V ) V ) z.e e e V V e V V e e e V e e e e e e V V V V V R.R.R.R.7X7X| | y $ $ $ $ | y | y y $ $ y y y $ $ y | b b b C C C C b b b | | | | b b b b b C C C C C b b | | y y y | | | b b b C C C C b | | y I I I y y y | | | | b b C C } } C C C C C C C C C C C C b C C b b | y y I $ $ $ $ $ $ y | $ | $ $ $ $ $ y y y y y $ $ y y | b b b b b b b | y y y | y $ $ $ $ y y $ y y $ $ $ | b } 7.7.7.} } } 7.eX .( %                           o o o o o o o o                                       % 3.3.3.3.3.3.3.o o   % % % 7 3 3  .eXMXR.c m.m.m.V V V m.) V e V e e m.V e V e V e V e e e e V e e e e e e e e e e e e e e e m.e e e e V e e V e e e e e e e e V e V e V e V e V e V e V V V V V V V V V V V V V m.V V e e e z.e z.e e e e m.m.R.R.R.R.V.V.$ $ y y y y y y y | | | | | | y y $ V.$ I I I y | b b C C C C C C C C C b | y I $ y y y $ $ $ $ ",
"V.R.R.m.R.m.<Xm.V V V V e V e V z.z.V V V m.V c A K 0.0.0.0.0.,.0.0.0.0.0.nX0.0.0.0.0.0.K 0.K K 0.0.0.0.0.0.0.0.0.' 0.0.0.0.0.0.0.K K E K K 0.K K +XG c V m.e V e e V ) V V ) V V V m.V V e V V e ) V e V e V V e V e V V e V m.e e V e V V V e V V m.R.R.R.7XR.7XV.V.I $ $ $ $ $ $ y $ y $ $ $ $ y y $ y y y | | b b b C C C C C b C C C b C C C C C C C C C C b b b | | y | b b b b C b C C C C b | | y I I I I I I y y y | | | b C C C C C C C C C C C C C C C C C b b | | y y I $ $ $ $ $ | $ y y $ y $ $ $ y y y y $ y y y | b b b b b b b b b | $ $ y | y y y | y y y $ y y y $ $ y b } 7.7.} } 7.7.eX .( %                           o o o o o o o o                                         % 3.3.3.3.3.3.3.o o o o o o % @ 3 3  .MXMX<XR.V V V V V V m.e V e V V V V V e V e V e V V V e V e V V V V V V V V e V e e m.e e e V e V e e V e V e V e V V e V e V e V V V V V V V V V V V e V V e V V e V V e V V V e V V e e e ) e e e V m.R.R.R.7XV.V.V.$ y y y y $ y y y | b b | | | | y $ $ $ $ I y | b C C C C C C C C C C C b | y I $ y y y $ $ $ $ ",
"V. X X$.R.R.R.V R.V V V V V z.e V V V V m.m.c $.A K K K 0.0.0.0.0.0.,.0.' 0.0.0.0.0.K K K E K K 0.0.0.K 0.K K K 0.0.0.0.0.0.0.K K K E E K K K K +XA c c m.V V V e V e V ) z.V V V e V e V e V e V V V V V e V V V e V e V e V e e e e V z.e V V V <X<X<X7XR.7X7XV.V.I I $ $ $ $ $ $ y y | | $ $ $ $ $ $ $ y $ y | | | b C C C C C C C C C C C C C C } C C C C b C b b | | | b C b C C C C C C C C b | | y I I I I $ y I I $ y | | b b C C C C C C C C C C C C C C b C b b | | y y I $ $ $ $ y y | | $ | $ | | y y $ $ I y y | | b b b b C } 7.} C | | y y y | | y y y y y $ y $ y y $ $ y | C 7.} } } 7.eX .( 7 o                         o o o o   %                                               % 3.3.3.3.3.3.3.o o o o o o % 7 3 3 Y. .eXMXR.c c c c V V V V V V V V e V V V V V V e V e V V e V e V e e V e V e V V e V e e V V e V e V V e V e V e V e V e V V V V V V V V V V V V V V V V V V V V V V V V V V V V V V e V e z.e V e m.m.m.R.R.R.V.V.y I $ y y y y y y | | b b b b b | | y y $ $ I y | b C C } C C C C C C C C b b | | y $ y y y $ $ $ $ ",
" XK K K A $.$.c V m.V V z.V V V V V V V c m.R.$.A E K K K K 0.0.0.0.0.0.0.' 0.0.0.K K E E  XE K 0.K 0.K K K K K K K 0.0.K K K K E  X X XE E A A $.c R.V V V e V V e z.V V V V V V V V V m.V V V V V V V e z.V e V V V V e V V V e e V V V V V V c <X<X7X7X7X7XV.V.I I y y y y y y | | | C C | $ I $ $ $ y $ $ $ y y | b b b C C C C C C C C C C } C C C C C C C b b b b b b b C C C C C C C C C b C b | | y y I y I I $ I I y y | | b b b C C C C C C C C C C C C C b b | | y y y $ I $ $ $ $ | $ | y y y | | y $ $ I y y | b b C b b C 7.eX .eX} | b | y y | | y y y $ $ $ $ y y $ $ I I y C } } 7.7.eX+ t 3.3.3.                        o o o   7 7 7 %                                             3.3.3.3.3.3.o o o o a.o % 7 7 7 @ 3 Y. .eX<XR.$.A G c V c V V V V V V e V e V e V V e V V e V V V e V V V V V V e V e V e V e V e V e V e V e V m.V e V e V e V e V e V z.V z.V z.V z.V z.V V V e V e V e V V V V e V V e V e V e V e m.m.R.R.7XV.V.V.V.$ $ y y y y $ y | | b b C b b b | | | y $ | | b C C } } C C C C C C C C b b | | y y y y y y $ $ $ ",
"0.0.nX0.K E $.c V m.V V V V V m.m.m.c c R.R.$.$.A E E E K K 0.0.0.0.0.0.0.0.0.0.0.K E E  X X XE K K K K K K E E E K K K E K E  X X$.$.$.$.$.$.$.c c V R.V V V V V V V z.V V z.V V V m.V V e V e V V e V V V V V V V V V V V V V e e V V z.V V <XR.7X<X7X7XV.I I I I I y y y y | b C } 7.7.7.} | y y I I y V.I I I y y | b b b C C C C C C C C C C C C C C C C C b b b b b b C C C C C C C C C C C b b b | | y I y I I I I I y y y y | | | b C C C C C C C C C C C C b | | | y y y y I $ $ $ $ y | y y y y y y y y y y | | b b C C C C 7.eX( 7 D eXC C b | y | y y y y $ $ $ $ y y y I I I y C } 7.eXeX+ @ 3.a.a.%                     %   o o o   7 t 7 7 %                                             3.3.3.3.o o o o o o   7 %   % 7 3 3 3  .MX7X XE A $.G c V V V V V V V V V V V V V V V V V V e V V V V V V V V V V V e V m.V V V V V V V V V V V e V V V V V V V V V V V V V V V V V V V V V V z.V V z.V V V V V V V V V V V V V V V R.R.R.R.V.V.| I $ $ y y y y y y y | b C C C b C b b | y | y | b C C } } C C C b b C C C C b b b | y y y y y y y $ y ",
"nXnXnX0.0.K A c R.m.m.V c c c m.m.R.c $.$.$.$. X X X XE E K K 0.0.' 0.0.0.' 0.0.0.K E  X X X XE E K K E E E  XE E K K E E E E A $.$.R.R.R.R.c c R.c V m.V V V V V z.V V V c V V V V V V V V V V V V V V V V V V V V V V V z.V V V V V V V V R.<XR.7XMX} 7X| I y | I | | b b C } 7.eXeXeX .eX7.b | y y y y $ I I I y y | | b b b b C b C C C C C C C C C C C C C b b b C C C C C } C C C C C C C b C b b | | | y y I I I I I y y | y | | | b C C C C C C C C C C C C b | | y y y y I I $ $ $ $ y y $ | y y | | | | | | b b C C C } 7.eX .@ a.] 7  .7.} b y y y y y y y y $ $ $ y y I I I $ b } 7.eX .+ ( 7 3.a.o                       %   o a.o   t t t 7 %                                               % 3.3.o o o o o   7 7   o o 7 t @ @ 3  .MXV.K K +XA G V m.V V V z.V V V V V V V V V V V V V V V V V V z.V V V V V V V V V e V m.V e V m.V e V V m.V V V V V V V V z.V V z.V z.V z.V z.V z.V V V V V V V V V V V V V V V V V V V R.m.R.R.V.V.V.V.I y y y y y y y y | | b C C C C b b b | | | | b C C C C C C C C b b C C C C b b b | | y y y y y y $ y ",
"nXnX0.K K E $.c R.m.R.V c c m.R.R.$.A A E A E E E E E  XE E K 0.0.0.0.0.0.0.0.0.0.K E  X$.$.$.A A E E A E E A  XE +XE +X+X+X+XA $.c c c c V c V V c V V V V V z.V V c V c c c c V V V V V V V V V V V V V V V z.V V V V V z.G c V V V c c R.<X<XMXMXeXeX7.C C C } C } } 7.eXeX . .Y.Y.Y. .eX} | y y y y | y I I I y | b b b b b C b C C b C C b C C C C C } C C b b C C C C C C b C C C C b C C C C b C b b | y y y I I I I I y y y | | | b C C C C C C C C C C C C b | y y y y y I $ $ $ $ $ $ y y y | | b | b | b b C C } } 7.eX .D 7 a.a.a.3.(  .7.b | y y I I y y y y $ y y I I I I y } 7.eX .D ( @ t % o o                       %   o a.o   t t t t %                                                     o o o o o % %   o o   % 7 t 7 7 3  .MXV.K K +XG c V V c z.V z.V z.V z.V V V V V V V V V V V V V V V V V V e V V V V V V V V V V V V V V V V V V V V V V V V V V V V V V V V V V V V V V z.V V z.V V V V V V V V V V V V R.R.R.R.V.V.V.I $ $ y y y y y y y y | | C } C b b C b b b b | | b C C C C } C C C b C C C b b b b b b | y y y | y y y y ",
"0.0.K E E $.R.R.m.R.m.R.c c R.R.$. XK K K 0.0.0.K K E E E  XK K 0.0.0.nX0.0.0.0.K E  X$.$.$.$.$.A +XA A A +XA +X+X+XA A A A A G G c c c c c c c c V V V V V V V c V c V c V c V R.c V V V V V V V V V V z.V V V V z.V V V z.G c V V V R.R.<X<XMXeX .D Y. .eXeXeX .eX . .NXeXNXNX .Y.D D  .7.| I I y I | | y I I | | | b b C C C b C C C C C b C C b C C C C C C C C C C C C C b b b b C b C C C C C C C C C C b | y y I I I I y | y y | | b C C C C C C C C C C C C b | y y y y y I I y $ $ $ $ I y y | | C C C C C C } 7.eXeX .( @ 7 a.a.a.3.3.3.@ eX} b | y I I I I I y y y $ I I I I C 7.eX+ ( @ ( ( @ 7   o %                     %   o a.o   t t t t 7 %                                                   o o o o o   o a.o 7 t 7 7 7 7 @ 3 3  .MXV.E E A c c V V V V z.V V V V V z.V V V V V V V V V V V V V V V V V V V m.V m.V V e R.V V m.V V m.V V V V V V V c V c V V V z.V V V V V V V V V V V V V V V V V V V V V V V R.V R.R.R.V.7XV.V.V.$ y y y y y y y $ $ | b C } C b b C b b b b b b b C C C C C C C C C C C C b b b C b b | y y y y y y y y ",
"0.K E  X$.R.R.R.R.R.c $.$.A $. XE K K 0.0.0.0.0.0.0.K 0.K E E K 0.0.0.nX0.0.K K E  X$.$.R.c c $.$.A G A A A A A A A $.$.G G G G c c R.c c c V c V V c V V V c V c V c c c R.c R.V V V V V V V V V V V z.V z.V V V e m.V V c c G c c R.<XMXMXeXeX .Y.Y.Y. .+ + Y. . .Y.Y.Y.Y. . .Y.+ D D  .7.| I I I y y | y I I y y | | b C C C C C C C C b b b C C } } 7.7.eXeXeXeXeX7.} C b b b b C b C b C b C C C C C eX .eX7.b y I I y I I I y I I I | b b b b C C C b C C } C | y y | y I I I y y I I I | | | b b C 7.eXeXeXeX . .+ D ( t % % % o a.o 3.3.3.% D eX7.b y I I I I I I I | | | I I | 7.eX+ ( @ t @ @ @ t 7 %                           o o   7 t @ @ t t 7 %   o o o       o o                                           o o % 7 t 7 7 % % t @ @ @ Y.eXR. X$.c V c V c z.z.z.z.V V V V V c V c V c V c V c V V V V V V V V V V c V R.V V V V R.V R.V V R.m.V R.V c V V c V c V c V c V c V c V c V V V V V V V c V V V V V c c c c c R.R.V.V.V.I I I y y y $ $ y y y y y | | b } b b | | y y | | b b C C C C C C C C C C C C C b b C C C C | y y y y $ $ $ $ ",
"0.K E  X$.R.R.R.<XR.$.A +XE E K K 0.0.0.0.0.0.nX0.0.0.0.K E E K K 0.0.0.0.K E E  X$.R.R.c R.c G G G $.G G $.c $.G $.G $.G $.c c R.c c c V c c V R.c V c c V c c V c c V c V R.V R.V R.V V c V c c z.z.V z.c z.V V V V V V c c c R.<X<XMXeXeX . .Y.Y. .D Y.D Y.D D Y.Y.D Y.D Y.D D D Y.D  .eXC I I I I y | | y | | | | b b C C C C C C C C C } 7.7.eXeXeX .Y.Y.( @ @ Y. .7.} C C C b C C C C b b C C C } 7. .t ( eXC y I I I I I I I I I I I | | | b C C C C C C C C | I I y y y I I y I I y | | b C } 7.eX+ D D D ( @ t 7 %                     % 3.7 D eX} | I I I I I I I y | y I y C eX+ ( @ t t t t @ t t %                               % 7 t @ @ @ t t 7 % o o o     o o o                                   % %   o o   % 7 7 7 7 %   7 t @ @ 3  .MXR.$.R.c c c V V z.G z.V V V V c V c V V c V V c V c V c V c V c V c V R.V V V V R.m.V V m.c m.V V V V V V c c V c V c V c V c V c V V V V c V c V c V c V V V V V c c G c R.R.V.V.V.I I y y y $ $ $ $ y y y y y y | b b | | | y $ $ y | b C C b C C C C C C C C C C C b b C C C C | y y $ $ $ $ $ $ ",
"0.K E  X X$.R.R.R.$. XE K K K K 0.0.0.0.0.0.0.0.nX0.0.+XE E E E K K K K E E E  X$.$.R.R.c R.c R.c $.c c c c $.c R.c c c c c c c c c c c R.c V R.V c V R.V c V V c V R.V c c c c V V V V c c c z.z.z.c z.V V c c V c c c c c R.<X<XMXeXeX . . .Y.Y.+ Y.D D =X( =XD Y.D Y.D Y.Y.+ D D D D +  .7.y I I I I | | | y b b b b b b C C C } } 7.7.eXeX . .+ D ( 7 % 7 7 3.3.t D eX7.} C C C C C C C C b C C } eX .t o % + 7.b y I I I I I I y y y I y | | b b C C C C C C b | y I y I y y y y y y | b b C } 7. .( t 7 7 % 7 3.  o o o o                 % % % @ + eXC | I I I V.I I V.I I | C eX .( t t t t t t @ t t %                               % 7 t @ t ( @ t 7 %   o         o o                                   % %   o o % % 7 7 7 7 %   7 t t @ 3 3 eXMXR.R.c c c V V z.z.c V V V V c V c c c V c c V c V c V c V c V c V V V V R.V R.V V c V c V c V R.c c c c V c c V c V c V c c V c c c c c c c c c V c V c V V c c c c c $.R.V.V.V.I I I y y $ $ $ $ y y y y y $ y | | b | | y y y y | | b C C C b C C C C C C C C C C b b C C C b | y y $ $ $ $ $ $ ",
"0.0.K K  X X$.$.$. XE K 0.0.0.0.0.K 0.K K K 0.0.0.0.K E  XV. X XE E E  X XA A $.$.R.c c R.c c c c c R.c R.c R.c c R.c R.c R.c c c c c c c c c c c c c c V c c c c c c c V R.V c c c c c c V z.c z.G z.c V V c c c c R.c R.R.<XMXMXeX . .Y.+ Y.+ Y.D D 3 3 3 3 Y.Y.Y.Y.Y.+ + + Y.D D ( t ( + eXC | y I I I | y y | b b C C C C C } 7.eXeX . .D ( @ @ t 7 3.3.7 @ 7 % 7 @  .eX7.C C C C C C b b b b C 7.eX( a.a.o t  .7.| I I I I I I y | y I y y | | b b C b C C b b b | y y y I | | b b | b C C 7.eX .(   % 7 % 7 %     o o o o                 % % 7 7 (  .eX7.C C b b | | | b C 7.eX .D t t @ @ t t t @ t t %                               % 7 t @ ( @ @ t t %             o o                     % %             % % o o % % % 7 7 % %   % 7 t 3 3 3 3  .MX<XR.c c c c z.c z.V V V c V c c V c c V c c c V c V c V c V c V R.c c V c V c c V c c V c c c c V c c G c c c c c c c c V c c c V c V c V c V c c c c c R.V c c c R.R.V.V.V.V.I I y y y $ $ $ y $ y y y y $ y y | | | y y y y y | b C C C C C C C C C C C C C C C b C C C C b | y y $ $ $ $ $ $ ",
"0.0.0.0.K E E E E E K 0.0.0.0.K 0.K K K E E K 0.0.0.K E  XV.V.V. X X X$.$.$.$.$.c c R.V c R.c R.c R.c c c c c c c c c c c c c c c c c c V c c V c V c c c V c V c V c c c c c c c c c c c c V c z.c c V V c R.c R.R.R.<XMXMXeXeX . .Y.D 3 D Y.+ D ( @ 7 7 N.3 Y. . .Y.Y.+ Y.+ + D ( t 7 % t + eX} C b | | | | | b b C } } 7.7.eXeXeX .+ D ( ( ( ( ( D D ( 3 3 3 N.3 ( D +  .eX7.} } } C b b b b b C 7. .7 a.o a.o ( eXC I | y I I I y | | y y y y y | | | | b C b b | | | y I I y | b b b C } 7.eX+ ( t 7 7 7 % %   o o o a.a.o                 % % % 7 @ D +  .eXeXeX7.7.7.7.eXeX .+ D @ t t @ @ t t t @ t t %                               % 7 t @ t ( t @ t 7 %                                 % % % %             %   o % % % 7 % % % % % 7 7 @ 3 3 3 3 eXMX<Xc G c V c c c c V c c c c V c c c c V c c V c R.V R.V R.V c c c c c c c c c c c c c c c c c c c c c z.c c V c V c c c V c V c c c c c c c V c V c c c R.R.R.R.$.V.V.V.V.I I y y y y y $ $ $ $ y $ $ $ $ $ y y y $ y y y | | | b C C C C b C C C C C C C C C C C C C C C b | y y $ $ $ $ $ $ ",
"0.0.nX0.K 0.0.K 0.0.0.0.0.0.0.0.K K K  X X$ E K K K K E  XV.R.R.$.$.$.$.$.c c R.c R.V R.V c c c c c c $.c c c c c c c c c V c c c V c V c c c c c c c V c c c c c c c c V c c V c c G G c z.c c V c c c R.R.R.R.<XMXMXeXeX . . .Y. .D D D D D ( ( t % 3.3.t 3 Y. . . .+ + D D ( @ 7 % o a.o (  .eXeX7.7.7.} } } } 7.7.7.eXeX . . .+ + D D D D D D Y. . .Y. .Y.Y.+ + +  . .+  .eXeXeX7.} C C b b C 7.eX+ 7 o % o a.% D 7.b b y I I I y y | y I y | y I y y | b C C b | y y | y y | b C C C 7.eX+ ( 7 7 ( ( 7   o o o o o o o o o                 % o a.7 ( ( @ @ @ D Y.Y. . .Y.D @ @ @ @ @ @ @ @ @ t @ t ( t t %                               % 7 t @ ( @ @ @ t 7 % %                               % % % %               % o % % % % % % % %     % t 3 3 3 3 3 eXMXR.c c c c c V c c V c V c c c c V c c c c c V c c V c c c c c c c c c G c G G G G c c c c c G c c c c c c c c c c V c c c c c c c c V c c c c c c c R.c R.R.R.V.V.V.V.I y I y y y $ y $ $ $ $ $ $ $ $ y y y y y $ y y | | b b C C } C C C C C C C C C C C C C C C C C b b y $ $ $ $ $ $ $ $ ",
"0.0.nXnX0.0.0.0.0.0.0.nX0.0.K K K K E  X X XK K K K K K  X X X X$.$.$.G c c c V c V R.V R.c R.c $.c c c $.c G c G c c c c c c V V V V V c z.c c c c c c c c c c c c c c c c c c c z.G z.G G G G c c c $.R.<XMXMXeXeX . .3 3 3 Y.+ + + D D ( ( t % 3.a.o 7 @ D  . .eX .Y.D D ( @ 7   o a.a.% ( +  . . .eX .eXeXeXeX .eX . .D D ( ( D D D D Y.D D Y.D D D +  .Y.+ +  . . .+ + +  . . .eXeX7.7.7.7.7.eX .( % 3.3.3.3.3.t  .7.C I I I I I I I I I C } b I I I | b C C C C C b | | | b C C } eX .@ % % t ( ( @ 7   o o o         o                   %   o 7 3 3 3 @ t t @ @ 3 3 @ @ N.@ @ @ @ @ @ @ t t ( t t t t                                 % 7 t @ t ( t @ @ t 7 % % o o                       % % % % %       o o o o     o o % o     % %     % 7 t 3 3 3 3  .eX<XR.R.c c c c c V c c c c c c c c c c c c c c c c c c V c c V c c c c c c c c G G c c c c c c c c c c c c c c c c c c c V c c c c c c c c c c c c $.R.R.R.V.V.V.V.I I I I y y y y y $ y $ $ $ $ $ $ y y | | | y $ y | | | b C C C C C C b C C C C C C C C C C C C C C b | y I $ $ $ $ $ $ $ ",
"0.0.0.0.nX0.nX0.0.' 0.nX0.0.K K E E  X X X XK K 0.K K K K K E E A A G G c c c c c c c c c c c c c c $.c c c c c c G z.G G z.c z.c c V c z.c z.c z.c c c z.c c c c c V c c c c c c c c c G G G G c R.R.R.<XMXeX . .3 D D  . . . .+ + D ( ( t 7 % a.a.3.7 @ D +  . . .D 3 3 @ t 7   o o a.  t D D + + + D + + + + D + + + D D ( D Y.D D Y.D D Y.+ D Y.D D D Y.+ + Y.D Y.+ + + D D D + +  . . . . .+ D @ % 3.a.a.3.% % 3.@ eXC I I I y I I I I y eX .eXb I I y | b } 7.eXeX7.C | b C } 7.eXD % o % t @ t 7 7 % %   o o o o o o o o                 % % 7 7 t @ 3 3 @ @ @ D 3 3 N.3 @ @ t 7 7 t t @ t t t t ( t t                                 % 7 t @ ( @ @ @ @ @ t 7 % o o   %                   % % % % % %   o o o o o o     o o o o   % %   o 7 7 t @ 3 3 3 3  .MX<XR.c c R.c R.c R.c c c c z.c G c c z.c c c c c c c c c c c c V R.c c c c c c c c G c c c c c c c c c c c c V c c c c c c c c c G c G c G c G c $.R.R.V.R.V.V.V.I I I y I y y y y y y y $ $ $ $ $ y | | | | y y y | b b C C C C C C b C C C C C C C C C C C C C C C b | y I $ $ $ $ $ $ $ ",
"0.K 0.0.0.0.0.0.,.0.0.0.0.0.K E  X X X X XE K K K K K K K K K A A G G G c c z.V c c c c c c $.c R.c c c c c c c c c G G c c c c c z.c c c G G c c G z.c c c G c c G c c c c c c c c c c G c c R.R.<X<XMXeXeX . . .D + +  .+  .+ + D ( @ 7 % 3.3.a.a.7 ( D + + + D D ( t t 7 %   o     % t ( D + + + + + D + + D D D D D + D Y.+ + + D D D D + + + + Y.D Y.+  .+ Y.D D D + + + D D D D + + + D @ t 7 % o a.a.a.a.7 7 3.% D eXC | I I y y I I C  .@ Y.7.b I I | C 7. .D (  .7.} 7.7.eX .t 7 % 7 t t t t 7 % o o o o o                               % t 7 7 @ @ 3 @ @ 3 D 3 3 3 D N.@ @ @ @ 3 ( @ t @ ( t t t t                                 % 7 t @ t ( t ( @ @ t 7 % o o   % %                 % % % % % %           o o o o o a.o o o   %     7 7 7 t @ 3 3 3 Y.eXMX<XR.$.c R.c R.c c c G c c c c c G c c c c c c c c c c c c c c c R.c c G G G G G G G G G c c c c c c c c c G c c c c c G c G G c G c G c G c c R.R.V.V.V.V.I I I I I I y y y y $ y y y $ $ $ $ y y | | | y y y y | b C C } C C b C C C C C C C C C C C C C C C C C b | I I $ $ $ $ $ $ $ ",
"K K K K 0.0.' 0.0.0.0.0.0.K E  X$.$.$.$. XE K K K E E K K K E A $.c c c c z.c G z.G c G G c G c c G c G c G c G c G c G c G c z.G c c c z.c c G c c c c c G c c c c c G c c c c c c c c c R.R.<XMXMXMX .Y. . . . . .+ D D + + + D ( @ 7 % 3.a.a.a.  t ( + + D ( ( @ t 7 7   o o   7 t ( ( D D +  . . .+ + D D + + + + Y.+ + + + + + + Y.+ + + + Y.D D D +  .+ + Y.D + + +  .+ + D D D + + + ( t % o o 3.a.a.a.3.% % 3.3.t  .7.b I I I y y y } Y.3.7  .7.| y b 7. .7 a.a.7 D  .+ D t 7   o % 7 t t 7 7 t t o o o o o o                             % 7 t @ @ @ @ @ @ @ @ N.3 N.3 3 @ @ @ @ 3 3 @ t t t t ( t t                                 % 7 t @ ( t @ @ @ @ @ 7 % o o   % %                 % % % % %           o o o o o o a.a.o o   % 7 7 7   7 t t @ 3 3 3  .eXMXR.$.$.R.c c c G c c c G c G c c G c G c c c c c c c c c c $.G G $.$.$.G $.$.$.G $.G $.G G G G $.G c c G c G c G c G c G G G G G G G G G G $.R.R.V.V.V.V.I I I I y y y y y y y y y y y y y y y | | | | y $ y | | b C C } C C b b C C C C C C C C C C C C C C C C b | I I $ $ $ $ $ $ $ ",
"K E E K K 0.0.0.0.0.0.0.K K E  X$.R.$.$.$.A E +XA  XE E E  X X$.R.c c c G G c z.G G G c G G c G G c G c G G G G G G c G c G G G c G G G c c G c G G G G c c G c c c c c c c G c G R.R.R.R.7XMXMXeXeX .D 3 +  . . . .+ D D D D D ( t 7 7 %   o 3.7 t ( D D D D ( t t %         % t ( ( D D D D +  . . .+ + D D + + + + + +  .+ + D +  . . .+ + + D D D +  . .+ D D D + + + + + + D D + + + D ( t % o o   o a.a.o       % % 7  .7.| I I y I | } + o a.(  .} b }  .7 ] ] ] a.a.3.3.a.a.a.% % 7 t @ t t 7 t @ % o o o o o o o o o   o o               % % 7 @ @ t t t 7 @ 7 @ @ @ @ @ @ @ @ @ @ @ @ @ ( ( @ ( t t                         % %   o   7 t @ t ( ( t @ ( @ 7 % o o   %       o o   % % 7 7 7 % % %   o o o o o o o o o o o o o       7 7   % 7 t 7 t 3 3 3 3  .MX7XR.R.$.R.$.c G G c c c G G c c c c c c $.G G $.$.$.c c $.R.$.$.$.$.A A A +XA A A A $.$.G c c c c G G c c c c c c c c c G c G c G c G c c c $.V.V.V.V.I I I I y y y y $ y y $ y $ $ y y | | | | b | | $ y $ y | b C C C C C C C C C C C C C C C C C C C C C C C b y I $ y y y y $ $ y ",
" X X XK K 0.0.0.0.0.0.0.K E  X X$.$.$.$.$.$.G A A A A  X$.$.$.c c c G G G c c G c c c G G c G c G c G c G c G c G c G c c G c G G G G G c G G G G G G G G c G c c c R.c c c G c $.R.R.7XMXMXeXeX .D 3 D + + + + + + D + + + D ( @ 7 7 7 7 7 7 t ( D D D D ( ( t 7   o o % 7 7 t ( D + + + + + + + + + + + + + D + + + +  . .+ + D +  . .+ + + + + + + + +  .+ D D D + + + + + + D + + + D ( 7 7 %                       o a.t  .} | I I I I C  .% a.% ( eX7.eXt a.] ] ] ] ] a.a.a.a.o t t t @ @ @ @ t t t %                   o   o               % % 7 t t @ t 7 @ @ @ @ @ @ @ @ @ @ @ @ @ @ t @ 3 ( ( ( t t %                       % 7 % o o % t t @ t @ t @ @ @ t 7   o o       o o o o % 7 7 t t 7 7 %   o o o o                               % 7 t t @ 3 3 3 3 Y. .MX<XR.$.$.R.c G G G G G G G G $.R.$.R.c $.$.$.A A $.$.$.$.$.$.$. XA E E K K K K K E A $.$.R.$.c c c G G G G c c c c c G c c c G c c c c $.R.$.V.V.V.V.V.I y y y $ $ $ y y y y y $ I I | | b b b b C b y | I $ | b C b C C } C C C C C C } C C C b C b C C C C C b y y y y y y y y y y ",
"$.V. X XE K K K 0.K K K E  X X$.$.R.$.$.G G G G G G $.$.$.R.G c c c G G c G c G c G c G c G c G G G G G c G G G c $.c G G G G G G G G G G G G G G c G G $.G G c R.c c R.$.c R.R.R.7XMXMXeXeX . .D  .+ + D D + D + + + D + + + D ( ( @ ( ( ( ( ( D + D ( @ t 7 7     % 7 t t ( ( D + +  .+ + + + + + + + + + + D D + + +  .+ + + + + + D D + + + + + + +  .+ + D D D + + + + + + D + + + D @ 7 % %                   o a.a.a.o ( eX} | I I I }  .t   7 t +  .( a.] ] ] ] ] a.a.a.o % 7 @ @ @ @ @ @ @ t t 7 % %                 o   o   o             % 7 t t @ t @ t @ @ @ @ @ @ @ @ @ @ @ @ t t @ ( ( 3 ( t t                         7 7 % o o % t t @ ( @ t @ @ t t 7   o o     o o o o o   7 t t t 7 7 %   o o o o                           o % % 7 7 t @ ( 3 3 3 3 Y. .MX7XR.$.$.c c G z.G G c G c $.$.$.$.$.A A A A E E  X X X$. X X XE E K K K K K K +XE A $.$.$.$.G $.G c G c G c G c G c c G c c c G c R.c R.$.V.V.V.I V.y y y y $ $ $ $ $ y y y I I y b b b b C 7.7.eXC | I $ y | b b b C C C C C C C C C C C C C b b C C C C C b | y | | y y y I y y ",
"R.R.$.$.A E E E E E E E  X X$.$.R.$.$.c $.G G G G G G c c G G G c G G G c G G G G G G G c G G G G G c G G c G G G G c G c G c G c G G G A G G G G G $.c $.c $.$.c R.R.$.$.R.R.MXMXeXeX . .Y.D D D +  .+ + D + D + D D + + + + + D D D + + + + + + + ( t 7 o o   % 7 @ ( ( ( D D D + + + + + + + + + + + D + + D + + + + + + + + D ( ( ( ( D D + + + D D + + D D D D + + + + D + D + + + D @ 7 % %                     o o % % 7 D eXC | | C eXD 7 % t t t t a.] ] ] ] ] ] a.a.  7 @ @ @ @ @ @ @ @ @ t t 7 % %                 o   o   o             % 7 t @ @ @ @ @ @ @ @ @ @ @ @ @ @ @ @ @ t t @ @ ( ( ( t t %                       % 7 % o o % t t t t @ t @ @ t t 7   o o     o o o o o   7 t t t 7 7 %   o o o o                           o % % 7 7 t t @ ( @ @ 3 3 Y. .MX7X$.$.c c G G z.G c c c $.G $.A A A E E K K K E E E E E E E K K K K K K K K E A A A $.$.$.$.G c G G c G G G G c G G G c G G c $.c $.R.V.V.V.V.V.I I $ y $ $ $ $ $ $ y y | | | b C b b b C eX .Y.eXb y y y | b b C C b b C C C C C C C C } } 7.} 7.7.} } C b y y y y | y | y y y ",
"R.$.$.$.$.A  X X X X X X$.$.$.$.$.c $.c G c G c c c c R.c G G G G G G G G G G c G G c $.G G G c G G G G G G G G G G G G $.G G G G G G G G G G G G G G G c $.c $.$.$.$.R.R.<XMXeX . .Y.Y.+ + + + D D D D + D + D + D + D D + + + + + +  . . .+ + D D @ 7   o   7 t ( D D D D D + + + + + + + + D + + D + + + + + + + + + + + D D D @ 7 7 t ( ( D ( D D D + + D D D D + + + + + + D + + + D @ 7 % %                     % 7 t 7   7 D eXeXeXeX(   a.o 7 7 o a.a.a.] a.a.a.a.a.o 7 @ ( 3 @ @ @ @ @ @ @ t t 7 % %                 o   o   o             % 7 t @ ( @ @ @ @ @ @ @ @ @ @ @ @ @ @ @ t t @ @ ( ( ( t t %                       % %     o % 7 t t @ @ t @ @ t t 7   o o       o o o o   % 7 t t t 7 7 % o o o o o                         o % % 7 7 7 t t @ t 7 @ 3 3 3  .MX<XR.R.G G G c c c c $.$.$.$.A A A E K K K K K K K E K K K K K K K K K E E E E  X X$.$.$.$.c $.G c $.G G c G G c G c G c $.$.c $.R.$.V.V.V.I I I y y $ $ $ $ $ $ $ y | | b b C } C C C } eX( 3.@ eXC b | | b b C b b b b C C } 7.7.eXeX . .+ + D  .eX7.C b | y | y | | | | y y ",
"c $.$.$.$.$.$.$.$.$.A $.$.$.$.c $.c c $.c G G G G $.c R.c c G G G G G G G G G $.c $.G G $.c G G G G G G G G G G G $.G G G G $.G G $.G G G G G G G $.G $.$.$.$.V.R.R.7XMXMXeX . .D D + + +  . .+ + D D D D + D + D + D + + D D + + + +  .+ + D D ( t 7 7 7 7 t ( D + D + + + + + + +  .+ + + + + + + + + + D + + + + + D D ( ( ( @ 7     % 7 t @ ( ( D D D D D D D D + + + + + + D + + + D @ 7 % %                       %   o o o % t t t 7 o a.a.o %   a.a.] a.a.a.a.a.o % 7 t @ @ @ @ @ @ @ @ @ @ t 7 7 % %                 o   o   o               7 @ ( ( 3 @ @ 7 @ @ @ @ @ @ @ @ @ @ @ t t @ @ ( ( ( t 7 %                       %     o o   7 t t t @ t @ @ t t 7   o o         o o o   % 7 7 t t t 7 %   o o o o                         o % % % 7 7 7 t t t @ @ 3 3 3 3 Y.eXMXR.$.G G c c c c G $.c $.$.A  XE K K K K K K K K K K K K K K K K K E E E E A  X$.$.R.$.R.$.c $.$.G $.G G c G G c G $.c $.$.R.$.V.V.V.I V.I y $ y y $ $ $ $ $ $ y | b b C C } C C C }  .3.] a.( eXeX7.C C C C C C C C } 7.eXeXD t   a.a.a.a.a.t eX7.C b | | y | | | b | | y ",
"c G G G G G $.G $.A G A G G G $.c c $.c $.$.G G $.$.$.$.$.$.c G G @X@X@X@XG G G G $.G $.G G $.G G G G G G G G G G G G $.G G G $.G G $.G G G G $.G $.$.$.$.$.R.R.7XMXeXeX . .+  .+ + + + + + D + + + + + + + + D + D + D D D D + + + + + + D ( ( t 7 t @ ( ( D D + + + D D D D D + + + + + + D + + D + + + + + + + + D D ( @ t 7 7   o o o   % 7 t ( ( ( D D D D + + + D + + + + D + + + D @ 7 % %                         o o % %   o o a.a.o o o o o o a.] ] a.a.o   % 7 t t @ @ @ @ @ @ @ @ @ @ @ t 7 % % %                 o   o   o               7 @ ( ( 3 @ @ @ @ @ @ @ @ @ @ @ @ @ @ t t @ @ ( ( @ t 7 % o                       o o o o   % 7 t t @ t @ @ t t 7   o o         o o o   % 7 7 t t t 7 7   o o o o                         o % % % % 7 7 7 7 t 3 3 3 3 3 3 3 3 eXMXR.$.G G G c $.A G $.$.$. X XE K K K K K K K K K K K K K K E K K K K E E E  X X$.$.$.$.R.$.$.G $.G $.G c $.G G $.c $.$.V.$.V.V.V.V.I I I y y y y y $ $ $ $ $ | | b C C C C C C C eXD a.] ] ] 3.(  .eXeXeX7.eXeXeXeX .+ ( 7 a.] ] ] ] ] ] a.( eX} C b b | y | b b b b | y ",
"G $.G $.G G G G G G G G $.$.$.$.$.$.$.$.$.R.$.$.R.$.$.R.$.$.$.$.$.$.G @X@X$.G $.G G G G G G G G G G G G G G G G G G $.@XG $.G G $.G $.G $.G $.G $.c $.R.R.R.7XMXeXeX .D + + + + + + + D + D + + + +  .+ + D + + + + + + + + + + + + + D D ( ( @ t t ( D D + + + + D D D D D D + D + + + D + + + + + + + D + + + D D ( ( t 7 7 %   o o a.o o o % 7 t @ ( ( D D D + D + + + + + + D + + + D @ 7 % %                     o o o   % %   o a.a.a.o % % o o o o a.a.a.o % 7 t @ @ @ @ t t t @ @ @ @ @ @ @ t 7 % % %                 o   o   o             % 7 @ ( ( 3 @ @ @ @ @ @ @ @ @ @ @ @ @ @ t t t @ ( ( @ t 7   o                     o o o o o o   % 7 t @ t @ @ t t 7   o o         o o o o   % 7 t t t t 7   o o o o                           % % % % % % 7 % 7 3 3 @ 3 3 3 3 3 3  .MX<X$.$.A $.G A A A $.$.A  XE K K K K K K K K 0.K 0.K K K K K K K K K E E  X X X$.V.$.$.A $.A A A $.G G c G c $.$.$.$.V.$.V.V.V.V.I I I y y y y $ y $ y y y | b C C C C C C C }  .7 ] 6X] ] ] ] 3.t ( ( ( ( @ t % 3.a.a.] ] ] ] ] ] ] ] a.D 7.} C C C C | | b C C b | y ",
"G G G G A G A G A G A $.G $.$.$.$.$.R.$.R.$.R.R.R.R.7XR.V.R.R.$.$.$.$.$.$.$.$.$.G $.$.@X$.G G G G G G $.G G G @X$.G @X$.G G A G G G G $.G $.A $.$.$.R.<XMXMXeXeX .D 3 D + +  .+ + D D D + + + + + + + + + + + D + D D + D + D + + + + D ( @ @ @ ( ( D + +  . .+ D D D D D D D D + + D + + + + D + + + + + + D D D ( @ 7 7   o o o o a.o o a.o o % 7 7 t @ ( D + + + D D + + + + D + + + D @ 7 % %                     o o o o o o o o o a.a.o % % o o % 7 7 7 % 7 7 t @ 3 3 @ @ t t t @ @ 3 3 @ @ @ 7 7 % % %                 o   o o             % % t @ 3 3 @ @ @ @ 3 @ @ @ @ @ @ @ @ @ @ t t t @ ( ( @ t 7   o                     o o o     o o   7 t @ t @ @ t t 7   o o   % %   o o o o   % 7 t t t t 7 %   o o o                         % % % % %         7 t @ 3 3 3 3 3 3 3 3 Y.MX<X$.A A $.A G A A A A  XE E K K K E E K K K K K K K K K K K K K E E  X X XV.$. XA A A A A A A A G $.G $.$.$.$.$.V.$.V.V.V.I I I I I y $ $ $ $ y y y | | b b C C C C C C C eXD a.] ] ] ] ] ] ] ] ] a.] ] ] ] ] ] ] ] ] ] ] ] ] ] ] ] o  .7.C C } C C b b C C C C b y ",
"$.$.G A G @XA G G $.G $.$.$.$.R.$.V.V.R.V.7X7X7X7X7X7X7X7X7X7XR.R.R.R.<XR.$.$.$.$.@X$.@X$.@X$.@XG A G G $.G $.$.@X$.A G $.G G $.G $.G G $.$.$.$.R.R.<XMXeXeX . . .+ + + + + + + + ( D + + + +  .+ + D + + + + + + + + + + D D D + D D ( t 7 t @ D D + + + + + + D D D +  .+ + + D + + + + + + D  .D + + D + + ( t t 7 % o o o o a.o o o o o o o   o o % t ( D + + + D D D + + + D + + + D @ 7 % %                         o o o o   o o o o   % % % 7 t @ @ @ t t t @ @ @ @ @ @ @ @ @ @ @ 3 3 @ @ t 7 7 % % %                 o o               % % 7 t @ @ @ @ @ @ @ 3 @ @ @ @ @ @ @ @ @ @ t t t @ ( ( @ t 7   o                     o o o     o o   7 t @ t t @ t t 7   o o   % %   o o o o o   % t t t t 7 %   o o o o                       % % % %             7 t 3 3 @ 3 3 3 3 @ 3  .MX7X$.$.$.A A A A $.A A E E K E E E E E E K K K K K K K K K K E E  X X X$. X X XE E +XK K +X+XA A $.G $.$.$.$.$.V.V.V.V.V.I I I I I $ $ y $ $ $ y y | b b C C C C C b C }  .% ] ] ] ] ] a.] ] ] ] ] ] ] ] ] ] ] ] ] ] ] ] ] ] ] ] ] o  .7.C C C C C C C C } C C b | ",
"A $.A $.A A G A A G $.$.V.R.V.V.7X7X7XV.7X| V.| 7X| 7X| V.V.7X7X} MXv.NXMX$.$.$.$.$.$.@X$.@XG $.G @X$.G A G G $.$.@XA A A $.G A G G $.$.$.$.R.R.7XMXeXeX .Y.D + + +  .+ + + D ( ( D + + +  . . .+ + Y.+ Y.+ + + + + + D + D D D D ( t 7 7 7 7 @ D + + + + + + + + D +  . .+ + + + + + D + + + + D + + + D + D @ 7 7 % o o a.a.o o o o o o   %   o o a.o 7 @ ( D + + + D D + + + D + + + D t 7 % %                     % % o a.o     o o o   7 7 7 7 t @ @ @ @ t t @ @ @ @ @ @ @ @ @ @ @ 3 3 3 @ @ @ 7 7 % % %                     o             % % t t @ @ @ @ @ @ 3 3 @ @ @ @ @ @ @ @ @ @ t t t @ ( ( @ t 7   o                     o o o o o o o o % t t t t t t t 7   o o   % %   o o o o o   % 7 t t t 7 % o o o o o                   % % % % % %   o o o o     7 t ( 3 @ @ @ 3 3 7 @  .MX7XR.$.A A A G $.A A A E E E E E  XE  XE E E K K K K K K K K E E  X X X XE E K K K K +XK +X+XA $.G $.$.$.$.V.V.V.V.I I I I I I $ $ $ $ $ y y y | | b b C C C C C b C eXD a.] ] ] ] ] ] a.] ] ] a.a.] ] ] ] ] ] ] ] ] ] ] ] ] ] ] a. .7.C C b b C C C C } } C b | ",
"A A G A A G A A A A  X$.R.7X7X7X7X| V.V.I V.$ V.$ | | y | y  X7XNX6XiXiX2XMX$.$.$.$.$.A A G c G @XG @XG G G $.@XG $.A G A $.A $.$.A G $. XR.7XMXeX . .Y. .+  .+ + + + + + + + + D + + + + + + +  .+  . . .+ Y.D  .+ D D + + D ( @ 7 o o   7 t ( + + + + + + + + + + + + + + D D D + +  .+ D + + +  .+ + D ( @ 7           o o         o o o   % % o a.a.o 7 @ D + + + + + D D D + + + ( t % o o                           o o o o o o o o   7 7 t @ @ ( ( @ @ @ @ @ @ @ @ @ @ @ @ @ @ 3 @ @ @ @ @ @ t 7 % % %                   %   o o o o o   % 7 t @ @ @ @ @ @ @ @ @ @ @ @ @ @ @ @ @ @ @ @ @ @ @ ( @ t t 7 o o                     o o o o o o o o o o % 7 t 7 7 %       o o                     % 7 t t 7 o a.o o     o o o o o o o o o   % % % % % %             7 t ( ( @ @ @ @ 3 3 @ 3 Y.MXR.$.$.G $.$.A A A A A A A  X XE  XE E E E E E K +XK K K +XE K K K K E E E E +XK +XK +X+XA A A $.A $.$.V. XV.V.I I I I I I I y y y y y y | | b b b C } } C C b b 7.+ a.] ] ] ] ] a.a.a.a.a.a.a.a.a.a.a.a.a.a.o a.a.a.a.a.a.] ] a.( eX7.b | | b C } C } } } C | ",
"A $.A $.$.A A  X$.$.V.R.7X7XC 7X| | I I I $ $ y $ $ $ $ | $ $ 7.}.iX5X5XiXzXMX$.$.$.$.$.$.$.$.G A G A G A A A G $.$.$.$.$.$.$.$.$.$.$.R.7XMXMXeX .Y.D 3  .D  .D + + + + D + D + D D + D + + +  .Y. .D  . . .Y.D D + + + + D ( @ 7 o o   7 t ( D + + + + + + + + + + + + + + D D D + + + + + D +  .+ D D ( t t %                   % %   o o o %   o a.a.o % @ D + + + + + + D D + + + ( t   o o o                           o o o o o o o   % 7 t @ @ ( ( 3 @ @ @ @ @ @ @ @ @ @ @ @ @ 3 @ @ @ @ 3 @ @ 7 % % %                   %   o o o o o   % 7 @ @ @ @ @ @ @ @ @ @ @ @ @ @ @ @ @ @ @ @ @ @ @ @ @ @ t t 7 o o                     o o o o o o o o o o o 7 7 7 7 %       o o                     % 7 t t 7 o a.o   %   o o o o o o o o o o   % % % % %             7 t t @ @ t @ @ @ 3 @ @ 3 eXMXR.$.$.$.$.A A A A A E A E A  XE  XE  XE +XE E K +XK +XK K +XK +XK +XE +XE K +XK +XE A A A @X$.$.$.$. XV.V.V.y y y I I I y y y y y y | | | b C C C } C C C b C eX7 ] ] ] ] ] ] ] a.a.a.a.a.o a.o   o o 3.3.a.o a.a.a.a.a.a.] a.o @  .eX7.C C C C C C C C C C ",
"$.$.$.$.$.A  XV.R.7X7X7X7X| 7X| I $ $ $ $ $ y | y $ $ qX| 1XyXzX3XE.5XM E.iXVXMXR.V. X X$.$.$.A G @X@X@XA @XA A $.G A $.$.$.A  X$.R.7XMXeXeX . .+ D 3 Y.D  .+ + + + + + + + + + + D D + + + + D  .+  .D +  .+ + D D + D ( @ t 7 o a.o 7 @ ( D D + + + + + + + + + + + + + D D D D D +  .+ + + D + D ( ( t t 7 %                   % %   o o o     o o a.o 7 @ D + + + + + + D D + + + ( t   o o o                       o o o o o o     o   7 t @ @ @ @ @ @ @ @ @ @ @ @ @ @ @ @ @ @ @ 3 @ @ @ @ @ @ t 7 % % %                   %   o o o o   % % 7 @ @ @ @ @ @ @ @ @ @ @ @ @ @ @ @ @ @ @ @ @ @ @ @ @ @ t 7 %   o                     o o o o o o o o o o   7 7 7 % %       o o                     % 7 t t 7 o a.o   %   o o o o o o o o o o   % % % % % % %         7 t t @ t t @ @ @ @ 3 3 3  .eX<X$.$.$.A G A A A A A  XA  XA  X X X XE E E +X+XE +X+XK +XK K K K E E E E E E E +XE +XA A A $.A $. X$.V.V.I y y y $ $ $ y y y | y | | | | b C } C C C C C C eXD a.] ] ] ] a.] ] a.a.a.a.o a.o o o o o o o o o o o o a.o a.a.a.] a.a.@ + eX7.} C b b b b C C ",
"A $.A $. X$.V.R.7X7X7XC 7X| y y y $ y $ $ $ | $ | $ $ 1X1XNX2X3XE.5XS 5XM E.uXNX} V.V.V.V.V.$.$.@X@X$.A @XA @XA $.$.A $.$. XV.R.7XMXeX . .+ D D D D +  .D + + + + + D + + D + D + D + D + + + + +  .D D + +  .+ D D D ( t 7   o a.a.% t D + + + + + + + + + + + + + + + D D D D + + + + + + + D D ( t t 7 %                         %   o o o       o o % 7 ( D + + + + + + D D + + + ( t   o a.o                       o o o o o         % 7 t @ @ @ @ @ @ @ @ @ @ @ @ @ @ @ @ @ @ @ @ @ @ @ @ @ @ t 7 % % %                       o o o   % % 7 7 @ @ @ @ @ @ @ @ @ @ @ @ @ @ @ @ @ @ @ @ @ @ @ @ @ t t 7 %   o                     o o o o o o o o o o   % 7 % %         o o                     % 7 7 t 7   o o       o o o o o o o o o o o     % % % % %         % 7 t t t @ @ t @ @ 3 3 D 3  .MXR.$.A A A A G A $. X$. X X X XA  XA  XA A E E +XE E +XK +X+X+X+XE E A E A E +XA E A A A A A $. X$.V.V.V.$ y y y $ $ y y y y | | | | | b C C } C b C C } 7.+ % ] ] ] ] ] ] a.] a.a.a.a.a.o o o o o o   %     o o o o o o o a.a.] ] ] a.@ + eX7.} C C C C C ",
" XA  X X$.V.R.7X7X} 7Xb V.y V.| y | | $ $ $ qX| $ qX| b.VX6X!.E.^ S S S S M iXzXeX7XV.7X7XV.R.$.A A A @XG A A $.A A  X X$.V.7XMXMXeX .D D D D D D + + + D  .+ D + + + + + + + + + D D + D + + D  .D  .+ D D + + + D t 7 % o a.a.a.o 7 ( D + + + + + + + + + + + + + D D D D D D + + + + + D D ( ( t 7 %     o                       o o o   % %     o   7 t ( D + + + + + + D D + + + ( t   o o o                       o o o o           % t t @ @ @ @ @ @ @ @ @ @ @ @ @ @ @ @ @ @ @ @ @ @ @ @ @ @ t 7 % % %                       o o     % 7 7 t @ @ @ @ @ @ @ @ @ @ @ @ @ @ @ @ @ @ @ @ @ @ @ @ @ t 7 7 %   o                     o o o o o o o o o o o   % %           o o                       % 7 t 7   o o       o o o o o o o o o o o       % % % %           7 t t @ t @ @ @ 3 3 3 3 3 3 eXMX$.A A $.$.A $.A $. X$. X$. X X XA  XA A A +XA A +XE +XE E E E A E  XA E A A A A A A A A A  X$.V. XV.V.I y y y $ $ y y y | | | | b | b C C C C b b C 7. .  a.] ] ] ] a.] ] a.a.a.o a.o o a.o o o   % % %     o o o o o     o a.a.] ] a.3.t + eXeX7.C b b ",
"A  X X$.R.7X7X} MX} 7X| y $ y y | y | y $ $ $ | $ 1XyXVXuXE.S S ^ ^ S S S ^ E.3XVX} 7X} 7X7X7X$.$.A @XA A $.A A A  X$.V.7X7XMXeX .Y.D 3 + + + + + +  .D + + D + + D + D + D + D + D + D + D + D + + D + D D D + D ( 7 o a.a.a.a.  7 @ ( D +  . .+ + + + + + + + + + D D D D D D + + + + + ( ( t t 7     o o o                     o o o   % 7 7 %   o   7 @ D + + + + + D + D D + + + ( t   o a.o                       o o o           % 7 t @ @ @ @ @ @ @ @ @ @ @ @ @ @ @ @ @ @ @ @ @ @ @ @ @ @ t 7 7 % % %                       o o   % % 7 7 t @ @ @ @ @ @ @ @ @ @ @ @ @ @ @ @ @ @ @ @ @ ( @ @ t t 7 %     o                     o o o o o o o o o o o               o o o                       % 7 t 7 % o o     o o o o o o o o o o o o         % % %           % 7 t @ N.( N.@ @ 3 3 3 3 3 Y.MXR.A A $.$.$.A $.$.$. X$. X X$. XA A A  XA A A A A A A A A A A  X X X XA A  XA A E A A A A $. XV.V.V.I $ y y y $ $ $ y y | | b b b b C C C C C C C 7. .7 ] ] ] ] ] ] ] ] a.o o o a.o o o o o o o % % % % %     o o o o   % % % o a.] ] ] ] a.t + eX7.} C ",
" X XV.7X7XMX7XMX} } 7X| y y y | y $ y y $ $ $ 1X} NXzX3XE._._.^ ^ ^ Z Z Z ^ S !.2XNXC C } 7X7XR.$.$.A A A A A $. X$.7X7XMXeX .Y. . . .D + + + + + + + + + + + + D + + + + + + + D D D D D D D D D + + + D D D D ( t % o a.a.a.% t ( ( ( D D +  .+ + + + + + + + + + + D D D D + + + D D ( @ t 7 % o o o o o                       o a.o   % 7 7 7 %   % t ( D + + + + + + + + D + + + ( t   o o o                       o o       % % % % 7 @ @ @ @ @ @ @ @ @ @ @ @ @ @ @ @ @ @ @ @ @ @ @ @ @ @ @ t 7 7 % % %                     o o o o % % 7 t t @ @ @ @ @ @ @ @ @ @ @ @ @ @ @ @ @ @ @ @ @ ( @ @ t 7 7 %     o                     o o o o o o o o o o o             o o o o                       % 7 t t % o     o o o o o o o o o o o o o           % % % % % o o % 7 t @ t ( t @ @ 3 D 3 3 3 3 eXMXR.$.$.A $.$.A $. X$. X X$. XA A  XA A A A A A A A  X$.$. X$. X X XA  XA A  XA A A A A  X X$. X XV.V.I y y y $ $ $ y | | b b b b C C C C C C C 7.eX@ ] ] ] ] ] ] ] ] ] a.o o o                 % % % % %       o   o o o o     o a.] ] 6X] a.3.@ + eX7.",
"$.V.7X7XMXMX} } MX} } C b | | | | | $ y $ $ | 7.I.uX!.5XS _.S ^ ^ Z Z Z Z Z S S iXVX} V.| C 7X7XR.$.$. X X X XV.R.7XMXeX .D D  . .Y. . .+ + + D + D D + + Y.+ Y.+ D + D + D + D + D D D + D + D + D D D D D ( t 7 % 7   o o 7 t ( D D D D D + + + + + + + + + + + + + + + + + + + D D ( @ 7 %   o o o o o   %                     o a.o   % 7 % 7 7 7 7 ( D D + + + + D + + + D + + + ( t   o a.o                       o o     % % % 7 7 7 @ @ @ @ @ @ @ @ @ @ @ @ @ @ @ @ @ @ @ @ @ @ @ 3 @ @ @ 7 7 % % % %                     o o o   % 7 7 t t @ @ @ @ @ @ @ @ @ @ @ @ @ @ @ @ @ @ @ @ @ ( @ @ t 7 %                                                             o o o o o                     o   7 t t 7       o o o o o o o o o o o o o           % % % % % o o % % 7 @ N.( N.t t @ D 3 3 3 3  .eXMXR.$.A $.A $. X$. X$. X X X$. XA A A A A A A $.$.$.$.$.$.$. X X XA A A $.A $. XA A A A  X XV.V.V.I I $ $ $ $ $ y y | | b b C C C C C C C } 7. .N.a.] ] ] ] ] ] ] ] a.o a.o               % % % %             o   o ] ] a.a.a.a.a.] ] ] ] ] ] ] a.7 D ",
"7X7XMXMXMX} 7X} } } } } } } C C } C C b | } NX2XiXE.5X5XE.^ S Z O.O.Z Z Z Z S _.E.6XNX| V.V.V.7X7X7XR.V. XV.7X7XMXeX . . .D 3 3  . . . .D D + Y.+ Y.+ Y.D D D D Y.+ Y.D Y.D Y.D + D D D D D D D D D + ( ( ( t % o o % 7 7 7 @ ( D + + D D D + + + + + + + + + + + + + + + + + + + D ( ( t % o o o o o o o                         o o o o   o o   7 t ( ( D + + + + + + + + + D + + + ( t   o o o                       o o     % % 7 7 7 t @ @ @ @ t t @ @ @ @ @ @ @ @ @ @ @ @ @ @ @ t @ 3 @ @ t 7 7 % 7 % %                     o       % 7 t t @ @ @ @ @ @ @ @ @ @ @ @ @ @ @ @ @ @ @ @ @ ( ( @ t 7 % %                                                   o o o o o o o o                         o o 7 t t 7       o o o o o o o o o o o o o           % % % % 3.% 3.% 3.7 @ ( N.@ N.t t ( @ 3 3 3 3 3 eXMX$. XA $.A  XA  X X X X XA A A $.A A A A A A A  X$. X$. X X XA  XA A A $.$.$.$. X$.A $. XV. XI V.I $ $ $ $ $ y y | b b C C C C C C } } 7.eX@ ] ] ] ] ] ] ] ] ] a.o o a.o % % % % % % % % %   o o o o o o o o o a.] ] ] a.] ] ] ] ] a.] ] ] ] ] ] ] ",
"7XMX7.7.} } MX} } } 7.} 7.7.7.7.7.} } 7.NX}.3X!.E.5X5X5X^ ^ ^ Z Z Z Z Z S Z S _.S !.2X7.$ V.V.7X7X7X7X7X7X7XMXeX .+  .D D D + Y.Y.D Y.D Y.+ + + + + + D D D D Y.D + Y.+ D + + + D D D D D D + D D D D ( t 7   o o o o 7 @ ( D D + + + + + + + + + + + + + + + + + + + +  . .+ + D ( ( @ 7   o o o o o o o o o                         o o o a.a.o 7 @ ( D D + + + + + D + + + D + + + ( t   o o o                       o o     % % 7 7 7 t ( @ @ t @ 7 @ @ @ @ @ @ @ @ @ @ @ @ @ @ @ 7 @ 3 @ @ t 7 7 % 7 % %                           % % 7 t t @ @ @ @ @ @ @ @ @ @ @ @ @ @ @ @ @ @ @ @ @ ( ( @ t 7 %   o o                                               o o o o o o o o                         o o 7 t t 7 % %   o o o o o o o o o o o o o           % % % % % o o o % 7 @ N.( ( t @ t t ( ( 3 3 3 3 3 eXR. X$. X X$. XA  X X XA  X XA A A A A A A A A A A $. X X XE E A A A $.$.$.$.A $.A  X X XV.V.V.I I I y y $ $ y | | b b C C } C C C C } eX( a.] ] ] ] ] ] a.a.a.a.a.o 7 % % % % % % % % % %   o o o o o o a.o a.o a.a.] ] ] ] ] ] ] ] 6X] ] ] ] ] ] ",
"} 7.7.MX7.7.} } } } } 7.7.7.7.7.7.NX=X2X3X!.E.5X5X5X5XS S ^ Z Z Z Z Z Z S S Z _._.^ 3XzX7.$ $ $ 7X7.eXeXeXeXeX .+ D + D D D D + + + Y.D + + + + + D Y.D D D + + + D D D D + D D + D D D ( D D D D ( D t 7   o o % 7 t @ ( D D D D D + + + + D + + + + + + + + D D + + + + + + D ( t t %                                           % %   o a.a.o 7 @ D D D D + + + + + + + + + D D + D ( 7 o o                               % %     % 7 t t @ @ @ @ @ @ @ @ @ @ @ @ @ @ @ @ @ @ @ @ @ @ @ @ @ @ 7 7 % % % % %             o   o o o % % 7 t @ @ @ @ @ @ @ @ @ @ @ @ @ @ @ @ @ @ @ @ @ @ @ @ @ @ @ t 7 % %                                                                                             % t t t t 7 7 % %   o o o o o o o o o o o                     o o o   % t @ @ @ t t t 7 @ ( ( 3 3 3 @ Y.MX7X X X X XA  X$. X$. XA  XA  XA A A A A A A  XA  XA A  XA A A  XA  XA A $.A A $.A  X X XV.V.I I I I I $ $ $ y | b b b C } C C } eX .@ a.] ] ] ] ] a.a.a.a.a.o o o % % % % %               o o o o o o o a.a.a.] a.] ] ] ] a.] ] ] ] ] ] ] ] ] ] ",
"} MX7.7.7.7.} 7.7.7.} } 7.7.7.b.NXI.uX!.5X5X5XS S S S S S Z Z S Z Z Z Z S S S S _._.E.3XzX7.$ V.| 7. .D D D + + + + + D D D + + +  .+ D + + D D D D D D Y.+ Y.+ Y.+ + + + + D D D D D D D ( D D ( ( @ 7   3.3.3.7 @ ( D D D D D D D D + + + + + + + + + + + + D D D + + + D D ( t 7   o o o                                       % 7   o a.a.  t ( + + + + + + + + + + + + + D D D D @ % o                                 % %     % 7 t @ @ @ @ @ @ @ @ @ @ @ @ @ @ @ @ @ @ @ @ @ @ 3 @ @ @ t 7 7 % % % % %             o   o a.o % 7 t @ @ @ 3 3 3 3 @ @ @ @ @ @ @ @ @ @ @ @ @ @ @ @ @ @ @ @ @ t 7 % %                                                                                           % 7 t @ ( @ t 7 7 7 7   o o o o o o o o o o                     o o o   % 7 t t t t 7 7 7 t ( ( ( 3 @ 7 @  .MXV. XE  X XA  X$. XA  XA A A A A A A A A A A A A  XA A  XA  XA  XA A  XA A A A A  X XV.V.V.I I I I I I I I I | b C C C } 7.7.eX+ 7 ] ] ] ] ] a.a.o o o o o o o o o                         o o a.o o o a.a.] a.] ] ] ] ] ] ] ] ] ] ] ] ] ] ] ] ",
"7.} } 7.7.7.} 7.7.7.7.} 7.7.} 7.NX2X!.5X_._.S _._.S S S M S Z Z Z Z Z Z Z Z S S _._.S E.3XzX7.| | 7.+ 7 7 @ D + + D + D D D D + + Y.+ + + + D D D D D D + + + + + D D + + + D + D D D D D D D ( @ t 7 % % % 7 7 @ ( D D D D D ( D ( D D + + + + + + + + + + + + Y.D + + D ( @ t 7   o o o o                                       % %   a.a.o 7 @ D +  .+ + + + + D D + + + + D D D D ( % o   %                             %   % % % 7 t @ t @ @ @ @ @ @ @ @ @ @ @ @ @ @ @ @ @ @ @ @ 3 @ @ @ @ 7 7 % %   % %             o   o a.3.% 7 @ @ @ 3 3 3 3 3 @ @ @ @ @ @ @ @ @ @ @ @ @ @ @ @ @ @ @ @ @ t 7 %                                                                                             % t t @ ( @ t t 7 7 7   o o o o o o o o o o                         o o   7 t t t 7 %   % 7 t @ @ @ 7 % % 3 eX7X XE  X X X X X X X XA  XA  XA A A A A A A A A A  XA A  X X X X XA A A A A A A  X X X XV.V.C C b y y I I | b C C } 7.7.eX .( 7 a.] ] ] ] a.a.o o o o o o o o o o                         o o o o o o a.a.] ] ] ] a.] ] ] ] ] ] ] ] ] ] ] ] ] ",
"7.} } } } } } 7.7.7.7.7.7.7.b.7.NXzX3XE.5X5X^ S S S S S S Z Z Z S Z Z Z Z S Z S S S _._.E.3XzXeX} eXD 3.3.t ( D + + + + + + + +  .+ Y.+ + + D D D D D D + Y.+ Y.+ + D + + + D D D D D + + D D ( t % o % % 7 t @ ( ( D D D D D D D D + + + + + + + + + + D + + + + D + D ( @ 7   o o o o                                               o o o o t ( D + + + + + D D ( ( D D D D D D D D ( % o   %                                 % 7 t t @ @ @ ( @ @ @ @ @ @ @ @ @ @ @ @ @ @ @ @ @ @ @ 3 @ @ @ t 7 7 % %   % %                 o o % 7 7 @ @ 3 3 3 3 3 3 @ @ @ @ @ @ @ @ @ @ @ @ @ @ @ @ @ @ @ @ @ t 7 %                                                                                             % t t @ ( @ t t 7 7 7   o o o o o o o o o o                   % 7 % o o   7 t t t 7   o o   % 7 7 7 % o a.% Y.MXV.E  X X X XA  X X XA E A A E A A E A A A A  XA A  XA  X X X XA  XA A A A A  X X XE V.7X} eXeXeX7.7.7.7.7.7.7.7.eX .+ t   a.a.] ] ] ] a.a.o o o o o o o o o o o                         o o o o   o a.a.a.] ] ] ] ] ] ] ] ] ] ] ] ] ] ] ] ] ",
"7.} } } } } } } } } } } 7.7.7.} 7.NXzXuX3XiX!.E.^ S S Z S Z S Z Z Z Z Z Z ^ S S S S S ^ _.5XiX}.Y. .( 3.3.7 t @ D + + + + + + + + + + + + + D D D D D D + + + + + Y.+ D + + D D ( D D D D D ( t 7   o % 7 t ( ( D D D D + + + + D D D + + + +  .+ + D D D D + + + + D D ( t % o a.o o                                               o o o o 7 t ( D + + + + D ( @ @ @ @ ( ( D D D + D ( % o   %                         % o o   % t @ @ @ @ @ @ @ @ @ @ @ @ @ @ @ @ @ @ @ @ @ @ @ @ @ 3 @ @ @ t 7 7 % %   % %                 o o % 7 t @ @ 3 3 3 3 3 3 @ @ @ @ @ @ @ @ @ @ @ @ @ @ @ @ @ @ @ @ t t 7 %   o o                                                                                       7 t t @ ( @ t t t 7 7   o o o o o o o o o o                   % 7 % o a.o 7 t t t 7   o o o o   % o o a.a.a.7 eX7X XE E  X X X X X X XA E A A E A +XA +XA E A  XA E  X X X XA  XA A A A A A A  XE E V.7.eXD ( t ( + + + + +  .+ D 7 a.] ] a.a.a.a.a.o o o o o o o o o o o o o o                       o o o o o   o a.a.a.] ] ] ] ] ] ] ] ] ] ] ] ] ] ] a.] ",
"7.7.} 7.7.7.} } C } } } } 1X7.b.} 7.yXVXzX6X3X!.O.S S S Z Z Z Z Z Z Z Z Z Z ^ S S _.^ 5X_._.5XiX] ( D @ 7 % % 7 @ D + + + +  .+ + + Y.+ Y.D D D D D D D Y.+ Y.+ Y.+ + + D D D D D D D D ( @ t 7 7 7 7 7 t ( D + + D D + +  . . .+ + D D +  . . .Y.Y.Y.D D D D +  .+ D ( t 7 o a.a.a.o                                             o o o o   t ( D D + + D D ( t t 7 7 7 t t ( D D D D @ % o   %                         % o o   7 @ ( ( ( @ @ @ @ @ @ @ @ @ @ @ @ @ @ @ @ @ @ @ @ @ @ 3 @ @ @ t 7 % %     % %               % % % 7 7 @ @ 3 3 @ @ @ 3 3 @ @ @ @ @ @ @ @ @ @ @ @ @ @ @ @ @ @ @ @ t t 7 %   o o o                                                                                     7 t t t @ @ t t t 7 7   o o o o o o o o o o                     %   a.a.a.7 t t t t 7   o o o o o o a.a.a.a.% Y.MXV.E E  X X X XE  XA E A E +XA +XE A E A A  XE A  X XA  X X X XA  XA E A  X X X XV.} eX3 7 o a.a.a.o % 7 %   o a.] ] ] a.] a.a.o     o o o o o o o o o o o o o                       o o o o     o a.a.a.] ] ] ] ] ] ] ] ] ] ] ] a.] ] ] ] ",
"} } 7.} 7.7.7.} } } 7.7.7.} } 7.yXNXNXVX2X6X~.s.O.^ S S S Z Z Z Z Z Z ^ Z ^ Z S S _._._._._._.!.6X(  .( 7 % 3.% 7 @ ( D + +  .+ + + + + + D D D D ( D D D + + + + Y.+ Y.+ + D D D D D ( 7 7 % 7 t @ ( ( ( D + + + + + + + + + + + +  . . .Y.Y.Y.Y.Y.Y.Y.Y.D + + + + ( 7 7 % o o a.o o                                             o o o   7 t ( D D D D ( @ t 7   o o   % 7 t ( ( ( ( t % o   %                         %     % t @ ( ( ( @ @ @ @ @ @ @ @ @ @ @ @ @ @ @ @ @ @ @ @ @ @ @ @ @ t 7 7 % %   o % %               % % 7 7 t @ @ 3 3 @ @ @ 3 3 @ @ @ @ @ @ @ @ @ @ @ @ @ @ @ @ @ @ @ @ t t 7 %   o o o o                                                                                   7 t t t @ @ @ t t t 7   o o o o o o o o o o                     o o a.a.a.% t @ @ t t t % o o a.o o % a.a.a.3.@  .MX XE E  X X X XE A A A A A A E A +XA A E A  XE  XE E E  XA  X XE A A  X X X XV.7XeX .3 @ t 7   o   7 t @ 7 o a.] ] a.a.a.a.a.o o o o o o o o o o o o o o o o                       o o o o   %   o a.a.] ] ] ] ] ] ] ] ] ] ] ] ] ] ] a.] ",
"} 7.} } } 7.7.} } } 7.7.7.b.yXNXzX2XuXiX!.s.O.O.^ Z Z Z Z Z Z Z ^ Z ^ Z Z S S S O.!.~.!.!.!.!.uX}.Y. .D @ % o o   t @ ( D + + + + + + Y.+ Y.D D ( Y.( D D + + + + + + + Y.+ D Y.D D ( 7 %   7 t ( D D D D + + + + + + + +  .+ + D D Y.Y.Y.=XN.I.I.=XNXNX .+ + + D ( t %       o o o o o o                                         o o   7 t ( D D D D @ t 7 %   o a.o o     7 t t @ @ t   a.  % %                       % % % t @ @ ( ( 3 @ @ @ @ @ @ @ @ @ @ @ @ @ @ @ @ @ @ @ @ @ @ 3 @ @ t 7 7 % %   o % %               % % 7 t @ @ 3 3 3 @ @ @ 3 3 @ @ @ @ @ @ @ @ @ @ @ @ @ @ @ @ @ @ @ @ t 7 % % o o o o o                                                                                   7 t @ @ @ t ( @ t t 7   o o o o o o o o o o                     o a.a.a.a.o 7 t ( ( ( t 7   o o o o o 3.a.a.o 3.N.eX7X XE E E  XE E E E E A E +XE +X XE A  XE E  XE  X X X XE  X X X XE  X X XV.7XeX . .D D D ( ( ( ( ( ( @ 7 o ] ] ] a.a.a.a.o o o     o                                             o o o o   % % o a.a.] ] ] ] ] ] ] ] ] ] ] ] a.] ] ] ] ",
"7.} 7.7.} 7.7.7.7.} 7.7.NX=X2XuXiX!.E.S _.S ^ ^ S S S Z Z Z Z Z Z Z Z Z ^ Z S ^ !.uX2X2X2X2X2X}.N.Y.Y.D @ 3.a.a.o % 7 t ( D + + + + + + Y.D D ( D ( D D D + + + + + + D D + D D D ( t %   7 t ( D D D + + + + + + + + + + + + D D D Y.Y.=X}.2X6X6X}.=XNXNXY.D D ( t % o o o o o                                                       % t @ ( + D D ( t 7 %   o o o o o     % % 7 t t 7 o a.  % %                 % % % % 7 t @ @ @ @ @ @ @ @ @ @ @ @ @ @ @ @ @ @ @ @ @ @ @ @ @ @ @ @ @ @ @ @ 7 7 % % o o % % % %           % 7 t @ @ @ 3 3 3 @ @ @ 3 3 @ @ @ @ @ @ @ @ @ @ @ @ @ @ @ @ @ @ @ t t 7 %   o o o o o                                                                                   7 t @ @ t @ ( ( t t 7   o o o o o o o o o o                   o o a.a.a.a.o % t @ ( ( ( t 7 o a.o a.% o % a.a.a.3.3 eX7X XE  X XE A E A E A E E A E E A E E  XE  XE  XE E  XE  X XE E  XE  X X7XMXeX .+ + + D ( ( D D D D ( t   a.a.a.o o o o o   % % % 7 %                                           o o o o   % %   a.a.] ] ] ] ] ] ] ] ] ] ] ] ] ] ] ] ] ",
"7.7.7.7.7.7.7.7.} 7.7.NX}.3X!.E.5X5X_._._._.S S Z S S Z Z Z Z Z Z ^ Z ^ ^ ^ S ^ F.uXzX(.VXVXVX=X=XY.N.t 7 3.a.a.a.o % t ( D + + + + + + + D D D ( D D D D + + + + + + + + D D D ( 7 % o % t ( + + D ( + + + + D + + + + + + D D D D  .Y.I.2X3XiX3X6XI.=XY.Y.D 3 @ % o o o o o o o   7 7 %                                           % 7 t ( D + D ( @ t % o o o             o o o 7 7 % a.a.  % %               % % % % 7 t @ ( @ @ @ @ @ @ @ @ @ @ @ @ @ @ @ @ @ @ @ @ @ @ @ @ @ @ @ @ @ @ 7 7 7 % % o o % % % % %         % 7 t @ @ 3 3 3 3 @ @ @ 3 3 @ @ @ @ @ @ @ @ @ @ @ @ @ @ @ @ @ @ @ t t 7 %   o o o o o                                                                                   7 t @ @ t @ ( ( t t 7   o o o o o o o o o o                   o o o o o o a.o 7 t ( D ( @ 7 o o a.% o a.o o 3.o a.% Y.MXV. X XE E E E A E +XE A E +XE A E A E  XE  XE  XE  XE  XE  X XE  X XV.MXeX .D D + + + D D + + + + + ( t o o   o a.a.o o   % % %                                               o o o o % 7 %   o a.] ] ] ] ] ] ] ] ] ] ] ] ] ] ] ] ] ",
"7.7.7.7.7.7.7.} } } NX}.iX5X_._._._._._._._.S S Z Z Z Z Z Z Z ^ Z Z Z ^ Z O.S S O.~.2XVX(.VXNXNXY.N.3.3.3.3.a.a.a.a.  t ( D + + + + + + + + + D D D ( D D D D D D D D D + + D D @ % o   7 ( D + + D ( + + + D D + + + + + D + D D Y.Y.VX}.uX!.E.!.3X6XI.=XY.3 @ t o o o o o o o o   % 7 %                     o   % % % % % % %     % 7 @ ( D + D ( t %   o o     % % % %   o o o   %   o o o % %   o   % %     % % % % 7 t @ 3 @ @ @ @ @ @ @ @ @ @ @ @ @ @ @ @ 3 @ @ @ @ @ @ @ @ @ @ 3 @ @ @ 7 7 % o o o % % % % %       % % t @ @ @ 3 3 3 3 @ @ @ 3 3 @ @ @ @ @ @ @ @ @ @ @ @ @ @ @ @ @ @ @ @ t 7 %   o o o o o                                                                               % % 7 t @ @ @ ( ( @ t 7 %   o o o o o o o o o o                     o o o o o o o % 7 t ( ( @ 7   o o o a.o a.% a.3.o a.7 eXMXV. X XE E E E E E A E A E E E E E E E E  XE E E  X X XE E E E E V.7XeX .Y.D D + + + + D  .+ + + + + ( t   o a.a.a.o o       o o o                                             o o o   % %   o a.a.a.a.a.a.] ] ] ] ] ] ] ] ] ] ] ] ",
"eXeX7.7.7.7.7.} } } NX}.iX5X_._.5X_.5X_.S S S S Z Z Z Z Z Z Z Z Z O.Z ^ ^ ^ ^ S ^ s.3X2XVXVXVXNX=XN.3.3.3.a.a.a.o   % t ( D + + + + D D  . .+ + D ( ( @ t t t t t @ @ ( D + D ( t o o 7 t ( D + + + D D D + D D D + + + + D + + Y.Y.=X}.uX!.E.5XE.!.uXzX=X=XN.7 7 o o o o o o o o o                           a.o 7 7 7 % % 7 7 % % 7 t ( D D D ( t % o o                     o o       o o       o o   % %     % % 7 t t @ @ @ @ @ @ @ @ @ @ @ @ @ @ @ @ @ @ @ @ 3 @ 3 @ 3 @ 3 @ 3 @ 3 @ @ t 7 7 % o o a.%         o   % 7 7 t @ @ @ @ @ @ @ @ @ @ @ @ @ @ @ @ @ @ @ @ @ @ @ @ @ @ @ @ @ @ @ @ t 7 %       o o o o                                                               o         % % 7 7 7 t @ ( ( ( @ t t % o o                                                   o     % 7 7 t t 7 %   o a.a.a.a.o o o 3.o 3.@ eX7XV.E E E E E E E A  X XE E E  XE E E E E E  X X X XE E E E E V.7XeX . .Y.D D + + + + + + + + + + + D ( 7 o a.a.o o o o     o o o                                                             o o a.a.a.] ] ] ] ] ] ] ] ] ] ] ] ] ",
"eXeX7.7.7.7.} } } } eXI.uX!.5X5X_._._._._._.S S Z Z Z Z Z Z O.Z Z Z Z Z ^ ^ ^ S S ^ s.~.uXzXVX=XN.I.3.3.3.3.3.3.7 7 t ( ( D + + + + D D + + + + D ( @ t %     % % 7 t ( + + + ( t o   7 ( D D + + + + D D D + + + + D + + + + Y.Y.=X}.uX!.E.^ ^ O.E.iX6X}.I.I.3.% o o o o o o o o o o o o                   o a.o   % %       % % % 7 t t ( ( ( t 7   o o                                       o o o   % %     % % 7 t @ @ @ @ @ @ @ @ @ @ 3 3 3 3 3 @ @ @ @ 3 3 @ 3 @ 3 @ 3 @ 3 @ 3 3 3 @ @ t 7 7 % % o   o o o o o o % 7 7 t @ @ @ @ @ @ @ @ @ @ @ @ @ @ @ @ @ @ @ @ @ @ @ @ @ @ @ @ @ @ @ @ t 7 % %     o o o o                                                             o o o         % % % 7 t @ ( ( ( @ t 7 o o o                                                             % 7 7 % %   o o o a.o 3.o o % % a.% 3 eX7X XE E E E E  X X XE E E E E E E E E E E E E E E E E E E E 7X7. .Y.Y.+ + + + + D + +  .+ + D + + D ( t   o o o o o o     o o o                                                               o o o a.a.a.] ] ] ] ] ] ] ] ] ] ] ",
"eXeX7.} } 7.} 7.eXeXNX=X}.uXiX!.E.E.5XS _._._.S Z Z Z Z Z Z Z Z Z ^ O.Z ^ ^ S S S S 5XO.!.3X6X}.}.I.I.3.}.3.7 t t @ D D D D D + + + + + + D D D ( @ t % o a.o o o o 7 ( + + D ( t 7 7 t ( D + + + + + D D + + + + + + D + + Y.Y.=X}.uX!.5XS ^ ^ S ^ !.3X6X}.I.3.3.% o o o o o o o o o o o                     o a.a.o o   o a.o   7 7 7 7 t 7 7 7   o o o                                             % % %     % 7 t @ @ @ @ @ @ @ @ @ @ @ 3 3 3 3 3 @ @ @ @ 3 3 @ 3 @ 3 @ 3 @ 3 @ 3 3 @ @ @ @ 7 7 7 7 % % o o o o o o % % 7 t @ @ @ @ @ @ @ @ @ @ @ @ @ @ @ @ @ @ @ @ @ @ @ @ @ @ @ @ @ @ @ @ t 7 %       o o o                                                               o o o           % % 7 t @ ( ( ( @ t 7 o o o                                                             % % % % %   o o o o o o o % % % 3.o @  .7.V.E E K E  X XE E E  XE E E E E E E E E E E E K E E E E | 7. .Y. .+ + D + + D + D D + + D D + + + D @ 7   o o o o o     o o o                                                               o o a.a.a.] ] ] ] ] ] ] ] ] ] ] ] ",
"eXeX7.7.7.eXeXeXY.=XN.I.}.}.6X6XuX3XiX!.E.S S S S Z Z Z Z Z Z Z Z Z Z ^ ^ ^ S S S S _._.^ E.iXuX6X}.I.3.a.3.N.( D D + + + + D D D + + + + D ( t 7 % o o o a.a.a.a.o t ( D ( t t 7 t @ ( D + + + + + D + + + + +  . .+ + D Y.Y.=X}.uX!.5X_.S S S _.^ E.!.uX2XI.I.3.3.3.o o o o o o o o o o                       o a.a.o   o a.a.% 7 7 7 %   o o o o o o o                                         % % % %   o   % 7 t @ @ @ @ @ @ @ @ @ @ @ @ @ 3 3 @ @ @ @ @ @ @ 3 @ 3 @ 3 @ 3 @ 3 @ 3 @ @ @ @ @ @ @ @ @ 7 % %         % 7 7 t @ @ @ @ @ @ @ @ @ @ @ @ @ @ @ @ @ @ @ @ @ @ @ @ @ @ @ @ @ @ @ @ t 7 %       o o o                                                               o o o           % % 7 t @ ( ( ( t t % o o o                                                               % % % %   o o o o     % % % % % a.% @  .} V.E K K E E E E E E E E E E E E E E E E E E K E E E V.}  .D 3 D + + + + D + + D + + D D D + + + D ( t 7   o o o o     o o o                                           % % % % % % % % %   o o o a.a.a.] ] ] ] ] ] ] ] ] ] ] ",
"eXeXeXeX .D ( N.N.I.I.3.I.}.I.}.2X6X3XiXE.S _.S S Z Z Z Z Z O.Z Z O.Z ^ ^ ^ ^ S S S S S S S 5X!.3X6X}.3.I.3.@ D  . . . .+ + + D + + + + D ( t % o a.a.3.3.3.a.a.3.% @ ( t 7     t ( D D + + + + + + + + + Y.+ Y. .Y.Y.Y.Y.=XN.}.uX!.5X5XS S S S S ^ O.!.3X6X}.I.I.3.3.o o o o o o o o o o                     %   o o   %   o   7 7 %     o o o o o o o o                                       % % % %   o o % 7 t @ @ @ @ @ @ @ @ @ @ @ @ 3 @ @ @ 3 @ @ 3 @ @ @ @ 3 @ 3 @ 3 @ 3 @ 3 @ @ @ @ @ 3 @ @ @ @ 7 7 7 % % % % 7 7 t @ @ @ @ @ @ @ @ @ @ @ @ @ @ @ @ @ @ @ @ @ @ @ @ @ @ @ @ @ @ @ @ t 7 %         o o o                                                                 o o               7 t t @ ( ( t 7 % o a.o                                                           % % o %                 %     % % % o a.% 3 eX7X XK K E E E E E E E K E E K E K E E K E E E E E I 7XeXY.D D + + + + D + D D + D D D D D D + + + D ( 7 %             o o o                                         % % % % % % % % % %   o o o a.a.a.] ] ] ] ] ] ] ] ] ] ] ",
"3 D D D @ 7 3.3.3.I.3.}.}.}.2X6XuXiX!.E.^ S _.S S Z Z Z Z Z Z Z Z Z ^ Z ^ O.S S S ^ ^ S S S 5XE.!.iXuX}.N.N.D +  . .+ + + + + + + D D D t 7   o o o 3.3.3.3.3.3.3.3.t t 7   o 7 ( D D + + + + + + Y.+ Y.+ Y.Y. . .Y.D Y.Y.N.2X3X!.5X5X^ ^ S S Z Z ^ O.!.iX3X6X}.I.}.3.o o o o o o o o o o                         % %     % 7 7 % %       o o o o o o o o                                       % 7 % % o o   % 7 t @ @ @ @ @ @ @ @ @ @ @ 3 3 @ N.@ 3 3 @ @ @ @ @ 3 @ 3 @ 3 @ 3 @ 3 @ @ @ @ 3 @ 3 3 3 3 3 @ @ t t 7 7 t t @ @ @ @ @ @ @ @ @ @ @ @ @ @ @ @ @ @ @ @ @ @ @ @ @ @ @ @ @ @ @ @ @ @ t 7 % o o o   o o o                                                                     o o o o o o o % 7 t t @ @ t 7 % o o o                                                           %   o o o                 o o   % % % % % 7 3 eX7XE K K K K E E K E E K E E K E E K E K E E E E V.7. .D D + + + D D + D + + D + D D D D + + + + D ( t %             o o o                                         % % % % % % % % % %   o o o a.a.a.] ] ] ] ] ] ] ] ] ] ] ",
"3.7 N.7 3.3.3.I.I.}.}.6X6XuX3XiXE.E.5X5XS _.S S Z Z Z Z Z [ Z Z Z Z O.^ ^ ^ S S S S S S 5XS _.5X5XE.iX6X3.D Y.Y.+ D + + + + + + D D ( t   o a.a.a.3.3.3.3.}.3.I.I.3.7 N.7 7 t ( ( + + + + + + + + + + D Y.Y.+ Y.Y.NXY.=XI.2X3X!.5X_.^ ^ ^ S Z ^ O.O.O.s.!.iXuX2X}.}.3.o o o o o o o o o o                     o o % %     % t 7   o o     % % % %   o o o                                       % % % % o   % 7 t @ @ @ @ @ @ @ @ @ @ @ @ @ 3 3 3 3 3 @ N.@ @ @ @ @ 3 @ 3 @ 3 @ 3 @ 3 @ @ @ @ 3 3 3 3 3 3 3 @ @ t t t t @ @ ( @ @ @ @ @ @ @ @ @ @ @ @ @ @ @ @ @ @ @ @ @ @ @ @ @ @ @ @ @ @ @ @ t 7 % o o o o o o o                                                                     o o o o o o o o % 7 t t t t t 7   o                                                               % o o           o o o o o o o   % % % % % N.Y.7.V.K K E E E K E K E E E K E E K E K K E E E I }  .D D + + + D D + D + D + D + D D D + D + + + + D t 7 %           o o o                                         % % % % % % % % % %   o o o a.a.a.] ] ] ] ] ] ] ] ] ] ] ",
"I.3.3.3.3.}.}.}.}.6X3XiXiX!.E.5X_._._._.S S S Z Z Z Z Z Z Z Z Z O.Z Z M ^ S ^ S S _.S S ^ S _._.5X5XE.uX}.=XY.Y.Y.D D + + + + D D ( t 7 o o a.o 3.3.3.}.] 6X}.I.3.I.3.7 t ( ( D + + + + + + + + + Y.D =XD Y.Y.Y.Y.Y.=X}.6XiXE.5X_.S ^ ^ S Z Z O.O.O.E.F.!.~.3X2XzX}.3.3.o o o o o o o o o                   o o o % % % 7 7 t 7 o o o o   % 7 7 %   o o o                                       % % % %   % 7 t @ @ @ @ @ @ @ @ @ @ @ @ @ 3 3 3 3 3 3 @ @ 3 3 @ @ @ @ @ @ @ 3 @ 3 @ @ @ @ @ @ 3 @ 3 3 3 3 3 3 @ @ @ @ @ @ ( ( 3 @ @ @ @ @ @ @ @ @ @ @ @ @ @ @ @ @ @ @ @ @ @ @ @ @ @ @ @ @ @ @ t 7 % o o o o o o o                                                                     o o o o o o o o o   7 t t t t 7 %                                                                 % o %         o o o o o o o o o   % 7 7 % 3.7  .} V.E E E K K K E K K K E K K E K E K K E V.7XeXD 3 D D + D D + D + D + D + D + D + + D + + + + D t 7 % %     %   o o o                                         % % % % % % % % % % %   o o o a.a.a.] ] ] ] ] ] ] ] ] ] ",
"I.I.3.3.}.] 6XuX3X!.E.5X5X5X_._._._._._.S Z Z Z Z Z Z Z Z Z [ Z Z Z ^ ^ Z S ^ ^ S S S ^ ^ ^ 5X5XE.!.iXuX}.=XY. . .+ D D + + D ( @ t 7   7 7 7 7 7 3.}.6XuXuXuX2X}.I.I.N.( D + + + + + + D + + D + + Y.D Y.Y.Y.Y.=XI.}.uX!.E.5XS S S S S Z Z ^ O.s.F.s.F.!.!.iXuX2XzXI.3.o o o o o o o o o                     o o   7 t t @ t 7 o o o o o           o o o                                       % % %     % 7 t @ @ @ @ @ @ @ @ @ @ @ @ @ 3 N.% 3.7 @ N.3 D 3 @ @ @ @ @ @ @ @ @ @ 3 @ @ @ @ @ @ 3 @ @ @ @ 3 3 @ @ @ @ @ @ @ ( 3 @ @ @ @ @ @ @ @ @ @ @ @ @ @ @ @ @ @ @ @ @ @ @ @ @ @ @ @ @ @ @ t %   o o o o   o o                                                                     o o o o o o o a.a.o   7 t t t t 7 7                                                               % % % % %   o o o o o o o o o o   % % % o a.3.N.eX7XV.E K E K E K E K E K E K K K E K K I 7XeX .D D Y.D D D + D + D D D D + D + + + + + D + + + D @ 7 7 % % % %   o o o                                         % % % % % % % % % % %   o o o a.a.] ] ] ] ] ] ] ] ] ] ] ",
"I.I.}.}.6XuXiX!.E.5X_._._._._._._.S S S Z Z Z Z Z Z Z Z Z Z Z Z ^ M Z ^ ^ S ^ ^ ^ E.O.E.E.!.!.iX3X6X}.I.N.Y.Y.Y.Y.D + D D D ( ( t % o o t t ( ( N.I.}.uXiX!.iXuX2XI.N.=XD D + + + + D D D D D D + Y.Y. .Y.Y.Y.=XI.6XiXE.5X5X5X^ ^ S S ^ ^ ^ Z O.s.F.s.s.s.s.!.iX6X2X}.3.o o o o o o o o o                     % %   7 @ D ( @ 7 %   o o o o o o o o o o                                                 % 7 t @ @ @ @ @ @ @ @ @ @ @ N.N.@ I.] uX3X6Xa.N.3 3 D D 3 3 @ @ @ @ @ @ @ @ @ @ N.@ @ @ @ @ @ @ @ 3 3 @ @ @ t @ @ @ @ @ @ @ @ @ @ @ @ @ @ @ @ @ @ @ @ @ @ @ @ @ @ @ @ @ @ @ @ @ @ @ @ t %   o o o o     o                                                                     o o o o o a.a.a.a.a.o % t t t t t 7 %                                                             % % % % %   o o o o a.o o o   o       o a.3.a.3.N.eXV.E K E K K E K K K K K E K K K E E V.7.eXY.D D D D + D D + D D + D + D D  .+ + + + + + D D D @ 7 7 7 % % %   o o o                                           % % % % % % % % % %   o o o a.a.a.] ] ] ] ] ] ] ] ] ] ",
"}.I.}.6XiXE.5X5XS _._._._._._._.S S ^ Z Z Z Z Z Z Z Z Z [ Z Z Z Z Z ^ M ^ ^ S ^ E.!.3XuX6X2X2X}.I.N.( N.=XY.Y.Y.D D Y.D D D D @ 7 o o   % @ D Y.=XI.6XiXE.E.!.iX6XI.NXY.Y.+ + + + + + + D Y.Y.Y.Y.Y.D Y.+ + D 3.uX!.5X5X_._.S S S S S Z Z Z Z Z O.s.s.s.!.s.!.~.3XuX2X}.3.3.3.o   %   o o                     % % % 7 t t t 7 7 %     o o o o o                               o o o o o o o o o     % % 7 t @ ( ( @ @ @ @ 3 @ @ @ N.N.N.I.6XiXE.E.iX6XI.Y.3 3 3 3 @ @ @ 3 ( 3 3 @ t t @ 3 @ 3 @ 3 @ 3 @ @ @ @ @ @ @ @ @ @ @ @ @ @ @ @ @ @ @ @ @ @ @ @ @ @ @ @ @ @ @ @ @ @ @ @ @ @ @ @ @ @ @ @ 7 %   o o o o     o                     o o o o o o o o                                       o o o o o o o o   7 t t t @ @ t t 7   o o o o o o o                                           % %           o o o o o             o   % o a.3.Y.7.V.K K E 0.K K E K K K K K K K K I } eX .Y.+ D D D + + + + + + + + + + + + + + + + + + + + D t % % %   % % %                                                                           o o a.a.a.] ] ] ] ] ] ] ] ] ",
"6X}.}.uX!.5X_._.S S _._.S ^ S S S S Z S Z Z Z Z Z Z [ Z Z Z [ Z O.M Z ^ M ^ ^ S 5X!.3X2XVXVX=X=XY.Y.D Y.D Y.Y.Y.D Y.D D D D D ( t 7 7 t 7 @ D =XI.2X3X!.O.O.s.F.3XzXNXNXY.+ + + D + + + + Y.Y.Y.Y.Y.Y.D D + @ ] iX5X_._.5X_.S 5XS S S S Z Z Z Z ^ O.O.O.s.F.s.!.!.3X6X}.}.3.3.3.o % % o o                       % % % % % % % % %                                           o o o o o o o o o o o   % 7 7 t @ ( @ @ @ @ @ 3 @ @ N.N.N.I.}.3XE.5X5XE.iX2XN.=X3 3 3 3 3 @ ( 3 ( 3 @ t @ @ @ 3 @ 3 @ 3 @ @ @ @ @ @ @ @ @ @ @ @ @ @ @ @ @ @ @ @ @ @ @ @ @ @ @ @ @ @ @ @ @ @ @ @ @ @ @ @ @ @ @ @ t 7 %   o o o o     o                     o o o o o o o o                                               o o o o o   7 t @ ( ( ( @ t % o o o o o a.o o                                                                               o % o a.a.7  .C V.K K K K K K K K E K K 0.K  X7XeX . .+ Y.D D + + + + + + + + + + + + D + + + + + + D D D t %         % % % % %                                                                     o o o a.] ] ] ] ] ] ] ] ] ] ",
"uX2X}.6XiX5X_._._._.S S ^ ^ S S S Z S Z Z Z Z Z O.Z Z Z [ Z Z M Z Z ^ Z ^ ^ 5XS S E.iX2XVXNXNX=XY.Y.Y. .Y.Y.D D Y.D Y.D D D D D ( 3 3 3 @ @ Y.N.}.3X!.s.s.O.O.F.~.6XVXNXY.Y.+ + D + + + D Y.Y.Y.Y.Y.D + D D @ ] 3X5X_._._.S S _.S S S S S Z Z Z Z Z Z ^ O.s.s.s.s.!.3X6X}.3.3.3.o o   o o                       7   % % % % % % %                                           o o o o o o             % 7 t t @ @ ( @ @ ( t t @ N.N.N.=XI.6X!.5XM 5X5X!.3X}.N.3 3 3 3 3 3 t 3 @ 3 @ 3 @ 3 3 @ 3 @ 3 @ 3 @ @ @ @ @ @ @ @ @ @ @ @ @ @ @ @ @ @ @ @ @ @ @ @ @ @ @ @ @ @ @ @ @ @ @ @ @ @ @ @ @ @ @ t 7 %   o a.o o     o                       o o o o o o o                                               o o o o o   7 t t ( ( ( t t 7   o o o o o o                                                                                   o % % 3.3.3 eXb E K K E K K K K E K K K K | 7.eX .+ Y.+ D D + + + + + + + + + + + + + D + + + D D D ( ( t           % % % % %                                                                       o o a.a.] ] ] ] ] ] ] ] ] ",
"uX}.}.6X3XE._._._._._.S S ^ ^ S S S S Z Z Z Z Z Z [ Z Z Z M Z Z Z M Z ^ ^ S ^ S S ^ !.3X2XVXNXNXY.Y.Y.Y. .Y.Y.Y.Y.+ D D D D D D D D D D 3 D N.}.uX!.E.[ X.X.X.X.F.3X2X=XY.Y.D + + + + + + D Y.Y.D Y.+ + + + + N.6X3X!.E.E.^ S S S S S Z S Z Z Z Z Z S Z ^ O.O.O.O.E.!.3X6X}.3.3.a.o   o o                         % % % % % % % %                                             o o o o o           % 7 t t @ @ @ ( @ @ t @ t @ N.N.=XI.2XiXE.M M M M E.!.uX}.N.3 3 3 3 @ 3 @ @ @ @ @ 3 @ @ 3 @ 3 @ 3 @ @ @ @ @ @ @ @ @ @ @ @ @ @ @ @ @ @ @ @ @ @ @ @ @ @ @ @ @ @ @ @ @ @ @ @ @ @ @ @ @ @ @ @ t 7 %   o o o o     o                               o o o o o o                                         o o o o o   7 t t @ ( @ t t t 7   o o o o o                                                                                   o % 7 % o 3.3 eXV.K E E K K K E E K K E  X} eX .D D Y.+ D D + Y.+ + + + D + + D + + D + + + D D D ( @ t 7           % % % % %                                                                       o o a.a.] ] ] ] ] ] ] ] ] ",
"2XzXI.}.6X!.S _._._._.S S S S S S S S Z Z ^ Z O.Z ^ Z M ^ Z Z M ^ ^ ^ ^ ^ S S S 5XS 5XE.iX2XVX=XNXY.Y.Y.Y.D Y.+ + + D D D + + + + D D D Y.Y.I.6XiXE.[ [ X.X.[ s.s.~.uXzX=XY.Y.+ + + D + + D + + Y.D + + + Y.Y.Y.N.}.6X3XiX!.^ S S S S S S Z Z Z Z Z Z Z Z S S S _._.5X!.uX] 3.3.a.o   o o                                                                                     o o o           7 7 7 7 t t @ @ ( @ @ @ @ @ @ N.N.N.N.}.3X!.5XM 5XM 5X5XE.iX6XI.N.N.3 @ @ 3 3 3 @ @ @ @ 3 @ 3 @ 3 @ 3 @ 3 @ @ @ @ @ @ @ @ @ @ @ @ @ @ @ @ @ @ @ @ @ @ @ @ @ @ @ @ @ @ @ @ @ @ @ @ @ @ @ @ @ @ t 7 %   o a.o o     o                                 o o o o o                                         o o o o o   7 t t @ ( @ t t t t % o o o o                                                                                       % % o o a.3.Y.} V.E E E K K E K K K I 7XeX .Y.D + + Y.D + + + + D + D + + D + + D + D + D D ( ( @ t 7 %           % % % % %                                                                       o o a.a.] ] ] ] ] ] ] ] ] ",
"zXI.zX}.2X3X!.5X_._._._._._._.S S S S S Z ^ Z Z Z ^ Z ^ Z M ^ Z Z Z ^ ^ ^ Z S S S S S S O.iX6X}.=XY.Y.Y.=XY.D + + + + D + +  .+ D D D Y.Y.N.6XiXE.[ [ X.X.X.X.X.[ F.~.6XI.Y.Y.+ + + + D + + Y.+ D + Y.+ Y.D Y.Y.Y.=XzX6X3X!.^ S S S Z S Z Z Z Z Z Z Z ^ ^ S _._._._.5XE.3X] 3.3.a.    o o o                                                                                 o o o       7 7 7 t 7 7 7 t @ @ @ @ @ @ @ @ @ 3 N.N.I.}.uX!.5XM M M M M M 5XE.3X2XN.N.N.N.3 3 3 3 3 @ @ @ @ 3 @ 3 @ 3 @ 3 @ @ @ @ @ @ @ @ @ @ @ @ @ @ @ @ @ @ @ @ @ @ @ @ @ @ @ @ @ @ @ @ @ @ @ @ @ @ @ @ @ @ @ t 7 %   o o o o     o                                   o o o o                                         o o o o o   % 7 t t @ t t @ @ t 7   o o                                                                                         o o o o a.a.@ eXC I K E E E K K K E 7XeX .D D D Y. .+ D D + + + D + + D + D + D + D + + + + D ( t 7               % % % % %                                                                       o o a.] ] ] ] ] ] ] ] ] ] ",
"zX}.zXI.}.2X3X!.5X_._._._._.S _.S S S S S S Z Z Z ^ Z ^ M ^ Z ^ Z Z Z Z Z ^ S S S S S S 5XE.!.3X6X}.=XY.Y.Y.Y.Y.+ + + D D +  . .+ D Y.Y.=X}.3X!.M [ F.X.X.X.X.X.X.[ F.3X2X=XNXY.Y.D D D D D + + + D + Y.Y.Y.=XN.I.}.6X3X!.E.S S S Z Z Z Z Z Z Z Z Z Z ^ ^ O.O.E.E.E.E.iXuX] 3.3.o %   o o o       3.                                                                        o o o o   % 7 7 t t t t t @ @ @ 3 3 @ @ @ @ 3 3 N.=XI.uX!.5X5XM M M M M 5XM E.!.uX}.N.=X=X3 N.N.3 N.N.N.@ @ 3 @ 3 @ 3 @ 3 3 @ @ @ @ @ @ @ @ @ @ @ @ @ @ @ @ @ @ @ @ @ @ @ @ @ @ @ @ @ @ @ @ @ @ @ @ @ @ @ @ @ @ t 7 %   o a.o o     o                     % % % % %       o o o                                         o o o o o   % 7 t t @ t t @ ( @ t % o o   %                                                                                   o o a.o o o 3.3.3 eX| K K E K K 0.K V.}  .Y.D D Y. . .+ D D + + D + D + D D + D + D + D + + D ( ( t % o o           % % % % %                                                                       o o a.a.] ] ] ] ] ] ] ] ] ",
"uX6X}.zXzXzX2X3X!.E._._._._._._._._._.S S S S S S S S ^ Z Z Z Z Z ^ Z Z Z Z S S S Z ^ ^ S S S E.!.3X2XI.=XY.Y.D +  .+ + D +  . .Y.Y.Y.Y.}.uX!.E.[ [ X.F.X.X.X.X.X.X.[ !.uXzX=XNXY.Y.Y.+ + D D + + D + Y.Y.Y.=X}.uXiXE.5X_._.S S Z Z Z Z Z Z Z Z ^ Z Z ^ O.!.3XuX6XuXuX6X}.3.7 % o % % o o o     3.3.                                                                        o o o o   7 7 t t @ @ t t @ @ 3 3 3 @ @ @ 3 3 N.=XN.2XiXE.5X5XM M M M M M M M E.iXuX}.=X=X=X=X=XN.N.N.N.N.@ @ 3 @ 3 @ 3 @ @ @ @ @ @ @ @ @ @ @ @ @ @ @ @ @ @ @ @ @ @ @ @ @ @ @ @ @ @ @ @ @ @ @ @ @ @ @ @ @ @ @ @ t 7 %   o o o o     o                     % 7 7 7 % %     o o o                                         o o o o o o % 7 t t t @ @ ( ( @ t 7 %                                                                                       o o a.o % o o 3.3.7 D 7.I K K K K 0.K 7XeX .D Y.+ +  .+ + + D D + + + + D + D + D + D D + + + + D ( t % o o           % % % % %                                                                       o o a.a.] ] ] ] ] ] ] ] ] ",
"!.iXuX6X}.zXI.2XuX3X!.E.E.5X5X_._._._._._.S S S S S S ^ ^ ^ ^ ^ Z Z Z Z Z S S Z ^ ^ ^ ^ S S S S 5XE.iXuX}.N.Y.Y.Y.+ + + D Y.Y.Y.Y.=XI.}.uX!.E.[ [ [ X.X.l.X.l.X.X.X.F.F.iX6XI.=X=XY.Y.Y.Y.+ + + D + Y.=X3.6X3X!.E.5X_._._.S S Z Z Z Z Z Z Z Z Z O.Z S Z O.~.uX2XzXzX}.}.I.I.3.3.3.% % o o   % % 3.3.3.3.3.%   o o o o o o o o o o                                       % % o a.o o % 7 7 t @ @ @ @ @ 3 3 3 3 3 3 N.N.N.N.N.N.}.uX!.5XM M M M M M M M M M M E.iXuX}.I.=X=X=XN.N.N.3 3 @ @ @ 3 @ 3 @ @ @ @ @ @ @ @ @ @ @ @ @ @ @ @ @ @ @ @ @ @ @ @ @ @ @ @ @ @ @ @ @ @ @ @ @ @ @ @ @ @ @ @ @ t 7 %   o a.o o     o                     % 7 7 7 7 %     o o o                                           o o o o o   % 7 t t ( ( ( @ @ @ t 7 % o o                                                                                   o o   7 o o % %   7  .} I K K 0.E y 7. .Y.Y.+  .+  .+ + + D D D D D D D D D D D D D ( + + + + + ( t % o             % % % % %                                                                       o o a.a.] ] ] ] ] ] ] ] ] ",
"M E.!.iXuX2XzX}.}.2X6XuX3XiX!.5X_._._._._._._.S S S S ^ ^ ^ ^ Z Z Z ^ Z Z S Z Z ^ O.^ ^ ^ ^ ^ ^ ^ S 5X!.3X6XI.=XY.Y.D Y.Y.Y.Y.NXY.I.2X3X!.E.[ E.[ X.X.X.X.X.X.X.X.X.F.[ F.3X2XVXNXY.Y.Y.Y.Y.Y.+ + Y.Y.] 3X!.E.5X_._._._._.S S Z Z S Z Z ^ Z Z Z Z Z S ^ O.!.3X2XzXzXI.I.I.3.3.3.3.7 7   o   % %   3.3.3.3.3.  o o o o o o o o o o                                       % % o a.o o % 7 7 t @ @ @ @ @ 3 3 3 3 3 3 3 N.3 N.N.N.2XiXE.E.M S S Z M M M M M M M M E.iXuX2XI.=X=XN.N.N.=X3 @ @ @ @ @ @ @ @ @ @ @ @ @ @ @ @ @ @ @ @ @ @ @ @ @ @ @ @ @ @ @ @ @ @ @ @ @ @ @ @ @ @ @ @ @ @ @ @ @ @ @ t 7 %   o o o o     o                     7 7 7 7 7 %     o o o                                           o o o o o   % 7 t t ( ( ( ( t @ @ t 7 o o                                                                                   %       %   o o 3.3.7  .b E K K I }  .3  .+  .Y.+ + D D D D D D D D D D D D D D D + ( + + + + + D @ 7               % % % % %                                                                       o o a.a.] ] ] ] ] ] ] ] ] ",
"5X5XE.E.iX3X2X2XzXzXzXzX6X3X!.5X_._._._._.S S _.S S S ^ ^ ^ ^ Z Z Z Z Z Z Z Z Z Z Z Z Z Z ^ Z ^ S _._.5XE.iXuX}.=XY.Y.Y.Y.Y.NX=XI.2X3X!.O.[ F.[ X.X.X.X.X.X.X.X.X.X.F.F.F.~.uX2XVX=XY.=XY.Y.Y.+ + D I.3XE.5X5X_._._._._.5X_.S Z Z ^ Z Z Z Z ^ Z Z S Z ^ ^ s.~.3X2XzXzXI.I.}.3.3.a.o   o o % % % % 3.3.3.3.3.%                                             o o o o       o o a.3.3.% 7 7 @ ( ( @ 3 3 @ 3 3 3 3 N.3 N.3 N.=X=XI.uX!.E.M M S M M M Z M M M M [ M M !.iX3X2XI.=X=XN.N.N.N.@ @ @ @ @ @ @ @ @ @ @ @ @ @ @ @ @ @ @ @ @ @ @ @ @ @ @ @ @ @ @ @ @ @ @ @ @ @ @ @ @ @ @ @ @ @ @ @ @ @ @ t 7 %   o o                     o o o o   7 t t t 7 7 % %   o o               % % %                         o o o o o % 7 7 t ( ( ( ( ( @ @ t 7 o o                                                                                       o o %   o o   o a.t eXy K E b eXY.3 + Y.+ + + D D D D D D D + + + + D + D + + D D D + + + + D ( t % % % % % % % % % % % %                                                                 %   o o a.a.] ] ] ] ] ] ] ] ] a.",
"M 5XM E.E.!.3X6XzXzX}.2XuXiXE.5X_._._._._.S _.S S S S ^ ^ ^ Z Z ^ Z ^ Z Z Z Z ^ Z Z S S S S S Z Z S _.S 5XE.!.uX}.Y.Y.Y.NXNX=XzX6X3X!.O.[ [ [ F.X.X.X.X.X.X.l.X.X.X.X.F.F.F.~.uX2XVX=XY.NXY. . .Y.( 3.iXE.5X_._._._._._._.^ S ^ Z S Z Z O.Z O.^ Z Z ^ ^ ^ E.s.iXuX6X2X}.}.I.I.3.3.a.a.o   % % % % 3.3.3.3.3.%                                             o o o o       o 3.a.a.3.7 7 @ 3 3 3 @ @ 3 3 3 3 3 3 3 3 3 =X3 =XN.}.iXE.5XM M M S Z Z M Z M M M M M M [ E.!.3X2XI.=X=XN.N.7 @ @ @ @ @ @ @ @ @ @ @ @ @ @ @ @ @ @ @ @ @ @ @ @ @ @ @ @ @ @ @ @ @ @ @ @ @ @ @ @ @ @ @ @ @ @ @ @ @ t 7 7 % % % %                     o o a.o o   t @ @ t t t 7 % %   o o o o             %                           o o o o % % 7 t @ ( ( ( ( @ t 7 7 %                                                                                     o o o o           3.o o D 7.I I 7. .D D D D + + + + + + + + D + + + + + + + + + + + D D + D + + D ( t % %         % % % % % %                                                               % %   o o a.a.] ] ] ] ] ] ] a.a.a.",
"M M ^ M E.E.!.uX2X2XuXiX!.E.5X_._._._._._.S S S S S Z ^ ^ ^ Z Z Z Z Z Z Z Z Z ^ Z Z S Z S S Z Z Z S S ^ 5X_.5XiX2X=X=XNXNX=XzX6X~.s.O.[ X.F.X.X.X.X.X.l.X.X.X.X.X.X.l.X.[ F.F.~.3X2XI.=XY. . . .Y.D I.3X!.5X_._._._._._.5XS S S Z Z Z ^ O.O.O.O.Z O.O.s.s.s.E.!.iX3X6X2X}.I.I.3.3.3.o o   % % % % 3.3.3.3.3.                                              o o o o       o o o 3.3.7 @ 3 N.3 N.N.@ 3 3 3 3 3 3 N.3 =X3 3 N.}.uX!.5X5XM M M M M Z M Z M M M [ M [ M M E.!.uX}.I.=XN.N.N.@ @ @ @ @ @ @ @ @ @ @ @ @ @ @ @ @ @ @ @ @ @ @ @ @ @ @ @ @ @ @ @ @ @ @ @ @ @ @ @ @ @ @ @ @ @ @ @ @ t 7 7 % % % % %                   o o a.a.o % t ( ( @ t t 7 7 % %   o o o o                                         o o o % % 7 t @ @ ( ( ( @ t t 7 % %                                                                                   o o o o o           o o 7  .} } eX+ D + D D + D + D + D + + + D + + + + + + + + + + D D D + + + D ( t %             % % % % %                                                                     o a.a.a.] ] ] ] ] ] ] a.a.o ",
"S M M M ^ 5XE.iX3X3X!.E._._._._._._._._.S _.S S S S Z ^ ^ Z Z Z ^ Z ^ Z ^ Z Z S Z Z S S S S ^ S S S S 5X_._.5XiX6XN.=XNX=XzX6X~.O.Z Z [ X.[ X.X.X.X.X.X.X.X.X.X.X.X.X.X.F.[ [ F.!.3X2XI.=XY. .Y.D Y.=X}.uXiXE.5X_._._._.5XS S S S Z ^ O.O.s.s.s.O.O.s.F.F.!.F.!.!.~.3XuX2X}.}.}.}.3.% % o   % % % % % % % % %                                             o o a.o   % % o 3.3.3.3.N.@ 3 N.N.N.N.@ 3 3 3 3 3 3 3 3 3 3 N.3.6XiXE.5X5X5XM S M Z M Z M M M M M [ M M M M E.!.uX}.N.N.N.@ @ @ @ @ @ @ @ @ @ @ @ @ @ @ @ @ @ @ @ @ @ @ @ @ @ @ @ @ @ @ @ @ @ @ @ @ @ @ @ @ @ @ @ @ @ @ @ @ @ t 7 7 % % % % %                   o o a.o o % t ( ( ( @ t t t 7 7 %   o o o o                                       o o   % % 7 t @ @ ( ( ( @ t t 7 7 %                                                                                     o o o o                 (  . . .D D + D D + + + + + + D + D + + + + + + + + + + + D D + + + + D ( t %               % % %                                                                     o o a.a.] a.] ] ] ] ] ] a.a.a.",
"M M Z M ^ 5X5XE.E.E.5X_._._._._._._.S S S S S S S S Z Z Z Z Z Z Z ^ Z Z Z ^ S S S S S _._.S ^ S _._._._.5X5X!.uX}.=X=X=XzX6XiXO.Z Z Z [ X.X.X.X.X.X.X.X.X.X.X.X.X.X.X.X.[ F.[ E.E.!.3X}.=XY.Y.Y.Y.D Y.N.I.2XuXiX!.E.E.5XS _.S S S Z ^ O.O.s.s.s.O.O.s.F.!.~.!.s.!.s.!.iXuX6X}.}.3.3.% % o     % % % % % % % %                                               o o o       o o 3.3.7 N.N.N.N.N.N.N.N.3 3 3 3 3 3 N.3 N.=XN.}.6XiX!.E.E.M 5XM M Z M M Z M M M [ M M M M M E.E.iX6XI.N.N.@ @ @ @ @ @ @ @ @ @ @ @ @ @ @ @ @ @ @ @ @ @ @ @ @ @ @ @ @ @ @ @ @ @ @ @ @ @ @ @ @ @ @ @ @ @ @ @ @ t 7 7 % % % % % %                   o o a.o   7 t ( ( ( ( @ t t t t 7   o o o o o o o o o                                   % % % 7 t @ @ ( @ @ @ t t 7 %                                                                                                           o 7 ( D D D D D + D + D + D + + + + D + + + + + + + + + + + D D D + + + D ( t % o o o o o o                                                                           o o a.a.a.] ] ] ] ] ] ] a.a.a.o ",
"Z M M Z Z S 5X5X_._._._._._._._._.S _.S S S S S Z Z Z Z Z Z Z Z Z Z Z Z ^ Z S S S ^ ^ S _.S S S S _._.5XE.iXuX}.N.NX=XI.6XiXE.M Z Z Z [ X.X.X.X.X.X.X.X.X.X.X.X.X.X.X.X.[ X.s.[ E.E.iX2XN.Y.=XD Y.=XY.=X=X=XVXVX2X3X!.5X_.S S S S Z ^ ^ O.O.s.s.O.O.O.s.s.s.s.s.s.E.!.!.iX3X6X}.I.3.% % %       % % % % % % %                                         o o o o       o o o % % % N.@ N.3 =X3 N.N.3 3 3 3 3 3 N.3 N.3 N.3 N.a.6X6XuX3X!.!.M M M M Z M M M M M [ [ M M M E.E.iX6X3.3 ( @ @ @ @ @ @ @ @ @ @ @ @ @ @ @ @ @ @ @ @ @ @ @ @ @ @ @ @ @ @ @ @ @ @ @ @ @ @ @ @ @ @ @ @ @ @ @ @ @ t 7 7 % % % % % %           o       o o o o % 7 @ ( ( ( ( ( @ t t t t % o o o o o o o o o o                               % % % % 7 t t @ @ @ @ @ t t t 7 %                                                                                                     3.o o 7 t D + + D D + + + + + + + D + D + D + + + + + + + + + + D + + + + + D ( t % o o o o o o o o o o o                                                               o o a.a.a.a.a.] ] ] ] ] ] a.a.a.o ",
"M M Z Z S S S ^ _._._._._._._._.S S S S S Z Z Z Z S Z Z Z Z Z Z Z Z Z Z ^ O.Z S ^ O.s.!.!.E.E.E.E.!.!.iXuX] 3.=XY.NX=X6XiXE.5XM M [ [ [ X.[ X.X.X.X.X.X.X.X.X.X.X.X.[ [ [ [ M O.E.E.iX2XN.Y.Y.Y.Y.=X=XY.NXNXVXVXzXuX!.^ _._.S ^ S S Z ^ ^ O.O.O.Z Z ^ ^ O.O.E.s.E.O.!.!.!.iXuX6X}.3.7 7 7 %                                                           o o o % 7 7   o a.% 7 7 7 % 3.7 N.=XN.N.N.3 3 3 3 3 3 3 3 3 N.3 N.N.3 =XN.I.zX2X3X!.M M Z M M M M M [ M [ [ F.~.3XuX6X}.N.N.@ t @ @ @ @ @ @ @ @ @ @ @ @ @ @ @ @ @ @ @ @ @ @ @ @ @ @ @ @ @ @ @ @ @ @ @ @ @ @ @ @ @ @ @ @ @ @ @ @ t 7 7 % % % % % %           o       o o o o % 7 t ( ( ( ( ( @ @ @ t t 7         o o o o o o                           % % % % % % % 7 t t @ @ @ @ @ t t 7                                                                                     % % % %             o t @ ( + + + D D + D + D + D + D + + D + + + + + + + + + + + + D + + + + + ( 7   o o o o o o                                                                       o o a.a.a.a.] ] ] ] ] ] ] a.a.a.o   ",
"M Z M Z Z S _._._._._._._._._._.S S S Z Z S Z Z Z Z Z Z Z Z Z Z Z Z Z Z S S S _.S ^ ~.uX2X2X6X6X6XuX6X] 3.N.( ( D D N.6X!.E.5XM [ [ [ [ [ X.[ X.[ X.X.X.X.X.X.X.[ [ [ [ M M M O.E.!.uX}.=XY.Y.NXY.Y.NX=X=XI.2XuXiX!.^ S S ^ ^ ^ ^ S S S Z Z Z Z Z Z Z Z Z ^ O.^ O.^ O.E.E.!.!.iX6X}.3.7 7 %                                                           o o o 7 7 7   o o % 7 % ] 6X6X] N.3 N.I.N.3 3 3 3 3 3 N.3 N.3 3 3 N.N.N.=X=XI.2X3X!.M S M S M M M M M [ [ ~.3X6X2X}.I.N.N.@ ( ( @ @ @ @ @ @ @ @ @ @ @ @ @ @ @ @ @ @ @ @ @ @ @ @ @ @ @ @ @ @ @ @ @ @ @ @ @ @ @ @ @ @ @ @ @ @ @ t 7 7 % % % % % % %           o         o o o 7 t t @ @ @ @ t ( t ( @ t 7 % % % % %   o o o                             % % % % % % % 7 t t @ @ @ @ @ @ @ 7                                                                                     % % % %             7 ( D + + + D ( D + + + D + D + D + D + + + + + + + + + + + + + + + + + + D ( 7 o o           % % % %                                                               o o a.a.a.a.] a.] ] ] ] ] ] a.a.o   ",
"[ M Z Z S S _._._.S _._._.S Z S Z Z Z Z Z Z Z Z Z Z Z Z Z Z Z Z Z Z Z Z S S S _._.S !.uX2XzXI.I.I.I.3.7 ( D ( t t @ 3.6XiX!.E.M [ [ [ [ [ X.[ X.X.X.[ X.X.X.X.[ [ [ [ [ X.F.F.~.3XuX}.I.=XY.NXY.=X=X=X}.6XuXiX!.E.S _.S ^ ^ ^ ^ S S S S S Z Z Z Z Z Z Z S S S ^ ^ 5X^ ^ 5X5XE.iXuX] 3.% % %                                                                 % % % % % % % 3.] uXiXiXuX] I.N.N.N.3 3 3 3 @ @ 3 3 3 3 N.3 N.N.N.=XzX6X3X!.E.M 5XM S M M M M [ M [ F.3X2XzXVX=XN.N.t ( ( @ @ @ @ @ @ @ @ @ @ @ @ @ @ @ @ @ @ @ @ @ @ @ @ @ @ @ @ @ @ @ @ @ @ @ @ @ @ @ @ @ @ @ @ @ @ @ t 7 7 % % % % % % %           o         o o   7 t t t t t t t t @ @ @ t t 7 7 7 7 7 %                                 % % 7 7 % %   % 7 7 t t @ @ @ @ @ @ 7                                                                                       % % % % %       % t D + + + + D D D + + D + + D + + D + D + + + + + + + + + + + + + + + + + D ( 7 o   % % % % % % % % % %                                                             o a.a.a.a.a.] ] ] ] ] ] a.] a.a.o % ",
"[ M Z Z Z S S _._._.S S S ^ ^ ^ Z Z Z Z Z Z Z Z Z Z Z Z Z Z Z Z Z Z Z Z Z S S S _.S E.iXuXzXVX=XY.D ( t @ ( t 7 % % 3.] 6XiX!.[ [ [ [ [ [ X.[ X.[ X.X.X.X.X.X.X.[ [ [ X.~.3Xw.2X2XzX=X=X=XNX=X=XI.}.6X3XiX!.E.5X_._._._.S ^ ^ ^ S S S S S Z Z Z Z Z Z S S S _.S _._._._._.5X!.iX6X}.3.% % % %                                                           % %   o   % 7 7 % 3.6X!.E.5XiXuX}.N.N.N.N.3 @ @ @ @ @ @ @ 3 N.3 3 N.N.}.6XiXE.5XM 5XM M S M M M M M [ [ F.~.3X6XzXN.N.N.@ @ @ @ @ @ @ @ @ @ @ @ @ @ @ @ @ @ @ @ @ @ @ @ @ @ @ @ @ @ @ @ @ @ @ @ @ @ @ @ @ @ @ @ @ @ @ @ 3 @ t 7 % % % % % % % %           o           o   7 t t t t t t t t t t @ t t t t t 7 7 7 % % %                           % % 7 7 % %     % 7 t t @ @ @ @ @ @ 7                                                                                       % % % % %       7 ( D + + + + + + D + + D + D + D + D + + D + + + + + + + + + + + + + + + + D ( 7 o   % % % % % % % % % %                                                             o a.a.a.] a.] a.] ] ] ] ] a.a.o o % ",
"[ [ M Z Z Z Z S S S S Z ^ ^ ^ ^ Z Z Z Z Z Z Z Z Z Z Z Z Z Z Z Z Z Z Z S Z S S S S 5XS ^ !.uXzXN.=XD ( 7   %   o o o 3.3.}.6XiX!.[ [ [ [ [ [ X.[ X.X.X.X.X.X.X.[ X.[ [ X.~.w.t.VXVXNXNXNXNXVXI.}.6X3X!.E.5X5XS _._._._.S S Z S S 5XS S S Z Z Z O.O.Z Z S S S S ^ O.O.E.E.!.!.3X6X] 3.3.% o % % %                                                       % 7 7 o o o 7 7 7 3.}.3X5X5X5XE.iX6XI.N.N.N.N.@ @ @ N.@ N.@ N.N.=X=XI.}.uXiXE.5XM M M 5XS M M M M M M [ M [ [ [ iX6X}.I.N.3 @ @ @ @ @ @ @ @ t t t t @ @ @ @ @ @ @ @ @ @ @ @ @ @ @ @ @ @ @ @ @ @ @ @ @ @ @ @ @ @ @ @ @ @ @ @ t 7 7 % o   % % % % %           o   % %     o % 7 t t t t t t t ( @ @ @ @ @ @ t t t 7 7 7 % %                           % % % % % % o o % 7 7 t @ @ @ @ @ @ t %       o o o                                                                       o   % % %     % 7 t D + + +  . . .+ + D + + + + + + + + D + + + D + + + + + + + + + + + + + + D ( 7 o   7 7 t t 7 7 7 7 7 %                                                           o o a.a.a.a.] a.] ] ] ] ] a.a.a.o o   ",
"[ [ [ [ Z Z ^ ^ S S S S S S ^ ^ Z Z Z Z Z Z Z Z Z Z Z Z Z Z Z Z Z Z Z Z Z ^ S S S _._.S E.!.3X2X3.N.N.% o o o o o o 3.3.}.}.2X3X~.F.[ [ [ [ [ [ X.[ X.X.[ X.X.X.X.X.X.X.~.3Xw.zXVXNXNXVXVX}.uXiX!.E._._.S _.S S S S S S S Z ^ S S S Z ^ M ^ Z Z ^ Z S S S S ^ !.3X3X3XuXuX6X] }.3.3.3.o o   % %                                                       % 7 7 o o % % 7 N.}.uX!.5X5X5X5X!.3X2XI.VXI.N.N.@ N.@ N.3 3 N.N.N.I.2X3X!.E.5XM 5XM 5XM M M M M M M M [ M [ M M M !.3X6XI.N.N.N.t ( @ @ t t t t t 7 t @ @ @ @ @ t N.@ @ @ @ @ @ @ @ @ @ @ @ @ @ @ @ @ @ @ @ @ 3 @ @ @ @ t t 7 %   o o o   %                 o   % % %     % 7 t @ @ @ @ ( ( ( ( ( ( ( ( ( ( @ t t 7 7 % %                             % % %         % 7 7 t @ @ @ @ @ @ t 7 %   o o o o             o o                                   % 3.3.3.3.% % % % o o o   %     % 7 t ( + + + + + + + + + + + D + + + + + + + + D D D + D + D + + + + + + +  .+ + ( @ 7   7 t ( ( D ( ( t 7 7 % % % % % % % % % % % % % % % % % % % % %               o o o a.a.] a.] a.] ] ] ] ] ] ] a.a.o   o ",
"[ [ [ [ [ M M M Z S S S S S S S S S Z Z Z Z Z Z Z Z Z Z Z Z Z Z Z Z Z Z Z ^ S S S S S ^ ^ ^ !.iX6X}.3.3.3.3.    o 3.3.3.I.I.zX6X~.X.[ [ [ [ [ X.[ X.X.X.X.X.[ X.[ X.X.F.[ F.~.3X2XVXVXVX2X3X!.5X5X_.S _.S S S S S Z Z Z Z Z ^ ^ ^ Z Z Z Z Z M Z O.Z S S Z ^ s.~.6X2X}.}.}.3.3.3.3.3.a.3.o % % %                                                       % 7 % o % % 7 N.I.6XiXE.5X5X5XM E.!.uX2XVX=XN.N.3 3 N.N.3 =XN.I.}.2X3X!.M M M M M M M M _.M M M M M [ [ M [ [ M M E.!.iX6X}.I.N.@ ( @ t @ t t t @ t @ @ t @ @ @ @ @ N.@ N.@ @ @ @ @ @ @ @ @ @ @ @ @ @ @ @ @ @ ( ( @ t 7 7 7 %   o a.a.o                     o   % % % %   % t @ @ ( ( ( ( ( ( ( ( ( ( ( ( ( ( t t t 7 7 %                                         % % 7 t t t @ @ t ( t t 7 7     o o o             o o                                   % 3.3.3.3.% % %   o a.o o   o o % t @ D + + + + + + + + D + + + + + + + + + D D ( D D D + D + D + + + + + +  .+ + D @ t 7 t @ ( D + + ( @ t 7 % % % % % % % % % % % % % % % % % % % % %   o o     %   o o o a.a.] ] a.] ] a.] a.] a.] a.o o   o ",
"[ [ [ [ [ [ [ O.M Z S S S S ^ S S S Z Z S Z Z S Z Z Z Z Z Z Z Z Z Z Z Z Z Z Z S S ^ ^ ^ ^ ^ 5XE.!.3X6X}.}.3.3.3.3.3.I.}.}.2X6X3Xs.M [ X.[ [ [ [ X.X.X.X.X.X.X.X.X.X.F.X.X.X.F.~.3X6X2X6XiXE._._.S S ^ S S S S S S S S Z Z ^ ^ ^ Z ^ ^ Z ^ Z ^ M O.O.O.^ ^ O.s.~.uXzXzXI.3.3.3.I.3.a.3.% 7 % % %         % % 3.                                          % %   % % N.N.3.uX!.5X_.M 5XM M M F.3XzXVX=X=XY.N.N.N.=X=XI.2XuXiX!.E.M S M M M M M M M M M M M [ M [ [ [ [ M M M M E.iXuX}.I.3 D @ @ @ 3 t @ @ 3 @ @ @ @ @ @ N.@ N.@ @ 3 @ @ @ @ @ @ @ @ @ @ @ @ @ @ @ @ @ ( ( t t 7 7 7 % o o a.a.o                     o   % % % % % 7 t @ @ @ @ @ @ @ @ @ @ @ @ ( ( ( @ t t t t t 7 %                                         % 7 7 t t @ @ ( t ( t 7 7   o o o o             o o               3.                  % % % % % % % % % o o o o o o   7 t ( D + + + + + + D + + D + + + + + + D D ( ( ( ( ( ( ( ( D D + + + + +  .+ + + D ( t 7 t ( D D + + D ( t 7 % % % % % % % % % % % % % % % % % % % % %   o o     %   o o o a.a.] a.] ] ] ] ] ] ] ] ] a.o o o o ",
"[ [ [ [ [ [ M [ M M M Z Z ^ ^ ^ Z Z Z Z Z Z Z Z Z Z Z Z Z Z Z Z Z Z Z Z Z Z S Z ^ ^ ^ ^ ^ 5X^ _.5XE.iXuX2X}.}.I.I.I.I.}.2XuXiXF.M M [ X.[ [ X.X.X.[ X.X.X.X.X.X.X.F.F.F.X.X.X.X.F.~.3X~.s.S _._._._._.S S S S S Z ^ ^ ^ ^ ^ ^ ^ ^ Z M Z ^ M Z Z O.s.F.s.O.O.s.~.3X2XzXI.I.I.I.3.3.a.3.7 7 % % %                                                       % 7 % o a.% N.I.6XiXE.5X5XM M M 5XM E.!.uX2XI.N.N.N.N.N.N.}.6XiX!.E.M M _.M M M E.M M M M M M [ M M [ [ M M M M M M M M E.iXuX}.N.D 3 @ @ @ t @ @ @ @ t @ @ @ @ @ @ @ N.@ 3 @ @ @ @ @ @ @ @ @ 3 3 3 3 3 3 ( ( ( @ t 7 7 7 % %   o o a.o                           % % % % 7 t @ @ @ @ @ @ @ @ @ @ @ @ t t t t t t t t t t 7                                           % 7 t t @ @ t ( t t t 7 7   o o o       3.  3.  o               %                 % % % % % % % % % %   o o o o o   7 @ ( D + + + + + + + D + + D + + + + D ( ( t t t t t t t ( ( ( ( ( D D + + + + D D ( t t ( D D D + + D ( @ 7 % % % % % % % % % % % % % % % % % % % % %   o         o o o o a.a.] ] ] a.] ] ] ] ] a.] a.a.o o o ",
"[ [ [ [ E.[ [ [ [ [ O.M M Z ^ Z Z Z Z Z Z Z Z S Z Z Z Z Z Z Z Z Z Z Z Z Z Z M S S S S S S ^ ^ S _.5XE.iXuX6X}.zXI.zX}.6X3X!.E.M M [ [ X.[ X.[ [ X.X.X.X.X.X.X.l.X.l.F.l.F.l.F.F.F.F.F.F.[ Z S S _._.S S S S S ^ S S ^ ^ ^ ^ ^ ^ ^ ^ ^ Z Z Z ^ Z M s.F.F.s.s.!.s.~.3X6X}.}.I.I.3.I.3.3.3.% % % %                                                         % % o a.7 N.}.uX!.5X5X5XM 5XM M M M [ !.3X2XI.N.=X=XI.] uX!.E.5X5X_.M M M M M M M M M M M M M M [ M [ M M M M M M M E.E.E.iXuX3.@ 3 3 3 @ t t @ @ @ @ @ @ @ @ t N.t @ @ @ @ @ @ @ @ @ @ @ @ 3 3 3 3 3 @ @ @ @ @ 7 7 7 % % %   o o o o                             % % % 7 @ @ @ @ @ @ @ @ @ @ @ @ @ t t t t t t t t t t 7                 o                           7 t t @ t ( @ t t t 7 7 % o o o o   3.3.                                        % % % % %               o o a.o % t ( D + + + + + + D + + D + D + D + D ( t t 7 % %   % 7   7 7 t t t t ( D D ( D D D D ( ( D + D D + + D ( t 7   % % % % % % % % % % % % % % % % % % % %             o o o a.a.a.] a.] ] ] a.] ] ] ] ] a.o o o o ",
"M [ [ [ [ [ [ [ [ [ [ [ [ M Z M ^ Z S Z Z Z Z Z Z Z Z Z Z Z Z Z Z Z Z Z Z Z Z S S S S S S ^ ^ S S _.S ^ !.3X6X2X2X2XuXiX!.E.M [ [ O.[ [ [ [ X.X.[ X.X.X.X.X.X.X.X.X.X.l.F.l.F.F.l.F.F.F.s.O.[ Z S _.S S S S S S S ^ S ^ ^ ^ ^ ^ ^ ^ ^ Z ^ Z M Z O.s.F.!.F.!.s.s.!.~.3X6X2X}.I.I.I.3.3.3.3.% % %                                                             o a.7 7 ] iXE.5X5XM 5XM M M E.M E.M !.uX}.N.=XI.6XiX!.5X5X5X_.M M M M M M M Z M M M M M M M M M [ M [ M M M M M M E.E.E.iX6X3.@ 3 @ @ @ @ 3 t @ t @ @ @ @ @ @ t N.@ @ @ @ @ @ @ @ @ @ @ 3 3 3 3 @ @ @ @ t t 7 % %         o o o o                             % % 7 t @ ( @ @ @ @ @ @ @ @ @ @ @ t t t t t t t t t t 7 % % %       o o o   % % % % % % % % %     % 7 7 t @ @ @ @ @ @ t 7 7 % 3.3.3.o 3.3.  3.o 3.                        % % % % % % %                 % %   o o o 7 @ D + + + + + + + + D + + + D D D D ( ( t %   o o o o o             7 t @ ( ( ( ( ( D D D + + + + + + D ( t 7                                                       o o a.a.a.] ] ] ] ] ] ] ] ] ] ] a.a.a.o o o ",
"M M [ [ [ [ [ [ [ [ [ [ O.[ [ Z M Z Z Z Z Z ^ Z S Z Z Z Z Z Z Z Z Z Z Z Z Z S S _.S S S S M ^ S S S _._.^ !.3XuXuX3XF.s.M M [ O.[ [ [ [ X.[ [ [ X.X.X.X.X.l.X.X.l.X.l.X.F.l.l.l.X.F.X.X.F.s.O.Z _._.S S S S S S S S 5X^ S ^ ^ ^ ^ Z ^ M ^ Z Z ^ O.O.s.F.F.F.!.s.s.!.iX3XuX2X}.I.I.}.3.3.3.3.% %                                                       o o   % 3.3.3.6X3X!.E.E.M M M M [ M [ [ E.!.uX}.I.I.6XiXE.5X5X5X5XM M S M Z M Z M M M M _.M M M M M [ M M M M M M M 5X5XM E.5X!.uXa.@ 3 @ @ @ 3 3 t @ @ @ @ @ @ @ @ N.@ @ @ @ @ @ @ @ @ @ @ @ 3 3 @ @ @ @ t t 7 7 %           o o o o o                             % 7 7 @ @ ( @ @ @ @ @ @ @ @ @ @ t t t t t t t t t t t 7 % % %       o o o   % % % % % % % % %       % 7 t @ @ @ @ @ @ @ t 7 7 3.3.3.o 3.3.  3.                            % % % % % %                   % %   o o % t ( D +  .+ + + + + + + D + D ( ( D D D @ 7   o o o       o o o o o o o 7 7 7 t t @ ( D D + + + + + + D D ( t 7                                                     o o o a.a.a.a.] a.] ] ] ] ] ] ] ] ] a.o o o o ",
"M M M [ [ [ [ [ X.[ [ [ [ M M Z Z Z ^ Z Z Z Z Z Z Z Z Z Z Z Z Z Z Z Z Z Z S S S S S S S M S S S S S S S S O.s.F.F.s.M M M [ [ [ [ [ [ [ [ X.X.X.[ X.X.X.X.X.X.X.X.X.X.l.X.l.F.X.X.X.[ [ X.s.O.Z S _._._._._._.S _.^ _.S S ^ S ^ ^ ^ ^ Z Z Z Z ^ O.O.s.s.!.s.s.s.!.s.!.iXiXuX6X}.I.I.3.}.3.3.% %                                                       o o % 7 % 3.3.}.6XuX3X!.M M E.M M M M !.~.3X2XI.I.}.3XE.5X5X5X5XM 5XM M M M M Z M M M M _.M M M M M M M M M M M M _.5XM 5XE.E.iX6X3.@ 3 @ @ @ @ @ t @ @ @ @ @ @ @ @ @ N.@ @ @ @ @ @ @ @ @ @ @ 3 @ @ @ @ t 7 7 % %           o o o o o                       %     o   7 t @ ( ( @ t t t t t t t t t t t 7 7 7 t t t t t t 7 % % %       o o o o % % % % % % % % %   o   % 7 t t @ @ @ @ @ @ t 7 7 % 3.3.o o   3.                            % % % % % %                     % %   o o 7 @ D + +  .+ + + + + + D + + D ( ( D D ( t 7 o o o   7 % %       o o o o % % % % 7 t @ ( D D + + + + D D ( @ t %                                               %     o o a.a.a.a.] ] ] ] ] ] ] ] ] ] ] a.a.a.o o o ",
"M M M M [ [ [ [ [ [ [ [ [ [ M Z Z Z Z Z ^ Z Z ^ Z Z Z Z Z Z Z Z Z Z Z Z Z S S S S M S S S _._.S S S S S S S ^ ^ O.Z Z [ [ [ [ [ [ X.[ [ X.[ X.[ X.X.X.X.X.X.X.X.X.l.X.X.X.X.X.X.X.[ [ Z O.s.F.s.E.5XS _._._._._.5XS S S S S ^ ^ ^ ^ ^ Z Z ^ Z Z M ^ O.O.s.O.O.O.s.s.s.!.!.!.3XuX2X}.}.}.3.3.3.%                                                         % 7 7 7 3.I.N.=XzX6XiXM M M M M M M F.3X6XzXN.I.}.uXiXE.E.5X5X5XM M M M Z M M M M S M M M M M M M M M M M M M M M M !.!.iX3XuX}.7 N.@ @ @ t 7 t t @ @ @ @ @ @ N.@ N.@ @ @ @ @ @ @ @ @ @ @ @ @ @ @ @ t 7 % % %   o o o o o o o                             %   o o   7 t @ ( ( t 7 7 7 7 7 7 7 7 7 7 % % 7 7 t t t t @ @ t 7 % %       o o o o % % % % % % % % %   o o % 7 7 t @ @ @ @ @ @ @ 7 7 %   o o 3.o o o o             %         % % % % % % %                           o % t ( D + +  .+ + + + + D + + + D ( ( D D ( t 7 o o o   % %                 %   o o o % 7 @ ( D + + + + D D @ t 7                                                 % %   o o a.a.a.] ] ] ] ] ] ] ] ] ] ] ] ] a.o o o o ",
"M M M M M [ [ [ [ [ [ [ [ M Z M Z ^ ^ ^ ^ Z Z Z Z Z Z Z Z Z Z Z Z Z Z Z Z S S M S S S _._._._._._.S S S ^ ^ ^ M O.[ X.[ [ [ [ [ [ [ X.[ X.X.X.X.X.X.X.X.X.X.X.X.X.X.X.[ X.X.X.[ [ [ M M s.iXuXuX3XE.5X_._._._._._._.S S S ^ ^ ^ ^ ^ ^ ^ Z Z Z Z Z ^ ^ O.O.^ ^ ^ ^ O.^ O.O.s.!.iXuX6X}.}.I.3.3.3.                                                      % 7 % o 3.7 N.=X=X}.3XE.M M M M M M M F.~.uX2XI.I.I.}.6XuXiXE.5X5X5XM M M M M M M M M 5XM M M M M M [ [ M M M [ F.iXuX6X6X2X}.}.N.3 N.@ @ @ t 7 @ 3 3 3 @ 3 @ N.@ @ @ @ @ @ @ @ @ @ @ @ @ @ @ @ @ @ t 7 % %   o o o o o o o o o                             %   o o   7 t @ ( ( t % % % % % % % % % % o o   7 7 t t @ ( ( t 7 % %       o o o o % % % % % % % % %   o o % % 7 t @ @ @ @ @ @ @ t 7 %   o o o o o               % % %       % % % % % % %                         o   7 t D + +  . .+ + + + + + D + D D ( ( D D ( t 7 o o   o o o o o o o o o o   7   o o a.o % t @ ( D + + + D ( t 7 %                                                 % %   o o a.a.a.] a.] ] ] ] ] ] ] ] ] ] a.a.a.o o o ",
"M M M M M M M [ [ [ [ [ [ [ M Z Z Z Z S S Z ^ Z Z Z Z Z Z Z Z Z Z Z Z Z Z M S S S S Z O.O.O.^ 5XE.E.!.!.!.E.^ ^ O.X.X.[ [ [ [ [ X.X.[ [ X.X.X.X.X.[ X.X.X.X.X.X.X.X.X.X.[ [ X.[ [ E.E.!.3X2XVXVX2XuXiXE.E.5X_._._.S S S _.S S S S S ^ ^ ^ ^ Z S Z Z ^ ^ ^ Z ^ ^ ^ ^ S ^ ^ E.s.!.!.3X6X}.}.3.3.3.3.o o o o o o                     o o o     % % %       %   o 3.N.=XN.}.3XE.5XM M M [ M M M [ [ !.3X6XI.N.N.N.I.2XuX3X!.E.M M M M [ M M M M M _.M M M M M [ [ [ [ [ [ ~.6XzXVXVXN.=X=XY.3 @ @ t t @ @ @ 3 @ 3 3 @ N.@ @ N.@ N.@ @ @ @ @ @ @ @ @ @ @ @ @ t 7 7 % %     o o o o o o                                 %       % 7 7 t t t 7 %                   o o   % % 7 7 t t t t t 7 7 % %     o o o % % % % % % % % % % o o % % t t @ @ ( ( 3 3 @ t 7 %   o o o o o o   % %   o o % % 7 %     % % % % % % %               % %   o o   7 t ( D + + + + + + + + + + + + + + D D D D ( t %   o o o o o o o o o o o o o o o o o a.o o 7 t ( D D D D D @ 7 % o                                                     o o a.a.] ] ] ] ] ] ] ] ] ] ] ] ] ] ] a.a.o o   ",
"M M M M M M M M M M [ [ M [ Z Z Z S S S S S S Z Z Z Z Z [ Z Z Z Z Z Z Z Z S S S S S M ~.3X3X3X3X3XuX6X6X3X!.E.M M [ [ [ [ [ [ [ [ [ X.X.X.X.X.[ X.[ X.X.X.X.X.X.X.X.[ X.[ [ [ [ M E.!.3X2XVXNX=X=XI.}.6X3XiX!.5XS S S S S _.S S S S ^ ^ ^ ^ Z S M Z Z S S S ^ ^ ^ ^ S ^ ^ ^ O.E.E.!.iXuX6X}.3.3.3.a.a.a.o o o o                   o a.o o   % 7 %   o o   % 7 N.N.I.2X3X!.5X_.M M M M [ M M M [ E.E.iX6XI.N.N.N.N.I.}.6XiXE.M M M M M M M M M M M M M [ [ [ [ [ [ M [ iX6XzX=X=X=X=X3 =X3 N.t 7 7 @ @ @ t @ 3 @ 3 3 @ N.3 @ @ @ @ @ @ @ @ @ @ @ @ @ @ @ t 7 7 % %   % %                                           % % % % % % % % % % %                                         7 t t t 7 7 %   o o o % % % % % % % % % % o o % 7 t @ @ ( ( ( ( 3 @ t 7 %         o o o o % %   o o % % % % % % % 3.7 3.3.3.o %             % 3.3.o o % t ( D + + + + + + + + + + + + + + + D D D ( t 7 % % o o o           o o o o o a.o o o o o o   t t ( ( ( ( ( t % o o o                                                 o o o a.a.] ] ] ] ] ] ] ] ] ] ] ] ] ] ] ] a.o o   ",
"M M M M M M M M M M M M [ M Z Z Z ^ ^ ^ Z Z Z Z Z Z [ Z Z Z Z [ Z [ Z Z Z S Z ^ S ^ O.~.w.2XzXzXI.I.I.I.}.uXiXE.M M [ [ [ [ [ [ [ [ X.X.X.X.X.X.O.s.O.X.X.X.X.[ X.[ [ [ [ [ [ M E.!.3X6XI.=XNXNX=X=X=XVXzX6X3XE.S _.S S S S _.S S S S ^ ^ ^ Z Z Z S S S S S S ^ ^ ^ ^ S S ^ ^ O.5X5XE.!.uX6X}.3.3.3.a.o   %                       o o o o   % 7 %     o % t @ N.}.6XiX!.5X5X5XM M M M M M M [ M M E.!.iX6XI.N.N.VXN.VXzX6XiXE.M M M M M M 5XM _.M M [ M [ [ [ [ [ [ [ F.iX6XI.=X=X=XN.N.Y.N.@ @ @ t t @ @ @ 3 @ 3 N.3 @ N.@ N.@ @ @ @ @ @ @ @ @ @ @ @ @ 7 7 7 % %   % %                                           % % % % % % % % % %                                           7 t t t t 7 7 7 %       % % % % % % % %       % 7 t @ @ ( ( @ ( 3 @ t 7 %         o a.o o o   % % % 3.% o o 7 3.3.3.3.3.3.a.a.o % % %     % 3.3.3.o   % t ( D + + + + + + + + + + + + + + + D D D ( t % % % o o o %   o o o o o o o   o   % %   o o   7 t t @ ( ( t 7   o o o                                                   o o a.a.a.a.] ] ] ] ] ] ] ] ] ] ] ] ] a.a.o o   ",
"M M M M M M M M M M [ [ ^ M ^ Z ^ ^ ^ ^ ^ ^ ^ Z Z Z Z Z [ Z Z Z Z Z Z Z Z Z Z ^ S S ^ F.uXzXVX=X=XNXNXY.=X}.6XiX!.E.M M M [ [ [ [ X.X.X.X.X.X.X.O.X.s.s.X.X.X.X.[ X.[ [ [ [ F.F.iXuX6X}.I.=XY.Y.=X=XNX=XzXuXiXE._._.S S _.S S _.S S S Z ^ ^ ^ ^ S S S _.S S Z ^ ^ S ^ S S S ^ 5XS _.5XE.iX6X}.3.3.3.o   % 7 %                     o o o o   % % % %   % 7 7 3.] uXiXE.5X5XM M _.M M M M [ M M M M 5X5XE.iX] N.I.N.VX=XzX6XiXE.M M M M M M M 5XM M M M [ [ [ [ [ [ [ M M !.iXuX}.I.=XN.N.N.N.N.( ( ( @ @ @ @ @ @ 3 3 @ N.3 @ N.@ @ @ @ @ @ @ @ @ @ @ @ @ 7 7 % %     % %                                           % % % % % % % % % %                                           % 7 7 t t t t t 7 7 %                       % 7 7 t @ @ ( ( ( ( 3 @ t t 7               o o o 3.3.3.3.a.3.3.I.] 6X6X] }.3.}.3.3.% % % %   % 3.3.3.3.  7 t ( D + + + + + + + + + + + + + + + + D D ( t %   %   o o   o o o o o o   % 7 7 t t 7 7       % 7 7 t t t 7 %   o o o                                                   o o o a.a.a.a.] ] ] ] ] ] ] ] ] ] ] ] ] a.o     ",
"M M M M M M Z M Z M Z M M ^ Z Z ^ ^ ^ ^ ^ Z ^ ^ Z Z [ Z Z Z Z [ Z Z [ Z M ^ Z S S S ^ O.~.2XzX=XY.Y.NXY.Y.=XI.2XuXiXE.M M M [ [ X.[ X.X.X.[ X.O.s.O.s.s.s.X.X.X.X.X.[ [ F.F.~.3X6X2X}.3.I.N.=X=X=XNX=X}.uX!.E._._.S S _.S S _.S S S ^ ^ ^ ^ M Z Z S S S S Z S S S S S S S S _._.5X_._.5X!.6X}.3.3.3.  % 7 7                       o o o o o % % % % % % 3.a.] uX!.E.5X5X_.5XM M M M M M M M [ M 5X5X5X5X!.6XI.N.N.=XI.2X3X!.M M M M M M M M M M M M M M [ [ [ [ [ [ [ M M E.!.3X6X}.N.N.N.N.3 N.( D ( @ 7 @ 3 N.3 @ 3 @ N.@ @ @ @ @ @ @ @ @ @ @ @ @ @ @ 7 7 % %     % %                                                                                                           % 7 t t t t t t 7 7 % % % % % % % % % % % 7 7 7 t @ @ ( ( @ ( 3 @ t t t             7 %   o 3.3.a.3.I.3.I.] uXiXiXuX6X}.I.I.3.3.% % %   % 3.3.3.% 7 t ( D + + + + + + + + + + + + + + + + D + D ( t %   %   o o   o o a.a.o o 7 t t ( ( ( t t 7 %     % % 7 7 7 %     o o o                                           o o         o o o a.a.a.] a.] ] ] ] ] ] ] ] ] a.o o     ",
"M M [ M M M M M M [ Z O.^ ^ Z Z ^ ^ ^ Z Z Z ^ Z Z Z Z Z [ Z Z Z Z Z Z Z O.^ S S ^ ^ S ^ s.3X2XI.=XY.Y.=X=XY.Y.=XI.6X3XiX!.F.F.F.F.X.X.X.[ [ [ O.s.s.O.s.s.X.X.X.X.X.X.F.F.~.w.2XzX}.}.a.I.N.=X=X=XI.}.3X!.5X_._.S S S S S _.S S ^ ^ O.^ ^ ^ ^ ^ Z S S Z Z ^ Z S S ^ S S _.S ^ _._._.5X5XiX6X}.3.3.3.% % % % o                     o o o o o   % 7 7 7 7   ] uXiXE.5X5X_.5XM _.M M M M M M M M [ M 5XE.!.iX6XN.=XN.I.2X3XE.M S M M M M M M M M M M M M [ [ [ [ [ [ [ [ [ [ M M E.iXuX}.I.I.N.N.N.@ 3 3 @ 7 @ @ @ 3 N.3 @ @ @ @ @ @ @ @ @ @ @ @ @ @ @ @ 7 7 7 % %     % %                                                                                                         o   % 7 t t t t t t t 7 7 7 7 7 7 7 7 7 7 7 7 t t t @ @ 3 3 ( 3 3 3 @ t t 7     o   7 7 % 3.3.a.}.3.I.I.}.2XuXiXE.E.iXuX}.I.I.3.3.% %     % 3.3.3.% 7 t ( D + +  .+ + + + + + + + + + + + + + + D ( 7 %   % %   o   o a.a.o o % t @ ( D D D ( @ t 7 7 %   o o o o o o o o o o                                           o o       %   o o o o ] ] ] ] ] ] ] ] ] ] ] ] a.a.o   % ",
"M M M M M Z M M Z [ M M Z Z Z S Z Z Z Z ^ Z Z Z Z Z Z Z Z Z [ Z Z [ Z Z Z ^ Z Z ^ ^ ^ S ^ !.3X2XI.=XY.=X=X=X=XY.=X=X}.2X2X6XuX~.F.X.[ [ [ X.O.s.O.s.s.s.s.X.F.X.X.X.X.X.F.~.w.2XzXI.}.}.I.I.I.I.2XuXiX5X_.5X_.S _.S S S _.S S S ^ O.O.O.O.O.^ Z M Z Z O.O.O.O.^ S S S _._._.5X_._._.5X!.3X] }.3.7 %       o o o                   o o o o o   % 7 7 t t 7 a.uXiXE.5X5X5X5X_.M _.M M M M M M [ M E.iX3XuX6X}.N.=XVX}.uX!.5XM M M M M M M M M M M M M M M M [ [ [ [ [ [ [ [ [ M M M !.3X2XI.N.N.N.N.N.t @ N.@ 3 @ 3 @ @ @ @ 7 t @ @ @ @ @ @ @ @ @ @ @ @ 7 7 % % %     % %                                                                                                         o o   7 t t t t t t t t @ @ @ @ @ @ @ @ @ @ @ @ @ @ @ @ @ 3 3 ( 3 @ @ @ t 7 %   o   7 % 3.3.}.3.I.I.I.}.6X3X!.E.5X5XE.3X2XI.I.I.3.% %       % 3.% 7 t ( D + +  . . .+ + + +  .+ + + +  .+ + + + D ( 7 %   % % %   %   o o o % t @ ( D + + D D ( ( t 7 7 % o o o o o o o o o o o o o o o o o o o o o o o o o o o o o o   o o     % 7 %       o a.] ] a.] a.] ] ] ] ] ] a.o   % % ",
"M M M M M M M [ [ [ ^ M Z Z S S S S S S S S S Z Z Z Z Z Z Z Z Z Z Z O.Z Z ^ M ^ ^ ^ ^ S S ^ !.3X2XI.=X=XY.=XN.Y.Y.Y.NXNXNXVXzXuXF.[ Z [ [ [ O.O.s.s.s.s.s.s.X.X.X.X.X.F.F.~.~.3X6X2X}.}.}.6XuX3X!.E.5X_._._._._._.S _._._._.S S ^ O.s.s.s.O.O.^ Z Z O.s.F.F.s.O.S S _._._._._._.5XE.iXuX] }.3.3.7 % o o o o o o                   o o o o o o % 7 7 t t 7 3.}.6X3XiXE.5XM M M M M M M M M [ [ M F.uX}.I.=X=X=XVXI.6XiXE.M 5XM M M M M M M M M M M M M [ M [ [ [ [ [ [ [ F.[ [ M M M E.iX6X}.N.N.N.% 7 @ 3 3 @ N.3 @ @ @ @ t @ @ @ @ @ @ @ @ @ @ @ @ 7 7 7 % % o     % %                                                                                                               % 7 7 7 t t @ @ @ @ @ @ @ @ @ @ @ 3 @ @ @ @ @ @ @ @ 3 3 3 @ 3 @ 3 t t 7 % o   3.3.3.}.I.I.I.}.2XuXiXE.5X5X5XS ^ !.uX2X}.I.3.3.%           % t ( ( D +  . .+ + + +  .+ + +  .+  .+ +  . .+ D ( 7     % % %         % 7 t @ ( D + + + + D D D ( @ t 7   o o a.o o o   o o o o o o o o o o o o o o o o o o o o o o   o     % % 7 %   o o o a.a.] a.] a.] a.] ] a.a.a.  % 7 7 ",
"M M S M M M M [ [ O.M M Z S Z S Z Z Z Z Z Z Z Z Z Z Z Z Z Z Z O.Z Z Z Z Z Z O.^ O.^ M ^ Z S ^ !.3X6X}.=XY.Y.NXY.NXY.NXNX=XzX6X~.s.M Z [ [ [ X.O.s.s.s.s.s.X.X.X.X.X.X.X.F.F.~.~.~.uXuXuX3XiX!.E.5X_._._._._._._._._._._.S S S S ^ O.s.s.F.s.O.O.O.^ O.O.s.F.s.s.s.s.s.E.E.E.E.E.iXuX6X}.}.3.3.7 7   o o o o o o                   o o o o o o   7 7 t @ @ @ N.I.}.6X3X!.M M M M M M M M [ [ [ [ E.3X2XI.=X=XVX}.6XiXE.5X5XM M M M M M M M M 5XM M M M M M M [ M [ [ [ [ [ [ [ [ [ [ M E.!.uX}.N.N.N.N.@ 3 @ 3 @ @ @ @ t t t t t @ @ @ @ @ @ @ @ @ @ 7 7 % % o o     % %                                           o o o o o o o o o o                                           %           % 7 t t @ 3 3 3 3 3 3 3 3 3 3 3 3 @ @ @ @ @ @ 3 3 3 @ 3 @ @ @ t 7 %   a.a.a.3.3.I.}.2XuXiX!.E.S S S ^ S S O.iX6X}.I.3.3.            % t ( D D +  . . . . .+ +  .+  .+ + +  .+ + + + D ( 7     % % % % o   % 7 t @ ( D + + + + + D D D D ( @ t 7 o o a.a.o     o o o o o o o o o o o o o o o o o o o o o o   o   % % % %   o o o o a.] a.] a.] a.] ] a.] a.o   7 7 7 ",
"M M M M M M [ [ [ [ O.M Z M Z Z Z Z Z Z Z Z Z ^ Z Z Z Z Z Z Z Z Z Z Z Z Z Z M Z S S ^ ^ ^ S S ^ E.iXuX}.=XNXY.Y.Y.Y.=XI.2X3XiXE.M M [ [ [ [ O.s.O.s.s.O.s.O.X.X.l.X.l.F.F.X.F.F.F.!.!.E.E.5XS _._._._._._._._._._._._.S ^ ^ S ^ ^ O.s.F.~.F.s.s.O.[ O.O.s.F.F.F.~.3X3X3X3X3X3XuX6X}.}.3.3.3.3.7 7 o o o     o o                   o o o o o o   7 t t @ @ N.N.N.N.zX6XiXE.M M M M M M M [ [ [ [ [ !.iX6XzXVXzX6XiXE.5XM M _.M M M M M M M M M M M M M M [ M [ M [ [ [ [ [ [ [ X.X.[ [ M 5X!.uX}.N.N.3 @ 3 @ @ @ @ @ @ t t t t @ @ @ @ @ @ @ @ @ @ @ % 7 % % o   o   % %                                                 o o o o o o o                                           % %   o o o o % 7 t @ @ @ @ @ @ @ @ 3 3 3 3 3 3 @ @ @ @ @ 3 3 3 3 @ @ @ @ t 7 % 3.3.3.}.}.}.6XuXiX!.E.5XS S S S ^ ^ S ^ !.uX}.I.3.3.              t ( D +  . . . .+ +  .+ + + +  .+ + +  .+  .+ D ( 7 o o % % % % o   % 7 @ ( D +  . .+ + D D + + + D ( @ 7   o o o o     o o o o o o o o o o o o o o o o o o o o o o         % %   o o o a.a.a.a.a.a.] a.] a.] ] a.a.a.  7 7 7 ",
"M M M M M M M [ [ [ [ M M Z Z Z Z Z ^ ^ ^ ^ ^ ^ ^ ^ ^ Z O.Z Z Z Z O.Z ^ Z S Z S S S Z Z S S ^ _.S E.!.uX2XzXI.=X=XI.2X6XiX!.E.M Z Z [ X.[ X.O.O.s.s.s.s.s.s.X.X.X.X.X.l.X.F.X.s.O.S _._._._._._._.S _._._.S S _._.S ^ ^ 5X^ ^ S S ^ O.F.!.~.F.F.F.s.O.O.s.s.s.F.~.3X6X2X2X2X}.}.I.I.I.3.3.3.  % % o o o o o     %     o o o o       o o o o     7 t t @ @ 7 I.N.VX}.uXiXE.M S M M M M M [ [ [ [ [ M E.!.3X6XuXiXE.5XM M M M M M M M M M M M M M M M M M M M M [ M [ [ [ [ [ [ [ X.[ [ E.M E.!.uX}.N.=X3 3 N.3 @ @ @ @ @ t @ @ @ @ @ 3 @ 3 @ @ @ @ @ 7 7 % %     o o         o o o o o o o                           % % o   o o o o o                                           % %   o o o o % % 7 t @ 3 @ @ @ @ @ @ @ 3 3 3 3 @ @ @ 3 3 3 3 3 3 3 @ 3 3 3 @ 7 3.a.3.3.}.6XiX!.5X5X5X^ ^ ^ ^ S ^ ^ S S O.iX6X}.3.3.o o o o   % t ( D + + +  .+  . . .+  .+ +  .+ +  .+ + +  .+ D ( 7 o o   % %   o o % t ( + +  .+  .+ + + + + + + + D ( t %   o o o     o o o o o o o o o   o o o                               o o o a.a.a.a.a.] a.a.a.] a.a.] a.a.o   7 7 7 ",
"[ M M M M [ [ [ [ [ E.[ O.O.^ ^ Z Z Z ^ ^ ^ ^ O.O.O.O.^ ^ Z Z Z Z Z Z Z S S S S S S S S Z S S _.S S O.!.iX3X6X2XzX2X3XiX!.E.M O.M [ X.X.X.X.O.O.s.s.CXs.O.X.X.l.X.l.F.X.X.F.X.X.[ S S S _._._._.S S S _._._.S S S S ^ ^ ^ ^ ^ ^ ^ ^ O.s.s.F.~.~.~.F.F.s.X.s.F.F.~.~.uX2X}.}.I.I.I.3.3.3.3.o o   o o o o o     % % %   o o o o o % o o o o o     7 t t t @ N.N.N.I.6XiXE.5XM S M M M M [ M [ [ M [ M [ E.F.~.!.E.M M M M M M M M M M M M M M M M M M M M M M M M [ M [ [ [ X.[ X.[ [ [ [ [ M E.iX6XI.=X=X3 @ 7 3 @ 3 @ @ @ @ 3 3 3 3 3 3 3 @ 3 @ @ @ % % %               o o o o o o o o o o o 3.3.3.3.3.          % % % % %     o o o       3.    o o % o o                   % % % %   o o % % % % 7 @ ( ( @ @ @ @ t @ 3 @ @ 3 @ 3 3 3 3 3 3 3 3 @ 3 3 3 3 3 @ % 3.}.}.}.uXiXE._._.S S ^ ^ Z Z Z ^ S S 5X!.3X6X}.3.3.a.o o   t ( D + + +  . . .+ +  .+  .+  .+ + + + + +  . .+ D ( 7 o o o       o o   t D  . . .+  .+  .+ + +  . . . .+ @ 7 % % %   o o o o o o o o o o           % % % % % % % % % % %         o o o o o o o a.3.a.a.a.] a.] a.a.o     % 7 7 ",
"[ [ M [ M M M M [ [ [ [ [ [ O.M Z Z Z ^ ^ ^ ^ ^ ^ ^ O.^ ^ ^ Z Z Z Z S S S S S Z S Z S S S S S S ^ S S ^ O.!.~.3XuX3Xs.E.O.[ [ [ [ X.X.F.X.X.O.O.O.s.s.s.s.s.X.F.l.X.l.X.l.X.F.X.X.Z Z S S S _.S _.S S S _.S S S ^ ^ ^ ^ S ^ ^ ^ ^ ^ O.O.s.s.F.F.~.~.F.F.F.F.F.F.F.~.3XuX2X}.I.I.3.}.3.3.3.o o o o     o       % 7 %   o o o o o o o a.a.o o   7 t t t t @ N.N.N.] 3XE.5XS M M M Z [ M M [ M [ M [ [ [ [ M M M [ M M M M M M M M M M M M M M M M M M M M M M M M M M [ [ [ [ [ [ [ [ [ [ [ M M E.iX6XI.N.N.7 t @ 3 3 @ @ @ N.3 3 3 3 3 3 3 N.@ @ N.@ % % %               o o o o o o o o o o o 3.3.3.o 3.o o     o % % % 3.% % %             3.3.3.3.3.3.3.%           % % % % % % % % % % % 3.% % 3.7 t ( ( @ @ ( ( @ @ 3 @ @ 3 3 D 3 3 3 3 3 3 3 t t 3 3 D 3 3 t 3.3.}.}.6X3X!.E.^ S S Z Z S Z ^ ^ ^ S 5X5X!.3X6X}.3.3.a.o 7 ( D + +  .+ +  .+  . . . .+  .+ +  .+ + + + +  . .D ( 7 o o       o o o 7 ( +  . .+ +  . . .+ + +  . . . .+ @ 7 7 % %   o o o o o o o           % % % 7 7 7 7 7 7 7 7 7 7 %           o o o o o o % a.a.a.a.] a.a.a.o     % % % % ",
"[ M M M M [ [ [ [ [ [ [ E.[ [ [ Z Z Z Z ^ ^ ^ ^ ^ O.^ ^ ^ Z Z S Z Z ^ S Z S S S S S S S S S S ^ ^ ^ S S S ^ O.s.F.F.O.O.[ O.[ [ X.X.F.l.X.X.O.O.O.s.CXs.s.X.X.X.X.l.l.F.F.F.F.F.X.O.Z Z S S _.S _.S _._.S _.S ^ ^ ^ ^ Z S ^ ^ O.O.O.O.O.O.s.s.F.F.F.F.F.F.F.F.~.F.~.iXiXuX2X}.I.3.}.3.a.3.o o o o             7         o o a.a.a.a.a.a.o     7 t t ( @ @ N.N.}.uX!.5X5X_.S M Z M Z M [ M [ M M [ [ M M M [ M M M M M M M M M [ M M M M M M M M M M M M M M M M M M M [ [ [ [ [ [ [ X.X.[ M M M !.3X2XN.N.@ @ @ 3 3 @ @ @ N.N.3 N.3 N.3 N.3 N.N.@ N.3.3.%           o   o o o                 o o o 3.o o         % 3.% % % % % o           % % 3.% 3.3.3.% %         % % % % % % % % % % % % % 3.3.% 7 t @ @ ( D ( ( 3 3 3 7 7 N.Y.3 N.N.3 3 3 3 @ 3 3 3 3 D D @ 3.3.}.}.2X6X3X!.O.^ S Z Z Z Z ^ ^ ^ 5X5X_.5X!.uX] 3.3.a.o 7 @ D + +  .+  .+  . .+  . .+  .+ + +  .+ + + +  .+ D ( 7 o o       o o % @ +  . .+ + +  . .+  .+  .+  .+ + D @ 7 7 % %   o o o o o o           % % % % 7 7 7 7 7 7 7 7 7 7 %               o   o   o o a.a.] a.a.a.a.o % % % % % % ",
"M M [ M [ M M M [ [ [ [ [ [ [ [ [ Z Z Z ^ ^ ^ ^ ^ ^ ^ O.^ S Z Z ^ Z Z S S S Z S Z Z Z S S S ^ ^ ^ ^ Z Z S S Z ^ ^ O.[ [ [ [ [ X.X.F.X.F.X.X.s.O.O.s.s.s.s.s.X.X.l.F.X.X.l.X.l.F.F.X.O.Z S S S _.S S _._._.S S S ^ ^ Z Z S ^ O.O.O.O.O.O.O.O.O.O.s.F.F.F.~.~.~.~.F.F.!.iXiXuX6X}.}.}.}.a.a.o o o o o o   o             o o o o o o o o o o     7 t t @ @ @ 3.}.uX!.5X5X5XM S Z Z Z M Z M M M [ M M [ [ M M M M [ M [ M M M M M M M M M M M M M M M M M M M M M M M M M [ [ [ [ [ [ [ [ X.[ M M M E.!.uX3.Y.3 3 3 @ @ @ @ @ @ 3 N.N.N.N.N.N.N.N.N.N.N.3.3.3.3.3.3.o o o o o o o o o o o                         % % % % % % % % %   o     % % % % % % % % % % %     % % % % % % % % % % % % % % 3.% % % 7 t ( ( ( ( ( 3 3 3 N.3.] ] 3.N.3 N.N.3 3 D 3 3 3 3 3 D Y.N.3.] 6XuXuXuXiX!.^ S ^ Z Z Z ^ ^ ^ ^ 5X5X5X5X5XiX6X3.3.a.  7 ( D +  .+  .+  .+  . . . .+  .+  . .+ +  .+  .+ + D ( 7 o o % % % o   t D  . . .+ +  . .+  .+  .+ +  .+ + D @ 7 7 % % %   o o o o           % % % % % 7 7 7 7 7 7 7 7 7 % 7     7       o o     %   o a.a.] a.a.a.o % 7 7 7 7 7 7 ",
"M [ M M M M [ [ [ [ [ [ [ [ X.[ [ [ [ Z Z ^ ^ ^ O.^ O.^ ^ ^ Z S Z S ^ S Z S S S S S Z S S S S ^ ^ Z Z ^ ^ O.O.O.M [ O.[ s.[ [ X.X.X.X.X.X.s.O.O.O.s.CXs.s.X.X.X.X.X.l.X.F.X.F.X.F.X.O.O.Z S S S _._._.S _.S S S Z Z Z Z S ^ O.O.s.s.O.O.Z Z ^ O.O.s.s.F.F.F.F.F.F.!.!.!.iXiX3X6X}.}.3.}.}.3.o o o o                   o o o   % 7   a.o o   7 t t @ 3 3 N.}.uX!.5X5X5X5XM S S M Z M Z [ M M M M M M M M S S M M M M M M M [ M M M M M M M M M M M M M M M M M M M M [ M M [ [ M [ [ [ [ F.[ M M 5XE.iX}.Y.D 3 @ @ t t @ @ 3 Y.Y.Y.=X=X=XN.N.I.I.I.I.}.}.}.}.3.3.3.3.3.3.a.a.a.a.a.o o o o o o                   % % % % % % % %   o o     % % % % % % % % % %     % % % % % % % % % % % % % % 3.7 3.% 7 t ( ( @ t @ @ @ N.3.] 3XiXuX}.=XY.N.N.3 3 3 D D 3 3 D 3 I.] 3X!.E.5XE.E.S _._.S ^ O.O.O.^ ^ 5XE.E.!.!.!.3X6X3.3.7 @ D +  . .+  .+  . . . .+  . .+ +  .+ + + + + + +  .+ D ( 7     % 7 % % 7 @ D  . .+ +  . . . .+ + +  .+ + + D ( t 7 7 % % %     o o o       % % % % % 7 7 7 7 7 7 7 7 7 7 7 7   7 7           o     %   o a.] a.a.a.o % % 7 7 7 7 7 7 ",
"M M M M M M M M M [ [ [ [ [ [ [ X.[ X.O.O.O.O.^ O.^ O.^ ^ S Z Z Z Z Z S S S S Z S Z S S S S ^ Z Z O.Z [ O.[ Z [ M [ [ [ [ X.[ X.X.X.X.X.X.X.O.O.O.s.s.s.O.X.X.X.X.X.X.X.l.X.l.F.X.X.X.O.O.Z S S S _.S _.S S S Z ^ Z ^ Z Z Z M O.O.s.O.^ Z ^ Z ^ O.O.O.s.s.!.s.s.s.s.!.!.!.iXiX3X6X2X}.}.}.}.3.3.a.a.a.o a.o o   7   o o o o   7 7   o o o   7 t t @ 3 3 % 6XiX5X5X5X5X5XM M S M Z [ M Z [ M [ M M M M M M _.M M M M M M M M M M [ M M [ M M M M 5XM M S M M M M M M M M M M M M M [ M [ [ E.M 5X5X5X!.6XN.N.@ @ N.N.N.N.N.=X=X=XVXVXVXI.zXzX}.zX}.2X}.}.}.}.}.}.}.}.}.I.3.3.3.3.o o 3.              o o         % % % % % % % % %               % % % % % % % % % % % % % % % % % % % % % % % % % % 7 t @ ( ( @ t ( 3 3 I.] 3X!.E.iX6XI.=X=XN.3 3 3 3 3 3 3 3 N.3.6X!.5X5X_.5X5XS S S ^ O.^ ^ ^ ^ ^ O.E.iXuX6X6X] }.3.7 @ ( ( D +  . . . . . .+  . .+  . . . . . . . . . . . . .D ( 7 %   % 7 7 t ( N.Y.Y.Y.Y. . . .+  . . .+  .+ + + ( @ 7 % 7 % % % %             % % % % % 7 7 7 7 7 7 7 7 7 7 7 % 7   7   7 7             %   o a.a.] a.a.% 7 7 % % % % % 7 ",
"[ M M M M M M [ M [ [ [ [ [ X.X.X.X.X.[ O.O.^ O.^ O.^ O.^ ^ Z S Z S ^ S S S Z Z Z Z S S S S S ^ Z Z O.Z O.[ [ Z M [ [ [ [ [ X.[ X.X.X.X.X.X.O.O.O.s.s.s.s.X.X.X.X.X.l.X.X.F.X.F.X.F.s.O.O.O.Z S S _.S _.S S S Z Z ^ Z Z Z Z Z O.[ O.O.O.^ Z Z ^ ^ ^ ^ O.O.O.O.O.O.O.s.!.!.!.~.iX3XuX6X2X}.}.}.}.3.3.3.a.3.a.3.7 7 7 % o o o o     o o o o   7 t @ @ 3 N.}.3XE.5X5X5X5XM M M M M Z M Z [ M M M M M [ M M M M M M M M M M M M M M M M M M M M M M M M 5XM M 5XM M M _.M M M M M M M M E.M E.M 5X5X5XE.iX6XN.N.N.N.N.N.N.N.I.I.I.zX2X2X2X2X2X2X2X2X2X2X2X2X2X2XzX2XzXzXzX}.}.}.3.3.3.3.3.3.% 7 %               3.3.% % % % %     7 %       % % % % % 7 7 7 7 7 7 7 7 7 7 7 7 7 7 7 7 7 7 7 7 7 7 7 7 7 7 t ( ( ( ( ( D Y.=X3.uX!.5X5XE.3X6XI.=X=XN.3 3 3 3 3 N.3 N.I.6X3X!.E.5X5X_.^ ^ ^ ^ ^ O.^ O.O.^ 5XE.!.3X6X}.}.3.3.3.@ D + + +  .+  .+  .+  . . . .+  .Y. .Y. . . .Y. .Y. .Y.D ( 7 % % 7 7 7 N.D Y.Y.NX .NX . . . . .+  .+ +  .+ D ( t 7 7 7 % % % % % % % % % % % % % % 7 7 7 7 7 7 7 7 7 7 7 7 7 % 7   7     7       % %   o a.a.a.a.a.o % 7 7 7 7 7 7 7 7 ",
"M [ M M M M M M M M M [ [ [ X.[ X.X.X.X.O.O.O.O.O.^ O.^ ^ S Z Z Z Z Z S S S Z Z Z Z ^ S ^ S ^ Z O.Z O.Z Z Z [ Z [ [ [ [ [ X.[ X.X.X.X.X.X.X.O.O.O.s.s.s.O.X.X.X.X.X.X.X.X.X.X.X.X.X.O.X.s.O.^ ^ S _.S S S S S ^ Z ^ Z M S Z M Z O.[ O.^ Z Z Z Z Z Z ^ ^ ^ ^ ^ ^ ^ ^ O.s.s.F.F.F.~.~.uX2X2XzXzXzXzXzX}.}.}.I.}.I.I.I.3.3.3.o o o o o o o   7 7 t @ 3 3 N.] iXE.5X5X5X5X5XM M M M [ M [ M M M M M M M M M M M M M M M M M M M M M M M M M M M M M 5XM M M M M M M M M M M M M 5XM E.M E.E.E.!.!.!.!.iXuX}.=XN.N.N.I.VXI.zXzXzX2X2Xt.2Xt.t.t.t.t.t.t.t.t.t.t.2Xt.zX2XzX2XzXzXzX}.}.}.I.I.I.3.% % %           3.% 3.3.                      7 7   7 % 7 7 7 % % % % % % % % % % % % 7 7 7 7 7 7 7 7 7 % t t t t ( ( ( Y.D =X}.3XE.5X5XE.!.3X6XzXN.=XY.3 3 3 3 3 =X=XN.}.6XuXiX!.5X5X^ ^ O.O.^ O.^ O.O.^ ^ ^ E.iXuX2X}.I.I.N.( +  . . . . . . . . . . .+  . .Y. . . .Y. .Y. .NX .Y.+ D ( t % % 7 N.7 N.Y.Y.NXNXNXY.Y. .Y.Y.Y. . . .+ + + ( t 7 % 7 7 % % % % % % % % % % % % % 7 7 7 7 7 7 7 7 7 7 7 7 % 7   7 7   7 7   7     %     o a.a.a.a.o o % 7 7 7 7 7 7 7 7 ",
"M M M M M M M M M M [ [ [ [ X.X.X.X.[ [ [ O.^ ^ ^ ^ ^ O.^ ^ Z S Z ^ Z S S S Z Z Z Z Z S S S ^ ^ ^ O.Z Z O.Z [ [ [ [ [ [ [ X.X.X.[ X.X.X.X.X.O.O.O.s.s.s.s.X.[ X.X.X.X.X.X.X.X.X.[ [ O.O.s.O.O.O.^ S S _.S S S Z ^ ^ Z Z S Z Z Z ^ ^ ^ M ^ Z Z Z Z Z Z S S S S S S S Z Z O.F.s.F.F.8.<.w.w.t.2X2X2X2X2X2X2X2X2X2X}.}.}.}.I.3.3.3.o o o o   7 t @ @ 3 3 N.] 3X!.E.E.5X5XM M M M [ M M M M M M [ M M E.E.!.!.!.!.E.E.M E.M M E.M M E.M M M E.M M M M M M M M M M M M M 5XM E.E.E.E.!.!.iX3X3X3XuXuX6X6X}.I.=X=XVXI.zXzXzXzXt.2Xt.t.t.t.t.t.t.t.t.t.t.t.t.t.t.t.t.t.t.t.t.2X2XzXzX}.zX}.}.I.3.3.3.% % % % %   3.3.3.7     7   7       7   7   7   7   7 % 7 7 7 7 7 7 7 7 7 7 7 7 7 7 7 7 7 7 7 7 7 7 7 7 7 t t @ ( ( Y.Y.I.6XiX5XE.E.E.E.!.3X6X}.=XY.=XN.=X=X=X=X=XI.I.}.2XuXiXE.^ ^ ^ O.^ O.O.O.O.O.O.^ ^ E.E.iXuX2X}.N.=XY. . . . . .+  .+  .+  .+  . .Y. .+ Y. . .Y. . .Y. . .Y.D ( 7 % % 7 7 N.N.Y.Y.NXNXI.}.}.N.Y.Y.Y. .Y. .+ + D ( t % % 7 7 % % % % % % 7 % % % % % 7 7 7 7 7 7 7 7 7 7 7 7 7 % 7 % 7 7   7   7       %   o a.a.a.a.o o % % 7 7 7   7 7 7 7 ",
"M [ M Z M Z M M M M M M [ [ [ [ X.X.X.[ O.O.^ ^ ^ ^ ^ ^ ^ ^ S Z Z Z Z S S Z Z Z S ^ Z S ^ S ^ ^ O.Z Z Z Z Z Z [ [ X.[ [ [ [ [ [ X.[ X.X.X.X.O.O.O.s.s.s.s.X.[ X.[ X.X.[ [ [ [ [ [ O.[ O.O.s.s.O.^ S _.S S S S S ^ ^ ^ S S S Z Z M Z Z Z Z Z Z Z Z S S Z S S S S S S Z Z Z X.X.X.8.T.<.^.^.w.w.].w.w.w.w.w.w.w.w.t.2X2XzXzXI.I.3.3.3.3.3.  7 t @ @ 3 3 N.3.6XuXiX!.E.5XM M M M M [ M [ M [ M M M M [ !.3XuX6XuX3XiX!.E.M M M M M M M M M M M M M M M M M M M M M M M M M !.!.iX3XuXuX6X2X}.zX}.}.I.VXVXVXVXVXzXzXzXzXt.t.t.t.t.t.t.J.t.J.t.J.t.t.t.t.t.t.J.t.t.t.t.t.t.t.t.2X2X2X2XzX}.}.}.}.3.3.% % % %   % 3.3.3.                        7   % 7 % % % % 7 7 7 7 7 7 7 7 7 7 7 7 7 7 % 7 7 7 % 7   7 7   7 t ( ( Y.N.}.uX!.E.E.5XE.M E.E.3X6XI.N.N.N.=X=XN.I.I.}.2X6XuX3X!.E.^ ^ O.O.O.O.O.O.O.O.O.O.E.O.5XE.iXuX}.I.=XY. . . . . . . . . . .+  .Y. . . . . . .Y. . .NX .Y. .+ D ( 7 % % 7 N.N.=XY.Y.=X}.6XuXuX}.N.Y.Y.Y. . . .+ D ( t % % 7 7 % % % % 7 7 7 % % % % % 7 7 7 7 7 7 7 7 7 7 7 % % 7 % 7 7   t   7   7         o a.a.a.a.o   % 7 7 7 7 7 7 7 7 7 ",
"[ M Z M Z M M M M M [ M [ [ [ X.X.[ [ [ O.O.^ ^ ^ ^ ^ ^ ^ ^ ^ Z Z ^ S S S ^ ^ ^ Z Z S S S S ^ ^ ^ ^ S Z Z Z X.Z X.[ [ [ [ [ [ X.[ X.X.X.X.X.X.O.O.s.s.s.s.[ [ [ X.[ X.[ [ [ [ Z Z Z O.O.O.O.O.O.^ S S S _.S S S S S S S ^ S S S M S Z S S Z ^ ^ ^ Z Z S S S S S S S Z Z X.X.8.l.T.T.e.e.p.^.p.^.^.^.^.^.^.^.^.^.w.w.w.w.2XzXzXzX}.}.3.3.3.7 t N.N.3 =X=XN.I.}.2XuXiXE.M E.M [ [ [ [ [ M [ M [ E.M E.iX6XzXVXzXzX6XiXE.M 5XM M E.M E.M E.M E.[ E.[ E.[ [ M [ M M M M M E.~.uX2XzXI.zXI.VXVXVXVXVXVXVXVXzXzXzXzXt.t.t.t.t.t.t.t.J.J.J.J.J.J.sXt.sXJ./.J.J.J.J.J.t.t.t.t.t.t.2Xt.2Xt.2X2X2X}.}.}.3.% % % % 7   3.3.7 3.o o o   % % 7 % % % 7 7 7 7 7 7 3.7 3.3.7 7 3.7 7 7 7 7 7 7 7 7 % % % 7 7 7 7 7 7 7   % t ( D Y.N.}.3X!.E.E.E.O.M 5XE.!.iXuX}.I.I.N.I.}.6XuX3XiX!.!.E.E.^ ^ ^ O.O.O.s.O.O.O.O.O.E.O.E.^ 5XE.iXuX}.=XNX .NX . . . .+ + + + +  . . . . . . . . . .NX . . . .+ D ( @ 7 3.N.N.=X=XNX=X}.uXiX!.iXuXI.Y.NX . . .+ D ( t 7 7 7 7 7 7 7 7 7 7 3.7 7 % 7 7 7 7 % 7 7 7 7 7 7 % 7 % 7 % 7 7 7 % 7 7 7 t 7 7       o o a.a.a.a.o % 7 7 7 7 3.    % % 7 ",
"M [ M Z M Z M Z [ M M M [ [ [ [ X.X.[ [ O.O.^ ^ ^ ^ O.^ ^ ^ ^ Z ^ Z ^ S ^ ^ Z ^ ^ Z S S _.S S ^ ^ S S Z Z Z Z [ Z [ [ [ [ [ [ [ [ X.[ X.X.X.X.O.O.s.s.s.O.X.X.[ [ X.[ [ Z [ [ [ Z Z O.O.O.O.O.^ ^ S S S _.S S S S ^ S ^ S S S S Z Z Z S S Z ^ ^ O.^ Z S S S S Z Z Z Z X.X.l.T.T.e.p.p.p.p.p.p.p.p.p.p.p.p.p.p.p.e.^.^.^.w.w.2X2X2X}.}.I.I.I.I.N.N.=X=X=X=X=XVXI.6XiXE.M M E.[ E.[ M [ [ [ [ E.[ M E.iX6XzXVXVXzX6XiXE.M E.M E.M [ E.M E.[ [ E.[ [ F.[ [ [ [ [ [ M [ [ [ ~.6XzXVXVXVXzXzXzXzXzXzXzX2XzXzXzX2Xt.t.2Xt.t.J.J.J.J.J.J.J.J.J.sXt.sX/.J.sXJ.sXJ.sXJ.J.J.J.J.t.t.t.w.w.w.t.2X2X2X}.}.3.3.% % 7 7 % % % 7 3.3.3.3.3.3.7 7 7 7 3.I.3.3.I.3.I.3.I.7 I.7 I.7 3.7 7 7 7 7 7 7 % % % % % % %     7 t 7 7 t ( ( Y.N.6XiXE.E.O.M O.M O.M E.E.!.uX2X}.}.6X3X!.E.E.5X_._.5X^ E.O.E.O.E.O.O.O.^ ^ O.O.s.O.O.5X_.5XE.iX6XN.NX . . . . . . .+ + +  . .NX .NX .NX .NX . . .+  . . .Y.D ( @ t 3.3.N.=XNX=XI.6X!.E.E.!.3X2X=XNXY.Y.Y.+ ( t 7 t t t 7 @ 7 7 7 7 7 7 7 7 7 7 7 7 7 7 7 7 7 7 7 7 7 7 7 7 7 7 7 7 7 7 7 t 7 t 7 %   o o o a.a.a.a.o 7 t t t t t 7 % % 7 t ",
"F.[ [ Z Z Z Z [ Z Z [ Z [ [ [ X.[ [ [ Z O.^ ^ _.^ ^ ^ ^ ^ ^ ^ ^ Z Z ^ ^ S ^ Z ^ ^ ^ S S _.S S S S ^ ^ ^ ^ Z Z [ [ X.Z [ [ X.[ X.X.X.X.X.X.X.X.O.s.s.s.s.s.X.X.X.X.X.[ [ [ [ O.[ O.Z ^ ^ ^ ^ ^ ^ S S S S S S S S S ^ ^ ^ ^ M ^ O.O.O.^ ^ ^ ^ ^ Z Z Z S S S S Z Z X.X.T.T.T.T.'.p.'.p.p.p.p.p.p.p.p.p.p.p.p.p.p.p.e.p.p.].^.^.^.GXw.2X2XzXzXzXI.I.VX=XVX=XVXVXVX2X3XE.5XM M M [ [ M [ [ M E.[ [ M E.E.F.iX6XzXzXw.~.E.M M M M M E.M [ M E.[ E.[ [ E.F.[ [ [ [ [ [ [ M [ [ F.~.6XzXzXzX2X2Xw.2Xw.2X2Xt.2Xt.t.t.t.t.t.J.J.J.J.J.P.4.J.4.J.4.J.sXt.sXJ.J./.J.J.J.J.J.J.J.J.t.t.w.w.w.w.w.w.2X2X2X}.3.7 % % 7 7 7   7 7 7 3.3.3.3.3.3.I.I.N.I.7 I.I.7 I.I.I.I.I.I.I.7 7 I.7 I.7 N.7 t 7 7 7 7 % % %   o o % 7 t @ @ 7 N.=X}.uX!.E.E.M O.M O.M M E.E.E.iX6X}.6XiXE.5X5X5X5X5X5X^ ^ O.^ O.^ O.O.O.^ ^ O.O.O.O.E.O.E.E.E.!.iX6XI.Y. .NX . .+  . . .+  . . .Y.Y.Y.Y.NX .Y.+  . .+ +  . .D ( t 7 7 3.I.N.=X=XzXuX!.E.E.E.E.iX6X=XNXY.Y.Y.D ( t 7 t @ t 7 7 7 t 7 7 7 I.7 7 7 7 7 7 7 7 7 7 7 7 7 7 7 7 7 7 7 7 7 7 7 7 7 t 7 t 7 %   o o a.a.a.a.o 7 7 t t 7 t t t t t t t ",
"w.^.~.F.s.O.O.O.Z Z Z [ Z [ [ [ [ Z Z ^ ^ ^ ^ ^ ^ ^ ^ ^ ^ ^ O.^ Z ^ ^ ^ ^ ^ ^ ^ M ^ ^ O.O.O.^ S S ^ ^ ^ S Z O.O.O.[ [ X.[ X.[ X.[ X.X.X.X.X.X.s.O.s.s.s.O.s.X.F.X.X.X.[ [ O.s.s.O.^ Z ^ S S S S S S S S S S S S ^ ^ ^ ^ ^ O.[ O.O.O.O.O.O.^ O.^ Z Z Z Z Z Z X.8.T.^.^.p.p.'.p.p.p.p.p.p.p.p.PXp.p.p.p.p.p.p.p.p.p.p.p.p.e.^.<.^.^.GXw.2XlX2XlXzX-XzX-XzXVXzX2X3Xs.^ ^ ^ ^ O.O.Z Z [ O.[ [ M [ [ [ [ [ F.3Xw.w.3Xs.M M M [ E.[ M [ E.[ [ M [ [ F.[ X.[ F.[ [ [ [ [ [ [ [ [ F.3Xw.2Xt.2Xt.t.t.2Xt.t.t.t.t.2Xt.t.t.t.t.J.J.J.J.J.J.J.J.J.J.J.J.J.J.J.4.J.J.4.J.J.J.J.J.J.t.t.w.w.w.w.w.w.w.6X2X}.I.7 7 7   7   t 7 7 N.N.I.I.I.I.I.3.I.I.I.I.I.N.I.I.I.I.N.I.I.I.I.I.I.I.N.I.N.I.N.I.3.3.3.7 7 7 7 t t 7 3.7 N.N.3.N.=X}.uXiX!.!.O.M [ O.O.E.M E.E.iX2XI.}.3XE.5X5XE.5X5X^ 5XO.E.O.^ E.O.O.^ O.O.O.O.E.O.O.!.3XuXuX6X2XI.=XY. . . . .+ +  . . . .NXY.=XI.}.}.=XY.Y.Y.+  .+ +  .+ ( t 3.3.3.N.N.I.I.2XuXiXE.5XE.E.E.!.3X}.NXNXY.=X( ( t 7 7 t t @ 7 @ 7 t 7 t 7 N.7 t 7 t 7 7 7 7 7 7 7 7 7 7 7 7 7 7 7 7 7 7 7 t 7 t t 7 %   o a.a.a.o o 7 t t t 7 % 7 t t t t t t ",
"HXJ.t.w.^.8.O.O.Z X.Z Z Z Z Z Z Z Z Z ^ ^ ^ O.^ ^ ^ ^ ^ O.^ O.Z ^ Z ^ ^ ^ ^ ^ O.^ ^ O.F.~.~.~.!.s.O.O.O.O.s.s.s.[ [ [ [ X.[ X.X.X.X.X.X.X.X.s.O.s.s.s.s.s.X.X.X.X.X.X.O.O.X.O.O.Z Z Z S S S S S S S S S S ^ S ^ S ^ ^ ^ ^ ^ O.O.O.O.O.O.O.O.O.O.Z Z Z X.X.l.T.T.^.p.p.p.p.p.p.p.sXp.p.p.p.p.p.p.p.p.p.PXp.PXp.p.p.p.p.p.'.p.^.^.^.^.GXGXGXcXlXlXlXlXlXlXlXw.uX~.s.O.O.O.[ O.[ O.X.[ O.[ O.X.O.O.[ s.X.F.F.~.F.F.[ M M M O.[ [ O.[ [ O.M O.[ O.[ E.[ [ [ [ X.X.X.[ [ [ [ [ F.^.w.t.t.t.t.t.t.t.t.t.w.t.w.t.t.t.t.t.J.t.J.J.J.J.J.FXJ.J.J.J.J.J.J.J.J.J.J.J.J.J.J.J.t.t.t.w.w.w.w.w.w.uXw.6X6X2XI.7 7 7 7   t t 7 7 I.I.I.}.I.}.I.I.I.zXI.zXI.I.zXI.I.I.zXI.I.}.}.}.I.}.I.I.I.I.I.N.I.N.I.I.I.7 N.N.7 3.3.I.7 N.I.N.N.I.2X6XuXiXF.[ M O.[ O.E.F.iX6XzXVXI.uX!.5X5X5X^ ^ ^ O.O.^ O.O.^ O.E.O.O.E.O.O.^ O.s.~.6XzXzXVXNXNXNXNX . . . . . .+ Y. .NXY.N.}.6XuX6XI.Y.NXY. . .+  . .+ D @ 7 3.3.I.I.}.6X3X!.!.E.E.E.E.E.!.3X6X=XNXY.=XN.t t 7 % % 7 t t 7 @ 7 7 t 7 7 t 7 t 7 t 7 t 7 t 7 t 7 7 7 7 7 7 7 7 7 7 7 t t 7 t t 7 %   o a.a.a.o % 7 t t t 7     7     7 t t ",
"&.6.9.J.cX^.8.8.X.X.X.X.X.X.X.X.X.O.O.O.O.O.^ ^ ^ ^ ^ ^ O.^ ^ O.^ ^ ^ ^ ^ ^ O.^ O.O.O.s.~.uX6XuX3X3X~.~.3X~.~.F.s.[ O.X.[ X.X.X.X.X.X.X.F.X.X.O.s.s.s.s.s.O.s.X.F.X.s.X.O.O.O.Z Z S S S S S S S S S S S S S ^ S ^ S ^ ^ ^ Z O.[ O.O.O.O.O.O.O.X.O.X.X.8.T.T.^.p.p.p.p.p.p.p.p.p.p.p.p.p.p.p.p.p.p.p.p.p.p.p.p.p.p.p.p.p.p.p.p.p.^.^.^.^.^.^.].].cX/./.t.t.w.w.^.<.<.<.<.8.8.8.8.X.8.X.8.X.8.X.F.F.F.F.F.F.F.X.O.X.O.[ X.X.s.X.s.X.O.X.[ [ [ X.O.[ [ O.[ [ [ X.X.X.X.X.X.F.<.w.w.t.t.t.t.t.t.t.t.t.t.t.t.t.t.t.t.J.t.J.J.J.J.J.J.J.J.J.J.J.J.J.J.J.J.J.J.J.J.J.J.J.t.t.t.w.w.w.w.^.w.w.w.w.6X2XI.I.7 7 t   t 7 7 3.I.I.}.zXI.VXVXVXVXVXVXVXVXVXVXVXVXVXVXVXVXI.zXzXI.zXI.zXI.I.I.I.I.I.I.I.I.I.I.I.I.I.N.I.N.N.N.I.=XI.I.zX2X3XF.[ [ [ E.[ E.!.iX6X}.VXVX2X3X!.5X^ 5X^ E.^ E.O.^ E.O.^ O.O.O.s.E.O.E.O.E.!.uX2XVXNXNXNX .NX . . .+  . .Y.Y.NXNX=X}.uXiXiX3X2X=XNXNX .+  . . .+ D ( @ 7 3.] uX3XiX!.E.E.E.^ E.s.!.iXiX3X}.=XY.=Xt 7 7 t 7 7 t 7 t t 7 N.7 t 7 N.7 t 7 t 7 t 7 t 7 t 7 7 7 7 7 7 7 7 7 7 7 7 t t t t t 7 % o o a.a.a.o 7 t t t 7   o       t t t t ",
"9.9.J.P./.].^.^.<.hX8.hX<.8.8.8.8.8.s.s.O.^ ^ ^ ^ s.O.^ ^ O.^ O.Z ^ ^ ^ ^ ^ ^ O.M ^ O.O.~.uX2XzXzX2X2X2Xw.uX~.F.s.O.X.O.X.X.X.X.X.X.X.X.X.F.s.O.s.s.CXs.s.s.X.s.X.s.O.O.Z Z Z S S S S S S S Z S S S S S ^ ^ S ^ ^ ^ ^ ^ O.^ Z O.O.O.O.O.O.O.X.X.X.X.8.T.e.p.p.p.p.p.p.p.p.p.p.p.e.e.e.e.e.e.>.e.e.'.p.'.p.p.p.sXp.p.p.p.p.p.p.p./ p.'.'.^.'.^./ ].]./././.t.].w.].t.].].].^.^.^.^.^.^.^.<.<.^.<.<.<.^.<.<.<.8.8.8.8.8.8.8.<.8.<.8.8.8.8.F.F.8.F.F.X.[ [ [ X.X.X.X.X.X.X.T.w.t.t.t.t.J.J.J.P.J.J.J.J.J.J.J.J.J.J.J.J.J.J.J.J.J.J.J.J.J.J.J.J.J.J.J.J.J.J.J.J.J.J.t.t.t.t.w.w.w.w.w.w.w.w.w.6X2X}.3.7 7   t t 7 % 3.}.zXzXVXVXVXNXNXv.NXv.VXv.v.v.v.v.v.VXv.VXVXVXVXVXVXVXVXVXVXzXVXzXI.I.I.I.I.I.I.I.I.I.I.I.N.=X=XN.=XVX}.6XiXF.[ E.[ E.[ E.!.!.iXuX2XzXzX2X3X~.s.O.E.O.O.O.O.O.O.^ E.O.E.O.E.O.O.O.^ O.s.~.uXzXVXNXNXNXNX . . .+  . .NXNXNX=X}.uXiX!.!.iX6XI.NXNX . . . . . .D ( @ 7 }.uXiXE.5X5X5XO.E.O.O.!.~.~.iXiX6XI.=XN.3.3.t t t t t t @ 7 t t 7 t t 7 t 7 t 7 7 t 7 t 7 t 7 t 7 t 7 t 7 t 7 t 7 t t t t t t 7 % o a.a.a.a.o 7 7 7 7   o o     t t t t t ",
"/././././.=.=.=.0X/ ]./ 0X/ GX/ GX^.<.8.O.^ ^ ^ O.s.O.O.O.^ O.^ O.^ ^ ^ ^ ^ ^ O.O.^ ^ ^ s.~.uXzXzXzXzX2Xw.3XF.s.O.O.X.X.X.X.X.X.X.X.F.X.F.X.s.O.s.s.s.s.s.s.s.X.s.X.O.Z Z Z S S _.S S S S Z Z Z Z Z Z ^ ^ ^ ^ ^ ^ ^ ^ ^ O.^ O.Z O.X.O.O.X.O.X.X.8.l.T.e.p.p.p.p.p.p.p.sXp.p.p.e.e.e.>.>.>.>.T.T.T.T.T.e.p.p.p.p.p.p.p.p.p.p.p.p.p.p.e.'.p.'./ p./ / / ].]./.]././././.P./././././././././.]./.]./.].]./.].].].].].].].].].].].].].].^.^.^.^.^.<.~.8.F.X.X.X.[ X.X.X.F.l.^.t.J.J.J.J.J.J.sXJ.J.J.J.J.J.J.J.J.J.J.J.J.J.J.J.J.J.J.J.J.J.J.J.J.J.J.t.J.J.J.J.J.J.J.J.J.t.t.w.w.w.w.w.w.w.w.w.w.6X}.3.7 7 7   t 7 3.}.}.zXVXVXVXv.v.v.v.v.v.v.v.v.v.v.v.v.v.v.v.v.v.v.v.v.v.v.VXv.VXv.VXVXVXVXVXVXVXzXI.zXI.I.I.I.=X=X=XVXI.6X3X!.E.[ E.F.s.[ E.[ E.E.!.3X6XzXzXzX6X3X~.s.O.O.^ ^ E.O.O.O.O.O.O.O.O.E.s.E.^ E.s.iXuX2XVXNXNXeXNX . .Y. .Y. .NXY.zX6XiX!.s.!.~.3X2X=XNXNX . . . .+ D @ 7 3.}.uXiXE.5X5XE.O.O.O.O.s.!.!.!.!.3X6X}.I.3.3.7 t t 7 @ @ 7 @ t t 7 N.7 N.t N.t t t t t t t t t t 7 t 7 7 t 7 7 t 7 t t t t t t 7 % o a.a.o o o     o o o o o o   7 t t t N.",
"/.=.].=.=.=.=.=.=.=.=.0X].=./.=.].cXGX<.s.^ ^ CXs.s.O.^ O.O.O.^ O.Z ^ ^ ^ ^ O.O.O.^ ^ ^ O.s.~.6X2X2Xw.uX~.F.O.O.X.s.X.s.X.X.X.F.X.l.X.F.X.s.s.s.s.s.CXs.s.s.s.s.s.X.Z S S S S S S Z S S Z Z Z Z Z Z ^ ^ ^ O.^ O.^ E.O.O.O.O.O.O.O.O.X.X.X.X.X.8.l.T.e.e.p.e.p.p.p.p.p.p.p.p.e.>.>.>.>.>.>.l.l.8.8.8.T.T.e.e.p.p.p.p.p.p.p.p.p.p.p.p.p.p.p.p.p.p.p.p.p.p.'.p.'./ ].pXpX/.XXXXP.P.P.P.P.P.P.P././.P.P.P.P.P././././.P.P././.P.t.P.t././.].].].w.^.^.^.<.~.8.F.X.X.X.X.l.<.].J.J.J.J.4.J.J.J.J.J.J.J.J.J.J.FXJ.J.J.J.J.J.J.J.J.J.t.t.t.t.t.J.J.t.t.t.t.t.J.J.J.J.J.t.J.J.t.w.w.w.w.w.w.w.w.w.uXw.2X}.3.7 7 7 7 3.3.}.zXVXVXv.v.v.v.v.v.v.v.v.v.v.v.v.v.v.v.v.v.v.v.v.v.v.v.v.v.v.v.v.v.v.v.v.VXv.VXVXVXVXVXzXI.I.I.I.I.}.6X3X!.E.[ E.F.E.[ E.[ E.E.[ E.!.iXuXzXVX-X2X3X!.O.O.^ O.O.O.E.O.E.s.E.s.O.O.O.O.O.O.E.E.!.3X6XI.=XNXNX . . .NX .Y.=XI.6XiX!.F.F.F.!.~.6XzXNXNX . . . .+ D ( t 7 3.}.6X3X!.E.E.^ O.E.s.s.s.s.!.!.iX3X6X}.3.7 3.7 7 t t @ t @ t N.t t t t I.t t t t t 7 t t t 7 7 t 7 t 7 7 t 7 t 7 t t t t t 7 7 % o a.a.o   o o a.a.a.a.o       7 7 I.I.I.",
"/ pX`.=.pX`./ `.`.`./ `.0X=.=./.=.=.cXGX<.s.s.O.O.s.O.O.^ O.^ O.O.^ O.^ O.^ O.O.O.^ O.^ ^ ^ O.~.3X3X~.F.O.^ [ O.O.O.X.s.X.F.X.F.X.F.X.F.X.s.s.O.s.s.CXs.s.s.s.8.F.O.Z Z Z Z Z Z Z Z Z Z Z Z Z Z Z [ O.O.O.O.O.O.O.O.O.E.O.O.O.O.X.s.X.s.X.8.l.T.T.T.T.>.e.e.e.e.e.e.p.e.e.>.>.>.>.>.>.l.T.l.8.8.8.8.8.T.T.>.>.>.e.e.e.>.e.e.e.e.e.p.e.p.p.p.p.p.pXp.p.p.p.'.p.'.p./ / / pXXXXX+.XX+.XXXXXXXXXXP.XXP.P.+.P.P.P.P.P.P.P.P.P.P.P.P.P.P./././.].].].w.w.^.w.^.<.<.8.F.X.F.^.w.J.J.FXJ.J.J.FXJ.J.FXJ.FXJ.FXJ.J.FXJ.J.J.J.J.sXt.sXt.t.t.w.w.w.t.t.t.t.t.w.w.w.t.t.t.t.J.J.t.J.w.w.w.w.w.].w.w.w.w.6X2X}.I.I.3.7 3.3.}.}.VXVXv.v.v.v.v.v.v.v.v.v.v.v.v.v.v.v.v.v.v.v.v.v.v.v.v.v.v.v.v.v.v.v.v.v.v.v.v.v.v.v.NXVXI.zXI.}.2XuXiX!.E.E.E.E.[ F.F.[ E.F.E.E.E.E.s.~.uX2XzX6X3Xs.O.O.^ ^ O.O.O.s.s.s.s.O.O.O.s.E.s.s.s.O.E.E.iXuX}.=XNXNXNX .NXNX=X}.uXiX!.F.F.~.F.F.~.3X2XVXNX . .+  .+ ( @ N.N.=XN.}.uXiX!.E.O.^ s.O.s.O.E.s.E.E.!.iX6X3.t 7 % 7 t @ t t t t t 7 N.7 N.t t t t 7 t t N.t t t t 7 t 7 t 7 t 7 t 7 t t t t t 7 7   o a.a.  % o a.a.] ] a.a.% 3.3.I.I.I.}.2X",
"/ / / / / / './ / / / / / / / =.=.].=.0XGXhX8.>Xs.s.O.O.O.O.^ O.^ O.^ O.^ O.O.O.O.O.^ ^ O.^ O.E.F.s.s.O.[ O.O.O.X.X.s.X.s.X.X.X.8.X.8.X.8.X.s.s.s.CX8.8.8.8.8.8.8.X.X.O.O.O.O.O.O.O.Z Z Z Z Z [ [ O.X.O.O.O.E.O.O.s.s.F.F.s.s.X.s.X.8.8.l.l.T.T.>.>.>.>.>.>.>.>.e.>.>.>.>.>.>.>.>.>.>.l.T.8.8.8.CX8.8.T.T.>.>.>.>.>.>.>.>.x.>.e.e.e.e.e.e.p.p.p.p.p.p.p.pXp.p.p.p.p.p.p./ pXXX4.XXXX+.XXP.XXP.P.P.XXP.P.P.+.P.P.P.+.P.+.+.+.+.+.+.P.P./././.].].].].w.].w.].^.^.<.8.<.^.t.t.t.J.J.J.J.J.J.J.J.J.J.J.J.J.HXJ.J.J.J.t.t.t.w.t.w.].w.w.w.w.w.w.w.w.w.w.w.w.w.w.t.t.t.t.t.t.w.w.w.w.w.w.w.w.w.6Xw.2X}.I.I.I.I.I.I.}.}.VXv.v.v.v.v.v.v.v.v.v.v.v.v.v.v.v.v.v.v.v.v.v.v.v.v.v.v.v.v.v.v.v.v.v.v.v.v.v.v.v.v.NXv.VXVXVXzX6XiX!.E.E.[ [ F.F.F.E.F.F.F.E.E.O.E.E.s.!.3X~.~.s.O.O.O.O.O.O.O.s.E.s.O.O.O.O.s.O.O.s.s.E.E.E.E.E.!.3X}.=XNXNXNXY.=X}.uXiXF.F.~.~.F.~.F.F.~.6XzX=XNXY.Y.Y.D N.3.3.3.}.2XuX3X!.E.O.E.O.s.O.s.!.s.!.!.E.E.iXuX}.N.@ 7 t @ t t t t @ t t t t t t t N.t N.t t t 7 t t t t 7 t 7 t 7 t 7 t t @ @ t t 7 7 % o o o 3.3.a.] 6X6X] ] 3.3.I.I.I.zX2X2XGX",
"'.'.'.'.'.'.'.'.'.'.'.'.'.'.'./ / =./.=.cX0XhXhX>X8.O.O.^ ^ O.O.^ O.Z O.Z O.^ O.^ O.O.O.O.O.O.O.s.O.O.O.O.X.O.X.O.X.X.X.X.8.X.X.X.X.X.8.X.8.X.8.>X8.8.8.<.<.hX^.hX<.8.>X8.>X8.>X8.8.8.X.X.X.X.Z [ O.O.^ ^ O.O.O.O.s.F.~.8.8.X.8.8.8.l.T.T.T.>.l.>.l.>.T.>.>.>.>.>.>.>.>.>.>.>.>.>.>.l.T.8.8.CXCXCX8.8.T.l.>.>.>.>.>.>.>.>.>.>.>.>.>.e.e.e.e.e.e.e.p.e.p.p.p.p.p.p.p.pXp.p.p.pXsXXX4.XXP.XXP./.XX/././.P.P.P.P.+.+.P.+.FX+.+.FX+.J.+.P.+.P././.].].].].].].].t.].w.^.].w.w.t.t.t.J.t.J.J.J.J.J.J.J.J.J.J.J.J.J.J.t.t.w.w.w.].w.w.w.w.].w.].w.w.w.w.w.w.w.w.w.w.w.t.w.t.w.w.w.w.w.w.w.w.w.w.w.6X6X2XzXI.I.I.I.I.}.zXv.v.v.v.v.v.v.v.v.v.v.v.v.v.v.v.v.v.v.v.v.v.v.v.v.v.v.v.v.v.v.v.v.v.v.v.v.v.v.v.v.v.v.NXv.NXv.VXzXw.~.F.[ [ F.[ F.[ F.[ F.F.F.X.E.O.O.E.O.O.E.E.^ ^ O.E.^ O.O.s.[ s.O.O.O.O.s.O.O.s.s.O.O.E.E.E.E.E.!.uXI.NXNX=XI.2X3X~.F.F.F.l.~.l.F.X.~.~.3X2XzX=XNXNXY.Y.N.}.6XuXiXiX!.E.E.O.E.s.s.s.E.s.s.!.~.3X3X3XuX6X3.N.( t t ( t t @ t @ @ t t t N.t t t t t t N.t N.t t t t t t t t t t t t t @ @ t t t t 7 7 % 3.3.}.] uXiXiXuX6XI.I.VXI.lX2XGXGXGX",
"'.'.'.'.'.'.'.'.'.'.'.'.'.'.'.'./ `.=.=.=.=.0X/ hX<.8.O.O.O.O.Z O.O.O.O.O.O.O.O.O.O.O.O.O.O.s.X.O.X.O.X.X.O.X.X.X.X.X.X.>XX.>XX.>X8.>X8.>X8.8.>X<.hXhXhXhX'./ / / / hXhXhXhX<.<.8.<.8.8.8.8.X.X.X.X.O.Z O.O.^ O.O.s.8.8.~.8.l.l.l.T.T.T.>.>.l.>.>.>.>.>.>.>.>.>.>.>.>.>.>.>.>.>.>.>.l.l.8.8.CXCXCXs.8.T.>.>.>.>.>.>.>.>.>.>.>.>.>.>.>.e.>.e.e.e.e.e.e.e.e.p.p.p.p.p.p.p.p.p.pXsXpXsXXXP.P.P.P.P.J././.P.J.+.J.+.J.+.+.P.+.P.P.+.XX+.P.XX+.P.P././.].].].].].].].w.].w.].w.w.t.t.t.J.J.J.J.J.J.J.J.J.J.J.J.J.t.t.t.t.w.t.w.w.w.].w.].w.w.w.w.w.w.w.w.w.w.w.w.w.w.w.w.w.w.w.w.w.w.w.w.w.w.6Xw.6Xw.2XzXI.VXI.I.zXzXVXv.v.v.v.v.v.v.v.v.v.v.v.v.v.v.v.v.v.v.v.v.v.v.v.v.v.v.v.v.v.v.v.v.v.v.v.v.v.v.v.v.v.v.v.v.v.v.v.HXzXw.3X~.F.X.[ [ F.[ X.F.F.F.E.F.O.E.O.E.^ ^ ^ 5XE.O.O.O.E.[ E.O.s.O.E.O.s.s.O.O.s.O.O.^ E.E.E.5XE.!.uXI.Y.=X}.6X3X~.F.F.F.~.l.l.~.l.F.l.~.~.uX2XI.NXNXY.=XI.6X3X!.E.5XE.E.E.s.!.s.s.s.s.E.s.!.iXuX2X2X}.I.N.N.@ 7 7 t ( t t t @ @ t t t t t ( t ( N.t t N.t t ( t t t t t t t t t 7 t t @ @ @ @ t 7 7 % 3.3.}.6XiX!.!.iXuX}.VXVX-XlXGXGX<.GX",
"'.'.'.'.'.'.'.'.'.'.'.'.'.'.hX'./ / / =./.=./.0X0X/ <.8.8.8.X.O.O.X.O.O.X.O.X.O.X.X.s.X.s.X.s.X.X.X.X.X.X.8.X.X.>XX.X.>XX.8.8.8.T.<.<.hX/ / 0X/ hX/ / / ].=.].=.=.].=.]./ hXhXhX<.hX<.hX<.<.T.8.8.X.X.O.O.O.O.O.O.F.8.8.8.l.8.l.T.T.>.>.l.>.>.>.>.>.>.>.>.>.>.>.>.>.e.>.>.>.l.>.>.>.T.8.8.CXCXCXCX8.8.T.>.>.>.>.>.>.>.>.>.>.>.>.>.>.>.>.e.>.e.e.e.e.e.e.e.>.e.e.p.p.p.p.p.p.p.p./ sXsXsX/.P.J.P.XXP.J.P.P.P.P.+.+.P.+.P.P.XXP.XXP.XX+.XXP.XXP.P./././.].].].].].].].w.].w.].w.t.t.t.J.t.J.J.J.J.J.J.J.J.J.J.J.t.t.t.w.].w.].w.].w.].w.sXw.w.w.w.w.w.w.w.w.w.w.w.w.t.w.t.w.w.w.w.w.w.w.w.w.6Xw.2X2XzXzXVXzXzXzXVXVXv.v.v.v.v.v.v.v.v.v.v.v.v.v.v.v.v.v.v.v.v.v.v.v.v.v.v.v.v.v.v.v.v.v.v.v.v.v.v.v.v.v.v.v.v.v.(.v.v.v.HXt.w.~.F.[ [ [ F.[ [ F.F.F.[ s.O.E.O.E.E.^ ^ E.O.E.O.s.O.O.s.s.O.s.s.s.O.s.s.s.s.!.~.!.!.!.!.iXuX}.=X=X}.6XiX!.F.F.~.F.~.l.~.l.~.l.F.~.~.3XuX2X=XNXY.=X}.6XiX!.E.5X5XE.E.s.s.!.s.F.s.s.s.!.~.3X2XzXVXN.N.N.t 7 t ( ( t @ t @ @ t t ( t t t t t @ t N.t ( t t t t t t t t N.t t t t t @ @ @ @ t 7 % 3.3.}.6X3X!.E.!.!.3X2XVXVX-XcXGX<.<.^.",
"'.'.'.'.'.'.'.'.'.'.'.'.'.'.'.'.hX'./ / =.@.@./.=.=.].^.^.<.8.8.>X8.>XX.>Xs.>X8.>X8.>X8.>X8.>X8.8.8.>X8.>X8.>X8.>X8.>X8.T.hXhX'./ / / / =.0X0X0X=.0X/.=.=.=.pX=.pX/.=.=.=./ / hXhX<.^.^.hX^.<.<.T.8.8.F.s.s.O.O.X.F.8.8.l.l.l.l.>.>.>.>.>.>.>.>.>.>.>.>.>.>.>.>.e.>.>.e.>.>.>.>.>.T.l.8.8.CXCXCXs.8.8.T.>.>.>.>.>.>.>.>.>.>.>.>.>.>.>.>.>.>.>.>.e.e.e.>.>.>.>.e.e.e.p.p.p.p.pXp.sXp./ ].]././.P.FXP.P.P.P.P.P.P.P.P.P.P.+.P.+.P.XXP.XXP.XXP.P.P./././.].].].].].].w.].].w.].w.cXt.t.t.t.J.J.HXJ.J.J.J.t.J.#XJ.t.].].].t.].t.].].].w.].w.].w.w.w.w.w.w.w.w.w.w.w.w.w.w.t.w.w.w.w.w.w.w.6Xw.w.6Xw.6X2XzXzXzXzXzXVXv.v.v.v.v.v.v.v.v.v.v.v.v.v.v.v.v.v.v.v.v.v.v.v.v.v.v.v.v.v.v.v.v.v.v.v.v.v.v.v.v.v.v.v.v.v.v.v.v.v.v.v.HXt.w.~.X.[ X.[ F.F.F.F.F.F.F.E.O.E.O.^ E.O.O.s.O.s.s.s.s.s.E.F.s.O.O.s.s.s.s.F.3X6XuXuXuX6X] 3.=XY.I.6XiX!.!.!.F.F.F.l.F.l.~.l.~.~.~.F.~.iX6XI.=X=XN.I.}.uX3X!.E.E.E.s.E.s.F.F.~.F.F.!.~.~.3X6X2XzXVXN.I.7 7 t t t t @ t @ @ t t t t t ( t @ t @ t ( t t ( t t t t 7 7 t t t t t 7 t N.@ @ 7 % 3.3.}.6X3X!.!.E.E.!.iXuXzXVXlXGX<.8.CX<.",
"'.'.'.'.'.'.'.'.'.'.'.'.'.'.'.'.'.hX/ / `.=.=.=.@.@.=.].].0X/ hXhX<.>X8.T.<.<.>X<.>X<.hX<.hX<.hX^.hX^.hX^.hXhX'.'./ / / / =.].=./.=.=./.0X/ ]./ / / / =./ =.`.=.=.@.@./.=.=.0X0X/ hXhXhX^.^.hX^.^.<.<.8.8.F.X.X.X.X.X.l.X.l.l.l.T.e.>.>.>.l.>.>.>.>.>.>.>.>.>.e.>.>.e.>.>.>.>.>.>.T.T.8.CXCXCXCXCX8.8.T.>.>.>.>.>.>.>.>.>.>.>.>.>.>.>.>.>.>.>.>.e.>.>.e.>.>.>.>.>.e.e.p.p.p.p.p.p./ p.'.p./ ].P.P.+.P.P.P.P.P.P.+.P.+.P.+.P.+.P.+.P.+.XX+.P.+.+.P.P././././.].].]./.].cX].cX].w.].w.t.t.t.J.J.J.#XJ.t.P.t.J.J./.].].]./.]./.].].].].].].].].].^.w.^.^.w.w.w.w.w.w.w.w.t.w.w.6Xw.6Xw.w.w.6Xw.w.6Xw.w.2XzXzXzXVXv.v.VXv.v.v.v.v.v.v.v.v.v.v.v.v.v.v.v.v.v.v.v.v.v.v.v.v.v.v.v.v.v.v.v.v.v.v.v.v.v.v.v.v.v.v.v.v.v.v.v.HX(.HXzXw.^.F.F.X.F.F.X.F.F.F.F.F.F.F.O.E.O.O.O.s.O.s.E.s.s.s.s.F.s.s.s.s.s.s.s.O.~.3X2XzXVX=X=XY.Y. .NX7 uXiX!.!.E.F.F.~.l.~.l.~.l.~.F.F.F.!.iXuX}.N.N.N.I.I.}.6XuXiX!.!.s.s.!.s.~.~.~.~.!.~.~.~.3XuX2XI.I.N.N.t t 7 t t t @ @ @ ( t t t t t t @ @ @ t t t t t @ t t 7 7 7 7 7 t @ t 7 t 7 N.7 7 N.3.}.2XuXiX!.E.!.!.!.!.iX6X2X2XGX8.s.8.<.",
"'.'.'.'.'.'.'.'.'.'.'.'.'.'.'.'.'.'.'.'./ `.`.=.=.=.=.=.=.=./.=.=.0X/ / / 0X0X0X0X=.0X0X=.0X=.].=.].=./.=././.=./.=./.=./.=.=.=.=.0X=./ hX/ hXhX/ / / / / / / =.pX=.@.@./.=./.=.cX0X/ GXhXhX^.'.^.^.^.<.8.8.X.X.X.8.l.X.l.l.l.>.>.e.>.>.>.>.>.>.>.>.>.>.>.e.>.e.e.e.>.e.>.>.>.>.>.T.8.8.CXCXCXCXCX8.8.T.>.>.>.>.>.>.>.>.>.>.>.>.>.>.>.>.>.>.>.e.>.e.>.e.>.>.>.>.>.>.>.e.e.p.p.p.sXp.p.p.'.'.p.]./.P.+.P.P.P.+.+.+.P.P.XXP.XXP.XXP.+.XX+.P.+.+.P.XXP.XXP././././.].].].t.].t.].cX].].].w.w.t.t.J.J.J.#XJ./.P././.].]./././././././.J././.].^.^.^.^.w.^.^.w.w.w.w.w.w.w.t.w.w.w.w.w.w.w.w.w.w.w.w.6Xw.2Xt.lX-X(.v.(.v.v.v.v.v.v.v.v.v.v.v.v.v.v.v.v.v.v.v.v.v.v.v.v.v.v.v.v.v.v.v.v.v.v.v.v.SXv.v.v.v.v.v.v.v.v.v.v.k.HXHXJ.J.t.w.<.~.F.F.F.F.F.F.F.F.F.E.F.F.s.O.O.O.O.s.O.s.s.s.s.s.s.s.s.s.s.s.O.O.O.s.~.uXzXNXNXNXeXNXeXNXN.6X3X!.!.[ F.F.~.~.l.~.l.F.~.F.F.!.iX3XuX}.=XN.=X=X=XVXzX2XuXiX!.s.s.F.s.F.~.F.F.F.~.~.~.~.3XuX2XI.N.N.@ @ 7 t @ @ @ @ @ t t ( t t t ( t t t @ @ @ @ t t @ t t N.7 N.t t t t N.t N.7 @ N.N.I.}.6XiX!.E.!.!.F.F.!.~.3XuXGX<.8.s.8.8.",
"'.'.'.'.'.'.'.'.'.'.'.'.'.'.'.'.'.hX'.'./ / / / / / =.=.=.=.=.=./.=.=.=.=.=./.=./.=.@./.@./.@.=.=.=.=.=./.@.=./.=.@.=.=.=.=.=.0X0X/ / / hXhX/ hX'.hX/ / / `./ / / / =.=.=.=.=.=.=.].0X/ hX'.hXT.^.^.p.^.T.8.F.X.l.X.l.X.xXl.l.>.>.>.e.>.>.>.>.>.T.>.>.>.e.>.>.>.e.>.>.>.>.>.>.>.>.T.8.8.CXCXCXCXCX8.T.T.>.>.>.>.>.>.>.>.>.>.>.>.>.>.>.>.>.>.>.>.>.>.>.>.>.>.e.>.>.>.e.>.e.>.p.p.p.p.sXp.p.^.e.'.]./.P.P.P.P.P.P././././././././.=./.=././.=./.@./.XX/././././.]./.].].].]././.]./.t.].t.].]./.t.J.P.P.P.J.P.P.XX/.XXXX+.+.m m m m _ +.+././.].^.^.^.^.^.^.w.w.w.w.w.w.w.w.w.w.w.w.w.w.w.w.w.w.w.w.w.w.w.t.HXv.v.v.HXv.v.v.v.v.v.v.v.v.v.v.v.v.v.v.v.v.v.v.v.v.v.v.v.v.v.v.v.v.v.v.v.v.v.v.v.v.SXv.SXv.v.v.v.v.v.v.HXHXt.t.2Xt.w.w.^.~.F.X.F.F.F.F.F.F.F.[ F.X.F.s.s.s.O.s.O.s.O.s.s.s.s.s.s.s.s.s.s.O.s.s.!.uXzXNXNXNXNXNXNXNXN.}.3X!.s.[ F.F.l.~.~.~.l.F.F.~.3X6X2XI.=XY.=XI.I.}.2X6X3XiX!.s.E.s.F.s.s.F.F.s.s.F.~.~.!.iX3XuX}.I.N.N.@ @ @ @ @ @ @ @ t t t t t ( t t @ t @ t @ t t 7 7 t @ N.N.@ @ t 7 7 7 7 t @ N.N.N.}.6X3X!.!.!.F.F.!.F.F.!.F.~.~.8.s.8.8.8.",
"'./ './ / '.'.'.'.'.'.'.'.'.c.'.'.'.'.'.'.'.'.'./ / `.=.=.=.=.=.@.=.@.=.=.pX=.pX=.pX@.pX@.@.@.pX@./.pX=.=.=.=.=.=.=.=./ / 0X/ / / hXhXhXhX/ hXhXhX'.hX'./ / / / / / / / / / 0X/ 0X0X0X/ '.hXT.'.T.'.^.T.T.l.l.X.l.X.l.l.l.l.>.>.>.>.>.>.>.l.>.>.>.T.T.>.>.>.>.e.>.>.>.>.>.>.e.>.e.T.8.8.CXCXCXCXCX8.T.T.>.>.>.>.>.>.>.>.>.>.>.>.>.>.e.>.e.>.e.e.>.e.>.>.e.>.>.e.e.e.e.e.>.>.e.p.p.sXp.p.p.p.e.T.T./ ]./.P.+.+.P.P.P.XX/././.@././.=.=.=.=.=././.@.XXXXXX/./././.].=./.]./.]./.t././././.t./.]./././.P.P.XX+.+.+.~ ~ ~ w H d.` d.H H H w m +.P./.].].].^.].^.w.w.w.w.w.t.w.w.w.w.w.w.w.w.w.w.w.w.w.t.w.w.t.J.HXv.(.v.v.v.v.v.v.v.v.v.v.HXHXHXHXHXHXHXHXHXHXHXHXHXv.v.v.v.v.v.v.v.v.v.v.v.v.v.v.HXHXHXHXHXv.v.v.v.v.HXJ.t.t.t.t.t.t.w.<.F.X.X.F.F.F.F.F.F.F.F.F.F.X.F.X.F.X.s.X.s.X.s.s.s.O.O.O.s.s.s.s.s.E.E.!.uX2XVXNXNXNXeXNXNXzXuXiXF.!.F.F.~.l.~.l.~.~.~.^.w.zXVXNXNX=X}.6XuX3XiX!.!.!.s.s.s.s.s.s.s.s.s.s.s.s.F.!.s.!.!.iXuX}.3.3.7 @ @ @ @ @ @ @ t ( t t t t t ( t t @ @ @ t t 7 7 t N.( N.N.N.7 7 7 N.@ N.t N.N.3.6XuXiX!.!.F.!.F.F.F.F.F.s.8.CX8.8.s.8.8.",
"/ '.'./ './ '.'./ './ './ '.'.'./ '.'.'.'.'.'.'.'./ '.`.`.`.=.pX=.pXpX=.pX=.pX=.pX=.=.=.pX@.pX=.=.pX=.pX=.pX=.`.=.`./ / / hX/ / hX/ / hX/ hX/ hX'.hX'.hXhX'.hX'./ / / / 0X].0X0X=.@.=.0X/ '.hXhXT.T.T.T.l.8.l.X.l.l.l.l.>.l.>.>.>.>.>.>.>.>.>.T.T.T.T.T.T.T.T.T.T.>.>.>.>.>.>.e.>.>.8.8.CXCXCXCXCX8.T.>.>.>.>.>.e.e.e.>.e.e.>.e.>.e.>.e.e.e.>.e.>.>.e.>.>.>.>.e.e.e.e.e.e.>.e.e.p.p.sXp.p.e.e.>.T.T./ /.+....._ _ _ _ _ +.+.+.+.+.XXXXXXXXXXXXXX+.+.+.+.+.XXXXXX/././././.]./././.P.P.P././.].].]./.XX+.+.m m Q Q Q Q Q d.d.d.d.d.d.w d.H H w +.P./.].].].].].w.w.w.w.w.w.w.w.w.w.w.w.w.w.w.w.w.w.w.w.w.w.lXJ.HXv.v.v.v.v.v.v.v.v.HXHXHXzXJ.J.t.t.t.t.t.J.J.J.J.HXHXHXHXv.v.v.v.L v.v.v.SXHXHXJ.J.t.t.t.J.HXHXv.HXHXJ.t.t.t.J.t.t.w.w.~.F.X.X.F.F.F.F.F.F.F.X.8.F.8.8.8.8.8.8.8.8.F.F.s.s.s.s.s.s.s.s.s.s.s.s.~.3X2XVXNXyXNX=XzX6X3X~.F.F.F.F.F.~.F.~.l.~.~.~.3X2XzXVXVX2X3XiX!.!.E.E.E.E.s.E.s.s.s.s.s.X.s.F.s.s.s.F.!.!.!.iXuX] 3.7 t t t @ @ @ @ @ t t t t t t ( t t ( t @ @ t t t @ N.N.N.N.N.N.N.N.N.t ( N.t N.N.I.6XuXiXiX!.F.F.s.F.s.F.s.~.s.8.s.8.8.8.l.",
"'.'./ './ './ '.'.'.'./ '.'.'.'.'.`.'.'.'.'.'./ '.'.'./ / / `.`.pX=.pX=.pX`.`.`.pXpXpXpX=.pX=.pX=.=.`./ `./ / / / / / / 0X/ 0X=.=.=.=.=.=.=.=.=.0X/ / / / / / hX/ / =.=.@.XXXXXXS.S.S.XX@.=./ '.T.l.T.l.l.X.l.l.l.l.l.l.>.>.>.>.>.>.e.T.>.T.T.T.T.T.T.<.T.<.T.T.T.T.T.T.>.>.e.e.>.T.8.8.CXCXCXCXCX8.T.>.>.e.>.e.e.e.>.e.e.e.e.>.e.e.e.>.e.>.e.>.e.>.>.e.>.e.e.>.e.e.e.e.e.e.e.e.p.p.p.p.p.e.>.e.T.T.hX/._ J J _ _ _ x x J x x x m _ m _ +.m m w w H H H x x _ _ +.+.XX/./.=./././.P.P.P./././ / / =.XXm w w w w Q M.wXM.M.M.M.M.M.wXM.wXd.w w w Q +././.].].].].w.t.w.w.w.w.w.w.w.w.w.w.w.w.w.uXw.w.w.w.w.w.w.zXHXv.v.v.v.v.v.v.HXHXHXJ.t.t.t.t.t.t.t.t.t.t.t.t.t.t.J.HXHXHXHXv.v.v.SXHXHXJ.J.t.t.t.t.t.t.J.HXHXHXHXJ.t.J.t.t.t.J.t.w.^.~.F.s.[ F.E.F.F.F.F.l.8.l.T.<.^.<.<.T.<.8.8.8.8.8.s.s.s.s.s.O.s.s.F.s.F.~.3X2XzXVXVXzXuXiX~.F.!.F.~.~.l.~.8.F.~.~.~.~.~.^.w.2X6X3X!.E.!.E.E.E.s.s.s.!.s.s.s.F.s.s.F.s.s.F.F.~.3X3X3XuX6X3.N.( @ t t @ @ @ @ @ @ t ( t ( t t t ( t @ @ @ @ @ 3 3 N.I.}.}.}.N.N.N.@ N.( ( N.N.I.I.}.6XuX3X~.F.s.F.F.F.8.F.8.8.s.8.8.X.l.8.",
"/ './ '.'./ './ './ / './ './ / '.'./ '.'.'.'.'./ './ './ / / / / `.`.`.`./ / `./ / `./ `.`./ / / / / / / / / / hX'.hX/ =.XXS.+.S.S.S.+.+.+.+.XXXXXX@.@.=.=.=.=.@.@.XX~ m m m m m m ~ Q m ~ @.'.T.l.>XX.l.l.X.l.l.l.l.>.>.>.e.>.>.>.>.e.T.>.T.T.T.T.<.8.<.8.<.8.<.<.8.T.>.>.>.>.e.T.T.8.CXCXCXCXCX8.T.>.>.e.>.e.e.e.e.e.e.>.e.e.>.e.>.e.e.e.e.>.e.>.e.>.>.e.>.e.>.e.>.e.e.e.e.e.e.p.p.e.e.>.>.>.T.T.'.=.+.m m +.+.m m x x x w w w w w w m w H H H H H H H H w x x x m +.XXP.XXXX/./././.=.0X=.=.@.XX~ w w d.w M.M.Q M.M.M.M.M.M.M.M.wXM.wXwXM.w w Q ~ XXXX/././.].]./.].w.w.w.w.w.w.GXw.uX^.uX^.^.3Xw.uXw.uXw.w.zXHXv.v.v.v.v.HXzXJ.J.t.t.t.w.t.w.w.t.t.t.t.t.t.t.t.t.t.t.J.HXHXHXHXHXHXJ.J.t.t.t.t.t.t.t.t.t.J.J.J.J.J.J.J.J.t.t.t.t.w.^.~.s.s.s.F.F.X.F.F.8.T.T.^.p.].].p.^.^.^.^.<.<.8.8.8.s.s.X.s.F.8.8.8.~.~.<.3Xw.2Xw.3X~.!.F.F.F.~.8.~.~.~.l.~.l.~.T.~.~.~.3X3X3XiXE.E.E.E.E.s.E.s.s.s.8.F.s.s.F.F.F.8.~.~.~.3X2X2X2X}.I.N.( @ t t t @ @ @ @ @ N.t t ( t t ( t t @ @ @ @ @ @ 3 3 N.}.6XuX6XI.N.N.3 ( ( ( N.7 N.I.I.}.6XuX3X~.F.s.8.s.F.8.CX8.8.8.8.8.8.T.",
"'.'.'.'.'.'./ './ '.'./ './ '.'./ / './ `.'.`.'./ './ `.'./ / / / / / / / / / / / / / / / './ / / / / / / / hX/ / hX/ 0X@.+.m x m m _ w m m m m m ~ ~ +.U U XXU ~ m w w w w m m ~ ~ ~ w H m XX/ T.l.X.l.l.l.l.l.l.l.>.>.>.e.>.e.>.e.>.T.>.T.T.T.T.<.T.<.8.<.<.CX<.<.<.8.T.T.>.e.>.T.<.8.CXCXCXCXCX8.T.>.>.e.e.e.>.e.e.>.e.e.>.e.e.e.e.>.e.>.e.e.>.e.e.>.e.e.e.e.e.e.e.e.e.e.e.e.e.e.e.>.e.>.>.e.T.hX'.=.XXXX+.+.+.m m m m m m m m ~ m m m w H H w w w w m w w w x H x x x x _ +.+.XX@.=.0X=.=./.U m w w wXd.M.d.M.M.M.M.M.M.M.M.M.M.M.M.M.M.Q M.M.w w Q m +.+.XX/./.].].].w.w.w.w.w.uX^.^.3X^.3X^.3X^.3X^.^.uXuXw.zXHXv.v.v.(.HXt.t.t.t.t.t.t.w.w.t.t.t.J.t.t.t.t.t.t.t.t.t.t.J.J.HXJ.J.J.t.t.t.J.J.t.t.t.t.J.t.J.J.J.J.t.J.t.J.t.t.t.w.w.<.F.s.s.s.s.F.8.l.T.<.e.p.].p.].sX].sXp.].p.^.^.<.8.8.8.8.8.8.<.<.^.^.<.<.~.<.~.~.~.F.F.F.F.~.F.~.l.~.l.~.~.~.~.~.~.~.~.~.3X~.!.E.E.E.E.!.s.s.s.s.s.s.s.8.s.8.8.8.~.~.<.3XuXzXzXI.I.N.N.N.t t @ ( @ @ @ @ @ @ N.( t ( t ( t ( t ( t ( @ @ N.N.I.6X3XiX3X2XN.N.=XD @ @ N.N.I.I.I.zX2XuX3X~.F.s.F.8.~.8.F.8.s.8.8.l.l.T.",
"/ './ './ './ / './ / './ './ './ './ '.'.'.'./ './ './ / / / / / / / p./ / / './ / / './ / / / / / / './ / / / / / / =.@.S.~ m +.+.+.m m m ~ ~ ~ m ~ Q m m m m Q w w w Q ~ ~ U U U U ~ ~ ~ XX/ T.l.l.xXl.l.l.l.l.l.l.l.>.>.>.>.>.>.>.>.T.>.T.T.T.T.<.8.<.8.CX<.CXCX<.8.<.T.T.T.T.T.<.8.CXCXCXCX8.8.l.>.>.>.e.>.e.e.>.e.e.e.e.>.e.e.>.e.>.e.>.e.e.e.e.e.e.e.e.e.e.e.e.e.e.e.e.e.>.>.>.>.>.>.e.>.T.T.hX/ @.XX+.U U U +.U ~ U ~ ~ ~ ~ ~ ~ ~ Q Q Q Q ~ ~ ~ ~ ~ ~ m m w w H H ` ` H x m S.=.=.=.u.U m w d.w wXM.Q M.Q M.M.M.M.M.M.M.M.M.M.M.M.M.M.M.Q M.M.w d.H w m +.XX=.].].].^.^.^.^.^.w.^.^.^.^.^.^.^.3X^.3X^.3X3Xw.HXv.v.v.HXJ.t.t.t.t.t.t.w.w.w.w.t.t.t.t.t.t.t.t.t.t.t.t.t.J.t.t.J.t.t.t.t.t.t.t.J.t.t.t.t.t.J.J.J.J.J.t.J.t.t.t.w.lXw.GX<.F.s.s.F.8.8.<.T.T.^.e.p.sXp.sXp.sX].sX].].].].'.^.^.T.^.^.^.].].].w.^.<.8.8.F.F.F.s.~.F.~.~.~.~.~.~.l.~.l.F.~.~.~.~.~.~.iXiX!.E.E.E.s.s.!.s.8.s.s.8.s.s.8.s.~.8.~.~.<.3X6X2XzXVX=X=XN.@ @ ( ( @ @ @ 3 @ N.( t ( t ( t ( t ( @ ( @ @ @ N.I.2XuXiX!.iXuX}.N.=X=XN.N.7 N.I.I.}.6XuX3X~.~.F.F.8.s.8.s.8.8.8.8.8.l.8.T.",
"'./ './ './ './ / / './ / / / / / './ / / / `.'./ / / / / / / / / / / / / / p./ / './ / p./ / './ '.hX'./ / / 0X/ =.`.=.=.@.XXS.S.S.S.~ ~ ~ ~ U ~ U ~ ~ ~ Q Q Q Q Q Q Q ~ ~ U U u.u.u.U U XX@./ T.l.X.l.l.l.l.l.l.l.>.l.>.>.>.>.>.>.>.l.>.l.l.l.T.l.8.T.8.8.<.8.8.8.CX<.8.8.8.T.l.T.8.8.CXCXCXCXCX8.l.l.>.>.>.e.>.>.e.>.e.e.e.e.e.e.>.e.e.e.e.e.e.e.e.e.e.e.e.e.e.e.e.e.e.e.e.>.>.>.>.>.>.e.e.T.T.T.'./ @.XXU XXU XXU U XXU U U U ~ ~ ~ ~ ~ ~ ~ U U U U U U U U ~ ~ ~ m m w w w m bXS.=.@.u.U ~ w d.d.d.wXM.d.M.M.M.Q M.M.M.M.M.M.M.M.M.M.M.M.M.M.wXQ M.M.d.d.d.w Q ~ U /.].].^.^.^.^.^.^.w.^.^.^.3X^.w.^.w.^.w.^.w.t.HXv.HXJ.t.w.t.t.t.t.w.w.w.w.sXt.t.t.t.t.t.t.t.t.t.t.t.t.t.t.t.t.t.t.t.t.t.t.t.t.t.w.t.t.t.t.J.J.J.J.J.t.t.t.t.t.t.cXw.w.<.s.F.8.8.T.T.T.e.e.e.p.p.p.p.sXp.sXsXsXsXsX].sX].p.].p.sXsXsXsXw.].].^.<.8.8.F.8.F.8.~.~.<.~.<.~.~.~.~.~.~.~.~.~.~.iXiX3XiXiX!.s.s.O.O.s.s.F.8.F.s.s.8.8.8.8.~.8.~.<.~.3X6XzXVX=X=XN.N.7 t @ ( ( ( @ ( ( N.( N.( ( ( ( ( ( ( @ @ 3 N.N.}.uXiX!.!.!.iX6XI.N.N.N.=X=XN.I.}.6X3XiX!.!.F.F.8.s.8.8.8.s.8.8.8.l.8.l.T.",
"'./ '.'./ './ / './ / / './ './ './ / / './ './ / './ / / / / / / / / / p./ / / / / './ / / / / / / / hX/ / / / =.=.=.`.=.=.@.@.XXXXU ~ U U U U :.U :.U U U U U U U U U U U U U :.u.u.u.u.XX@.=.hXT.l.xXX.l.l.l.l.l.l.l.l.l.l.>.l.>.l.>.l.l.T.l.l.T.l.l.T.8.8.8.8.CX<.CXCXCX8.8.8.8.8.8.CXCXCXCX8.8.l.l.l.>.>.>.e.T.T.e.T.T.T.e.e.T.e.>.e.>.e.e.e.e.e.e.e.e.e.e.e.e.e.e.e.e.e.>.e.>.>.>.e.>.>.T.T.hX'.`.@.u.U U XXU +.U ~ U U U U U U U U U U :.U u.u.u.u.u.U u.S.U S.S.~ bX~ bXS.S.u.@.@.u.U Q w d.d.d.d.d.Q M.H M.M.M.M.M.M.M.M.M.M.wXM.wXM.wXM.M.M.d.M.M.M.M.M.M.d.H Q +.P./.]./ ^.^.^.^.^.^.].^.].^.^.^.^.<.^.^.cXHX6.HXJ.w.t.t.t.t.t.t.w.w.w.w.w.t.t.t.t.t.t.t.t.J.t.t.t.t.t.t.t.t.t.t.t.t.t.w.t.w.w.w.sXt.t.J.J.J.J.t.J.J.t.cXt.cXt.w.lXGX8.8.F.8.~.T.T.T.T.e.e.p.p.p.p.p.sXp.sXp.sXsXsXp.].p.].p.].sXsXsXsX].sX].^.<.8.8.F.8.~.~.~.~.~.~.~.~.~.~.~.~.~.F.!.~.iXuX6X6X3X~.s.O.O.s.8.<.<.<.<.^.^.<.<.<.<.~.8.~.~.<.3X6X2XI.=X=XN.7 @ ( @ @ ( @ @ ( @ ( ( ( ( t ( @ ( ( ( @ 3 N.I.6X3XiX!.!.!.iX3X6X}.=XY.=XN.}.6XuXiXiX!.!.F.F.8.~.8.CX8.8.8.8.8.8.8.8.8.T.",
"/ / / / './ / p./ / p./ / / / / / './ './ / / / './ / / / / / / / / / / / / / / p./ / / / / / / / / / / './ 0X/ =.=.=.=.=.=.=.@.u.U S.U U U U :.U :.U u.:.U U U U U U U U U U U U :.U U u.XXXX=.'.T.l.l.l.l.l.l.l.l.l.>.l.>.l.l.>.l.l.>.l.>.l.l.l.l.l.T.l.l.8.8.8.8.8.CX8.CX8.8.8.8.8.CXCXCXCXCX8.8.l.l.l.l.l.T.T.T.T.T.T.e.T.^.e.e.T.e.>.e.e.e.e.e.e.e.e.e.e.e.e.e.e.e.e.e.e.e.e.e.e.>.>.T.T.T.T.'.`.=.@.u.XXu.U U U U U ~ U U U U u.u.U :.U U U U U u.u.u.U U U U U u.u.u.u.u.u.@.@.@.u.U ~ Q d.d.d.M.d.Q M.M.M.M.M.M.M.M.M.M.Q M.M.M.M.M.M.M.M.M.M.M.M.M.M.d.M.d.d.d.H Q m +.XX/./.@./././.P./././././.].].].].].t.#X9.#XJ.t.t.J.J.t.t.t.w.w.t.t.t.t.t.t.t.t.t.t.t.t.t.t.t.w.t.t.t.t.t.t.t.t.t.t.w.t.].t.w.t.J.J.J.J.P.t.P.J.t.t.t.w.t.cXt.^.<.8.8.l.l.l.T.>.e.e.e.e.p.p.p.p.p.p.sXp.sXp.sXp.p.p.p.sXp.sXp.p.p.sX].sX].<.8.8.8.~.F.8.~.~.~.~.~.~.~.~.~.~.!.~.iX3X6X2XzXzX2Xw.GX<.<.^.w.w.t.t.J.t.J.t.t.t.w.].^.<.<.~.~.<.uX2XzXI.N.N.N.N.( ( @ ( ( N.( @ ( t N.( N.( ( N.@ 3 N.N.I.6X3XiXiX!.!.!.!.3X2XI.N.I.2XuXiXiX!.!.!.F.F.8.~.8.8.8.8.8.8.8.l.8.l.8.l.8.",
"/ './ / p./ / / / / / / p./ / / / / / / / / / / / / / / / / / / / / / / / / / / / / / / / / / / / / hX/ hX/ / / / =.=.@.=.=.=.@.u.u.U u.u.u.:.:.U U :.U U U :.U u.U u.u.u.U :.:.U U U U S.u.XX/./ hXT.l.xXl.l.l.l.>.l.l.l.l.>.l.l.>.l.l.l.l.l.>.l.>.l.l.T.l.T.T.8.8.8.8.CXCXCXCX8.8.CXs.CXCXCXCXCXs.l.X.l.l.l.T.<.T.<.T.<.T.T.T.T.T.>.T.e.>.>.>.>.e.>.>.e.e.e.e.e.e.e.e.e.e.e.>.e.>.>.>.T.l.T.T.'./ =.@.@.u.u.@.u.U XXU ~ U U U U U U U U U U U U U :.U U U U U ~ U S.u.@.@.@.@.@.@.u.u.U U Q wXd.M.d.d.M.M.d.M.M.Q M.M.M.M.M.M.M.M.Q M.M.M.M.M.M.M.M.M.M.M.M.M.d.M.d.M.d.d.H Q Q ~ { ~ ~ ~ Q m m m m _ +.+.+.P.XXP.P.+._ +.P.P.P./.t./.t.t.t.w.t.w.t.t.t.t.t.t.t.t.t.t.t.w.t.w.w.w.w.w.t.t.t.t.t.t.w.t.w.].w./.t.t.P.t.P.t.J.P.t./.t.cXt.w.].^.<.8.T.l.l.T.>.e.e.e.e.e.e.e.e.e.p.p.p.p.p.p.p.p.p.p.p.p.p.p.p.sXp.].sX].].^.<.<.<.8.F.F.F.~.~.~.~.~.~.~.~.~.3X3X6X2XzXVXVX(.VXlXt.w.t.t.J.HXHX..HX..HXHXHXHXJ.J.t.w.w.^.<.~.~.3X6X}.I.N.N.N.( N.( N.( ( ( ( ( ( ( ( ( ( N.( ( 3 N.N.I.2XuX3XiX~.!.!.iX3X2XI.}.6X3XiX!.!.!.~.!.~.~.8.8.CX8.8.8.8.8.8.8.l.8.T.8.T.",
"/ / / / / / / / / / / / / / / / / / / / / / / / / / / / / / / / / / / / / / / / / / / / p./ / / ]./ / / / / / 0X/ `.=.=.@.pX=.5.=.@.@.@.;.;.u.u.:.U U :.:.:.U U U U u.U U U U U U U U U U S.XX@.=./ T.l.l.l.l.>.l.l.l.>.l.l.l.l.l.l.l.l.>.l.l.l.l.l.l.l.l.l.l.8.8.8.8.CX8.CX8.CX8.CXs.CXCXCXCXCX8.8.8.l.8.8.8.8.<.8.<.8.8.T.T.T.T.T.T.>.>.l.>.>.>.>.>.>.>.>.>.>.>.>.>.>.>.>.e.>.>.>.l.l.l.T.T.^./ =.@.@.@.@.@.u.XXu.U U U U U U U U U U U { U U U U U U U { U { { U u.@.@.;.@.@.u.u.u.:.:.{ Q wXM.d.M.Q M.Q M.M.M.M.M.M.M.M.M.Q M.M.M.M.Q M.M.M.M.M.Q M.M.M.d.M.d.M.M.d.M.M.M.M.Q M.Q Q d.d.H H H H H H H w w w w w w x m _ +.+.P.P././.t./.t.t.t.t.t.t.w.t.w.t.w.t.w.t.w.t.w.w.w.w.w.w.w.w.t.w.w.t.w.].w.].t.].t./.t.t.t.P.t.t.P.t.t.].].^.^.<.T.l.T.l.T.l.>.>.e.e.e.e.e.e.e.e.e.e.p.p.p.p.p.p.p.e.e.e.p.p.p.p.p.p.sX].].].^.GX<.~.8.~.~.~.~.~.~.~.~.~.~.~.3X2XzXVX(.(.(.VXHXHXJ.J.HXHXHXSXSXSXSXSXSXSXSXSXSXSXFXFXJ.t.].^.~.~.3X6X}.N.N.N.( ( ( ( ( ( ( ( ( ( N.( N.( ( N.=X3 =X=XN.}.uX3X~.~.!.!.3XuX2XI.}.uXiX!.!.!.!.!.~.~.8.~.8.8.8.8.8.T.T.T.8.T.8.8.T.8.",
"/ / / / / / / / / / / / / / / './ / / / / / / / / / './ / / './ / / p./ / / / / / / / / / / / / / / / hX/ hX/ / / / / =.=.=.=.=.5.=.;.=.;.@.;.;.@.u.u.u.u.u.u.u.u.u.U u.u.u.:.U :.U u.u.U S.XXXXXX].T.l.l.l.l.l.>.l.>.l.l.l.>.l.>.l.l.l.l.l.l.>.l.l.>.l.l.T.l.T.8.8.8.8.8.8.CX8.CXCXCXCXCXCXCXCXCXCXs.8.8.8.8.8.8.8.8.T.8.8.8.8.l.l.l.l.l.>.l.>.>.>.>.>.>.>.>.>.>.>.>.>.>.l.>.T.>.l.l.T.T.T.'.].=.@.u.u.@.u.@.u.u.u.XXU S.U ~ U ~ U U U U U U U :.U :.U :.U U U U U u.u.;.@.u.u.4Xu.u.:.:.{ { Q Q M.Q M.M.M.M.Q M.M.M.M.Q M.M.M.M.Q M.Q M.M.M.M.M.M.M.M.M.M.d.M.d.d.d.M.M.d.M.M.M.M.M.M.M.d.M.M.M.M.M.Q d.d.d.H d.d.d.H H w m m +.+./././.t./.t.t.t.t.t.w.w.w.t.w.w.w.w.w.w.w.t.w.w.w.w.w.t.w.w.w.w.].w.].w.].w.w.cXt.cXcXt.P./.t./.w.].^.^.T.T.l.T.T.l.T.>.>.>.>.e.e.e.p.e.e.e.e.e.e.e.e.e.e.e.e.p.e.e.e.e.e.e.p.p.p.p.].^.GX^.<.<.F.8.8.~.CX~.~.~.~.~.~.~.3X2XzXVX(.VXVX-XzXHXHXHXHXSXSXHXSXSXSXSXSXFXSXFXSXSXSXSXSXFXJ.t.^.^.3X3X2XI.=X=X=X( N.( ( ( ( ( ( ( ( =X( ( =X( ( N.N.=XI.2XuXiX~.~.!.F.3XuX2XzX}.6X3XiXiX!.!.!.F.~.~.8.8.8.8.8.8.8.T.8.T.8.T.8.8.8.",
"/ / / p./ / / / / / / / / / / / / / / / / / / / / / / / / / / / / / / / / / / / / / / / / / / / GX/ / / / / / / / hX/ `.=.5.pX=.=.5.=.5.@.;.@.pX@.;.@.u.;.u.u.u.u.U u.u.U u.u.u.u.u.@.@.u.u.@.XXXX=.'.T.l.l.>.l.>.>.l.>.l.l.l.>.l.l.l.l.l.l.>.l.l.l.l.l.l.l.l.T.8.T.8.<.8.<.CXCX<.CXCXCXCXCXCXCXCXCX8.8.8.8.8.<.8.<.8.8.8.l.8.l.l.l.l.l.l.l.l.l.l.l.l.>.l.>.>.l.>.l.l.l.l.l.l.l.l.l.l.T.^.'.]././.XXu.@.u.XXu.XXu.XXU U ~ U S.U U S.U 4XU u.u.u.u.;.@.u.u.u.u.u.U U u.u.@.u.u.u.u.U U :.U :.U { { { Q wXM.M.M.M.M.Q M.M.M.M.Q M.Q Q Q wXQ Q wXQ wXQ M.Q M.M.d.d.d.M.d.d.M.M.M.M.M.M.d.M.M.M.d.d.d.d.M.d.M.H M.d.d.d.d.M.d.d.Q w H x +.P././.t.t.t.t.t.w.w.w.w.w.w.w.w.w.w.w.w.w.w.w.w.].w.w.].w.].w.w.].].GXw.cX].cXcXt.cX/.t.P.t./.].^.T.T.l.l.l.T.l.l.>.l.>.e.>.e.e.p.e.e.e.e.e.e.e.e.e.e.p.e.p.e.e.e.e.e.p.e.p.e.^.'.].^.^.<.<.<.8.~.~.8.~.<.~.~.~.~.~.~.<.uX2XzXzX-XzXt.HXHXHXSXSXSXSXSXSXSXSXSXFXFXFXFXSXSXSXSXSXSXSXFXJ.w.w.uX6XzXVX=X=XN.( N.( ( t ( ( ( ( ( ( ( ( ( =X( N.I.6X3XiX~.~.!.~.!.~.3X6X2XzXzX2XuX3XiX~.~.~.8.8.8.8.8.8.8.T.T.T.T.8.T.8.T.8.T.",
"/ / / / ].'.]./ / './ / / / / / / / / / / / / / / / / / / / / / / / / './ / / / / / / / / / / / / / GX/ / 0XhX/ / 0XhX/ `.=.@.@.@.@.5.@.;.;.;.;.=.@.@.pX@.u.u.u.u.u.u.u.@.u.u.;.@.@.=.@.u.@.@.@.@././ T.T.l.l.l.l.l.>.l.>.l.>.l.l.>.l.l.l.l.l.l.l.l.l.l.l.l.T.l.l.T.T.8.<.8.8.<.CXCXCXCXCXCXCXCXCXCXCXCX8.<.8.<.8.8.8.8.8.8.l.l.l.l.l.l.l.l.>.l.>.l.l.l.l.>.l.l.T.l.>.T.l.l.T.l.l.T.T.'./ ]./.XXXXXXXXu.XXu.u.u.S.u.S.U S.U U U u.U u.u.u.u.=.;.@.@.;.=.;.@.u.@.u.@.@.u.u.u.S.u.S.u.u.u.:.:.:.:.U { { { Q wXQ Q Q M.Q M.Q M.M.wX{ { { { { { { { { { { Q M.M.d.M.d.d.d.H M.Q M.M.d.M.d.M.M.Q M.M.d.d.d.d.M.d.M.d.M.M.M.d.M.M.d.d.d.H H ~ XXP./././.t.w.w.w.w.w.w.w.w.w.w.w.w.w.w.w.].w.w.].w.w.].w.].].GXw.].cX/.P.P.P.P.P./.P.P.t.].^.T.T.l.l.l.T.l.>.>.l.>.>.>.e.e.e.p.e.e.p.e.p.e.p.e.p.e.e.p.e.e.e.e.e.e.e.p.e.e.e.e.^.^.^.<.<.<.<.<.<.<.<.<.<.<.<.<.<.<.<.^.w.t.t.t.t.J.HXSXSXSXSXSXSXSXSXSXSXSXSXFXFXFXFXSXSXSXSXSXSXSXSXHXJ.t.t.zXzXVXVX=X=X=X( ( t t ( ( t ( ( t ( ( t 7 }.6X3X!.!.~.iX~.~.~.!.~.3X6XzXzXzX2X3X~.~.~.~.~.~.8.8.8.8.8.<.8.8.T.8.T.8.8.<.8.",
"/ ]./ / / / './ '.]./ / pX/ pX/ `./ / / / / / / / / / / `./ `./ / / / / / / / / `./ / `./ 0X/ 0X].hX/ / / / / 0X/ 0X/ hX0X=.@.@.@.=.=.@.;.@.;.pXpX=.pX=.pX@.pX@.=.@.@.@.;.@.pX@.;.@.@.@.=.=.=.=.pX=.].'.T.T.l.xXl.l.>.l.>.l.l.>.l.l.l.l.l.l.l.l.>.>.l.l.l.l.l.l.l.l.l.l.8.8.~.8.8.CXCXCXCXCXCXCXCXCXCXCX8.<.8.<.8.l.l.l.l.l.l.l.l.l.l.l.l.l.>.>.l.l.l.l.>.l.l.>.T.T.T.l.T.T.T.T.T.T.'./ =./.XXXXXXu.@.u.u.u.XXu.@.XXu.@.u.XXu.u.u.u.u.@.u.@.pX@.@.@.=.=.@.@.@.@.=.=.=.u.U S.u.S.u.S.u.u.u.u.u.U U { U U :.{ { { { { { { Q { { { { :.{ :.4XU :.:.:.:.{ { { Q M.d.d.d.Q M.wXQ M.M.M.d.M.M.Q Q wXM.d.M.d.d.d.M.d.d.M.M.d.M.M.d.M.d.d.d.d.H H +.P./.t.t.w.].w.w.w.w.w.w.w.w.w.w.w.w.].w.].w.].w.].].].GX].].].P.#X9.....9.9.9.#XP.P./.^.T.l.8.~.l.~.l.T.>.T.>.>.e.e.e.p.e.p.e.p.e.e.e.p.e.p.e.e.p.e.e.p.e.e.e.e.e.p.e.e.^.e.'.^.'.^.].^.^.^.^.GX].].w.^.].^.^.^.w.w.t.t.J.HXHXHXSXSXSXSXSXSXSXSXSXSXSXSXSXFXFXFXFXSXSXSXSXSXSXSXSXHXHXHXJ.J.t.zXzXVX=X=XN.N.t t ( t ( ( ( t ( ( t a.6XiX!.!.iX~.~.~.!.~.~.~.~.^.w.lXlXw.<.~.~.8.~.<.8.8.<.8.8.<.8.T.<.8.T.8.T.<.T.<.",
"/ / / sX/ ].'./ / / / / / / / / / / / / / / ]./ ]./ / / / / / / 0X0X0X0X/ c./ './ / '.0X/ 0X/ 0X/ / / hX/ / hX/ / / 0X0X=.=.@.@.@.=.5.=.5.;.@.;.@.=.=.=.=.@.@.=.=.5.=.5.=.pX@.=.@.u.u.u.u.u.@.@.@./.@./ '.'.T.T.T.l.l.l.l.l.l.l.l.>.l.l.l.l.l.l.l.l.l.l.l.l.l.T.l.l.l.l.l.l.8.8.8.8.CXCXCXCXCXCXCXCXCXCX8.8.8.T.l.8.l.T.l.l.l.l.l.l.T.l.l.l.l.l.l.l.l.l.l.l.T.l.T.T.<.e.^.'.'.'.'./ / =.pX@.pX/.pX@.u.@.@.@.@.@.@.@.@.@.@.@.@.@.@.@.@.;.@.u.@.u.u.@.@.@.@.@.=.=.=.@.=.u.S.S.S.S.S.S.u.u.u.u.U U U U u.U u.U U U U U U U :.U U U :.:.u.U u.u.u.u.u.u.:.u.U { Q w d.d.Q ~ ~ { Q Q Q Q Q Q { U { { Q Q Q d.M.d.M.M.Q d.M.d.d.d.M.d.M.d.d.d.H w +.P.P./.].].w.w.w.w.w.w.w.w.w.w.w.].w.].w.].cX].].].].].^.].cXP._ J s s J x _ +.+.P./.^.T.8.T.l.l.l.l.T.>.>.>.>.e.e.e.e.e.p.e.p.e.p.p.e.p.e.p.e.p.e.p.e.e.e.e.e.e.e.e.'.e.^.p.p.].].]./.J.J.J.J.J.J.J.J.J.J.J.FXFXFXFXHXSXHXSXSXSXSXSXSXSXSXSXSXSXSXSXSXSXFXFXFXFXFXSXSXSXSXSXSXSXSXSXSXHXHXHXJ.zXzXzXI.I.=XD D ( ( ( ( D ( ( ( t 3.6XuXiX!.!.!.!.~.~.F.~.~.<.3XGXw.^.<.~.<.~.~.8.8.~.<.8.<.8.8.8.8.8.<.8.T.8.<.<.<.",
"/ / ]./ / / / / / / / / / pX/ / / / GX/ GX/ / / / / / 0X/ 0X/ 0X0X0X=.=.0X/ 0X0X0X0X0X0X0X0X0X/ 0X0X0X0X0X0X/ 0XhX0X0X0X0X=.@.=.=.0X=.@.=.=.5.=.=.=.=.=.=.@.=.@.@.@.@.@.@.@.@.@.=.@.@.@.@.=.@.=.=.=.=./.=.]./ '.T.T.T.l.l.>.l.>.l.>.l.>.l.l.l.l.l.l.l.l.l.l.>.>.l.l.l.l.l.l.l.8.8.8.8.CXCXCXCXCXCXCXCXCX8.8.8.T.8.T.T.l.T.l.l.l.l.l.T.l.l.l.l.l.l.l.l.l.8.T.T.T.<.^.^./ ].].=.].=./.=././.@./.@.@.@.=.@.@.@.@.@.@.@.@.@.@.@.@.@.@.@.@.@.@.@.@.@.=.=.@.@.@.@.@.@.@.@.=.@.S.@.S.S.XXS.u.u.U U U S.U u.U U U U U U U U U U U :.U :.U U U U U U U U U u.u.u.u.U ~ Q Q ~ ~ U u.u.U U { { { { U U U { { { Q Q d.Q d.d.d.M.d.d.M.d.M.d.M.H M.H H H x +.P./.].].].].w.].w.].w.].].].cX].t.P.P.P.P.P././././././.P.+.x J ` ` H x x _ x _ /.^.T.T.T.~.T.l.T.T.T.e.T.e.e.e.p.e.p.e.p.e.p.e.e.p.e.p.e.p.p.p.p.p.^.e.^.e.^.e.^.p.p.p.pXsXsXsXsXsXsXP.FX+.SXSXSXSXSXSXSXSXSXSXSXSXSXSXSXSXSXSXSXSXSXSXSXSXSXSXSXSXSXFXFXFX4.4.FXFXFXSXSXSXSXSXSXSXSXHXHXHXJ.t.2XzXVX=X=X=XY.D D D ( ( ( ( ( 3.}.2X3XiX!.~.!.~.!.~.~.~.3X<.<.~.~.~.~.<.~.8.8.<.8.<.8.<.8.<.<.<.8.T.8.T.8.<.hX^.",
"/ / / / ]./ / / / / / / / / / / GX0XhX0X/ 0X0X0X0X0X0X/ 0X0X0X0X=.=.@.@.@.=.=.=.@.@.=./.=.cX=.cX0X=.=.=.=.=.0X0X0X0X=.@.=.0X0X0X0X0X=.@.=.@.=.=.=.=.=.=.=.=.=.@.@.=.@.=.@.@.@.;.@.@.=.@.@.=.@.=.@.=.=.@.=./.=.]./ '.T.T.T.l.>.l.>.l.>.l.l.l.l.l.l.l.F.l.l.T.l.l.l.l.l.l.T.l.l.l.l.l.8.8.CXCXCXCXCXCXCXCX8.8.T.T.T.^.^.T.T.l.T.T.l.l.T.T.T.T.l.l.T.T.<.^.T.T.T.^.'.].].].=././././.=.=.=.@.@.@.=.=.@.@.=.@.pX@.=.@.=.@.pX@.@.@.@.pX@.@.=.@.@.@.@.@.=.@.@.@.@.=.@.@.=.=.=.@.@.@.@.@.S.S.S.u.S.S.U S.U S.U S.~ U S.U U U U U U U U U U U U U u.U S.U S.U U S.U S.U bXU S.S.S.U U U S.U u.U U U u.U U U ~ Q Q Q d.H d.d.d.d.d.d.d.d.d.d.d.H d.H x +.XX/.].].cX].cX].].cX]././.P.P.P.+._ 9._ 9._ ..9._ _ +.+._ x H H H w H H H H ` _ ].T.T.T.T.T.T.T.l.T.e.^.e.e.e.p.e.e.e.p.e.p.e.p.p.e.p.e.p.e.p.e.p.e.p.^.e.^.e.^.p.p./ sXsXsXsXsXsXsXsXsX4.FX+.FX+.FX+.FXFXSXFXSXFXFXFXFXFXFXFXFXSXFXSXFXSXFXSXFXSXFXSXFXFX4.4.sX4.4.FXFXFXFXFXSXSXSXSXSXSXHXHXHXJ.zXzXzXVXVX=X=XY.D ( ( ( ( D =XI.}.uXiX!.!.F.~.~.~.~.~.<.~.~.8.8.8.8.<.8.~.8.~.8.<.8.<.<.8.<.8.<.<.8.<.8.<.^.GX",
"/ / / / / / / / / / / / 0X/ 0X0X0X0X0X0X0X0X0X=.=.0X=.=.=.=.=.=.@.@.@.@.@.@.u.@.@.@.=.=.=.=.0X0X0X=.cX=.=.=.0X0X0XcXS.S.cXcX0X=./././.=.@.@.=.=.=.0X0X=./.=.=.@.=.@.@.@.@.@.@.@.@.@.@.@.=.@.=.=.=.=.=.@.@.@.=.=.=.]./ hXT.T.T.l.l.l.l.l.l.l.l.l.l.l.l.l.l.l.l.l.l.T.T.T.l.T.l.T.l.8.l.8.8.CXCXCXGXCXCX8.8.<.<.^./ ].].^.T.T.^.^.T.T.T.T.T.^.T.T.8.<.^.].].hXhX/ =./.=.=././.@.=.=.=.=.=.@.@.@.@.@.=.@.@./.@.@.@.pX@./.@.@.=./.@.@./.@./.@.=.=.=.@.@.@.@.=.=.@.@.S.@.=.@.=.@.S.S.S.@.S.u.S.XXu.XXXXS.U ~ S.U S.U S.U S.U S.U XXU U U U U S.U S.u.u.S.S.S.U S.S.S.S.S.S.U S.S.U S.U S.U u.U u.u.u.U S.U ~ ~ Q Q w w d.d.d.H d.H M.H d.Q d.H w m +.+.XX/./././././.XXP.P.+.+._ _ _ x J J J s s J s J J J x H H H H d.w H H H ` ` m / T.T.T.>.T.>.T.T.e.^.e.p.^.p.p.e.p.e.p.e.e.p.e.p.e.p.e.p.p.e.p.^.e.^.e.^.'.^.p.].].sXsXsX4.4.4.4.4.4.4.4.4.4.4.4.4.4.4.FX4.FX4.FX4.4.4.4.FXFXFXFXFXFXFXFXFXFXFX4.FX4.FX4.4.sXsX4.4.4.4.FX4.FXFXFXFXFXSXSXSXHXHXHXHXHXzXzXVXVXVX=XY.Y.=XN.=X=X=XI.2X3XiX~.!.~.!.~.~.~.~.3X<.~.8.~.~.<.8.~.<.<.<.8.8.<.8.<.T.<.T.<.8.<.T.<.<.hXGX",
"/ / / / / / / / / / 0X/ 0X/ 0X/ 0X0X0X0X0X0X=.=.=.=.=.=.5.=.5.@.5.5.5.5.5.5.5.@.=.=.=.0X0X0XcX0X0X0X0X0X0X0XcX0XcX/.P.#X#XP.#X#X9...9./.@.@.=.=.=./.@.XXS.@.=.=.=.=.=.=.=.5.=.5.@.5.@.@.5.@.@.@.@.@.=.@.@.=.=./.@.=.=.0X/ <.T.T.T.T.l.T.l.T.l.l.l.8.T.<.T.^.T.T.T.T.T.<.T.<.T.T.T.T.T.>X8.<.GXGXGXGXhX<.hX^./ ]./.P./.]./ / / ]./ ^.^.'.'./ '.hX<.^.]././.].0X=././././.=.@.@.=.=.=.=.=.=.@.@.@.@.@.@.@.@.@.@./.@.@.@.@.@.@.@.@.=.@.=.@.@.@.@.@.@.S.S.S.S.@.S.S.bXS.S.S.S.S.S.bXS.~ ~ S.S.@.@.u.XXS.S.S.S.S.XXS.XXXXXXXXS.S.U U XXU XXU XXXXXXXXXXS.XXS.XXS.XXS.S.S.XXS.S.S.S.S.S.XXS.S.S.XXS.S.XXS.S.S.S.+.~ ~ m H d.H d.d.H d.w H d.w w ~ S.+.bXbX+.bXS.bX+.bX+.m x x x x x x J H ` ` ` ` ` ` ` ` H H H d.d.d.d.d.w d.d.` ` x / T.T.T.T.e.T.>.l.^.e.^.e.p.e.p.p.p.p.e.p.p.e.p.e.p.e.p.p.e.p.e.p.e.p.^.e.^.p.].].sXsXsX4.4.4.4.sX4.4.4.4.4.4.sX4.sXsXsX4.4.4.4.4.4.4.sX4.sX4.4.4.4.4.FX4.4.4.4.4.4.4.4.4.sX4.sX4.4.4.4.4.4.4.4.4.4.4.FXFXFXSXSXSXHXHXHXHXHXzXVXVX=X=X=X=X=X=XVX2XuX3X~.~.~.~.~.~.~.~.~.<.~.8.~.<.<.~.<.8.8.<.<.8.<.<.T.<.<.<.<.<.T.<.<.<.<.^.GX",
"/ `.'.`.'.`.`.`.`.`./ `.`.`.0X0X0X/ 0X0X`.`.`.`.1.5.`.`.`.5.5.5.5.`.5.`.`.c.`.`.`.0X=.0XcX0XcXcXcXcX0XcXcXcX0XcXS.9.9.9.9...*.q.q.q.#.P.@.=.0X=.S._ ` f f m @.0X0X`.0X`.`.`.`.`.`.@.@.5.=.5.=.5.0X@.0X@.0X=.0X@.=.@.@.=.0XhXT.8.T.8.T.T.l.T.l.T.8.T.^.'.'./ / / / '.'.^.^.'./ ]./ '.'.hXhXhX0XcXcXGXGXGX0X=.=./.XXXXXXXX/././././.=.=.].].=./.=.].=./.XXXXXX@.@.XX@.@.@.@.XX@.=.=.=.=.=.@.@.@.@.@.@.XX@.XX@.XX@.XX@.XX@.@./.@.@./.=.=.=.=.@.S.S.S.S.bXbXbXbXbXw H H w w bXH H H w H H m ~ S.S.XXS.S.U S.XXS.u.S.u.S.S.U S.U S.XXS.S.S.S.XXS.S.S.S.S.S.@.S.S.S.S.S.S.@.@.S.S.S.S.S.S.S.U S.S.+.S.S.~ S.S.S.S.S.S.~ w H w w H w d.H d.w w ~ S.S.S.w H w bXx x w w w H H ` ` H H H H H H H ` ` ` H H H H d.d.d.d.d.d.Q d.w H H H w pX'.T.>.T.>.e.T.T.e.^.p.p.p.p.p.p.e.p.p.e.p.^.p.p.p.p.e.p.e.p.e.^.e.^.^.'.^.p.].sXsXsX4.4.sX4.sX4.4.4.4.sX4.sX4.4.sX4.4.sX4.sX4.sX4.4.4.4.sX4.4.4.4.4.4.4.4.4.4.4.4.4.sXsX4.4.4.4.4.4.4.4.4.4.4.4.4.4.4.4.FXFXFXSXSXSXHXHXHXJ.zXzXzXVXVXNXNXVX2XuX3X~.~.~.~.~.~.~.~.~.<.~.<.8.8.<.~.<.8.<.<.<.8.<.<.8.<.<.T.<.<.<.<.<.<.<.hXGXGX",
"`.1.`.c.`.c./ / `./ `.`.`.`.`.`.`.c.1.`.1.1.1.5.1.`.5.`.5.`.5.`.:X`.1.1.1.`.`.`.`.=.=./.P.9...#.6.9.9.9.9.9.#X#X6.&.&.&.#.6.&.q.f.f.#./.=.`.`.@.m j.9X$X$X` u.`.`.`.`.`.`.`.`.`.`.`.`.`.0X5.0X5.0X5.0X5.0X0X0X0X0X0X=.0X0XhXhX>X>XT.>XT.>XT.>XT.T.'./ =.=./.@.XXu.=.=.=././././.XX/.=./ =.=./.@.@.=.0X=.@.@.@.XXXXXXXXS.XXS.XXXXXXXXXXXX@.@.XXXX@.@.XXXXS.S.XXS.XX@.XXu.S.@.S.@.@.@.=.=.@.@.@.@.@.@.@.@.@.@.@.@.@.XX@.@.@.@.@.@.@.@.=.=.0XS.bXbXbXbXbXw ` ` ` d.j.j.j.j.d.j.j.j.j.j.j.` w ~ S.S.S.S.S.S.u.S.S.S.S.U S.S.S.S.S.S.XXS.XXS.S.U XXS.S.S.bXbXS.bXbXbXbXbXS.S.bXbXbXS.S.S.S.S.~ bXbXw bXbXbXS.~ S.+.S.S.m w w bXw w w w w H m S.S.S.S.bXw w w H d.w w w w d.w H H w w w w w H H H H H H H H d.d.d.d.d.d.M.w H d.H H x /.'.T.>.T.T.e.T.>.^.e.p.^.p.p.p.p.p.p.e.p.p.e.p.e.p.e.p.p.e.p.e.p.^.p.^.p.^.].sX].sX4.sX4.4.sX4.sX4.4.4.4.4.4.sX4.4.4.4.sX4.sX4.4.4.4.4.4.4.sX4.sX4.4.sX4.4.4.sX4.4.sX4.4.4.4.4.4.4.4.4.4.4.4.4.4.4.4.4.4.4.4.4.FXFXFXSXFXHXHXHXHXt.zXVX(.VXzXuX3X~.~.~.~.<.~.<.~.<.8.~.<.<.<.~.8.<.<.8.<.<.<.<.8.T.<.T.<.<.T.<.T.^.<.^.<.<.^.GX",
"`.`.`.`.`.`.`./ `.c.`.`.`.1.`.1.5.5.5.5.:X5.:X:X:X5.:X5.:XpX:X:X:X:X:X:X:X;.;.:.U ~ m _ ..&.&.h.h.h.-.h.f.-.h.h.f.f.f.f.9.#X9.&.f.9X..0X=.`.`.=.U m H j.j.Q u.`.`.`.5.5.:X:X:X:X5.`.1.`.1.`.1.`.c.`.c.1.c.c.c.c.c.0Xc.0X0XhXhXhXhXhXhXhXhXhXT.hX'.'.`.=.u.u.U U U U XXXXP.XX+.+.~ XXXXu.XXu.S.S.S.S.u.S.@.S.u.S.S.XXS.S.S.S.XXS.S.XXXXXXXXU U U u.XXu.u.XXS.S.S.S.S.S.S.S.S.S.u.u.@.@.@.@.@.@.@.@.S.@.S.u.@.XXu.u.@.@.XX@.S.@.S.S.S.S.S.S.bXw d.d.j.` d.d.` j.j.d.j.d.j.j.j.d.d.d.j.j.d.w ~ S.S.U S.U S.XXS.u.S.u.S.XXu.S.XXu.S.@.S.S.S.S.S.~ +.bX+.bXbXbX#.bX#.J bXbXbXbXbXm bXS.S.S.S.~ bXm w bXm bXS.S.S.S.S.S.S.S.S.~ S.bX+.bXm m S.@.@.@.S.S.S.S.bX~ bX~ bX~ ~ ~ ~ ~ ~ ~ ~ ~ ~ Q Q w H d.d.d.d.d.d.d.d.d.d.M.H d.d.` ` ` H XX/ T.>.T.>.T.T.e.e.^.p.e.p.p.p.p.p.p.p.e.p.p.p.p.e.p.p.e.p.p.^.e.p.^.p.].].p.].sXsXsX4.sXsX4.sX4.sX4.4.4.4.4.4.4.4.4.4.4.sX4.4.sX4.4.4.4.4.4.4.4.4.4.4.4.4.4.4.4.4.4.4.4.4.4.4.4.sX4.4.4.4.4.4.4.4.4.4.4.4.4.4.4.4.P.FXJ.FXFXHXHXJ.t.lXzXlXw.<.~.<.<.<.<.~.<.<.~.8.~.<.<.<.<.8.<.<.8.<.<.T.<.T.<.<.<.<.T.<.^.<.<.^.<.^.<.<.^.GX",
"`.`.:X`.:X`.`.=.`.`.`.`.`.:X:X:X:X:X:XW.:X:X:X:X:X:X`.:X`.:X:X:X1.:X:X:X:X.X:.d.d.` ` ..9.#XlX-X(.-.-.-.-.-.f.-.f.q.&.#.P./.9.L 9X9XJ @.pX`.`./ `.`.`.pX@.;.5.pX5.:X:X:X:X:X:X:X:X:X5.`.5.`.5.5.5.5.5.`.5.`.`.`.`.`.c.`.c.`.`.`.`.`./ `.'.`.`./ `.`.`.pXu.U u.u.@.u.XXS.+.S.XXXXXXXXU U U U U U U u.S.u.u.u.u.u.u.u.@.u.u.u.u.XXu.u.U u.u.u.u.u.U u.u.@.@.@.@.u.u.u.u.u.u.u.u.@.@.@.5.=.=.5.@.=.=.@.@.@.@.@.@.@.@.@.@.@.@.u.S.S.S.bXbXbXbXbXbXQ w wXw bXw d.d.w m ~ m Q bXm bX~ bX~ wX~ ~ u.u.@.@.@.@.@.@.@.@.@.@.@.@.=.=.=.=.=.=.=.@.@.@.u.u.S.u.S.S.S.S.S.S.S.S.S.S.S.S.S.S.u.@.@.@.u.u.u.S.S.S.u.@.@.=.=.=.`.=.=.=.=.=.=.=.=.@.@.@.=.=.=.@.@.@.@.5.@.@.u.@.@.;.@.@.;.@.@.u.u.u.u.u.U U { Q Q w d.M.M.M.M.M.M.Q M.w d.H H H w XX/ e.T.>.T.T.e.T.^.e.p.^.p.p.p.p.p.e.p.p.^.p.e.p.p.^.p.p.p.e.p.p.^.p.].p.].].p.].sXsXsXsX4.sX4.4.4.sXsXsXsX4.sX4.sX4.sX4.4.4.4.4.4.4.sX4.4.4.4.4.4.4.sX4.4.4.4.4.4.4.4.4.sX4.4.4.sX4.4.4.4.4.4.4.4.4.4.4.4.4.4.4.4.4.4.4.+.FXFXHXJ.J.t.w.GX^.<.<.~.<.~.<.<.<.<.<.8.<.<.<.~.<.<.~.<.<.T.<.<.<.<.<.T.<.T.<.<.T.^.T.<.^.^.^.<.<.GX",
"`.`.:X:X:.U m m XX=.`.`.:X:X:X:X:X:X:X:X:X:Xo.:X:X:X1.:X`.:X:X:X:X:X:X1.:X;.{ d.m XXP.P./.cXGXlX-XOXb.OX(.-X#X9.9.P.].]./._ L kXkX` ~ pX5.5.`.`.`.`.`.`.`.pX5.:X:X:X5.:X:X:X:X:X:X`.:X:X:X:X:X:X:X:X:X:X5.:X:XH.:X5.:X5.5.5.5.5.;.5.`.`.5.5.`.`.pXpXpX@.;.u.u.u.@.@.@./.@.XX@.=.=.u.u.u.u.u.u.u.;.@.H.@.H.@.H.=.5.@.@.@.@.@.@.@.pX=.@.@.=.pX;.`.5.5.;.;.5.=.5.=.5.=.5.=.5.=.`.`.`.`.`.`.`.`.`.`.`.`.`.`.`.`.`.`.`.`.`.`.0X=.@.@.@.@.=.@.@.u.@.@.@.@.@.@.@.@.@.@.5.=.5.=.5.=.5.=.`.=.=.5.5.5.=.5.5.5.`.5.`.`.`.`.`.`.`.`.1.`.`.1.`.`.`.`.5.`.5.`.`.`.`.`.0X0X0X0X`.=.@.@.@.5.5.5.`.5.`.`.5.5.`.`.`.`.`.`.`.`.`.`.`.c.`.`.0X`.0X`.0X=.=.=.`.`.`.`.`.`.`.`.5.5.`.`.`.`.`.`.`.5.5.5.;.5.;.`.5.5.;.:.U U :.:.:.:.:.:.:.:.U U ~ ~ U XXXXpX'.'.e.e.T.e.'.e.'.'.p.p.'.p.p.p.e.p.e.e.p.^.p.p.p.p.^.e.p.^.p.^.].].].sX].sXsXsXsXsXsX4.sX4.sXsXsX4.sX4.4.4.4.sX4.4.sX4.sX4.4.4.4.4.4.4.4.4.4.4.4.4.4.4.4.4.4.4.4.4.4.4.4.4.4.4.4.4.4.4.4.4.4.4.4.4.4.4.4.4.4.4.4.4.4.4.4.J.J.t.t.t.].^.<.<.<.<.<.<.<.8.<.8.<.8.<.<.~.<.<.<.T.<.~.<.<.T.<.<.T.<.<.<.^.T.^.<.^.<.<.<.<.<.GXGX",
"`.`.5.;.{ d.j.j.x XX=.5.;.:X:X:X:XW :X:XW :X:X:X:X:X:XpX:X:X:X:X:X:X:X:X:X5.:.U XXXX+.9.9.#XlX-X(.yX-.OX(.-X#X#XcX].hX'.=.U ~ U :.;.pX`.:X:X:X:X:X`.:XpX:X:X:X:X:X:X:X:X:X:X:X:X:X:X:X:X:X:X:X:X:X:X:X:X:X:X:X:X.X.X.X:X:X:X;.;.5.5.:X5.:X;.;.5.pXpX5.pXpX@.@.@.=.@./././.XXXX/.=.@.pX@.pX@.pX5.5.5.5.5.5.5.5.@.5.;.5.5.5.pX;.;.pX`.pXpXpX5.;.`.5.pX5.pX5.5.5.5.5.5.`.5.`.`.`.5.`.`.`.`.`.`.`.`.`.`.`.`.`.5.`.`.`.`.`.`.`.5.@.@.@.=.`.`.=.=.5.`.`.`.`.`.5.`.5.=.`.`.`.`.=.=.=.`.`.`.`.5.pX5.;.;.5.;.5.5.5.`.5.`.5.5.`.5.`.5.5.5.5.:X`.:X5.:XpX:X5.5.5.5.5.5.`.5.5.5.;.u.u.;.;.;.5.;.5.5.5.;.5.5.5.5.5.5.5.5.5.`.5.`.5.=.@.@.@.@.@.@.@.@.=.=.`.`.`.`.5.5.5.;.;.;.pXpX;.pX5.;.pX5.pX5.;.;.;.5.5.;.:.:.;..X:..X;.;.;.;.;.u.u.U u.u.;.pX`./ / '.'./ './ './ './ p./ p./ p.'.'.p.'.p.'.p.'.e.'.e.e.'.^.'.p.'.].].sX].].].sXsXsXsXsX4.sX4.sXsX4.sX4.sX4.4.4.4.4.4.4.4.4.sX4.4.4.4.4.sX4.4.4.4.4.4.4.4.4.4.4.4.4.4.4.4.4.4.4.4.4.4.4.4.4.4.4.4.4.4.4.4.4.4.4.4.4.4.4.4.sXt.J.].].^.<.<.<.<.<.<.<.<.<.<.<.<.<.<.<.<.T.~.<.<.T.<.<.<.<.<.<.<.^.T.^.^.T.^.^.T.^.^.<.<.<.GX",
"pX:XpX;.{ w ` f J +.@.pX;.:X:X:X:X:X:XW :X:X:X:X:X.X:.{ { :..X:X:X.X.X:X:X5.`.pX@.+.J *.6.9.#X(.h.-.-.h.h.h.6.#X/.]./ / pXpXpX`.`.`.:X:X:X:X:X:XpX:X:X;.;..X;..X.X.X:X.X:X.X:X.X:X.X:X:X:X:X:X:X:X:X:XZ.:X.X:X.X:X:X.X:X.X.X.X.X:X:X5.5.;.;.;.;.pX5.pX@.XX+.+.P./.P.P.P.XXP.XX/./.@.=.=.pX=.=.`.`.5.=.5.=.5.@.;.:.:.;.pXpX;.pXpX5.pX@.@.;.@.pX5.pX:X5.;.5.pX5.5.;.5.5.5.`.5.5.pX5.5.5.5.5.5.5.pX5.pX5.;.pX;.5.;.5.=.5.=.5.u.U U u.@.5.5.5.;.;.5.pX`.pX`.pX5.5.;.;.;.;.;.u.u.;.@.@.;.;.;.;.;.;.;.;.;.5.pX5.5.:X5.;.;.;.;.;.;.;.:.:.:..X;.;.;..X;.;.;.;.;.5.;.;.;.u.:.:.:.:.:.:.;..X.X;..X.X;.;.;.;.;.;.:.;.;.;..X5.;.u.u.u.U u.U U U U U u.@.;.5.5.5.;.;.;.:.:.:.:.:.:.:.;.;.;.;.5.5.;.;.;.;.;.;.H.;..X;..X.X.X.X;.5.;.;.u.:.:.:.:.:.pXpXpXpXpXpXpXpXpX:XpX:XpXpX:XpXpXpXp.`.p./ p.'.p./ p.'.'.'.e.'.^./ './ / ].pXpXpXsXpXsXsXpXsXsXsXsXsX4.sX4.sX4.sX4.4.4.4.sX4.4.4.pX4.4.4.4.4.4.4.4.4.4.sX4.sX4.sX4.4.4.4.4.4.4.4.4.4.4.4.4.4.4.4.4.4.4.4.4.4.4.4.4.4.4.4.4.J.sX/.].].<.<.<.<.<.<.<.<.<.<.<.<.<.~.<.<.<.<.<.<.~.<.<.<.<.<.^.<.^.<.^.<.^.^.^.^.^.<.^.hX<.<.GX",
"pXpX:X:X;.u.+.` ` w U ;.:X:X.X.X:X:X.X:X:X:X:X:X.X:.M.d.d.{ :.:X:X:X:X:X:X5.`.@.XXx L ..#X#X6.h.-.-.h.q.f.q.s P./.=.pXpXpX;.:XPX:XPX:X:X:X:X:X:X.X;..X.X.X.X.X:X.X:X.XZ..X9 .XW .X:X.X.X.X.X.X:X.X:X:X.X.X:X:X:X:X.X.X;.:X.X.X.X;.;.;.5.;.u.U U u.u.XXm J f s ..9.9.9.#X#XP.#X+.P./.=.].=.=.@.@.@.;.;.5.;.;.:.U U :.:.;.;.;.;.pXpX;.@.u.u.u.;.;.5.;.;.:X;.:X;.;.;.;.;.;.;.:X;.5.;.;.pX;.;.pX;.;.;.;.;.;.5.;.;.;.;.;.;.u.:.{ { { U u.;.;.@.;.;.;.;.pX5.5.;.pX;.u.;.u.:.U U { U U :.u.;.:X;.:X;.:X;.:X:X:X:X:X;.;.;.;..X:.:.:.:.{ :.:..X.X:X.X.X.X.X;.;.;.;.;.H.;.H.:.:.4X:.:..X.X.X;..X.X.X.X.X.X;..X;..X;..X:X;.:X;.:.:.U { { U { ~ { U U u.;.;.;.;.;.;..X:.{ { { { { { :.:.;.;.;.;.5.;.5.;.H.;.;.;.H..X.X.X.X.X.X;.;.;.:.:.:.:.:.:.:..X.X.X.X.X;..X;.;.;..X.X.XpX.XpX:XpX:XpX:XpX:XpXpXpXp./ './ / / / / / / pX/ ]./ pX/ pXpXpXpXpXpXsXsXsXsXsXsXsXsXsX4.pX4.;.4.;.4.4.;.4.4.4.4.4.4.4.4.4.4.4.4.4.4.4.4.4.4.4.4.4.4.4.4.4.4.4.4.4.4.4.4.4.4.4.4.4.4.4.4.4.4.4.4.t.sX].^.<.<.<.<.<.<.<.<.<.<.<.~.<.<.<.~.<.<.~.T.<.<.<.<.<.<.<.^.T.^.^.T.^.^.<.^.T.^.^.^.hX<.^.",
"pX:X.X:XpXpXm L 9XkXH :.pX:X:X.X:X.X.X.X:X:X.X:X.X:.Q d.Q { ;.:XpX:X;.:X5.pX`.u.m ` f _ P...&.f.f.q.&.&.L #.+.=.=.pXpX5.:X.X:X:X:X:X:X:X:X:X.X.X:.:.:.:.:.:..X.X.XZ.:X.X:X.X:X.X:X.X:X.X.X.X.X.X.X.X.X.X.X.X:X:X:X.X.X;.;.;.pX;.;.;.;.u.U Q d.d.w m H L L q.q.k.k.k.*.6.#X#X9.#.#.9.P.P.P.XX+.+.XX@.pXpX;.u.U { :.:.;.;.pX;.pXpXu.~ ~ ~ ~ U :.u.;.;.;.;.;.;..X:.:.:.:..X;..X;.;.;.;.;.;.;.;.;.;.;.;.;.;.;.;.;.;.;.:.:.:.{ { { { 4X:.;.;.;.;.;.;.;.;.;.;.;.;.;.u.:.U U { { { { { U :.:.;..X.X.X.X.X.X;.;.;.;.;..X;..X:.:.:.{ { :.{ :.:..X;..X;.;.;..X;.:X5.5.;.;.;.:.:.:..X.X.X.X.X.X.X.X.X:..X:X:X:X;..X;..X:X:X:X:.:.:.:.{ { { U { { U U :.;.;.5.:X;..X.X:.:.{ { { { { { { :.:.:.;.;.;.@.;.u.u.u.;.;.;..X.X.X:.:.;.;.:.:.:.;.:.:.:.:..X.X.X.X.X;.;.;..X.X.X.X.X.X.X.X.X;..X.X;..X;.;.;.pXpXpXpXpXpX`.pXpXpX=.pXpX`./ / / / pXpXpXpXpXpXpXpXpXpXpXpXpXpXpXpXpXpX4.pX;.4.4.;.4.4.4.sX4.sX4.4.4.4.4.4.4.4.4.4.4.4.4.4.4.sX4.sX4.sX4.4.4.4.4.4.4.4.4.4.4.4.4.4.4.4.J.sXsX].^.<.T.^.<.T.<.<.<.<.<.<.<.<.<.<.<.<.<.<.<.<.<.<.<.<.^.<.^.^.<.^.^.^.^.^.^.^.^.^.^.<.^.GX",
":X.X.X:X:XpX~ ` kXkXH U ;.5.:X.X.X:X.X.X:X:X.X.X.X;.:.u.u.pXpXpX`.:X:X;.5.`.:.d.kXkXj.+.+.J f ..+.P.P.+.+.+.@.=.@.u.;.:X:X.X.X.X.X.X.X:X.X.X:.:.{ { { { :.:..X.X:X.X.X:X.X:X:X:X:X:X;..X:.:.:.dX:.4X{ :..X.X;.;.;.;.;.u.;.;.u.u.U U u.u.~ d.j.j.j.` x _ 9.#.k.-.{.{.y.h.*.6.k.q.f.&.*.#.*.L L j.x U pXpX;.u.U U :.:.;.;.pX;.@.u.` kXkXkXj.w U u.;.;.;.;.;..X:.:.:.:.{ { { :.:.{ :.:.{ :.U :.U :.:.:.:.:.:.:.u.:.U :.{ U { U :.:.:.:.;.;.:.;.:.u.;.:.:.:.:.:.:.:.:.:.{ { Q Q Q { { :.:..X:.:.:.:.:.:.:.:.:.:.;.:.:.:.:.{ :.{ { :.:.:.:.:..X.X.X;..X;.;..X;.;..X.X.X:.:.:.:.:.:.:.:.:.:.:.:..X.X;.;.;.:X;.;..X.X:..X;.;.:.:.:.:.:.U :.:.:.:.:.;.;.;.:X;.;..X:..X:.:.{ { dX{ { { U U U U U U u.u.u.u.U U U :.:.:.:.:.u.;.@.;.pX;.;..X.X:..X.X.X:X.X;.;.5.;..X.X.X:.:.:.:..X.X:..X.X.X.X.X.X.X.X.X;.;.;.;.@.u.u.u.u.pXu.;.;.pX;.pX;.pXpXpXpXpXpXpXpXpXpXpXpX;.;.;.pX;.pXpX;.pXpXpX4.sXpXsXsXsXsXsX4.4.4.4.4.4.sX4.sX4.sX4.sXsXsXsXsXsXsX4.4.4.4.4.FX4.FX4.FX4.FX4.FX4.sX].^.^.<.^.<.<.<.<.<.<.<.<.~.<.<.<.<.<.<.<.<.<.<.<.<.<.<.<.<.^.<.^.^.<.^.<.^.^.^.^.^.^.^.hX^.",
".X;..X:XpXpXpX@.XX~ XX@.@.pX;.;.;.:X:X:X:X:X.X:X:X:XpXpXpXpXpXpX:XpX;.;.pX5.U d.d.w m XXXXXXXXpX/ `.`.=.u.u.;.;.;.:.;..X:X:X:X.X.XZ..X.X.X:.:.4X{ :.{ :.:.:.;.;.;..X:X.X:X:X:X:X.X.X:.:.:.4X{ { { { { :.:.:.;.u.u.u.u.U U m ` ` ` H +.u.u.U ~ ~ Q U XX/./.P.6.-.;X;X;X-.h.h.-.f.y.-.*.*.q.f.f.9XH XXu.u.u.U U :.U U u.u.@.@.pXXXj.$X$X$XkXH U @.pX;.@.;.:.:.:.{ { { { { { { { { { { :.{ { U { U { { { { U { :.{ { { { { { :.:.u.:.:.:.U :.:.:.:.:.U U U U U :.:.:.{ { { { { { { { U :.:.:.:.:.:.{ { { { { { { { { { { { { { { { :.:.:.:.:.;.;.;.5.;.;.;..X:.:.:.{ :.:.:.:.:.:.:.:.{ :.:.:.:.:..X;.;.;.;.:.:.:.{ { :.:.:.:.:.U U { U U U U :.:.;.;.;.;.;..X.X.X.X:.:.:.{ :.{ :.U { ~ ~ ~ m m +.+.+.+.m ~ ~ ~ U U XXXX@.@.@.@.@.;.;.;.:..X:..X;.;.;.5.5.;.;.:.:.{ { :.:.:.:..X:..X.X.X.X.X.X.XpX.X.X;.:.:.:.U U u.:.:.U U U U :.u.u.;.;.;..X.X.X.X.X.X.X:.;.4.;.;.;.;.;.;.;.4.pXpXpXsXpXpXpXsXpXsXsXsXsXsXsX4.sXsXsXsXsXsXsXsXsXsX4.sX4.sX4.4.FX4.4.4.FX4.4.4.FX4.J.J.].^.^.<.^.<.<.T.<.<.<.<.<.<.<.~.<.<.<.<.<.<.<.<.<.<.<.<.^.<.^.<.^.<.^.<.^.^.^.^.^.^.^.^.^.^.",
";..X;.:X;.pX/ / / =.=.=.=.@.@.@.u.;.;.;.:X:X.X:X.X;.;.@.@.@.u.u.u.u.;.:.;.;.:.U U u.u.@.pXpXpXpX`.pX`.pX;.u.;.;.;.;.;..X.X.X.X.X.X.X.X.X.X.X.X:.:.:.:.:.:.;.;.:.;.:.;..X;.;..X;.;.:.:.4X{ { { 4X{ 4X:.:.:.:.U U U ~ ~ ~ m f q.L f J +.@.@.@.u.;.u.@.=.=./.P...&.f.-.h.6.6.k.-.h.h.h.#X#X6.f.f.L +.XXu.U U { { { U U U u.@.=.=.@.+.` j.j.` m U @.@.u.u.:.:.{ { { { { M.{ Q { { { :.{ { U { U { U { { { Q { { wX{ { wX{ wX{ U :.u.u.:.U { U :.:.:.:.{ :.{ { :.:.:.:.U { { { wX{ { { { U :.:.:.:.U :.{ { { { Q { Q { { { { { { { { :.:.{ U :.:.;.;.;.;.;.;.:.{ { { { { { { :.:..X:.:.:.:.:.{ :.:.:.:.:.:.:.:.:.{ { { { { { { U { { { { { { 4XU U :.:.:.:.:.:.:.:.:..X.X:.;.u.u.u.u.XXXX+._ J s s #.9.9._ _ _ +.+....._ +.+._ _ x m XXu.u.u.;.:.:.u.u.;.;.;.;.:.{ :.{ { :..X:..X:..X;..X.X.X.X.X.X.X.X.X;.;.;.;.:.;.;.;.:.:.:.:.:.;.;.;..X;..X;..X.X.X.X.X;.;.;.;.:.;.u.;.;.:.;.;.pXpXpXpXpXpXpXpXpXpXpX4.pXsXpXsXsXsXsXsXsXsXsXsXsXsXsXsX4.4.4.4.4.FX4.4.4.FX4.4.J.4.sX].^.T.^.<.^.<.<.<.<.<.<.<.<.<.<.<.<.<.<.<.<.<.<.<.<.^.<.<.<.<.^.<.^.<.^.<.^.<.^.^.^.^.^.hX<.",
";.;.;.pXpXpXpX=./.XXXXXXXX+.+.+.m w ~ u.;.;.;..X.X:.U +.+.+.XXU U U U U :.;.;.:.U U U ;.pX=.pXpX;.;.pX;.@.:.:.;.;.;.:.{ { :.:..X.X.X.X.X.X:.:.:.:.:.:.:.:.:.:.:.:.:.:.:.:.:.;.:.:.:.4X:.{ 4X{ :.:.:.:.;.:.U U ~ ~ m w x J L &...#X+.XXXXu.u.u.;.:.u.;.u.XXXX_ #.*...P.cXlX9.6.9.9.6.#X#X*.f.9Xs +.XXXX~ ~ { Q ~ ~ ~ ~ XXXX@./.=.=./.+.x m m XXXXU U U U { { { { Q Q { Q Q { { { ~ U { ~ U { U ~ ~ ~ wXQ ~ Q ~ { { { { { { { U u.u.U U U { U :.:.:.U :.U :.U :.:.U { { { { { { { { :.U U u.U U U U U ~ ~ Q Q Q Q ~ ~ ~ ~ ~ U U U u.u.U U U U u.u.u.:.;.:.:.{ { { { { { :.:.:.:..X;.:.:.:.:.{ U :.:.:.:.:.U { { { { { { :.:.:.U U { { ~ { { { { { { { { { { { :.4X:.:.;.u.;.u.XXXX+.+._ #.&.q.q.q.k.*.*.6.9.9.6.q.q.&.k.&.q.f.9XL _ +.XXU U ~ ~ Q Q ~ U u.u.u.:.:.:.;.:.:.;.:.;.;.:.;.;..X.X:..X.X.X.X.X;..X;.;.;.;..X;.:.:.:.:.:..X:..X:..X.X.X.X:..X.X.X;..X;.;.;.;.;.:.;.;.pX;.4.;.pX4.;.4.;.4.;.4.;.4.;.sXpXpXpXpXpX/ ].pX].sXsXsXsXsX4.4.4.4.4.4.J.4.J.4.J.4./.J.].^.^.^.<.<.<.<.<.<.<.<.<.<.<.<.<.<.<.<.<.<.<.^.<.<.<.<.^.<.<.<.<.<.^.<.^.<.^.<.^.^.^.^.^.hX",
"U u.u.@.@.@././.+.#.s #.#.#.s L 9X9X` U @.;.;.;.:.Q ` f f ` m ~ U { { U :.;.u.U :.u.:.;.;.;.u.:.u.:.U :.:.U U U { :.{ { { { { :.{ :.:.:.:.:.{ { { { ~ { U U { { { U { 4XU U U :.u.;.;.:.:.:.:.:.:.;.;.;.:.U ~ m m w H ` f L #.#X/.P.XXXXu.u.;.;.:.u.u.u.XXXX+.+._ #X/.cX/.P./.].].#X6.&.f.f.9XJ XXXXU U U { Q ~ w ` ` ` m +.XXXX/./.XX+.+.+.+.XX+.+.~ ~ ~ Q Q Q { Q { Q ~ Q ~ ~ ~ ~ ~ ~ ~ ~ ~ ~ ~ { U ~ { U ~ U U U U U ~ U U U U U { ~ Q { U U { { { { { { { { { U { { { { { { { { { U ~ U U U ~ ~ ~ ~ ~ m ~ +.+.+.~ +.XXXXXXu.u.u.U ~ ~ ~ ~ ~ ~ U U :.U { { { { { { { { U :.:.:.:.:.:.{ { { { U { ~ { { { { { Q { U :.U :.U U { { { ~ wX{ Q { wXQ { { { { { { U U U U XXU +._ J s &.&.q.h.h.-.-.-.-.-.k.k.h.y.y.-.h.h.f.y.f.q...+.+.+.x f j.kXj.` w m ~ U U U :.u.u.:.:.:.U :.:.:.{ :.{ :.:.:..X.X;..X;.;.;..X:.;.:..X;..X:.:.:.:..X.X.X:..X.X.X.X:..X.X;.;.;.;.;.;.;.;.;.:.;.u.:.U U U { U { U U :.:.u.:.pXpXpXpXpXpX].pXpXpXsXpXsX4.sX4.sXsXP.sX4.sXsXsXsXsXsXsXsX/ ^.^.^.<.^.<.<.<.^.<.<.<.<.<.<.<.<.<.<.<.<.<.^.<.^.<.<.<.<.<.<.<.<.<.<.^.<.^.^.^.^.<.<.<.",
"s ..........#X#X#.q.f.f.q.*.&.f.f.9XL +.@.@.;.:.Q d.kX9X9XL x m ~ ~ { U :.;.;.:.u.u.:.u.u.U U U U U { U ~ { { { { { { { { { { { { { { { { { { { { Q Q Q { { ~ U { { { { { { U U U u.u.;.:.:.:.:.:.:.:.:.u.:.~ ~ m w H ` f s ..+.P.XX+.U U U u.u.u.u.@.XX+.+.+.+.P.+.P.P.P.P./.]./.+...&.L L J +.XX@.u.u.u.:.U ~ H j.9X9XL J _ +.+.XX+.+.+.m _ +._ _ _ m m Q Q { Q { { ~ U ~ U U ~ ~ ~ ~ ~ ~ ~ wXQ wX{ U U u.U u.u.u.u.U ~ ~ ~ ~ ~ ~ wXwXQ wX{ ~ ~ { ~ wX{ wX{ ~ U U U U U U U U ~ ~ ~ ~ m m +.+.m +.+.P.+.+.P.+.+._ _ _ +.XXXX@.@.XXXXx ` s f f H ~ U U U U :.{ U { ~ { ~ { { { U U { { { { { { { Q Q ~ ~ ~ { ~ Q ~ ~ U U U U U U { { { { ~ wXQ Q { ~ { U { U { U U U ~ ~ m J f L &.q.k.6.-X(.h.b.b.{.{.{.-.{.{.{.OX-X6.h.y.f.&.9.#X#X_ s 9X$Xg.9XkX` w ~ ~ U U U U U U { { { { { Q { { { { :.:.:.:.;.;.;.;.;.:.:.:.:.:.:.{ :.:.:.:..X:..X.X.X.X.X:..X.X;.;.;.;.;.:.;.:.;.:.:.:.:.U U { { { Q { { U :.:.;.;.;.;.pX;.pXpXpXpXXXu.u.U 4.u.4.pXpXsXpXsXpX/.pXsX/.sX/./.].].'.^.hX^.hX<.^.^.<.^.<.^.<.<.<.<.<.<.~.<.<.^.<.<.<.^.<.<.<.~.<.^.<.<.<.<.^.^.<.^.<.^.<.<.",
"h.h.-.-.f.f.h.&.q.f.y.y.h.9.9.&.f.f.L +././.XXU Q H f f L f x m m ~ ~ { U :.u.:.;.:.:.U U ~ ~ { ~ ~ ~ Q ~ ~ { ~ Q ~ { { { { :.{ { { wX{ { { { { { { { { ~ U 4XU 4XS.{ ~ { ~ { ~ U U u.u.u.:.U U { U U :.:.:.U U ~ ~ ~ m m m _ +.+.~ ~ Q Q ~ U XXXXXXP.+....._ +.#X_ _ m +.+.+.+.+._ +.XXXXXXXX@.@.@.pX;.;.;.u.U m J L 9X9XL x _ m +.+.m m x s L f #..._ m Q Q { ~ ~ U U U XXXXS.U U U ~ ~ ~ ~ Q Q Q { U u.;.u.u.u.XXXXU +.~ ~ ~ ~ Q bXQ Q wX~ ~ ~ ~ wX~ { ~ ~ ~ U U U u.u.XXXXU ~ m m m x m +.+.+.+.P.P.P.#X#X#X..&.L s _ P.P.XXXXXX+.L 9X9Xf.9Xf +.~ U U :.u.u.u.U ~ ~ Q Q Q { Q { { { { { Q { Q Q ~ ~ U U ~ ~ ~ m m ~ m ~ ~ U U U U U U { { Q ~ ~ U U u.u.u.u.U U ~ m m x s &...9.6.6.lXlXlXOXb.b.b.-.{.{.{.y.-.-XlXlXk.f.f.*.9.#X#X9.#.L q.9X9Xj.H ~ U U U ~ ~ Q ~ Q Q M.Q M.Q Q Q Q Q { { { { U U :.u.u.u.U U { { { Q { { { { :.;..X.X:..X:..X.X:.;.;.;.:.u.:.U U U { U U U U :.U { U U { { U :.:.u.;.;.;..X:.:.:.U U U { { { { U :.u.;.pXpXpXpXpXpXpXpXpX=.sXpX].].].]./ ^.^.^.hX^.hX^.hX<.<.<.<.<.<.<.<.<.<.<.<.^.<.<.<.<.<.<.<.<.^.<.<.<.^.^.<.^.^.^.<.<.",
"k.-.b.{.b.y.f.y.y.f.h.k.6.lX#X*.f.f.L ..P.XX+.XXXXXX@.XX_ x +.~ ~ ~ ~ { { { U :.:.:.U { ~ ~ ~ ~ ~ ~ ~ ~ ~ ~ ~ ~ ~ ~ U U U U U :.U { { { { U U U U u.u.u.u.u.u.U u.u.U ~ ~ ~ ~ ~ ~ U U U U U { { { { :.:.;.u.;.u.u.u.@.u.u.XX+.+.~ ~ ~ Q Q m ~ +.P.+.#.q.q.&...9._ _ _ m m m m ~ ~ +.XX@.=.=.=.=.=.;.@.;.;.;.;.@.XXXX+.x f s _ m m m ~ ~ m ` 9X9Xf.q.*._ m ~ ~ ~ Q ~ ~ XXXXXXXXS.+.+.~ ~ ~ m ~ ~ Q Q { U U u.U U XXU ~ +.~ +.~ ~ bX~ Q wXbX~ ~ ~ wX~ ~ ~ wX~ wX~ ~ U ~ ~ +.+.+.+.+._ _ _ _ _ _ +.9.#X#X#X9...6.*.q.f.f.f.&.+.P.+.+._ #.q.f.f.y.f.f +.U XXu.;.;.u.u.XXU ~ ~ Q Q Q Q { Q { ~ { U ~ { ~ U ~ ~ ~ ~ m m ~ +.m x x m XXu.u.:.u.;.u.U U U U U XXU U U U U +.+.+._ _ 9.#XcXcX#X-X-X-X-XOXb.b.-.OXk.h.k.(.-X9.6.k.q.f.f.&...9.9._ _ _ +.x ` H ~ u.@.u.u.U U ~ Q Q Q M.M.Q Q Q { { Q { Q Q Q Q Q ~ ~ U U ~ ~ Q Q Q M.Q Q { { U :.:.:.:.:.:.:.:.:.:.:.:.U U { { Q Q Q Q { { { { { :.:.:.:.:.:.;.;.;.;.;.;.:.:.:.{ { { Q Q Q Q { U :.:.;.u.;.@.pX@.pXpXpXpXpX/./.=.=.]./ ]./ / / ^.hX^.hX^.hXhX^.hXGX^.GX^.^.^.^.<.<.<.<.<.<.<.<.<.^.<.<.<.<.<.<.<.^.<.<.^.<.",
"-XOX-.yXOX6.#X9.9.#XcXcX/.9.&.f.9X9Xf _ +.m +.U XXXX/./.+.+.+.+.U ~ ~ { { U { U U U { ~ Q ~ ~ bX~ ~ +.~ m m +.~ +.U XXU U U U U U { ~ Q U U { U U u.;.;.;.@.u.u.u.u.S.U +.+.+.m m ~ ~ ~ ~ { { { { { :.:.;.:.:.u.U U U U U ~ +.~ m ~ ~ m w m m +.+...q.f.f.&.*.*.*..._ m m ~ ~ ~ m m m +.XXXXXXu.u.@.u.u.:.:.U u.@././.+._ x _ m +.m ~ m H j.9Xg.g.f.L #._ m w w m m m +._ +._ _ +.+.+.XX~ m ~ ~ Q Q Q ~ ~ ~ ~ ~ ~ +.~ ~ m m m Q m ~ ~ ~ ~ wX~ m ~ ~ wX~ Q ~ ~ ~ ~ ~ +.m _ _ _ _ +.+.+.9.9...9.9.#X9.*.q.f.f.q.&.q.y.*Xf...P.P.+.+.x J s #.s q.q.J +.U U U u.u.u.u.U ~ ~ ~ Q Q ~ ~ ~ ~ ~ U U U u.u.u.u.U U ~ ~ m m +._ f 9X9X` +.u.u.u.u.@.u.u.U U ~ m w H H H w m +.+.+.+.P.#X#X9.*.h.h.OX(.(.yXyXyX(.-XlXlXcXGX^.cX6.f.y.*Xf.q.s .._ +.+././ =.+.+.XX@.@.u.u.U U ~ Q Q Q Q Q Q { U U U { Q M.Q Q Q ~ ~ U u.XX~ ~ ~ Q Q Q Q Q Q { { Q { { Q { { U U { U { ~ { Q wXQ Q Q Q Q M.Q Q { { U :.;.;.;.;.:.;.;.;.:.:.:.:.{ { { Q Q Q Q Q { U :.u.;.u.pXu.;.u.;.u.u.u.u.XXXX/./././.=.=.=.]./ / / ]./ ].].0X]./ GX].GX].GXGX].GXGX^.GX<.GXGXGX<.<.<.<.CX<.<.<.<.GX<.GX<.",
"(.OX-.yXOX-X#X#XP.cX].cXP...L f _ +.+.+.+.m m ~ ~ +.U +.+.+.U XX~ ~ U { U :.U U { U U ~ ~ ~ ~ +.+.+.~ _ x m +.+.+.+.+.XXXXU ~ ~ ~ U ~ Q ~ ~ U U U U u.u.u.U u.u.U U ~ +.+.m _ m m m ~ Q ~ Q Q { { :.:.:.:.U :.U { U U ~ U ~ m m ~ m m ~ m m x J f q.q.y.f.f.f.f.f.&.x m ~ ~ ~ ~ m m m ~ ~ ~ ~ U U u.:.u.:.U U ~ +.XXXX+._ _ +.m +.m m +.XX+.+.J L f #..._ +._ _ +.+._ ..J #..._ _ _ +.+.+.+.~ +.~ m m m ~ ~ m m ~ ~ m m m Q m Q Q ~ Q bX~ ~ m Q ~ Q ~ ~ wX~ Q m m m _ +.+...#.s &.&.&.k.k.h.h.k.*.*.-.y.*Xy.k.#X9.q.y.f.*.9._ +.m +.+.P././.+.x _ +.~ ~ ~ { U U ~ ~ ~ m m m m Q ~ ~ ~ ~ ~ ~ U u.u.@.u.XXU ~ ~ m m _ J 9Xg.$Xj.m XX@.u.u.u.u.u.U ~ m H j.kXkXj.` m +.+.+.+.#X9.9.k.-.-.OXOXOXyXyXOXyXyXh.*.9.cXGX^./.9.#.s J _ _ x x x _ m +./.@.+.+.U u.u.U U ~ ~ Q Q Q Q Q Q { { U u.u.U { { ~ Q m m ~ +.S.+.m bXm m m w Q Q Q { Q Q Q ~ w Q ~ ~ ~ ~ Q ~ Q Q wXm Q Q Q Q Q Q Q Q { { U U :.;.u.;.u.:.:.:.;.:.:.:.:.{ U { ~ { Q { { U U :.u.:.:.:.U :.U U U U U ~ +.+.XXXXXXXX/././.=.].=.=.=.=.=./././././././.P.P././.cXcX].cXcXcXGXGXGXGXGXGXGXGXGXGXGXGXGXGX",
"h.-.-.-.-.h.&.#.9.P.P.P.P.+._ +.XX/.XXXX+.~ ~ +.~ +.+.+.+.+.+.+.+.~ ~ ~ U U { U U ~ ~ +.+.+.+.+.+.+._ _ _ _ _ ......_ +.+.+.+.+.+.+.~ m m m ~ U U ~ Q ~ ~ ~ ~ ~ ~ +.m x f L L s x m ~ ~ ~ Q { { U :.;.:.:.:.:.:.:.:.:.U U ~ ~ ~ +.~ m m m m J L 9Xf.f.q.q.-.f.f.q.#._ +.~ ~ ~ m m m m +.~ ~ ~ ~ U U U U U { { ~ ~ m m m +.m +.+.+.m m U XXXXXX+.x _ _ +.9...s s #.#.s q.q.q.&...#..._ _ +.+._ _ _ _ _ +.+.+.+._ m x m m m w m Q Q m Q ~ m ~ Q ~ Q ~ Q ~ Q ~ m m x x _ +.9.&.q.q.q.q.-.-.-.-.{.{.y.y.y.y.y.f.*.9.9.&.y.y.q.#._ _ m ~ +.XX=./.+._ m m m Q Q Q Q ~ ~ ~ m Q m Q m m Q m Q ~ Q ~ ~ U U XXu.U ~ ~ m m m +._ J L L f x ~ ~ U U ~ ~ ~ ~ m w H ` j.` H m m m _ +.+.9.9.6.k.h.6.-X-X(.yXb.yXyX-.y.q.*.P.]././.P.P./././.XX_ x x x x m +.+.m ~ ~ ~ ~ ~ ~ Q Q Q Q Q Q Q Q Q ~ U U U U U ~ ~ m m m _ +.+.+._ _ _ _ m m w m m ~ m m m ~ w x m m m m m ~ m m m m w m w m Q Q Q { { { { U U U U U U U :.U :.:.:.{ :.U U { ~ ~ ~ Q ~ ~ { U U { { { U { { U { ~ ~ m m m m ~ +.+.+.U +.XXXXXXXXP.XXXXXX@.XX/./././.P./.P././././.cX/.#XP.cXcXcXcXcXcXcXw.cXcXt.cXcX",
"-.-.-.-.-.f.q...+.+.+.+.P.+.+.+.XXXXXXXX~ XX+.m m +.+.+.#X_ _ _ _ m m ~ ~ ~ ~ ~ ~ m m +._ _ ..............#.&.q.q.q.&...9._ _ _ +.+.+.+.m m m w w w m m ~ m m m m x ` L 9X9X9X9Xf m ~ ~ ~ ~ { { U :.;.;.;.;.;.;.;.u.:.u.u.U ~ ~ ~ m m ~ m x J s f &.*.6.6.*.&.*.9.P.XX~ ~ m m w w m m ~ ~ ~ ~ ~ ~ { { { { { { Q ~ m m m m m m +.~ m m ~ +.+.XXXX+.+.+.9.#.&.q.f.q.&.q.f.f.f.q.k.q.&.*.#...9.#.s #.....#.#....._ _ m m m w m m Q m Q ~ ~ m ~ m Q Q Q Q m Q m m m x J #.s &.q.q.k.*.k.-.{.yXb.{.{.{.-.-.h.*.6.6.*.&.q.f.f.q..._ _ m m m +.+.+.m m m ~ Q Q Q Q Q Q Q m Q m m m m Q m Q m w Q Q Q Q ~ ~ ~ ~ ~ Q Q m m +.+.+.+.x x x w w ~ Q Q Q Q m m w w w m ~ XX+.m m _ _ +.9...*.q.k.6.-X-XOXb.{.b.b.-.f.&.9.P./.P.P.P././.=./.+.m w w w m m m m m m m m Q Q Q Q Q w w w Q Q Q Q Q Q ~ ~ ~ ~ +.m m _ _ _ _ ........_ _ +.9._ _ _ _ _ _ _ +._ _ _ _ +._ _ m m m m m x m m _ m ~ ~ Q ~ ~ ~ { Q { { { { { { { { U { { { Q ~ ~ Q Q Q Q Q Q ~ Q Q Q Q Q Q Q ~ Q Q ~ m Q m m m m m ~ m ~ m ~ m +.~ +.U XXXXXXXXXX/./././././././.P././.P.#X#X#XP.#X9.9.#XlXcXlX#XlX#X#X",
"h.h.k.k.h.q.#.P./.P.+.+.+.+.m m +.+.+.~ +.+.m _ _ +.+.#X9...s s s s J x m +.+.+.+._ ..J s &.q.q.&.*.6.9.6.h.f.y.f.f.q.q.*.*.#.....9.9.9...J L q.L f x _ +.+.m _ _ J f L L L L L f m ~ ~ ~ ~ ~ { U :.:.;.;.;.;.:.:.:.U U U U ~ ~ m m m m bXw x _ +.P.P.P.P.9.9.P././.XXm m m m m x m m m m ~ ~ ~ ~ Q Q Q Q Q Q Q ~ ~ m m m _ m +.+.m m m m m ~ XX+.+._ ..&.q.q.q.q.&.k.k.h.h.-.-.f.f.q.h.*.*.q.f.q.h.k.h.q.q.q.#..._ _ m m m w m Q m m m m m m m m Q m ~ m ~ m m J f &.q.&.k.6.#XlX-XOXb.yXyXyXOXOX(.-XlXcXcX#X*.q.q.&.#....._ m m Q m ~ ~ m m m m Q Q Q Q Q Q Q Q Q m Q m Q m Q w Q w Q w w w w Q Q ~ ~ Q m Q m m _ +.P.+.+._ x w w Q Q Q ~ Q m m m m m m +.U +.m m _ _ _ ..#.&.q.q.*.k.k.-.-.-.-.h.h.&.9.P./.P.+.+.+.P.P.XX+.+.x x m +.m m m m w m w Q Q ~ ~ Q Q Q Q w w Q Q Q Q Q m m m m _ _ _ ..#.#.&.&.*.*.6.6...9.9.9._ _ .._ ..9.9.9.9.......9._ _ _ _ x _ _ _ _ +._ m m Q Q Q Q Q Q Q Q Q { ~ ~ { { ~ Q ~ Q Q m Q w w w w w m Q Q ~ ~ { Q { ~ Q ~ wX~ m w bXm bXm m m m bXm m m m m ~ ~ ~ ~ U XXXXu.XXXXXXXXXXXXXXXX@./.@./.S.S.P.S.+._ +.#XP.#XP.#X#X#X",
"6.9.9.9.6...P././.+.m m +.+.+.m m +.+.+._ +.+._ ......9.6.&.q.q.q.q.L s ..+.+.+.9.9.#.&.q.f.-.-.-.k.-X-X6.h.y.{.y.-.-.-.-.-.h.h.*.6.9.9.6.&.f.f.f.L #..._ _ _ _ _ x s ` x +.+._ x m ~ ~ ~ ~ { { { U U :.:.{ U { { { { { ~ ~ ~ m w w Q m m m bX+.XXP.P.P.#X+.+.P./.XX+.m ~ m m _ _ _ +._ +.+.~ ~ m ~ Q Q Q Q Q Q Q ~ ~ m m x m +.m m m m m m m ~ m m _ ..#.6.9.9.6.6.#X#X-Xk.-.{.{.{.y.-.-.-.y.y.y.-.h.h.f.f.f.&..._ +.m m w m Q w m Q m m m m m Q m m Q m m m _ s &.*.6.6.6.lXlXlX-XOXyXyXOX(.-X-X-XlXcXGXcX#X...._ P./.P.+._ m Q Q ~ ~ m m m m m Q Q Q Q w w w w Q m m m Q m Q Q w Q w Q w Q w w Q Q Q Q Q Q m m _ +.+._ _ _ _ m m Q Q Q ~ ~ ~ ~ m m m m m m bX~ m x m _ _ s q.q.&.*.*.h.k.*.6.(.6.6.9.P./.P.+._ _ ......J J x x H m m m _ m ~ m m Q w Q ~ ~ Q Q m w Q ~ ~ ~ ~ ~ m m x x J J #.#.*.&.&.q.f.h.h.k.h.k.*.6.6.6.*.&.&.&.*.*.6.*.k.&.&.*...9.9..........._ _ _ x w w w m Q m Q Q ~ ~ U ~ U ~ ~ ~ ~ ~ m m w w x w w w Q m m ~ ~ ~ ~ ~ ~ Q ~ Q m Q bXw m w m bXw m m m m w w w m m m ~ ~ ~ ~ ~ U U ~ ~ ~ +.U XXXXXXXX@.@.XXXX@.XXXXS.S.P.P.P.P.P.P.P.",
"P./.P.#X#X+.P.XXXX+.m m +.XX+.m +.+.+.+._ +.+...&.&.&.k.k.h.f.f.f.f.f.q.#.#X9.9.9.9.*.q.f.-.k.k.(.(.-XlX-XOX{.{.-.OXOX-.y.{.y.-.h.k.6.6.k.h.q.q.q.&.*.*.#.#..._ +._ _ _ XX/./.XX~ m Q ~ ~ Q Q Q Q { { Q { { { Q { ~ Q ~ ~ ~ m m m Q m Q m m ~ +.+.+.+.+.+._ +.+.+.+.m m +.+._ _ _ _ 9._ _ +.+.+.m m m ~ ~ Q Q Q Q m m m m m _ +.+.m m m m Q m m m m +.+.9.#XcX#X9.9.lXcXlX(.b.{.{.;X{.-.-.{.{.{.{.-.(.(.-.y.*Xq...+.+.m bXm m m m m m m m m m m m m m m m m m _ #.#.9.#X#X6.-X-X-X(.OXyXyXOX(.(.(.6.#XlXP.P.9._ +.P./.=./.+.+.m Q Q Q ~ Q w Q Q Q Q Q Q Q w wXw w m Q m Q Q w Q w Q Q Q w Q Q w w w w m m m m w x _ _ 9._ .._ _ m m w Q Q m ~ ~ ~ m m w m w w w m m m m m bXJ s #._ 9...#.9.#XcX#X#X#XP././.#X_ 9...f L q.9XL J x x _ x _ w +.m m m Q w Q Q Q w w w m m ~ U U U ~ ~ m x J L &.&.q.q.h.h.h.h.h.-.-.y.y.-.h.k.k.-.f.f.-.-.-.k.-.-.f.f.h.6.9.9.9...#.#.*.*.*.#.J x w x w m m m m ~ ~ U U U ~ ~ ~ ~ Q m m m w x w x w x m m m m ~ Q ~ Q m m w w w w m w m bXw m m w w m w w w w w w w w m m Q Q m ~ Q m Q Q ~ ~ ~ U U u.u.U XXu.@.@.XXXXXXXXP.P.P.P.",
"/.P.#X+.+._ _ +.+.+.+.+.+.+.+.+.+.+.+.9.#X#X9.&.q.f.y.-.k.k.h.h.h.h.q.&.6.#X9.6.6.*.h.-.-.h.-XlXlX-X-X-XOXyXb.-.yX(.(.OX-.{.{.{.-.h.k.k.k.6.6.#X#X6.&.q.q.L L J _ +._ _ m +.+.~ m m Q Q ~ Q Q w Q Q Q Q Q Q Q wXQ Q m m +.+.m m m m m m Q ~ m m _ _ 9.+._ 9.+.+.+._ _ +.+._ ..*.*.#.6.#.#.9.9._ 9._ _ m m m m Q m m w m +.m _ _ +.+.m m m m w m m ~ bX+.9.9.9.6.k.k.-X-X-XOXb.{.b.yXOX(.OX{.{.{.-.-XlX-Xh.y.y.#.#X+._ bXm m bXw m m m m m m m m m m m m m m _ _ 9.#X#X9.6.h.h.k.(.OXb.b.b.b.b.{.y.h.6.9.9._ _ x _ +.+.+.m m ~ Q Q d.Q { Q Q Q m Q Q Q Q w Q w w Q m m m m m Q w w m w m m m m w x x x w m m m w x ..9.9.9._ _ +.+.m w w m m m m _ m m m m m m Q bXQ bXm m m m bX+.+._ _ _ P././.P.9.9.9.+.+._ ....s q.g.g.g.9Xf _ _ _ x x x m m m ~ m w w Q w ` ` ` H m ~ U XXXX~ +.m _ s q.q.&.h.h.k.6.-XlX-X-.{.;X;X{.-.-.-.{.;X;X*Xy.-.k.-.{.{.y.h.6.#X9.9...#.&.q.f.f.f.f J x x x w w m m m m ~ m m m m m m w m m m m m w x w w x Q m x x m x w w w w w w w m bXm m w w w w w w w x w w w w w Q w w w w Q w Q Q Q w Q Q Q Q Q ~ ~ ~ ~ U u.u.U U XXXXXX@.XXXX",
"_ +.+.+._ _ +.+.+.+.+._ _ +.+.P.+.+.#X9.9.*.k.k.h.-.-.(.lXlX-XlXlX#X#X9.9.9.6.*.h.f.y.{.-.h.(.lXlX(.OXyXb.b.-.b.{.-.-X-X(.k.-.y.-.-.h.h.-X#XcXcXcX6.f.y.y.y.q.#._ +._ x m m m m ~ Q Q Q ~ Q w H w ~ Q ~ ~ Q ~ m m m x _ +.+._ J J +.+.x m m +.+.+._ _ 9.9._ _ +.+.+._ _ _ ..&.q.-.-.-.-.h.*.*.*.*.&.#..._ _ x w m w m m m x J J x _ x m w m Q m ~ m m _ ..*.h.y.y.-.h.(.(.yX{.b.yX-XcXw.-Xh.h.OX(.-XlX-Xk.f.&.9.#X+.+._ x m m m m m m +.m x m w w x x w x x _ _ _ ..&.f.y.h.(.(.(.h.b.-.-.-.{.y.-.6.#X#X_ _ _ m m m Q m m m Q Q Q Q Q Q Q Q Q Q w w w w Q w Q Q w w w w m m m w w x m x +.+._ _ +._ _ _ _ _ _ .._ ..9.#X9.9....._ _ x m m m x x x +.+._ x w m ~ Q Q m m w w w w x w m m m _ _ _ x x x .._ .._ _ ..s L q.9X9X9XL ` x _ m x w w m m ~ ~ m w w ` kX$X9XkXf H m ~ ~ ~ m m _ ..6.#XlXlX-XlXlXcXlX-XyXb.{.;Xb.{.{.{.{.{.{.{.-.-XlX(.-.{.-.-XlX#X9.#X9.#.q.y.*X*X*X9Xf J x x x H H H w w w w w w w w m w w m m m m m w w x w x x x x m m x x H x w w x w w w x w bXw m w x m w x x w w m m m w w w H w w H Q w Q Q Q Q { { { { { { U :.U :.u.:.u.U u.XX",
"+.+.+.+.m m +.+._ x f L 9XL ..#XP.P.9.&.f.f.h.h.h.h.OX(.lXlX-XcXcXcX#X6.*.k.&.h.h.h.h.h.-.-.-.yXOXOX-X-X(.OX-.-.-.(.lXlXlX-Xk.h.-.h.k.6.9.#X#XlX#X*.q.q.&.*..._ _ +._ x x m ~ m Q Q Q Q ~ ~ m m m m ~ ~ m m m +._ _ _ +.9.9.#.&.q.&.f L J _ ..s L q.f.q.&...9.#X_ _ _ 9.9.*.q.f.-.-.y.-.h.h.h.-.-.f.q.*...9._ x w ~ +.m ` 9X$Xg.9Xf x m m ~ ~ ~ m w x _ ..*.h.-.h.-.OXOXOXyXb.yX(.-XlXcXcXlXcXcXlX6.h.h.f.y.q.*._ +._ _ x x m _ m _ x ` L 9X9Xj.j.` x m m m _ _ _ 9.6.&.k.-XlX-Xk.-.{.{.h.h.-.q.6.P./.+.x m m m Q w Q Q Q Q w Q Q wXQ Q Q Q Q Q Q w w Q Q Q m m m m m ~ x x m +.+._ .._ 9.9.........9.#X#X9...#.#.6.6.k.h.q.q.q.L #._ +.+._ x J .._ ...._ +.m m w Q w w w w w w w m w w w w m x x x x x _ x ..x _ _ +.+.+.` j.` x m m m m m m m ~ U ~ ~ ~ Q H j.kX9Xj.f H w w w w x x _ 9.9.-X6.(.k.(.-X-X-X(.OXb.b.yXOXOXOXyX-.-.h.k.(.-X-X(.-.y.-.*.#X9.9.9.9.9.#.s q.f.f.L ` x x m x H H H w w x H w w w w x m x w m w m w w m w w x x x x x m x x x x x w w w m x m w w x w x w x x x H w x w m w w w w w w Q w w Q w Q Q { ~ { U U U :.:.:.:.:.:.:.U U U U ",
"m ~ m m m _ +.+.x f L 9X9X9Xs #XP.#X*.q.y.y.-.h.h.-.-.-.(.(.6.-X9.6.&.q.f.f.f.&.6.#Xt.t.lXk.-.y.-.OX-X-X-X-X#XlXlXP.lX#X6.k.h.-.k.6.#X#X9.9.9.9.9.....#X/./.P.+._ +._ _ m m ~ ~ m ~ Q ~ m m m m x x +._ _ _ +.+._ 9.#X#X6.k.h.-.f.f.f.q.#.9.#.q.y.*Xy.y.-.k.9.#X9...9.9.6.&.f.y.-.-.-.OXOXOX-.-.-.y.-.k.6.6.....m +.+.J L g.g.*Xg.L J _ m m m m w w x ....*.k.6.-X-X(.OXOXyXyXOXOXOXk.6.#XcX].].P.*.-.y.y.f.q.*..._ _ _ bXx x x _ x x ` 9X9X9Xj.f H m m +.m _ _ ....*.q.q.6.6.k.-.f.-.-.6.6.*...P././._ x w m Q w Q w Q w Q Q Q Q Q Q Q Q Q w Q w Q w Q m Q m ~ m ~ +.+.+._ _ _ _ #.*.&.&.*.6.6.6.*.6.6.9.*.q.f.-.h.h.-.-.y.y.f.q.9.9._ _ _ ..s q.9X9Xq.s _ m m Q w Q w w w m m m m m m m w w w w w x x x J J x m +.+.XXXXm H H w w w w m Q Q Q ~ U U U ~ U m H ` ` x x x H H x H x x _ 9.9.6.h.-.-.yXOX(.OXyXyXyXb.yX(.-X-X-X-XlXlXlX#Xk.h.f.y.y.f.&.6.9.9.+.9.+.P.P.#X#.&.J J x m m x x x x x w w w w w x w w w w w w w w w Q w Q w w H x x x _ x x x m w w w w w w w w m w m w w w w w x x w x w x H w w w w w w w w Q w Q Q { { U U :.:.U :.U :.:.:.:.U { ~ ",
"m m ~ bXm _ +._ ..J s #.s s ..#X#X9.*.q.h.k.6.-X6.k.-.-.-.-.h.k.*.&.q.q.q.*.#.9.P.].^.^.cX9.k.-.y.-.k.k.*.9.cX].].cX#X6.q.f.f.f.&.9.#X#X9._ .._ _ ..+.P././.P.+.9.+._ _ _ m m +.~ ~ ~ m m m _ _ x .._ _ _ _ 9.9...6.9.6.k.-.b.b.b.{.y.k.6.9.*.h.-.-.-.{.-.k.6.9.9.9.#X#X9.6.k.h.OX(.(.-X-X(.OXyXOXh.-.h.k.k.&.s x +.+.x f 9X9Xg.9XL J x x m m m w H ` f &.q.k.6.#X-X(.yX-.yXOXyX-.y.f.q...P./.P.9.#.&.q.q.&.#....._ .._ _ x x x bX_ x J j.j.` x x m m m bXm _ ..s L 9Xf.q.*.6.*.&.6.9.9.#X#X9._ P.XX+.x w w w Q w Q Q Q Q w Q Q Q Q Q Q w Q w w m m w w m m m m m m m +._ ....#.&.q.h.h.h.h.OXOXh.-.-.h.OXh.y.{.y.{.OX(.OX-.{.y.&.#X9.......#.q.y.*X*Xf.q.J m ~ m m m w Q w m w m m w w m w w m w w x x x x x w w m m ~ ~ m w w Q Q ~ ~ ~ Q m Q ~ U +.U XXXXU ~ m +.+.+.m x H H x x x _ 9.9.k.h.h.k.(.(.OXyXb.yXb.b.yXyXOXk.6.-XlXcXcXP.&.f.f.f.q.&.*.#..._ _ _ +.P./.P._ ..x x x m m m x x w x w H w H w w w x m w w w w w w w Q x x x x x x _ m x _ m m w w H w w m w w w w w x w w w w x x x w w w H w w w w w w w w w Q Q Q { { U U U U :.{ { U :.U { { { Q ",
"m m +.m m _ bX_ _ 9.+.P.P.#X9.#X#X9.6.*.6.#XcXcXlX6.k.-.-.-.h.*.*.#.....9./.P.P.P./.].].t.#X*.q.f.f.q.q.&.9.P././.P.9...s L q.q.&...9._ _ m m x x _ _ +.+.+.+._ _ ..J x _ _ +.m +.+.+.m _ _ _ ..#.........9.9.6.*.k.k.k.yXb.yXyXb.{.b.k.6.-X-X(.-X-X(.-.-.OX(.6.6.9.9.9.#X#X-X#XlXlXlXlXlX-X(.OXOXOX-.y.f.y.f.q.J _ +.+._ ....q.L J x x x _ +.+.m J L q.9Xf.q.*.6.k.-.{.b.-.-.-.y.y.f.L J +.+.m x ..9.9.#X#X9.9.9....._ ..#.J x _ _ m x ` ` +.+.+.m m m m x _ x f 9X9Xq.&...9.9.9.P./././.+._ _ _ _ _ x m w w w Q w Q w Q w Q Q Q Q Q w w w w w w w w w w w m m m m x J s &.&.&.q.h.h.k.OXyXb.b.b.b.;X{.b.{.{.{.{.-.(.-X(.-.y.f.k.9.9.......#.&.f.y.y.f.q.s m ~ m m w w w w m m w w x x m x x m x x x H x x w w m w w H w w w Q Q ~ ~ U ~ ~ Q Q Q ~ ~ ~ U XXXX+.+.+.+._ _ x x x x x J J #.*.h.-.k.6.-X-X(.yXb.b.b.b.{.b.y.-.k.6.#XP.P.#X#.s ..9.9.9._ ..J _ x x m +.XX+._ _ x x x x x x x w x x H w x w H w w w w w w w wXw Q m w m x x x x _ _ _ x x x m w w w m w w w w m w w w w m w w w w w w H H H w w w w w w w w Q H w Q Q Q { U U { U { { { { { { { { Q ",
"m +.+.m _ _ _ _ _ +.P./.P.#X9.9.9.....9.#XcXcXlX#X*.h.h.-.*.9.9..._ P.P./.]./.P.+.+.#X+.9.9...&.q.&.#.#.#...+.+.P.+._ +.P.P.+.x J J _ _ m m m w w m m x ..x _ ..s q.9XL J _ _ _ _ _ m _ ....s q.q.&.*.6.9.6.*.k.h.-.-.b.b.b.yXyXyXb.b.OX(.-X-X-XcXcXlXOXyX-.h.h.h.6.9.9.9.#XlXcXGXGXlX-X-X-X(.yXyXOX-.{.y.y.*X9Xs ..+.P.P.cX/.9..._ _ _ _ +.+.+._ J f L q.L *.#.&.-.y.y.-.-.h.-.f.q.s _ _ m Q w x _ +.P./.P.#X9._ ..#.s L f J _ _ x x m x x m +.m m _ m m bXx x J f L J _ _ +._ +.P.XX/.XX+.m _ x x _ m m w m w w w w w w Q w m m Q w w w w w w m m w w w w m m m x ` f q.q.q.h.h.k.-X-X-XOXb.b.b.b.{.{.b.-.b.-.h.OX-X-X(.-.y.-.&.#.#.#.....9.9...#.&.&.s ..m m m w w x x x x x x x x _ _ _ _ _ _ x _ x x x x w w w w w H Q H Q Q ~ ~ U ~ ~ Q H w w m m ~ ~ +.~ +._ _ _ x x x x x x J s L 9Xf.f.q.6.6.k.h.-.{.-.-.-.y.y.y.q.*......._ _ _ +.P././.P._ x x x x w w m m m x m x x x x x x x x w x w w H w x w w w w w w ~ ~ ~ ~ m m m _ x .._ _ _ _ x x x w w w H w w w w w w x w w w w w w w w x w H H H x x x x w w w H w H Q H Q Q ~ ~ { U { { Q Q Q Q Q Q Q Q ",
"+._ x J ` s s J _ +.#X+.9...*.*.#.#...9.9.#X#X9.&.f.f.f.f.6.P.P.+.+.XXXXXXXX+.+._ _ x .._ _ ...._ P./.P.+._ _ _ _ _ _ +.@.=.XXm x x _ m m Q Q w w w x x x x J L 9Xg.g.f.q.s .._ _ _ _ _ ..&.f.f.f.f.q.*.6.6.k.h.-.{.{.{.b.yXOXyXb.b.b.yXyX(.(.-XlXlX-XOXb.{.b.-.-.k.*.*.*.*.9.lXcXlX-X(.OXOXOX-.-.OXh.-.-.f.f.q.s ..9.#XP.cXcX#X9._ _ 9.+.+.+.+._ _ ...._ +.P.9.#.&.&.k.6.6.6.*.&...P.XX+.Q w Q w m +.XXXXP._ _ ..s 9Xf.9X9Xs _ _ x x w w x x x x x w w x w x m x x J _ +.+._ _ m m m +.~ m w w x m m m x w w w Q w w Q w w w Q m m w w w w w x x x m x x w m m m x ` L &.*.6.9.6.-XlXlXlX(.yXb.b.yXyXOXOX(.(.-XlXlX-XOX-.y.y.f.&.#......._ +.P.P.P.+.+._ _ x w w x x x x x x x _ _ _ _ x _ .._ .._ _ _ _ x _ x x m w Q w w w w w Q Q ~ Q w H H H H w w w m m _ _ _ +._ x x x x x x x ` L f.f.f.q.&.k.h.-.-.-.h.k.k.q.f.q.9.P._ J J H x m +.+.XXXX+.m x m w w w Q w w w w m w x x H H x x x x x x w H w H w H w w w Q ~ ~ +.+.+.+._ ....#....._ _ x J H x w w w w w x w x w x w w w w m m m m w w H H H x x x x x x x w w H H H w w Q Q ~ ~ Q Q Q Q Q Q w w w w ",
"_ x f L 9X9X9XL .._ ..s q.f.f.9Xq.&.#.9.9.9._ #.9Xg.f.f.q...P.P.P.+.m x H w w m m m _ x x x _ +.P././.P.+.+.+.m m m m m +.+.~ w H x x w w w w w w w x x x x s q.9Xg.g.g.9X&...9.9.+.9.9.6.q.f.y.y.y.y.k.6.6.k.-.{.{.b.b.yXyXOXyXb.b.b.b.OXOXyXyXOXOXyXb.b.-.yXh.-.h.-.h.h.h.h.k.6.(.OXOXyXyXOXOXOX-XlX#X6.*.*.#...9.9.#X#X#X#X9.9.9._ _ _ _ _ _ _ _ _ +.P.XXP.P.....9.#XP.#X#X9.9.P.=./.~ Q w Q Q ~ m m m _ J ..J L f.g.f.9Xf .._ x w H H H H H x H w w w bXx bXx m _ m x x x x w w Q w ~ w w w m x m m x m x w w w w w w w w m m m w m x x x x x x m m x w m m m x J s #.9.#X#X6.(.(.-X(.(.yXb.yXOX(.-X-X-XlXcXGXcX-Xh.f.-.q.&.#..._ x x _ +.+.XXXXP.+.+._ x w w w w x x x x .._ _ ............9.9._ _ _ _ _ _ _ _ x x x x m w w w w w w H H H H H H w w m m _ _ +._ _ x x x x x x _ x J f s s s #.*.*.*.6.9.9.9...*.s _ /./.+.x H H H m w H x m +.m m m H w Q Q Q Q m m m m w x x x x x x x w x w x x w w w w w w w +.+.+.S.+._ ..#.s &.s #..._ _ J H H w w w w w x x w x x x w w m m m m m m x x x x x x x x x x x x x w H H H H H w w w w w H H H H H H H H ",
"_ J L 9Xg.g.9Xf .._ #.L f.f.f.q.q.s .._ _ +.+._ ` L s #.#.#XP.P.+.m w w w w m m m m m m x _ _ _ _ _ x x _ +.m x m m m w H H w w w H H H H H H w m m x _ _ x J s s s &.L s ..9.....9...6.*.k.k.k.k.h.-.k.6.6.OXh.-.yXOX(.VX(.yX{.b.-.-.OX-X(.yX;Xb.{.b.yX(.-XlX-Xk.-.y.f.f.f.f.h.(.k.-.b.b.-.(.-XlXcXGXGXcX#X9.9.9.9...6.6.6.9.6.......#.#.s s #....._ _ x x x x J _ +.P.P.#X9..._ P.XX+.w w Q Q Q Q w H H H J J J s s L L L s _ _ m w w H H w x x w w w w w w w m m m x H w Q w w Q H w Q w w m m w x x _ x x x x x w w w w w w x m x m x x x x x J x x x x x x x x x _ ....*.h.-.-.-.OXyXyXb.yXyXOXOXOX(.-X#XlXcXlX9.6.6.#X/./.+._ x H w m m m x x m m m m w w w m m x x J J s J #.s &.&.q.&.&.6.6.9.9.9.9.9._ 9._ _ .._ _ _ _ x _ x x x H H H H w w w w m m m +._ _ x x x x x x x x x _ +.XX+.+.9.9.9.#XcXcXP.#X_ .._ +.XXXX~ w w Q w w w w m ~ ~ ~ ~ Q w w Q Q Q ~ ~ ~ m m m m m x x H x x x x x x w w w w w w w w m m _ +._ ..#.&.q.f.q.L #..._ x H H H w w x x x x x x x x x x m +.+.+.m m x H x x _ x _ x x x x x x x x H H H H H H H H H w H H H H H H x ",
"m x s L L J P./.P.+...s L s _ #X+._ +._ _ x x m x _ P./.P.+._ +.+.m w m ~ m Q m m m m m m m m _ x x x J x m m m m m m w w m m w H w m m w w w m m m m m m x _ +./.]./.P.+.......#.&.*.&.k.9.lXcXcX-Xk.h.-.h.h.h.OX(.lX6X6XlX(.-.-.-.-.k.lXlX(.-.{.{.h.-Xw.^.<.^.cX6.&.q.q.q.&.6.6.k.h.-.-.OX-X-X-X9.lXcX/.#X9.9.9.6.6.*.*.*.6.6.6.#.*.q.9Xf.9Xq.#...9._ _ m w m x _ _ _ _ _ _ _ _ _ m x H w w Q Q Q w H H w m _ _ +./.P.+._ _ _ _ m m m w H x w x w x w w m w bXx w x w H w w Q Q Q d.Q ~ w w w x x x _ _ x x x x x x w w w w x x m _ _ _ x J J s ` J x x x H H H x _ +.9.*.q.f.y.-.h.OXyXb.{.b.b.{.;X{.y.k.9.9.9...9.9.9.P.cX/.P.+.+.m x x x H H H H H w m w w m m _ x J s L L L L q.q.f.f.f.-.h.h.*.6.6.#.6.6.6.6.............x x x x J H H x w w w w w w w x x _ x x x x w H H w w w w m m x x _ _ _ _ +.+.....J J x m m w H w Q w Q Q Q ~ Q ~ ~ U ~ Q Q Q w Q Q Q ~ ~ Q ~ ~ ~ m m w H x x x m x x x w x w w Q w w ` J x _ ..#.L 9Xf.*Xf.q.s .._ _ x x x x x w x x x x x x x x x m +.~ +.+.m x x x x ......................J J x x x x x w w w H H H H x x x ",
"+.+.+.m +././ =.XX+.x J x _ XXP.+.+.+._ x x x x m m +.+.+._ x m m w w w Q w w w w m m m m _ m m _ m _ m m m m m m m w w w Q w w x x x x x w w m m w Q w m x x +.+.XXXXP.+._ ..#.&.f.f.f.f.k.#XcXcX#X6.q.f.f.h.k.6.-X-XlXcXlXlXlXt.#X6.k.-X-Xk.-.-.k.-Xt.w.^.^.].P.P./././.#X9.9.9.9.9.(.h.-.h.k.k.*.9.#X9._ 9.9.6.h.f.f.f.f.k.6.6.*.q.f.y.y.y.f.&.6....._ m w m w m m x _ _ _ _ x m m x w w w w w w w w w m x _ _ 9.+.#X+._ _ _ x w m m w w H x x x H H w w w w w m w w w w Q H M.w d.w Q m m m x s L f s L f J _ _ m m m w H H x x x _ x J L 9X9XL J x w x H x x x _ _ #.q.f.y.-.k.(.OX-.b.{.{.y.*X*Xy.q...9.9.....9.9.9.#X#X#X9...J J J x x x H H H H w m m x x _ _ ..J L q.q.q.q.&.k.k.h.h.-.y.{.-.k.k.h.-.-.h.h.h.h.q.q.*.....J J x x x x w w w w w w w w m m m w w H H w w w w Q Q Q ~ ~ ~ ~ ~ ~ ~ +.+.m x H H H x m x H w m Q Q d.Q Q Q Q Q { { { Q Q Q Q d.Q Q Q Q Q Q w Q w H H H w x x H x x x w w m Q Q Q w H x x x x x #.L 9X9Xq.L s J x x x J x w H x x x x ..J J J J x x x w w x x x _ ..#.s #.#.*.*.&.&.*.#.....#.#.#....._ _ x J J J J J J J J J ",
"U U U XXXX@.=.XX+.x x x m +.+.+.+.+.m m x x x x m m m m m m m m w w w w w w w w Q w m m m m m +.m +.m m _ m m m m w w w w w w x x x x m x m w w w w w w w w w m m _ _ _ _ _ ..#.q.y.y.*Xy.q.9.P.P.9.9.*.*.*.k.k.k.h.h.k.-X#XcX].^.].9.h.h.h.h.-.y.k.6.#XP.P.P.P.+.XX=./ =.P.#X9.9.9.-X*.h.f.f.f.q.&.#....._ _ 9.*.f.*X*X*Xy.-.*.6.6.k.q.q.&.q.q.*.6.6.9._ m m m m m x m m w m x m x m x x x x x w w w w w x x x x _ _ _ _ _ _ _ x x w w w H w x H H H x x x x w w w w w Q Q Q M.Q Q w w w m m _ J L 9Xf.f.9XL J x _ x m m w H H x H J x x s L 9XL j.x x x w x x x x x ..q.y.y.y.-.k.k.-.y.y.-.h.h.q.q.&.9.P.+._ ..............6.*.&.&.*.......J J x m m w x _ x J ...._ ..#.#.#.6.*.6.9.6.k.-.{.;X;X{.-.-.{.;X{.-.h.h.f.f.q.*.....J J x x H H H H H w w w H w Q ~ ~ Q Q Q Q Q Q Q Q { { { U ~ U S.U U +.U ~ ~ m m x x m m _ m m m Q Q Q Q Q Q Q { { { Q Q Q Q Q Q Q Q { ~ { Q Q Q Q Q Q w w H H x x x x x m w m m m m x x x J J x x J s f s J J x _ x x x w x x H x _ ..s L q.q.L f ` H H x x x J #.s &.q.q.q.q.q.-.f.q.h.*.6.6.#.#.#.........#.s ......#.#.J J ",
"~ ~ ~ ~ ~ ~ ~ m w x w w w m m m m w m w w w w w w x m m m w w w w H Q H Q H w w w m m m m bXm m _ m bX_ m m m w w m m m w w x w m x m x x w w w w w Q w w w m w x x x _ _ _ ....#.&.q.f.q.*.9.9.9...9.9.#X#X6.q.f.y.y.-.k.9.P./.]./...f.y.f.f.y.f.q.*..._ _ _ x x m XX@.XX+._ ....9.9.*.q.f.f.f.q.L s ....x _ ..*.q.f.y.y.y.q.*.6.9.9.9.#X#X#X6.6.6.9.9._ x w w w w w x m m w x m x x x x m x x x w w w x w x x x _ x J J x x x x m m w H H m x x x x x x x x x x H w w w w Q Q w wXQ w m +.+.+._ f 9Xf.f.9XL s ..x x x m x x x x H J x x J f f s x x x w w w x x x x ..f.y.y.f.h.k.h.f.-.h.k.6.9.....+.P.XX+._ x J s &.&.&.&.q.-.f.q.&.*.#...#.#.J _ _ J J ..#.#.#.....9.9.9.9.6.6.6.-X-X(.-.{.;X{.-.-.b.;X;X{.OX6.k.-.y.q.*.9.....J J x ` ` H H H w H w H w Q Q Q Q Q Q Q { Q { { { U U U U U U U U U U XXU U ~ ~ m x x m +.+.~ ~ { { { { { { { Q { Q Q Q { { { ~ ~ { ~ { { { Q Q Q ~ Q w w x m _ x x x x x x w m m x x x J J J x x J x J J x J x x x m m m x x x x J f q.9X9X9XL ` H H H x J #.s &.&.h.h.-.h.h.h.-.-.f.-.h.h.k.k.*.*.*.*.*.*.*.#.6.#.*.*.#...",
"d.w Q Q Q m w w w H w w w w m w w H w w w m w w w w w m m w m w w Q H Q H Q H Q H w w m m m m m m _ m m m x w m w w m m w m m w w w x x x w w w w M.H w w w w x x x x x x _ _ _ 9.P.P.9._ _ +._ ...._ 9.P.P.6.q.y.f.-.&.*..._ _ +._ s q.q.q.-.f.&.#.......x x H H w m m m x J J ..9.9.9.*.q.q.q.&.s .._ _ _ _ _ 9.9.9.#.&.q.&.#...9.9.#X/.cX/.9.9....._ _ x x x x x x m x x x m x _ m x m x x w x x x x x x x x x x x J J x x m x _ _ x J J x _ _ x x _ _ _ _ x x x x x w w w w w m ~ +._ +.+.+.9...#.*.L q.f J x x x x x x x x x H J x x J J J _ +.x x H w w x x x x ..q.f.q.k.6.6.*.*.6.9.#X#X#X+.#XP.XXXX+.x x f q.q.f.q.q.-.-.f.-.-.-.h.&.*.*.&.&.&.&.&.&.&.&.&.&.*.9.9.6.k.h.h.k.(.(.OXyXb.b.yX(.(.h.-.-.h.(.-Xk.-.y.q.6.9.9...J J J ` ` H H H w w H H w w Q ~ ~ ~ { { { { U { U { U { U { { { U U U U ~ U XXXXw f j.f J _ +.U U :.U { { { { Q Q Q Q Q Q Q ~ ~ U U U U U U U { { ~ ~ m m m _ _ x J ....x x x _ _ _ +.m x x x J J x x J J J x x x m m m ~ m x x x ..s L q.L L s J J H x x ..#.*.*.k.6.(.k.(.-X-XOX-.{.{.{.{.y.-.h.h.h.-.-.q.&.&.h.q.q.q.*...",
"j.j.j.d.d.d.w H H Q H Q w w w H H H w w w w w w w w m w m w w w w w w H w H H w w w m w m m m m x x x x w m w bXw m w m m w w w w w w w w w H w H H Q H H w w x w x x H x x _ +.+./././.P.+.+._ _ .._ ..9.9.*.q.q.&.9.#X9...J J x x ....9.#X#X9.......x x x H H H H H x x x J J #...#XP.#X9.9.9......._ _ _ _ _ #X/.]./.+..........._ 9.+.P.P._ _ ......x x m x x m x x x x m x m x x x x x x x x x x x x x w H x x x x x x x x x x _ _ x J J _ _ _ _ _ ......_ .._ ..x x _ m bXw m _ _ ......9.9.#X#XP.9.#.J ..x x x x x x H H x H x x x ..J x _ _ x x H H x H x x x J #.#.6.9.9.9...9.#XP.P.+.+.+.+.+.XX+.w H ` L &.&.&.&.k.6.6.k.-.y.y.y.-.-.h.h.y.y.f.f.q.q.f.f.f.k.6.6.k.-.y.y.-.h.h.-.-.yXOX-XlXlX-X-X-X6.6.6.h.y.y.q.#.9...J J J J ` H H H w w H w H H w Q Q Q ~ ~ ~ U U U U { U { { { { { Q Q Q Q Q ~ ~ XXXXw 9Xg.g.$Xf m U u.U :.:.U U { { { Q Q ~ m ~ ~ ~ ~ ~ ~ ~ U U :.U U U U U +.+.+._ ..#.#.#.#...9.+.P.+.+.+.+._ x x J x x x J J J x x x m w m w x J J J J J J .._ _ x J J J ....#.*.k.6.-X-X(.(.-XlX(.OXb.{.{.;X;X{.{.{.{.y.y.y.-.f.y.y.y.q.*...",
"kXkXkXkXkXkXd.d.d.d.H M.H d.w w w wXH w w w w w w w w m w w m w w w w H Q H Q H w w x w w _ m x x x x x w w w w w bXw bXm w w w w w w H w w H Q d.Q d.w w H x x x x H x x x _ _ +.+.XXXX+._ x ..x ....J ..#.#...9./.]./.P.x H H x x _ +.P././.P._ ..J J x H H w w w w w m m _ J s J _ #XP.P.P.9._ ..J x x x x _ +.P././.P.+._ J ..x J J x _ x J x ..x x x x SXx x x x x x x x x x _ x m x x x x x x x x x x x x w w w H H x x x x _ _ _ ..#.#.........*.&.q.&.6...9.9...9.+.+._ _ _ ....#.#.6.9.9.#X#XP.9....._ _ x x x x x H H H x x x x J x x x x H x H H H x x x x x ..9._ 9........._ _ _ J x _ m m m w H H x #.6.9.6.*.6.-XlX-X-.{.{.{.{.-.-.y.*X*Xy.h.k.h.y.*X-.k.6.6.k.h.k.(.(.OXyX-.b.yXOX(.-X-X#XcXcXlX*.f.y.y.f.q.#.....J J x J H H H H w H w H H H w w Q ~ ~ ~ U { U { U { { { { Q Q Q Q Q Q Q Q Q H ~ U m j.$Xg.g.9XH ~ U U U U :.U { { ~ ~ ~ ~ ~ +.+.+.~ ~ m Q Q { U :.u.U U +._ J ..9...*.q.q.&.*.9.#XP.P.P.+.+._ _ _ x J J J J J _ x J x w H w w H H J x .._ _ _ _ _ H H J J J #.6.*.6.(.OXyXyXOX(.-X(.yXb.{.b.b.b.b.{.;X,X;Xy.h.6.h.{.*Xy.h.6.9.",
"kXkXkXkXkXkXkXkXj.d.d.d.d.Q w Q Q w wXw w w wXw Q w m w m w x w w H w w H x H w x w w x w x x x x x x w w m w m m w w m w bXw w w H H H w w w H Q H Q H w x x x x x x x w x x m x x x x x J J J J J x ........+.P././.P._ x H H H x _ _ +.+.#X+._ x x H H w w w w w w w m m m x J J J .._ +._ ....J J x x x x x x x _ +.+.x x ` x x J J J x x J x x x x SXx x x x x x x x x x m x w x x x x x x x x x x SXx x H w H w H H w x x x _ _ ..s &.&.*.*.&.h.f.y.y.f.h.*.6.6.6.6.9.9.9.9.....6.6.6.6.6.-X9.9.9.......x x x x H x x x x w w m x x x x J x x x x H H H x x x J x _ _ _ ..J s s J J SXJ J H x x x x H H x _ ..6.6.k.h.k.(.-X(.-.{.{.-.(.(.k.-.y.-.h.6.-Xk.y.y.h.(.k.h.h.h.-X-X(.OXyX-.b.yXyXb.-.k.9.P.cX#X*.f.f.f.q.s ......J x J H ` ` H H w w H H H H H w w m ~ ~ ~ U { U { U { { { { { Q Q Q Q Q Q Q Q ~ U u.U w j.9Xj.H ~ ~ { U U U U U U ~ U ~ XX+.~ m H H H w Q Q Q { U U U ~ x f q.q.&.&.q.f.y.f.h.k.6.6.#X9.9.9.9.......9.......#.....J x J H H H H H x x x _ x x x H H H x x J #.6.6.k.OX-.b.yXyXOX(.OXb.b.b.b.OXOXOXOX-.-.-.h.6.-Xk.-.{.-.k.9.9.",
"$XkXkXkXkXd.kXd.kXj.kXj.d.d.w Q w w w d.w w w w Q bXw m w w w w w w H w w w H w H x w x x x x x x x w w w w m m wXbXm bXQ w w w w d.w H w w w Q w w w x m x x x x _ x m x w x x x x x x x x ..x ..J .........._ +.+.+.x x x x H H x m _ x ..x x _ x x w H w w w w H d.H H w H H x x ..x _ ..J J x x x m m w x x H H x x x x x x m +.m x x x x x x x x H x x x x x x x x x x x x _ x x x x bXx x x J ..J x x x x x H w w w m x _ x x J s q.f.f.h.-.-.-.y.y.{.{.-.h.h.h.k.k.*.6.6.*.k.*.6.(.6.(.(.k.*.*.6...#.J J x H H x J x x x w H x w x x J x x m H H H H x H x x x x x _ _ x J ` J x x J x x H x H H H H x x _ #.k.h.-.-.h.OXOXyXb.{.-.(.-X-X6.(.k.6.6.6.(.h.y.-.h.k.h.-.-.h.k.h.-.-.y.-.-.yXb.{.-.k.6.9.9.9.9.#.........x _ x x H H ` ` ` H w w H w H H H H w w m ~ m ~ ~ ~ ~ { ~ { { U U { { { { Q { Q Q { U U u.@.@.U w H w ~ ~ { ~ { { { U ~ U U XXXXm H j.9X9Xj.` Q Q { { { U U m ` L L q.q.q.h.h.h.-.-.-.-.-.h.k.*.6.6.*.*.*.6.6.6.*.*.*.&.&.#.J J J J J x x _ _ _ _ x x x H x x x ....#.*.h.-.h.(.(.(.(.yX{.b.b.-.yXOXk.(.-X-XlXlX-Xk.h.-.y.{.y.k.9.9.",
"$X$XkXkXkXkXkXkXkXkXkXkXkXj.d.d.d.d.H w w w Q w w w w w x w w w x w w w H x w x x w x x x x x x H x x w w m Q m m m ~ ~ m m m Q w w w w w w w w w w m x _ x _ ..x m x x H x w x m x _ _ ......................_ _ _ x H x w x H x x x x J J x bXx x x H w w w w H w w w H H H H x x x x x x J J J x x x w w x H m m m m m m ~ +.+.m m x x w w x x x H x H x J x x x x x x x x x x x x x x x x x x x ....J ..J x x x x x _ _ _ _ _ ..#.&.q.f.f.-.-.h.h.h.-.b.b.yXb.{.b.-.-.OXk.k.-.-.-.OXOXOX-.h.-.h.h.6.9...J J H x x x x x x x x w w w H x H x x m x x H x x x H x J x x x H x H ` H x x x J H J J x x x x x J s k.h.h.OX(.(.OXyXb.{.b.-.h.k.6.9.#XlX#X9.*.h.-.y.-.h.k.k.k.k.*.k.h.f.y.-.-.h.h.-.-.k.9........._ _ P.P.+._ x x x x H H H H ` H w w w H H H ` H H w m m m m w Q Q Q Q Q { U { U U U U { { { { U U U U u.u.u.U ~ ~ ~ ~ ~ { { ~ { { ~ U U XXXXm ` j.9X$XkX` Q ~ { { ~ U U +._ _ 9...6.6.6.-X-X(.OXb.{.;X{.b.-.h.h.-.f.f.-.h.k.h.-.h.-.q.*.#.....J J J x _ _ +.+.+.+.+.m m m m x #.&.q.f.f.h.k.(.(.h.-.;X{.{.{.{.{.y.-.(.#XcXcX#X*.f.y.{.;Xy.h.*.*.",
"$X$X$XkXkXkXkXkXkXkXkXj.kXkXj.j.j.d.d.H w w w w w w w w m w w w w w x H w x w x w x x H x x x H H w w w m m m ~ ~ ~ ~ ~ ~ m m m m w m x m m m m m _ x _ _ _ ...._ x _ x x H x m _ ....#.#.#.#.6.#.6.6.6.....9...J x x H x x x x x x x x ..x bXx x x x H H H w w H w w w w w H H x x H x x _ x x x x H H w w H w m m m m +.+.+.+.~ m x x w w w w H H x H x x x x J x x J x x x _ x _ bXx x x x ........................_ _ _ ..........*.&.q.*.k.k.k.-X-X-X(.yXb.;X;X{.{.{.-.h.-.{.{.{.{.{.b.b.{.{.y.-.*.9...x x x x x x x x x x w w x w H H H x x x H x x x H J x J x x x ` H J H H x x x J ` ` J J J x .._ J s L q.-.h.OX(.OXh.-.{.-.-.y.y.f.q.6.#XP.#X9.*.&.h.h.h.k.6.6.6.9.#X6.*.k.k.6.6.6.k.k.6.#X#X......s J _ +.+.+._ x x H H H H H H w H w H x H H ` ` H H x x x H H H H H H H w Q ~ { U { U { U U U U U U :.U U U U U U U U U { ~ { { { ~ { ~ ~ U +.m x ` f ` ` w ~ ~ ~ { ~ ~ +.+.P.P.#X9.9.6.-XlXlX-XOXb.1X1X;X{.b.b.b.{.;X{.{.-.h.-.{.{.{.y.k.*.6.#.#.J J J J _ _ +.+.+.+.+.~ m m x J &.q.q.-.h.k.k.h.-.y.{.y.y.-.y.y.y.-.k.6.#X#X9.*.q.h.h.-.h.&.*.*.",
"$X$X$X$X$X$XkXkXkXkXkXkXkXkXkXkXkXkXj.j.` H H H H w w m w w w w x w w x w w x x x x x x x x x x H w w w w m m m m m +.+.m m m +.x _ _ x x _ _ _ _ _ _ _ ..HX........_ _ x x x m _ ..#.q.q.&.q.q.k.6.6.*.6.6.....#.x _ x H J J x ..J J ..bX_ .._ J x x H ` H H H H x w w w H H H H x H H x m x x x x H w w w H m m m m m ~ ~ ~ m w w H H H H w w w H w x x x x x x J x x J J J J .._ _ ..J ..........9.6.9.9...#.#.#.#.#.#.#.#.&.*.#.....*.6.#X-X6.(.-XlXlX-XyX{.1X;X1X;X;Xb.-.{.{.{.{.{.yXyXb.{.;X;Xf.&.9...x x x w x x x x x x w m m w H H H H x H x J x x x J J x J J J H J H x x x m J ` s J J J x x ....J f q.f.-.h.h.h.h.-.-.-.h.-.f.f.f.&.#.9._ ..........6.6.6.9.9.9.9.9.9.6...#X#X#X9.6.6.#X#X#X......s s J ..J J J x J ` ` x x w H w w x x x x H ` ` ` H H H H H H ` ` H H H H w Q Q Q ~ ~ { { { { U U :.U U { { U u.u.U U U U ~ { { Q Q Q Q m m m _ _ _ m m m ~ m ~ ~ ~ ~ ~ +.+.P.9.#.*.k.h.OX(.-X(.yXb.1Xb.yXyXb.b.{.{.;X{.b.h.(.OX-.{.{.-.k.6.6.#.#.#.L q.q.L s .._ _ _ m m w w x J s &.&.*.k.k.&.-.q.q.q.q.h.h.h.h.q.*.*.#.....#.s *.6.9.9.6.6.#.#.",
"$Xg.$Xg.$X$X$XkXkXkXkXkXkXkXkXkX$XkX$XkXkXj.j.` ` H w m w m w w w w x m x x x x x x x x x x x H H w w m w w m m w x m +.x _ _ _ ..#.s &.L #..._ _ 9.9...#.*.*.*.*..._ _ _ x x _ _ ..&.f.f.f.y.y.-.k.h.h.h.k.*.6....._ _ J J J ..s f f s #.#.J ..x x J J J J J J x x H H H H H H H H H H x x x x H H w w w x H w m m m m m m w w H H H ` ` H w w w H H w x x x J J J x J x J J #.......#.#.#.#.#.#.6.6.6.9.6.6.*.&.&.&.&.&.q.f.f.q.*.6.9.9.6.9.6.6.k.OX(.-X(.yX{.;X;Xb.{.{.yX-.{.;X{.{.yX-X-XOX{.;X{.h.6.9...J x H H H H H J x x m m m m x H H H H x J x x x J x J J J ` J J J x x _ _ _ J J J J J J ......x J s L q.h.h.h.k.h.h.h.*.k.h.q.&.#..._ ..J J J ..9.9.9.9._ ......#...#.#...9.9...#.#...9.9.......#.#.#...J J J J x x ` ` x x x H x x J J J J J J J J J J J ` ` ` H H H H H H H H H Q Q Q Q Q { ~ { U { U U U U U U U U ~ ~ ~ { { Q Q Q d.H H H H x x _ m _ m m w w w Q m x _ _ 9.#.f.y.f.y.-.OXOXOXyXb.b.b.(.(.(.OXyX-.-.-.OX(.-X(.OXb.{.h.6.9.6.6.#.*.q.f.y.y.f.q.&.#.J J ` H H H J J #.#...6.*.*.#.#.9.9.....#.*.#.9.#X_ ..J J s s #.9.P.#X9...#.#.",
"$X$X$X$X$X$X$X$X$X$X$XkX$XkXkX$X$X$X$X$XkXkXkXkXj.j.` w w w w w x w x x H ` x m _ _ x x x x x H H H w m m x x H J x x _ ....9.9.6.&.f.y.f.f.q.&.#.9.6.h.f.f.f.f.q.*..._ _ _ _ ..#.&.f.y.y.y.{.{.-.h.{.b.y.-.h.k.6.....J ......s q.f.g.f.9XL s ....J J J J J x J x x x w w w H w w H H H H w H H H w w w x H H w w w w w w w w w w w H ` ` ` w w w H H H H x H H J J x x ......#.#.#.#.*.&.&.&.k.*.k.k.k.k.6.k.-.f.f.f.-.-.y.*X*Xf.k.6.9.6.k.-.-.y.y.{.b.OXOXyXb.{.b.OX(.-X-XOX{.;X{.y.OXlXlX-X-.{.-.*.#X9...J H H H H H J J J x x w w w H H H H H J J x x J J J ......_ J J J J ..J J ......#.#.#.s #.J #.....#.#...#.6.#.6...6.9.9.9.6...9.9.+._ ..J J J H _ _ _ _ _ ..J J J J J J s s #.s s #...#.#.#.#.#.#.#...............#.J J J J J J J J s J J ..J J J J J x J J J J H H H H H H H H H H w w w Q Q Q { ~ { { { { ~ { ~ { ~ { ~ Q Q Q Q Q d.H H H H H ` J J x x x x x x w m m J J ..*.&.q.h.k.(.(.OXyXyXb.b.b.yXOX(.-X-X-X-XlXlX-X(.OX-.-.{.y.h.6.6.6.#...*.q.f.y.y.y.y.q.&.s f ` ` ` H J J J #.#.#.#.#.#....._ _ 9._ ....+.+._ J J ` J ` J .._ ..#.s s s ",
"$X$X$Xg.g.$X$X$X$X$XkXkXkXkXkXkX$X$XkXkX$XkXkXkXkXj.j.` ` H H H x x x x x J x _ _ _ x x x x x x x x x _ _ x J J J ......#...9.6.k.h.y.y.y.*Xy.q.*.6.k.y.*X*X{.y.f.q.*...9.9.....*.&.f.y.y.{.y.yXOXOX{.{.{.b.-.k.*.*.&.*...9...&.f.y.*X*Xg.9X&.#.....J J J J J J ..x x x w w w H H H H H H H H H x x x x H H H H H H H H H H H w x w H H ` H w x H H H ` H H ` J J x ......#.#.*.*.&.q.-.y.y.y.-.-.-.y.y.-.h.-.y.{.y.-.k.6.-.y.y.-.6.-X-X6.h.{.y.{.{.{.{.b.b.b.b.b.yX-X2XGXlX(.h.k.6.6.(.-X-X(.-.y.f.k.9.9...J H H H H H H J J J H x H H H H ` ` J J J x ..J ......J J ..#.#.#.s &.&.*.#.....#.*.*.....s #.#.#.#.s ....#.#.#..._ _ _ 9.9._ _ _ _ ..J J J J J x x J x J H J J J ` x J ` J J s f s #.#.#.*.#.6.#.*.q.&.*...6...#.#.....#.s s s s s #.#.#.#...#.#.#.J #.J J J H J J H x H H H H w w w w H H H Q Q Q ~ Q m Q Q m Q m Q w w w H d.H d.H d.H H w H ` ` J x x m m +.+._ +._ s L q.q.f.f.-.k.-X-XOX-.{.{.b.{.{.{.b.-.k.-XlXw.].lXk.y.;X*X*X*Xf.&.*.#.s #.#.*.&.q.f.y.f.q.*.#.J ` ` H H x J J #.s #.#.J #.J _ ..x J J J J x x J ` ` ` ` ` ` J J J s f f ` ",
"$Xg.$X$Xg.$X$X$X$X$X$XkX$XkXkX$XkXkXkX$XkXkXkXkXkXkXkXkXj.j.` ` H x x x x J x x x x x x x x _ _ _ x J J ..........#.#.9.6.*.6.k.h.b.{.{.{.;Xy.-.(.6.k.-.b.-.-.y.y.f.&.6.9...6.6.#.6.k.k.k.(.(.-X-X-XOXyXyXOX-.-.-.f.f.q.#.9.9.*.&.q.f.y.f.q.#.....#.J J #.J s J J J J x H H H H H H ` d.` ` H H H H x H H J H ` H H H H H H H ` ` H ` ` ` H x H ` H J H J H x ` H J J ..#.#.&.q.k.k.h.h.k.h.-.b.{.{.;X{.b.-.-.y.-.-.h.6.6.h.y.{.-.k.6.-X(.h.-.h.OX(.OXyXb.1Xb.b.yXOX(.lX2XlX-X#XcX].cX-Xh.-.y.y.y.y.q.....J J H H H H H H J H J H H H H H H H H J J s J ......#.s s s #.#.#.*.q.f.f.f.q.&.q.q.f.f.q.*.#.....#.#.#.J J ` f f s J J s J J #.J #.J J J s s J H J ` J H ` ` H H ` J J J J J J J s L f L &.*.*.&.q.f.y.f.q.&.6.6.*.*.*.*.6.#.*.*.*.#.6.6.6.#...#.#.#.s s J J J J J J H H H H x x w m w H w H H H w w m w w w w w H w H H H H d.H d.d.H H H w m m x x J J x _ +.+.+._ _ ..s &.q.f.f.y.-.k.k.h.-.{.;X;X{.{.;X;X*Xy.h.6.#XP.P.9.*.q.q.q.-.f.q.s #.J s s #...#X9.6.&.q.&.#...J ` ` ` ` ` ` ` s s s s s J J J J J J s f f ` ` ` ` ` ` ` ` f ` J J J J ` ` ",
"g.$Xg.$X$X$X$X$X$XkX$XkX$XkX$XkX$X$XkX$XkX$XkX$XkX$XkXkXkXkXj.j.` ` ` J ` j.f ` J x x x x _ x _ ..J f L &.s #.#.#.*.*.6.k.h.-.-.yXb.b.b.{.b.-.OX(.-X(.(.-X-X(.-.-.-.-.k.*.6.6.6.9.9.9.lXlXlXlX-X-X-XOXyXOXOX-.{.;X*Xy.f.*.6.....9.9.#.&.&.&.#...#.#.#.#.J #.J J J J J J H J H H ` H H H H H H H H H H J J J J J J H H H H H ` ` ` ` ` ` ` x x J J J x x x H H J x J J #.#.*.&.h.k.k.(.(.-X-XOXb.{.b.-.-.OXOXh.k.6.6.6.*.h.-.f.-.-.k.(.(.OXh.OX(.-X-X-XOXyXb.b.b.yXyXyX-.k.6.#Xt.].].cX9.f.*X*X*Xy.f.q.#.#.J J J H H H H H H J J ` H J H H H H x x J J #.....*.q.q.q.q.&.*.#.&.q.f.y.y.y.-.f.y.*X*Xf.&.*.6.6.6.#...J ` ` ` f ` ` f f s s J s s s s s s ` ` ` J ` ` ` ` H ` H J J J J ....#.s L q.f.f.q.q.h.f.y.*X*Xy.-.-.h.k.k.h.k.*.6.6.k.k.k.*.6.6.*.*.*.*.*.*.s s s J J J ` ` J J ` ` H x x m w w H H H w w x w x w H H H H H H ` ` ` ` ` ` ` H H w m +.+.+.+._ ..J J x _ _ ....#.#.*.&.h.k.h.h.k.h.-.-.-.-.f.-.h.-.y.y.q.*.9.#X9.......6.HX9.9.......x J f f J _ #X#X9.*.&.*.#.#.J ` ` ` d.j.` f s s s s s s #.J J J s s s ` f f ` ` f j.` ` j.` J J J ` J H ",
"g.$X$X$X$X$X$XkX$XkX$XkX$X$X$X$X$X$X$X$X$X$X$X$X$X$X$X$X$X9XkX9XkXj.j.j.j.9X9X9XL s J x x ..J ..#.&.q.f.f.q.&.*.6.*.k.h.-.{.b.b.b.yXOXyXb.b.-.yXOX(.(.-XlXlX(.OX-.y.y.f.h.*.6.6.6.6.-XcXcXlXlX(.OXOXyXb.yXOX-.{.;Xy.y.q.*.#.#.9.#XP.#X9...#.#.#...#.J ....J ....J J J J J J J H H H w H w H H H H H J J J x J J J J J J J J J J J J J s J .._ ..J J J J J H H J J J J #.#.*.*.6.6.k.k.(.(.(.yXb.{.b.yXOX(.(.6.-XlX#X9.*.h.h.k.k.*.k.OX-.-.{.OX(.-X-X(.yXb.1Xb.b.yXb.;X,X{.h.6.9.#XP.#X6.q.f.f.f.q.q.&.#.s J J ` H H H H ` H H J J J J x H x x x x ........*.q.f.g.f.f.q.&.#.*.&.q.&.q.-.h.h.-.y.y.f.h.h.k.k.6.6...#.J x J ` J J ` f s J J J J J J J J J J ` ` H H H J J J J J J J J ....#.&.q.f.y.y.y.f.-.y.y.y.{.-.-.{.{.y.-.-.h.(.k.k.-.-.-.h.OXh.h.h.h.h.q.&.*.s s s s s ` ` ` ` ` ` ` H x x x H H H H H H H x x H H J ` ` J ` ` ` ` ` ` ` ` H x x x _ +.+.+._ ..#.f L L &.&.*.*.*.k.k.k.6.(.6.6.k.h.k.*.*.*.*.*.&.f.&...+.P.+._ J J ....9.P.P.P._ x J ` f f J J ....#.s s #.#.s ` ` ` ` ` ` f f s s #.s *.#.s #.s #.J J J J s f ` ` ` f f ` ` s s s s ` ` ` ",
"$Xg.9X$X9X9XkXkXkXkXkXkX$X$X$X$X$X$X$X$X$X$X$X$X$X$X$X$X$X$X$X$X9X$X9X9X9X9X9X9Xj.L J x x J J #.*.q.f.f.y.y.-.k.6.k.h.{.;X;X{.b.b.yXOXyXb.b.{.b.b.yXOXOX(.(.OX-.-.{.y.f.-.h.k.k.k.h.k.-XlX-X(.OXyXb.yXb.yXOXOXh.-.f.q.&.*.#...9.#XP.#X9.........#.J J ......J J J J J J J x x x x w m w m w w x x x J J J J #.s s s #.J J ............#.#.#...#.#.s s s s ` ` J J J ..#.#.*.6.6.k.h.h.OXOXOXb.{.{.b.-.-.h.h.k.9.#X#X9.#.#.9.#X#X6.k.-.{.;X{.-.OX(.OXyXb.;X{.b.b.b.;X;X,Xy.q.*...J ....#.*.*.......#.#.#...J J ` ` H ` ` ` ` H H J x J J x x x x ..J ....6.&.q.f.f.f.f.q.&.#.#.#.9.#X9.*.*.6.6.k.-.-.-.y.-.-.h.k.*.*.s J J J J s s s J J ..........x x J J J J J J J J J J J J #.#.#.#.#.*.&.-.f.-.f.f.-.-.h.h.k.h.-.b.;X;X;X;X{.yXOXOX-.{.{.{.{.{.-.-.y.y.y.y.q.&.#.#.J J s ` s ` s ` s ` J ` H H ` ` ` ` H H H H H H J J ` J s J ` f ` f ` ` ` H J J J s J #.......s L 9Xf.f.f.h.h.h.-.-.-.h.(.6.6.*.k.6.#X#X9...#.*.L ..+.P._ _ x J f f s J _ +._ x J ` f j.f f f s s s s s #.s s J J J J ` #.s s s &.&.&.*.*.#.*.#.#.#.#.#.J s s s s s f s s s s f f f ` ` ` ",
"g.f.9X9X9X9X9X9X9X9X9X9X9X9X$X$X$Xg.$Xg.$Xg.$X$Xg.$X$X$X$X$X$X$Xg.$X9X$X9X9X9XL L s J x x J #.*.*.h.-.f.y.y.f.k.6.k.-.{.;X{.b.b.yXyXyXb.b.b.;Xb.yXyXb.b.b.b.b.b.-.-.h.h.h.-.-.h.h.y.y.h.(.OXyXyXb.b.yXyX(.-X-X-Xk.&.&.*.#.#.....9.....#.#.#.#...s s s #.J J J J s J J J J J x x x x x m m m w x x x x J J f L L &.&.s #.........#.#.....#.#.#.*.&.q.q.L s ` ` J J ....#.#.*.*.k.h.h.OX(.OXyXb.{.{.{.{.y.-.h.&.#.....#.#...9.#X9.6.k.-.y.{.y.h.h.h.y.{.;X;X{.yX-.{.;X{.y.h.*.#.J s s J J #._ P.P.P...s #._ J ` H ` ` ` ` H ` ` H J J J H J x x x J #.s #.*.q.q.h.&.&.&.&.s #.#...#X#X9.6.9.#XlX-Xh.-.{.;X{.{.-.OXk.&.q.&.&.s s #.s #.#.#.#.J ......_ J J J x J J J J J J J #.#.#.6.#.6.6.6.(.k.k.(.(.k.h.k.6.-X-X(.OXb.;X;X;X;X;Xb.yXb.{.;X{.;X;X{.b.{.{.{.{.*Xf.&.#.#.J J J J J ` ` ` ` ` ` ` ` ` ` ` ` f ` ` ` J J J ` J s J ` s s s s ` s J J J J s s q.q.q.L s *.s q.9Xy.y.y.y.-.y.{.{.{.y.h.k.k.*.*.6.9.9.9...#.#.s _ _ _ J J J ` f L f s J #.J J ` ` ` f ` f ` f f s s s s s s #.J #.s s s #.&.&.q.q.q.q.k.*.*.*.6.*.*.#.#.*.&.*.#.#.#.#.#.#.s s s s s s f ",
"*Xg.f.y.g.f.9X9X9X9X9X9X$X9Xg.g.g.g.g.g.g.9Xg.9X$X$X$Xg.$X$X$X$X$X9X$X9X$X9Xj.f J x x J J s s &.k.k.*.6.k.-.-.k.(.OXyXb.b.yXOX(.(.(.yX;Xb.b.b.yX(.-XyX1X;X{.b.OX(.-XlX#X6.h.-.-.f.y.y.-.OXOXb.b.b.b.OX(.-XlXcXcX#X6.*.#...#.#.#.#.s s #.#.s s s q.q.L L f s s J J J J J ..J J x x x x w x w x H J J J J L q.f.f.q.q.*.6.6.6.*.*.&.&.*.6.6.6.*.k.h.f.q.&.s s ` J J ....#.#.*.&.q.-.k.6.-Xk.-.{.b.-.-.y.y.q.*...........J J s #.#.*.&.h.h.h.k.6.6.h.-.-.-.-.-.h.OX-.-.-.*.#X9...J ` ` J J s ..+.P.+...s s J J ` J ` H ` ` ` ` ` J J J J J ` J J J s s q.q.q.f.f.&.6.#X9...#.J J J J ......9.#X#X9.h.y.;X;X;X;X{.h.OX-.f.f.q.q.&.&.*.*.*.#.#.#.#.......J J J x J J #.#.#.#.#.#.#.#.6.6.6.6.-X6.(.(.-X-X-X(.6.-XlX-X-XOXb.{.{.1X;X1X{.b.{.;X;X{.;X{.yXyXb.{.;X*X{.q.*.......J J J H J J H J ` f ` ` ` ` f f f ` ` ` ` ` ` ` ` ` s J s J s s J s s s s *.s q.f.f.f.f.q.&.s &.&.q.h.-.-.-.-.-.b.{.{.-.-.h.k.*.*.*.#.#.#.s s J J J s s ` s J J f J J s s J J J f ` ` ` ` f ` s J s s s s #.#.s L q.q.q.q.q.f.y.y.;Xy.-.h.h.k.k.k.k.*.*.*.&.*.*.6.6.6.6.#.#.#.s s s s f ",
"*X*X*X*X*X*X*X*Xy.g.y.g.*Xg.y.g.y.g.y.g.y.g.g.g.f.9Xf.$X$X$X9X$X9X$X9X$X9X9X9X9Xj.j.j.f L L 9Xf.-.6.lXcXlX6.k.OX-.b.-.yXb.OXlXw.w.lX(.-.-.b.b.OXlXlXOX1X1X{.OX-XcX^.<.^./.9.*.&.h.h.k.(.-X(.yXyXyXyX(.-X-X-XlXcX#X#.&.#...#.&.&.&.q.&.#...*.&.q.y.g.f.9Xq.L s J ....J s J J J J J ` H H H H H ` ` J J s L 9Xy.y.f.q.k.6.6.k.h.-.y.y.-.h.(.6.6.6.k.k.6.9...J J J J ..#.#.s &.q.f.f.h.k.k.h.y.y.-.k.k.&.q.*.#X#X_ J s J J J s s s #.#.6.9.#XP.#X9.*.&.*.6.6.6.9.9.6.*.6.P.cXP.x J H ` ` ` s J J J J J J s s s ` ` ` ` ` ` ` ` ` H J J ` ` J ` J J s L q.f.y.*Xy.f.*.9.9.#.s ` J ` ` J x +.+.9.9.6.k.f.{.,X;X;X{.-.b.;X;X;Xy.-.-.h.k.k.k.&.*.#.#.J J ` J J J J #.#.#.#.#.6.#.6.6.6.*.6.-X(.(.yXb.1X1Xb.OX(.(.k.(.(.(.OXyX{.;X1X;Xb.yXyXb.;X{.{.{.OX-X-XOX{.;X;Xy.k.9.9.9.....x x J x H J H ` ` J J J ` ` ` f ` ` f f f f f s s s s s s s s s #.#.s s &.&.q.y.y.g.y.f.q.*...9.9.#X6.k.k.6.-X(.yX-.b.{.y.y.k.*.*.*.*.*.s s #.s s s J s s ` s f f f f f J J s f f f ` ` ` f f s s s f f s s L f.y.y.y.f.f.y.;X,X,X;Xb.-.b.-.-.h.h.k.6.*.h.h.k.6.-X6.6.6.*.&.&.&.s s L ",
"|.|.|.|.|.|.,X*Xy.y.*X|.|.*X*Xy.*X*X*X*X*X|.|.g.f.9X$Xg.g.$X$X$X$Xg.$Xg.$X$X$X9X9XkX9XkXkXkX9Xf.f.q.*.#X#X9.k.-.b.{.b.OX(.(.-XlXcXcXlX#XcXlX-X(.(.OXOXb.b.OX-XlXcX]./.P.+./.].].cX#X-XlX-XVX(.OXyXb.b.b.yX(.-X6.*.#...J L f.{.{.{.{.-.k.6.*.f.y.y.y.*Xy.f.L #.#.....J J J J J ` ` ` ` H ` d.` H x _ ......6.*.h.h.k.6.(.h.;XG.C.n.n.n.G.{.OX(.OX(.-X9.6...#.#.s #.#.J #.s L q.q.q.L &.*.6.6.9.#X#X..#.#.#.......J J J J J J J J J ..........#.....9.9.#X9.9.6.#.....9.P.+...J J ` J J s ` s s s s s s ` s ` ` s ` ` ` ` ` ` ` ` J ` J ` J J J J J s f q.9Xf.f.q.&.#...#.s ` ` ` H H x m m _ _ _ J q.y.y.;X{.b.-.{.;X{.{.;X;X;Xb.b.{.y.-.&.#.J J J x J J s s *.6.6.6.6.6.-X9.6.*.6.(.k.b.;XqXjXn.,.n.qX;XyX(.(.(.(.yXb.b.{.yX(.lXlX(.{.;X;X;Xy.k.lXlX-XyX;X{.(.#X#X6.#.#.#.J J J ` J H ` ` ` ` ` ` s s ` s s s ` ` J s J s ` s s s f ` f s s s &.&.q.h.h.q.*.*.&.q.&.*.#.*.s #.#.6.6.-X-X-XOXb.;X,X;X,Xb.k.k.k.h.k.*.6.6.#.#.#.#.#.s s f J ` f f f f f s f f f s J ` f f f s J s &.s &.f.*X*X*X*Xy.h.-.-.-.b.b.yXyX1X1X;X{.-.OX(.h.;X,X{.h.OXh.-.-.y.y.f.q.&.&.&.",
",X|.C.C.C.C.|.,X;X*X,X|.C.|.|.|.|.|.|.|.|.C.|.*Xy.f.f.g.g.g.g.g.$Xg.g.g.g.g.$X$X$XkXkXkXkXkX9X9Xf.9XL ..9.9.6.6.(.(.OXyXyXyXOX(.-X#XP.cX]./.6.-.{.{.b.{.b.OX6.9.#XP.+.x x +./.=./.-XOXyX{.1X1X1XqXjXqXjX1XyX(.6.6...9.J L f.;X;X;X;X-.k.6.*.q.q.&.&.&.q.&.#.#.....J s J J J J H ` ` ` ` d.` d.` H x J ..9.9.#X6.6.-X-XOX;XC.%.%.%.R %.jX1Xb.1XqX;X-.h.*.6.#.#.#.#.#.J s f L f s s s #.#.#...9.9.9...J J J J J J J J J J J J J J J J J J J #.J J ..x ........#.#.J J .._ ..s s s f s J s s ` s ` s ` s ` f J s ` s J s ` s J s ` ` ` ` ` ` J ` s s J J ......#.#.s s s s J ` ` ` ` ` H H H x x J s L q.&.6.-X-XOX;X;X,X;Xb.yXOXyXb.;X;X-.q.s J J H H J s s #.6.6.(.OX-.{.{.-.k.(.(.OX{.qXn.,.,.,.,.,.n.qX;XyXOXyXyXb.1Xb.yX(.lX2XlX6.k.k.6.6.6.k.(.(.OX-.{.-.h.*.*.*.#.#.#.s J J ` ` ` ` ` s ` s ` s ` s ` ` s J s s s s s s f s f ` f f f L &.q.q.f.f.f.h.6.9.6.*.&.&.&.L s #.#.#.*.6.6.(.OXb.;X,X1X,X{.h.h.-.y.-.h.h.k.k.k.*.*.*.s s s f f f ` f f f f f s s s s J ` s s J J s s s *.q.q.&.k.h.h.k.(.-XzX(.yXb.1X1X;X1X;Xb.-.-.b.{.;X;X;X{.b.{.{.{.;X*Xf.&.*.#.",
"|.C.C.C.C.%.C.|.,X|.|.|.C.C.C.C.|.|.|.C.|.C.C.|.*Xy.g.g.g.$Xg.$Xg.$Xg.$Xg.g.g.$X$X$XkXkXkX9XkX9X9XL f ......6.9.#X-X(.yX{.{.{.-.*.9.#XP.P.#X*.f.y.{.{.{.-.k.6.6.#...J J J x +.P.#Xk.{.qXjXjXjXjX,.,.,.,.n.1XOX(.6.9.#X_ #.h.-.b.{.{.-.k.6.6.6.6.#X#X9.#.#.#.#.#.#.#.J J ` J H J ` ` d.` H ` ` ` ` J s #.6.9.#X-X-X-X(.b.G.%.%.%.%.%.%.n.qXqXjXR n.G.;X-.*.#.#.#.#.J s s s f J J J J J #.s #.#.#...J J J J J J J J J J J ` J J J J J J J J J J #.s s s J s J J J J s s J s f s s f f s s s s ` s ` s s ` s ` s ` s ` s ` s ` s ` s ` s ` s s s ` s s s J _ _ _ ..#.s &.#.J J ` ` ` ` ` ` H J J s f f &.6.#XcX#Xk.y.{.{.{.OX(.-XOXb.;X;X-.&.s s ` H J ` s #.6.6.OX{.qXqXjXjXqX;XOXOXb.qXn.,.,.,.,.jX,.n.G.1XyXOXb.b.1Xb.b.yXOX(.-X-X-XHX#XcXcX#Xk.-.-.{.{.{.{.-.h.*.*.#.#.#.s J ` ` ` ` ` ` ` f ` s ` f s f s ` s s ` s s s f s s ` f ` f f L L q.f.f.y.y.-.*.9.9.#.#.s L L s s s s *.*.*.k.h.b.;X;X;X,X;Xb.-.{.{.{.{.{.-.-.-.f.q.q.&.s f L f f f f ` f f s f f s s J s f f s s s s #.#.&.6.9.9.6.k.(.6.lXzXVXyX1X1X1X1X,X;X{.b.{.;X{.{.;X{.yXOXb.{.;X;X;X-.&..._ ",
"C.C.C.C.C.%.C.|.|.C.C.C.|.C.C.|.;X,X|.|.C.C.C.*Xy.f.g.g.g.g.g.$Xg.g.$Xg.g.g.g.g.$X$X$X$X$XkXkX9XkXj.` x x J ..9.9.-Xk.-.b.-.h.k.*..._ _ _ ..s &.q.h.h.h.h.6.6.......J J J s ....6.-.,Xn.R R ,.F P F ,.F F qXyX(.-X-X#X9...6.(.(.OXh.h.k.6.6...9.P.P.+...#.s #.#.#.J J s ` H J H ` ` ` H ` d.` ` s s #.#.6.*.k.OXOXOXyX,XC.%.C.C.%.%.%.n.n.n.,.F F ,.jX;Xh.#.#.#.#.s s s ` ` J x J J J J J s #.#.#.J J J J J ` s J s ` s J s J ` J J J J J J J J J s s s s s #.J J s f s f f s s f f s ` s ` f ` s f ` s ` f s ` s f ` s f ` s ` f f s s ` s ` s s s f s #.J J #.#.s s s J J J J s s s s s s #.s &.s *.#.9.#X9.*.*.6.(.k.(.-X-XOX{.,X{.h.&.s s ` ` ` s #.#.k.-.,XjX,.R R ,.n.jX1X1XqXjX,.0.,.0.' jX,.n.n.1XOXOXb.b.b.b.b.yXb.-.h.k.6.#XP./.cX#Xk.f.y.{.;X*X*Xf.&.*.*.#.s s s s f ` f ` ` ` s ` s ` s ` s ` ` s s s s s s ` s f s f f f f f L L q.q.q.q.q.q.*.#.#.#.#.#.f L f s s s s *.*.k.h.-.y.y.b.-.-.-.y.{.;X;X;X{.-.-.{.{.y.f.&.*.L f f f f f f f f s f f s s s s f f s s s s #.*.*.6.9.6.*.k.k.(.(.(.(.yXb.1X1X1X1Xb.yX-.;X,X;X;X;X-.(.-X(.b.;X;Xy.k..._ m ",
"|.C.C.C.C.|.,X;X,XC.C.C.C.C.|.y.h.b.,XG.C.C.,Xy.f.f.g.g.g.$Xg.g.$Xg.g.g.$Xg.g.$X$X$X$XkXkX$XkXkXkXj.` ` ` J J #...6.k.h.h.6.9.9...#.J J ` J J ..9.#X#X9.6.6...9.9._ .._ 9...6.6.6.OXqXn.F F F ' ' ' F ' F jXb.(.-X(.k.k.h.k.(.(.(.k.k.6.6.#.....9.9.9...#.s #...#...J J J J J ` ` ` ` ` H ` ` s s #.*.*.k.-.{.,XqXqXrXG.C.C.rX|.rX|.G.G.n.R R ,.F ,.jX,Xh...#.#.s s ` ` J ` J ` J J s J s #.#.s #.J s s s s J s s s s ` J J J s J J J J J J J J s J J J J J J J s s f s f s J J s f s s s s s ` s ` s f s ` s s ` s ` s ` s ` f f ` f s f f f f s s s s s s s s s s s &.s s #.#.#.s *.&.&.&.&.*.&.*.*.*.#...#...P.cXlX-X(.(.OXyX{.{.-.k.#.#.s f ` s #.#.*.-.qXn.,.F P P F ,.,.n.n.n.,.,.,.,.' ,.,.,.R jX1XOXOXb.b.yXb.b.{.{.{.{.-.k.6.9.9.#X9.&.-.f.y.y.y.f.q.*.*.#.s s s f f f ` f ` f ` f ` ` s ` s ` s s ` s ` s J f s s s f ` f f f L L L &.*.*.#.*.&.*.s s s #.J s f f s s s s *.*.*.k.k.h.k.6.-X-Xk.-.{.;X;X{.OX(.yX{.;X*Xy.q.*.s s f f f f f f f f f s f s s s s s s #.*.#.*.*.&.&.h.-.-.y.-.h.OX(.yXyXb.1X1XyXOX(.(.k.y.;X;X{.{.OX-XlX(.b.;X{.-.*.9._ m ",
"|.C.C.|.;X{.-.h.y.|.|.|.|.|.,X-.k.-.;X|.C.|.;X-.f.f.g.g.g.g.g.$Xg.g.$Xg.g.$Xg.$X$X$XkX$XkXkXkXkXkXkXkXj.j.` ` ` s s *.*.9.cXcXP._ J ` H ` ` J _ #XP.P.#X....#......._ 9.9.6.6.-X-X(.b.jX,.F F F ,.F F F F jXb.OXOXb.;X,X,X,X;Xb.-.h.k.6.6.6.*.#.#.#...#.#.*.#...#.#.#.J J ..J J s s ` s J J #.#...6.k.h.{.,XG.n.%.C.G.rXrXgXBXBXBXBXgXrXG.%.R ,.,.,.,.;Xk.9.#.#.s s s ` s ` ` ` ` ` J s J s #.s s s ` s ` s ` s ` s ` s s ` s J ` s J J J J #.J J J s J J s J J J s s s s s s s s f f s ` f ` s f s ` s ` s ` s ` f s ` s ` s ` f f f f f s f f f s s f f f f s #.s s s f s s #.*.*.k.h.h.-.h.k.k.*.*.s *.f f J P.cXcX9.k.-.{.{.;X{.h.*.6...J s s s #.*.h.;Xn.F ,.' ' P F F R R R ,.n.jX,.' ' ' ,.,.,.qXb.yXb.1Xb.yXb.{.;X;X;X{.-.&.*.*.s s s *.&.*.*.*.*.&.*.*.s &.s s f s f f f ` f f f ` s s ` f s f ` f s s s s f s s s f f f f f f f L f s #.......s s s s s s s f f s J ` s #.#.#.*.*.*.*.6.#XP.t.*.-.y.{.{.-.(.-XyX;X,X;Xy.k.6.*.s f f f f f f f f f f s s s &.&.&.*.#.#.#.#.*.&.q.f.y.;X;X{.-.OXOXyXb.1X1X1XOX-XlXlX6.h.-.h.k.k.(.-X-XOXb.;Xb.h.*..._ m ",
"C.C.|.;X-.(.6.k.-.y.*Xy.f.y.y.y.y.;X,X|.C.|.;Xy.y.f.g.g.g.g.g.g.g.$Xg.g.9X9X$X$X$XkX$XkXkXkXkXkXkXkXkXkXkXkXj.` ` J #...#XcX/.#X_ x w m H H x x _ _ _ ......J J J #...6.*.h.-.OX(.VXNX1XjXjX,.,.,.R R R R qXb.b.1XjXn.R R R %.n.,X{.k.6.6.6.*.*.*.*.*.&.&.q.&.&.&.*.*.#.#.#.#.#.s s s s #.....6.9.6.-.;XG.n.R R %.G.rXgXBXBXBXBXBXBXBXgXrXn.R n.F ,.jX;Xk.9.#.s s s J ` ` f f ` ` s ` J s J s s s s J s ` s s s f ` s s ` s ` s s ` s J s s J s s s s J s s J J J s s s s s s s f f f s s s s f ` f f f f f f f s f ` f f f f f ` f s f s f f s f f L f s s s s s s s s &.&.*.*.*.k.h.-.-.{.b.-.k.k.*.*.s f f ` x 9.9.*.-.y.*X,X;X{.-.&.#.#.J s s #...&.y.G.R F ' ,.' F F R n.n.G.G.jXjX,.,.' ' F ,.jX1XyXyX1X1X1XyXyXb.;X;X{.f.*.*.s s s L f s #.9.P.P.P.9.#.s f f s s f f f f f f f ` f ` f ` s s ` s s s ` s s s s f s f f s f f ` f f f f s s #.#.#.s J s s ` f f L f J s #.s #.#.#.6.#.#.*.#.HX9.#X..*.*.6.k.k.(.(.yX{.;X{.h.*.6.*.&.f f f f f f f f f f s *.&.&.&.&.&.*.6.6.*.*.k.-.y.y.y.{.{.-.OXyXb.1Xb.b.b.(.-XlXlX-X6.9.lXlXlX6.OX-.b.{.;X{.-.h.*.#.x ",
"C.,X;X{.b.k.6.k.h.h.*.9.9.6.q.*X|.C.C.C.C.|.|.*Xy.f.g.g.g.$Xg.$Xg.g.g.g.g.$X$X$X$X$X$X$X$XkX$XkXkXkXkXkX$XkXkXj.` H x ..9.9.9...x m ~ ~ m x x J x J J x x x x J J #.6.h.y.,XG.qX1XyXyX7.1XqXjXn.%.n.%.%.G.rXb.1XjXF F ' F F F R n.,XOX(.6.k.k.k.h.h.q.f.f.y.f.-.h.h.&.*.*.#.*.*.&.&.*.*.*.*.6.6.-X(.;XG.n.R R %.C.rXgXBXBXBXvXvXvXBXJXAXgXG.%.n.R n.qX-.*.6.#.s s s J J f f f f f ` ` s J s s s s s s s ` s ` s ` s f ` s s s s ` s ` s ` s s s s f f f f s s s s s s s s f f f f f f s s f s s s f ` s ` s ` f ` s f f s f ` s f f f ` f s f f f s s s s s s s s s s s s *.*.*.k.h.-.-.b.;Xb.yXOXh.k.*.s f f ` ` f &.&.q.f.y.y.y.y.-.&.&.s s s s #.6.k.,Xn.R F F ,.F R n.G.rXgXgXgXrXG.n.R ,.F F ,.qXb.OXyXb.1X1XyXOXyXb.{.-.*.#X..s s s f f s s _ +.P.+...#.s L L f f f f f f ` f f f f s s f ` s f s f s f s ` f s s f f s f f f f f L f f f s s s s s ` ` ` ` f f f f s s #.s *.&.*.*.*.#.*.s f f J 9.P.cXw.lX(.OXOXyX{.{.-.(.6.*.&.L L f f f f f f f f f f &.q.q.f.q.q.&.k.k.k.k.k.h.-.-.(.-X(.(.OXb.1Xb.b.yXOXyX-.OXk.6.#XcX].].lX*.y.,X;X;X,X;Xb.-.h.&.#.",
"G.,X;X,XqX,Xf.f.&.#.9.9.9.#.q.*X|.C.C.C.C.|.|.*X*Xg.g.$Xg.g.g.g.g.g.g.g.g.g.g.g.g.$X$X$X$XkXkX$X$XkX$X$X$X$XkXkXkXj.` f s #..._ m m ~ U ~ x H ` ` ` H x w H H J J ..*.f.|.C.%.R ,.,.jX$ 1X1X1XrXG.rXrXrXrXgXgXrXn.F ,.' ' ,.,.R R qXb.OXOXh.-.-.y.{.;X;X;X{.{.y.-.-.h.k.*.*.*.*.*.&.*.*.*.k.k.(.(.yXqX%.R R R %.G.rXgXBXBXvXvXvXvXBXBXJXgXrX%.G.G.,X-.k.6.*.*.s *.s J s f f j.f ` f ` s J s s s s s J s s s s s f s s f f f f s s s s s s s s s f L L L f f s s s f f f f f f f f f f s s s f s f s s f s f f s f f s f f s f f s ` s f s ` s s s s J s s s f s s s s #.#.*.*.k.h.-.yXb.b.b.b.OXOX-.h.k.*.s ` H ` J s s 6.6.6.*.k.k.&.&.s s f s s *.6.k.;Xn.,.,.,.R R n.G.gXAXDXDXDXgXrXG.%.R F ,.jX1XOX(.(.(.(.(.-X(.OXh.k.9.P.P...L L f f ` J J s s s s s f L L L f s s s s s s s s s ` s ` s s ` s ` s f s s f s s f f s f f f s f s s J s s s f f f ` ` f f ` ` J s s f #.*.q.q.f.f.q.&.*.#.s L L L ..P./.cX#Xh.;X{.;X,X{.-.k.*.*.*.L L f f f f f f f f f &.&.f.y.*X*Xy.-.h.k.h.h.k.OXOX(.lXlXlX-XyXb.b.b.b.b.1X;X;X{.f.q.*.#XP.#X9.*.f.*X;X;X,X{.h.OXk.h.h.",
"jXG.G.n.n.C.|.*Xf.q.L L q.9Xg.*X|.|.|.|.|.*X*Xy.g.f.$Xg.$Xg.$Xg.$Xg.g.g.g.g.g.g.g.g.g.$X$X$X$XkXkX$X$X$X$X$Xg.$X$X$Xj.` J J J x m ~ ~ ~ w x x w w w w w w ` f f J ..*.y.C.%.n.R F ,.,.,.qX1XAXgXgXgXBXBXBXgXgXG.%.F ,.' ' ,.,.F F n.qXb.b.b.{.{.-.{.{.;X;X;X;X{.b.b.{.y.y.-.-.-.h.h.k.k.(.k.h.OXOXyXqXn.,.,.R n.G.rXgXBXBXvXvXvXvXvXBXAXgXrXG.;Xb.h.k.6.*.&.*.*.s s s ` f ` f j.f f ` ` ` s s f s s s s J s J s ` s ` s s f s f f s ` f s s s f f f f f f f f f f f f L f s s s s s s s s f s s s s f s s f s f f s f f s f f s s s s ` s s s s s s s s s s s f f f s s s &.q.q.f.y.{.{.b.b.b.b.;X{.y.h.&.s s ` f L f s #.9.#X#X9.6.*.#.#.s f f &.*.6.k.{.jX,.F F R n.rXgXJXJXBXJXJXJXgXrXC.R F ,.jXqX1Xb.yX-XlX-X-X-Xk.k.6.lXP.9.#.s f f f f L f L L L L f f f f f f s s s s s s s s s s s f ` f s s s f s ` s s ` s f s f f f f s s s s f f f s s s ` ` f f j.f f J #.s &.&.q.f.y.*Xy.f.q.&.*.*.s f L f #.9.9.6.h.{.,X;X,X;X-.h.&.&.s L f f f f f f f f f s &.&.f.*X,X,X*Xy.h.h.h.-.-.b.{.-.OX(.yXb.{.1X1Xb.yXb.;X,X,X*Xy.q.&.*...#.*.&.q.h.h.h.h.OX(.(.k.OX-.",
"qXG.C.n.C.C.|.*X9X9X9X9X9X$Xg.*Xg.y.f.f.f.f.y.g.g.f.$X$X$X$X$X$X$X$X$X$X$Xg.g.g.g.$Xg.$X$X9X9X$Xg.$X$X$X$X$X$X$X$X$XkXj.f J x +.~ U ~ ~ w w w m m w w w Q H H x ..9.6.-.|.C.%.R ,.,.,.R G.rXgXgXBXBXBXBXBXBXgXrXn.R F P ' ' ,.F F R qXb.-.b.{.{.OXOXh.yXOXOXyXb.yXyX{.;X;X,X,X;X{.-.k.k.OX-.{.;Xb.b.1XqXqXqXjXjXG.rXgXBXBXBXBXBXBXBXAXgXrXG.G.1XyX(.6.*.*.*.*.#.s s f f f j.f ` j.` f f f f f f f s J s s s s s s s s f ` s f s ` s f s s f s s s s s s s s s s f f f f f s s s s s s s s s f f f f s f f s s s s s s s s s s s f s s s s s s s s s f s s f L f f f f s s s q.f.y.y.;X{.{.b.b.1X;X;X;X-.&.s s f j.L f f s ..9.9.9.#.#.#.#.s L s *.*.k.OXyX1XjX,.R n.rXgXBXBXvXvXvXvXBXBXgXG.%.,.,.,.jXjXqXqXb.(.-X-X(.k.k.6.9.9.#.s s f f f j.f f f f L f f f f f f f f s s f f s &.s s s f ` f f f f ` f f f f f f f f f s f f f f s s f f f f f f s ` ` f ` f f s s s &.&.h.-.y.;X;X{.-.h.k.*.*.s s s s s *.*.&.h.-.y.y.y.f.q.&.&.&.s L f s s s s s s &.&.&.*.&.k.q.y.*X*Xy.h.h.-.{.;X;X;X-.OX-.;X;X;X;X;X{.b.b.,X,X*Xy.q.&.L L L &.s &.*.6.9.#X-X(.OX-.-.{.,X",
",XG.C.C.C.|.*Xg.9X9X9XkX9X$Xg.g.9Xq.&.&.q.9Xg.g.g.g.$X9X$XkX$XkX$X$X$X$X$X$X$X$X$Xg.9X9Xf.f.g.g.g.g.$Xg.$X$X$X$X$X$XkXj.j.f H m ~ U { Q Q m m ~ Q w d.w Q ~ ~ +._ ..9.k.{.|.%.%.R ,.R R G.rXgXBXBXBXBXBXBXBXBXrXG.%.R ' ' ' F R R jX1X(.-X(.k.OX(.(.-XlXlXzX(.yXb.{.;X,X;X;X,X,X;X-.yXyXb.;X;X1X1X1X1X1X} 1X1XjXn.G.rXgXgXBXBXBXBXgXgXrXG.n.n.qXb.OX6.*.*.*.#.#.s s f f f L j.j.` f ` f ` f f f f s s s s s s s ` f s s f s ` s f s s ` f s s s s s s s s s s s s f f f f f f f f f f s s f f f s f f f f f s f s f s f s f s f s s s s s s s s s f f s s f L f s f f s J s L q.f.-.-.-.yXyXb.{.{.{.y.h.*.#.s f f f f f f s #.#.#.*.&.s s s L &.&.*.k.OXyX1XjX,.n.G.gXAXBXvXvXvXvXvXvXJXAXrXn.,.,.' ,.,.n.n.,XyX(.(.6.k.*.*.*.s s f f f f ` f f f f f f f f f f f f L f f &.f &.s s s &.f f f j.f j.f f s f f f f f L f f f f f f f f f s f f f f s f f s f f f f &.s &.q.h.-.{.{.{.{.{.b.-.h.k.&.&.&.s s s s s &.*.*.6.*.&.&.&.*.s s f L s f f L L L &.L &.&.*.6.9.6.h.y.y.-.k.k.h.-.-.-.-.OXk.h.{.{.;X;X{.b.yX-.{.*Xf.&.#...s L L f f L s 9.#X#X6.-.;X,X,X|.C.",
",X,X|.|.|.*X9X9Xj.kXkX$XkX$X$X$X9X9Xq.q.9X9Xg.g.g.$Xg.$X$X$X$X$X$X$X$X$X9X9X9Xf.f.f.q.f.f.*X*X*X*Xg.y.g.$X$X$XkXkXkXd.j.kXkXj.` w Q { Q Q ~ ~ Q w d.d.M.{ U u.XX_ #.6.6.h.{.|.C.n.n.n.%.G.gXAXAXBXBXBXBXBXAXgXgXrXn.n.,.,.,.,.jXqX1XOXlXlXlX-X(.6.-XlXlX2XlX-XyX;X,XqX1Xb.b.1XqX,X{.b.{.;X;X1Xb.b.1X1Xb.1X1XqXjX,.n.n.G.rXgXgXgXgXrXrXG.,.,.F ,.1XyXk.*.k.*.*.6.*.s s s ` f j.f j.` j.f f f f f f f s f s s s s s s f s s s f s s f s s s s s s s s s s s s s s f f f f f f f f f f f s f f f f f f f f f f f s f f s f s f s f f f f f f f f f f f f s s f s s J s f s ` s f f s *.6.6.(.k.h.{.-.h.k.*.6.#.s s f f f f f f s s &.&.L L s f L &.&.*.(.OXb.qXjXF n.rXAXJXBXvXvX8XvXvXvXJXAXrXn.,.' ' ' ,.%.n.qXb.(.6.k.&.&.&.s f L f f f f f f j.f L f f f f L f f L f L s s f s s *.s f f f f f f f f f j.f f s f f L L f f f f f f f f f f f f f f f f ` f L L s s &.q.q.y.{.;X;X{.b.b.{.{.y.y.q.&.L L f f f &.&.*.#.#X#X9.#.s s &.L L f s f L &.q.f.f.f.q.q.*.9.#X#X..q.q.&.6.6.*.k.*.6.6.6.6.h.-.-.-.-.h.k.k.k.-.q.*.9.#X_ s f f f f L s ....*.y.|.C.C.C.C.G.",
"{.*X;Xy.y.9XL j.j.9XkXkX$X$X$X$Xg.$X$X$Xg.g.g.g.g.g.g.g.g.$Xg.$X$X$X$X$Xg.g.f.f.f.f.-.y.*X,X|.|.|.*Xf.g.$Xg.$XkXd.M.Q d.kX$X$XkXj.d.wXwX{ u.U wXd.d.M.wX:.u.S.m ` s *.6.6.h.f.,X|.n.G.G.G.rXgXgXgXgXgXgXAXgXgXrXqXqXqXqXqXqX1X1Xb.OX(.lXlX-X6.k.k.(.(.-X-X-X(.yX{.;X,X1X1X1X1XqXqX1X1X1X,X1X1Xb.1X1X1X1X$ jX,.,.' F R n.G.G.rXrXG.G.jX,.,.,.' ,.qXyXOXk.k.k.k.k.*.#.s J J f j.` j.f ` f f f f s f s f f f f f f f f s f f f f f f s f f f f f f f f f f f f f f f f f f f f f f f f f s s s s s f s f &.f s s s s s f f f s f f s s s s f f f f f f s J s s J J J J f ` ` J ` J J 9.9.9.6.6.k.h.k.6.9.9.#.s &.s f f f f L s &.s &.L L L L s s *.*.6.OXb.qXjX,.F R G.AXJXJXvXvXvX8XvXBXJXAXrXjX,.' 0.0.R %.C.|.{.k.*.&.&.&.f &.f L f f f f j.f L L L f L f f L L L L L L L s s s s f f s f f j.f j.f j.f L f f f f f j.L L L L f L f s f &.f s f f f f f f f L L &.s &.q.f.y.;X;X;X{.yXb.b.{.;X*Xy.q.L L L L L f L f s .._ ..J s f f f f s s L L L f.*X*X*Xy.-.*...#X#X9.#.&.*.6.#.*.*.6.9.9.6.*.&.&.*.6.9.6.-X6.*.&.6.#XP.P...s s J J s f s #.*.q.,Xn.%.%.C.rXrX",
"y.y.f.f.q.L L 9XkXkX$X$XkX$X$X$Xg.g.g.g.g.g.g.g.g.g.g.g.g.g.g.g.$Xg.g.g.g.g.y.*X*X;X;X,X|.C.C.C.C.*Xf.f.9X$X$XkXM.{ { d.kX$XkX$XkXd.M.wX4Xu.4XM.M.M.wX4Xu.u.~ ` f s #.6.9.6.6.k.-.{.b.1XrXG.rXrXrXrXrXgXgXrXG.G.jXjXqX1Xb.yX(.(.-X(.(.(.h.-.-.-.-.y.-.k.(.(.(.OXb.b.1X1X1Xb.1X1X1X1X;X1X1X,X,X1X1X1X1XqXjX,.' ' ' ,.,.,.n.G.G.G.%.n.n.,.,.,.,.jX1Xb.-.-.-.-.y.y.&.*.#.s s f ` f f ` f f f f s s s f f s f f f f f f f f s f s f s f f f f f f f f f f f f f f f f f f f f f f f f f f s f s s f &.f f f s &.f s f s f f f f s f f s f s f f f f f f J J s J J J J ` f ` ` H ` ` s J ..9...&.&.6.9.#X#X9.#.s s s f f f f f f s s s s L L f s #.#.6.k.b.qX,.F P F R G.gXDXJXBXvXvXvXvXJXJXgXrXn.,.' 0.,.R %.C.|.y.k.*.&.&.L L L f f f L f f f f L L L f f f L L L L L L L f f s s f j.f f s j.f j.f f f j.L f f f f f f L L L L L f L f f f f &.f &.f &.f f L L f &.&.&.q.q.-.-.-.yXyXyXb.;X{.{.y.f.&.L f f L L L L L L L f s f f L L f s f L L q.&.f.*X*X*X*Xf.&.*..._ ..s s &.s &.&.&.#.#.#.&.&.&.s ..9.9.9.6.6.*.&.#.#X#X..s s J x _ x J J ..#.q.,Xn.%.C.rXgXBX",
"y.g.y.f.9Xq.9X$Xg.$XkX$X$XkX$X$X$Xg.g.g.g.g.g.g.g.g.g.g.g.g.g.g.g.g.g.g.g.g.*X,X|.G.C.C.C.C.C.C.|.|.y.g.g.9XkXM.wX4X{ d.kXkXkX$X$XkXM.dXH.4XwXM.M.dX4XH.;.S.w ` s #...6.#.#...9.6.(.yX1XqXn.n.%.%.%.%.qX1XqXjX,.,.,.,.qX1XyX(.-X-X-XOX-.y.y.y.y.;X,Xy.OXOXOXyXyXb.{.1X1X1XyXOX(.OXyXyXyXb.1X,X{.b.b.yX1Xn.F ,.,.' ' ,.,.G.;XyX;XG.%.n.,.,.,.qX1Xb.{.;X;X;X;X*X,X-.&.#.s L f f j.f f f f f f f &.f s s f f f f f f f f f f f f f f f f f f f f f f f f f f f f f f f f f f f f L f f f f s s f f s f f &.L f s L s L s f f f L s f f &.f f f f f f f f s s s ` ` ` f f ` ` ` ` f L L f s s L &.s ..9._ #.s f f f f f f f L f s s s s s s &.s *.#.k.{.qX,.F P ' F F n.rXAXDXJXJXvXBXBXJXgXrXG.,.' ' ' ,.R %.C.*Xh.*.&.&.L L L L L L L L L L L L L f f f f L L L f f f j.L j.f ` f j.f j.f j.f j.f f f j.L f f s L L L f f f L L L f f L f L f L f f L f f &.f f &.f &.&.&.&.&.*.6.6.(.k.-.;Xy.-.h.&.&.s f f L L kXL f L L j.L f j.j.f ` J ` f L &.*.&.q.y.*Xy.f.q.L L s s s s L &.L L L &.L &.L L L s s s *.*.*.&.&.&.*.s #.s f J x x _ x J x _ ..&.;XG.C.G.gXgXBX",
"g.g.g.g.g.g.$Xg.g.$X$X$X$X$X$X$X$Xg.g.g.g.g.g.g.g.g.g.g.g.g.g.g.g.g.g.g.g.*X*X|.C.%.%.C.rXrXrXrXrX|.*X*Xg.kXd.wX4X4XdXkXkXkXkXkX$XkXM.4XH.4XM.M.dX4X5.5.u.Q ` J #.&.*.*.*.#.....6.OX;XjXn.R R R ,.R R jX1X1XqX,.,.,.,.,.,.qX1XOX-X-X(.-.y.{.y.-.;X{.-.OXyXb.;Xb.b.b.b.b.yXOX(.zX2XzX-X(.OXyXOX(.-XzX-XyXqX,.,.,.,.' F n.,X(.lX-Xy.|.G.G.qX1Xb.OXyX{.,X,X;X;X,X,Xy.q.&.&.L f f f f f f f f f s &.s f f f f f f f f f f f f f f f f f f f f f f f f f f f f f f f f f f f f f f f f L s &.s f &.f &.f L f f s L s &.f s L s f f f &.f s f s L s f f f f f f ` f L f f ` ` f f f f f L L f f f L L s J s f f f f L f f f f L L f s &.s &.L f &.&.*.-.|.%.F F ' ' ' F R G.gXAXDXDXJXJXJXAXrXG.n.,.' ' ' ,.%.C.,Xh.6.*.&.L f f f L j.L j.L L L L L L f f f f L L L s J J ` f j.j.j.j.` ` ` j.j.f L f f f f j.f ` J f L L f f f f f L L L f f L f L &.f &.L f f f &.f L L L &.&.*.#...9.9.9.*.h.k.6.9.#.L f f L j.kXf ` x H ` j.j.j.j.` x m +.m ` s #._ #X9.&.y.f.-.q.&.L L s s *.s &.L &.s &.L q.L &.f L L f &.&.k.&.&.q.L L f f s J J ` J J x x _ #.q.;XG.C.|.gXgXBX",
"g.g.g.*Xg.g.g.g.g.g.g.$X$X$X$X$X$X$Xf.g.g.g.g.g.g.g.g.g.g.g.g.g.$X$Xg.g.g.*X|.C.%.C.C.rXgXBXBXgXrXrXrXgXg.$Xd.4X&X4XM.kXkXd.kXkXkXM.dXH.&XdXM.dX4XH.1.5.u.d.j.L &.q.q.q.#.#X/.P.9.-.G.R R R R n.n.R R R qXb.1XjXF F ' ,.,.jXjXqXb.(.-XOX{.y.h.(.OXOX(.OXyXb.1X1Xb.b.b.b.yXOXyXOX-XzX-X-XVXlXlX2Xw.2X2X(.b.1XqXjX,.,.n.G.{.-XGXcX6.q.y.f.-.OX(.(.h.{.,X,X;X;X;X,X;Xf.&.&.L f f f j.f f f f &.s &.s s f f f f f f f f f f f f f f f f f f f f f f f f f f f f f f f L L L L L L L f L f f f f f f f f &.f L &.f L f f &.f L f L f L f L f &.f L f L f L f f f L j.f ` J ` L f f s ` f j.f f ` f f ` ` f j.` ` ` ` ` J J s f f L f f f L L f s *.&.y.C.R F F ' ' F F F R n.rXgXAXAXAXgXrXG.,.,.,.' ,.jXqX,X;X-.*.6.&.L L L f f L L L L L L L L L L L L f L L j.f ` x m m w ` j.j.j.d.H H ` j.f L j.f j.f L s x _ s f L f f f s f f L j.L L L L f L L L f &.f f L L L L &.f L L L f J _ +.9.9.9.#X#X..L L L kXj.f w ~ ~ ~ j.j.j.` w ~ S.S.m H ` ` J J 9.9.*.q.q.&.&.&.L L &.&.&.&.q.q.q.&.&.&.&.&.s &.&.L &.&.k.&.&.q.q.q.L L L f s f j.f ` x _ ..L y.|.C.n.G.rXgXAX",
"g.g.g.g.g.g.g.g.g.g.$Xg.g.g.g.g.g.g.g.g.g.g.g.g.g.g.g.g.g.g.g.g.$XkX9X$Xg.*X*X|.G.G.rXgXBXBXBXBXgXrXgXq.$X$XwXH.H.&XM.kXM.d.kXkXM.dX&XW.&XdXdXdXH.5.1.5.wX` j.9Xf.y.f.q.#./.0X0X#X-.C.%.R %.n.G.G.n.%.%.1XyXyXqX,.F ,.,.,.n.n.jXqXyX(.OX-.-.(.lXlX-X-X(.yXb.1X1Xb.1X1Xb.b.b.1X1Xb.OXOX(.-X-XzX-X(.OXOX(.(.OXb.1XqX,X,X,Xf.9.cX0XS.bXj.L *.6.9.9.k.-.y.y.{.;X,X;Xy.h.&.&.s s f f f f f f f f &.s s f f f f L f f f f f f L L L L L L L L L L L L L L L L L L L L L L f L f L f L L L f f &.f &.L L L f f L f L f &.f L f &.f f L s &.L L L f L f L L f L f j.L f ` x x f L L f s s f f j.j.` H w H ` j.j.` H w m m x J s s f s &.f &.L f s #.*.k.y.%.R F ' ' F ,.F F F R n.G.G.G.G.jXjX,.,.,.' ,.qXb.yX-.h.k.*.&.&.f L L L j.f j.f f L L L f &.L L L L L L L j.` x m +.~ Q H j.j.d.Q Q w H ` f L f f f j.J _ +.x J f L L f f f L L L L f L L L L L L L L f L L L L L f L L L kXj.m U +._ J J _ _ J f j.j.j.j.w U u.U Q j.j.d.w U @.@.U H j.` ` ` s #.#.*.&.&.&.&.&.&.&.L &.q.q.f.f.f.q.q.&.&.*.*.&.&.&.&.q.q.h.q.q.f.q.q.L L f f L j.j.` x _ _ L *XC.%.%.C.G.rXgX",
"$Xg.g.*Xg.g.*Xg.g.g.$X$Xg.g.g.g.g.g.g.g.g.g.g.g.g.g.g.g.*Xg.g.$XkXj.j.9Xg.g.*X*X,XgXgXgXBXBXBXgXBXgXAXbX9XkXwXH.W.dXM.kXM.M.kXkXM.&XZ.Z.dXM.dX&XH.5.5.4XwXd.j.f.*X*X9X#._ XX=./ /.&.|.C.C.|.,X,X|.C.%.C.b.(.-XyXqXn.R R R ,.n.%.n.b.OXyXb.-.OX-X-X-X(.OXb.1X1X1Xb.1X1Xb.1X1X1X1X1X1Xb.b.yXb.{.;X,XqXqX1XyXOXOXyXb.b.{.y.q.bXS.@.H.bXd.d.bXbXbXS.#X9.9.6.k.y.;X-.h.*.*.s L f f f f f f f f s f &.f &.s L f f f f f f f f f f f f f f f f f f f f f f L L f f f f f f L L f f f f f f L f f f f f f f L f L L f f L L f L f f L f L f L f &.f L L f L f f f f f ` x +.m f L L L f f f j.j.` w ~ ~ w j.j.d.d.Q U u.XXx s f L L L L L f L s s &.#.6.h.G.%.R ,.F F R F F F ,.,.,.,.,.F ,.,.,.jX,.,.,.1XOX(.(.6.*.*.&.&.f f f f f f f f f f f f &.f L L L f f L j.j.f ` m U u.u.~ d.d.d.Q { { Q ` j.j.f j.f f x +.XX+.x ` j.j.j.f f L L j.L L L L L L L L L L L L L j.L j.L L L j.d.d.{ u.U w ` ` ` J H ` j.j.d.w U u.u.{ d.j.d.Q U @.@.u.~ d.j.j.j.f f L f f &.s &.&.&.&.&.&.q.q.y.y.*X*Xy.q.&.k.&.&.*.&.&.q.y.y.f.y.y.*Xf.q.L L L L L j.j.f ` m +...9X|.C.%.C.C.rXrX",
"$Xg.g.g.g.*Xg.g.g.g.$X$X$Xg.g.g.g.g.g.g.g.g.g.g.g.g.g.g.g.g.g.g.kXd.w j.9Xg.*X*XgXgXDXAXBXBXBXgXgXgXj.bXj.j.4XW.W.dXM.M.dXM.kXkXdXZ.Z.&XdXdXdXZ.W.W.H.wXM.wXj.$Xg.g.s +.m ` m =./ +.f.,X,X*Xy.*X|.%.C.,XOXlXlX-Xb.,XC.%.R %.%.n.G.;XyX{.;X;Xb.OXOXyXb.b.b.1X1Xb.7.1Xb.1X1X1X1X1XqX1X1X1XqXjXn.R %.%.R jX1XOX(.(.(.(.k.&.#.bXS.H.H.KXM.M.wXwXS.@.=.=.cXcX#Xk.-.k.*.6...s f f f f f f f s &.f L f f f f f f f L L f f f L f f s f L &.&.s s &.&.&.f f f f L L L f f f f f f L L L L L f f f f f s f &.f L L L L L L f L f f f f f f f L f L L f f L L L f f j.` w ~ U ~ ` f L &.L L j.j.j.w ~ u.U wXd.d.M.~ u.@.@.~ f f f L L L L L &.L s &.&.*.9.6.;XG.%.%.%.%.%.R n.qXqXjX,.' F ' ' ' ,.0.,.,.n.;XOX6.6.#.#.*.s s L f f f f j.` j.j.f f f f f L L f ` f j.j.L j.j.H ~ u.@.u.{ M.M.M.{ :.U w ` j.j.f j.j.H ~ u.S.~ H j.j.f f L L L L L L L L L L L L L L L L L L j.j.` ` j.d.M.wX4X4X4XwXd.H H H H d.d.d.wX4X;.;.4XM.d.M.wX4X;.5.u.~ d.d.j.j.j.j.j.j.f J ..#.&.L s &.&.&.q.q.f.*X*X*X*Xf.&.&.&.&.h.&.k.f.;X;X;X;X,X,Xy.q.&.L L s s f f j.` m S.S.H f.|.|.|.*XgX*X",
"g.*Xg.*Xg.g.g.g.9Xj.kX$Xg.g.g.g.g.g.g.g.g.g.*Xg.g.g.g.g.g.$X$Xg.$Xj.wXbXd.$X|.|.*XAXUXDXgXrXrXrX|.gXbXS.wXM.&XW.Z.dXdXdXdXkXkXM.%XZ.Z.dXT dX%XZ.W.Z.dXM.M.4Xd.kXkXd.bXS.d.$XkX~ / ].+.f L L q.*X|.|.|.q.9.lXlX-X(.OX;XG.C.C.G.|.;X-.-.{.,X,Xy.OX-.;X,X1Xb.b.1X1X1X1Xb.1X1X1X1X1X1X7.yX1XjX,.R R F R R n.;X(.-XlX2X2XcXcXS.S.4XH.H.dXdXKXdXKX4XH.H.u.XXXXP.9.#.*.*.#.#.s f j.j.L f s s *.s f L L f f f s f L L L L f f L L s s s &.&.&.*.*.&.&.&.&.s s f L j.L f f s s s f L f L L L L s f f f f s f f L L &.f L L L f f s s f ` ` j.f f s s s &.f L f f f j.d.{ u.:.Q H f L L L L j.j.d.~ @.@.4XM.M.wXwXH.5.5.u.` L s s L L q.L L s f s *.&.&.*.6.k.y.|.|.C.C.C.|.;XyXb.qX,.' ' ' ,.' ,.,.R %.G.y.k.#.s f f s s *.f s f L f ` j.j.j.j.j.j.L j.j.f J x H ` j.j.j.j.j.d.U ;.5.H.dXM.M.dX:.;.{ w j.j.j.j.j.d.wX4Xu.4XwXd.d.w ` L L L L f L f L L L L L L L L L j.L j.` m Q d.d.M.4XH.H.4XwXd.d.w w d.d.wX{ 4XH.5.H.dXM.M.dX&XH.5.5.4Xd.j.j.j.j.kXj.d.` H m +...s L f L L L &.&.q.f.f.y.g.f.q.L &.q.&.&.k.-.{.;X;X,X,X,X*Xf.q.&.&.s J J H H d.wXU u.u.bXj.9X9Xq.*.&.",
"g.g.g.*X*X*Xf.q.f L 9Xg.g.g.g.g.g.g.g.g.g.g.g.g.g.g.g.g.g.kXj.$X$XkXwXS.S.` g.|.|.9XbXDXrXC.|.C.|.g.bXS.wXdXH.W.W.&XdXdXdXkXM.dX&XZ.Z.* dX* %XZ.W.&XdXM.dX4XwXd.wX4Xu.4Xd.kXd.{ pX/ pXsXXX+.` 9X9X9Xq.9.#X#X#X6.6.6.h.-.-.-.-.h.k.6.6.h.f.-.k.6.OX{.;X;Xb.b.1XqX1Xb.yXyXb.b.1X1X7.NXNX1X,.F ,.R R R R G.b.-XlX2X2X2XcXcX@.4X4X&XH.&XdX&X&X&X&XmXH.4Xw ` J s s *.s s L L j.j.f f L L &.*.&.L L j.f f s s s f L L L L L L s L &.*.*.k.&.k.k.k.k.&.&.&.L s f f j.f f f f f &.f &.L L L f s f ` j.s f f f L L L L L L f f f f f f ` ` j.f s s L f s L L s J ` d.wX4XH.4XwXd.j.L L j.j.j.d.wXu.5.H.wXM.wXdX4X5.5.5.bXj.L f s L L j.L s J s s &.&.*.*.#.#.#.#.DXq.q.&.q.k.(.OX1XjX,.,.jX,.,.R %.C.|.*Xq.#.bXw ` ` s f &.L L f f ` ` ` ` j.j.j.j.j.j.j.j.w bXbXw d.j.j.j.j.d.wX4X5.W.&XdXdXdX&XH.4XwXd.j.d.H d.d.wX4XH.H.dXM.M.U m s L q.L L L L L L L f L L L L L L L j.w ~ { M.M.dX&XH.&X4XM.M.wXwXwXd.d.{ 4XH.:X&X&XdXM.dX&XZ.W.:XH.wXd.d.M.d.kXd.j.d.w ~ S.+.J L L L L L L s _ 9._ #.L 9X9X9XL L &.&.k.k.h.b.{.;X;X,X,Xy.h.*.#.#.s #._ ~ m d.M.wX4XH.u.bX` j.J S.S.",
"g.f.f.f.f.q.&.9.#.9Xg.g.g.g.g.g.9X9Xf.g.g.g.g.*Xg.g.g.g.$X9X` j.9X9XJ S.=.#X&.*XrXf.9.bXAX|.C.C.|.$XbX4XdXdXZ.W.Z.&X%X&XdXM.M.dXZ.Z.Z.%XdX%XZ.W Z.%XdXdX4X4XdX4X4X5.H.4XM.M.{ :.;.pXpXpX`.pXu.~ bXS.+.S./.#X9.*.*.6.6.*.k.6.6.6.6.9.#X9.6.6.6.9.k.h.-.OX(.(.OXyXOX(.(.NXb.1X7.1XyX(.OX1Xn.R %.%.%.%.%.G.;Xb.b.b.b.b.k.9.S.S.4XH.W.H.&X&XKX&XH.mXH.~ H ` s f L &.f f L L L f s s L L &.&.s L L f ` ` J J #.#.s #.#.#.*.*.*.q.&.*.k.-.y.-.-.h.k.k.*.&.&.s s f L L L f L L &.L f L f f f f f f s f s L &.L L f f f j.j.j.f s f f f j.L f s L L f f ` ` m w d.d.{ 4XH.4XwXd.j.` ` j.j.d.M.4XH.5.4XwXM.dX4XH.5.5.4XwXj.j.f L L j.j.` w bXx f L f s s &.s bXS.@.S.S.0X=.#X6.k.h.;XqXn.n.R R %.C.|.y.q.#.bXS.S.bXbX` j.L L L L f ` ` H w H ` j.j.j.j.j.j.w S.S.~ w j.j.` d.d.d.{ H.1.W.&XdXdX4XH.H.4XwXd.d.wXwXM.M.4XH.H.4XM.M.U U H L L L &.L L &.L s L L L L L L L j.` m U { M.M.&XZ.Z.&X&XdXM.wX{ wXd.M.4X5.W.H.&XdXdXdX%XZ.Z.W.H.dXM.d.wX{ d.j.kXd.wXU u.u.m f j.j.j.j.j.f J +.P.P._ ` j.j.j.9XL L &.*.k.k.k.OXOX-.{.y.h.*.*.#.#.s f x +.~ wXM.M.4XH.5.u.wXd.d.S.0X",
"q.h.-.{.b.-.h.k.&.f.*X*Xg.f.q.*.*.&.f.f.f.y.g.g.f.g.g.g.f.9Xs ..s &.*.9.#X#X-Xh.y.-.#XcXbXg.|.|.g.$X4XH.dX&XZ.Z.Z.%X%XZ.dXM.dX&XZ.W.Z.%X%X%XZ.W Z.dXdXdX%X&X4XH.H.1.:X4XdX:..X.X.X.X.X.X'.'.`.u.U u.S.@.@.+...s &.*.*.6.*.*.*.*.*.#.9.9.9...#.*.&.k.*.6.-XlXlXlXlX-XyX1X$ qXqXqX1X1X1XqXG.G.rXrXG.G.G.n.G.n.n.,.,.n.|.f.bX@.H.mXmXH.&X&X&X&XH.H.4XbXx ..#.s &.L L L L f f f f s &.&.&.s s s ` H x J ...._ ..*.&.&.k.h.h.k.k.6.k.-.,X|.,X,X;X{.h.k.*.*.&.&.L L L L L &.L &.&.L f L f f f f L &.&.&.&.L &.f J H H ` j.j.j.x J s f L L f f L j.` H H w S.Q d.M.4XH.&X4XwXd.d.d.d.d.d.M.dXH.W.H.4XM.dXdX&XW.5.H.wXd.j.` f j.j.j.w bXS.S.w ` f s f L j.` bXS.5.5.5.0X0X0XS...6.k.h.;X,X,X,X*Xy.q.f bXbXbXS.H.@.S.bXj.L f L L L j.` H w m w d.j.j.j.j.j.d.U u.u.~ d.d.d.H d.d.wX4X1.o.Z.%XdXdXH.5.H.4XwXd.wX{ wXM.dXZ.W.&XdXM.4XU w j.L L &.f &.L &.&.L L L L L L L j.H ~ u.4XM.dXZ.W.Z.&X&XdXwX4X4XwXM.M.4X5.W.Z.&XdXdX%XZ.Z.W.W.&XM.M.M.wX{ M.d.d.wX4Xu.@.U H j.j.j.j.j.j.` m XXXXm H j.j.j.j.j.j.s #.&.*.6.9.#X#X6.h.q.&.*.&.L f s f ` w ~ { wXwXdXH.H.H.4XM.M.4X5.",
"*.h.{.qXqXG.|.,X*Xy.y.f.h.6.-X-X6.h.-.y.f.y.f.f.9Xf.f.y.y.f.&.9.#X6.h.h.-.b.yX-.{.-.9.0X@.d.$Xg.$Xj.4XH.&X&XZ.Z.%X%XZ.Z.dXdXdX&XW.W.Z.%X%XZ.W Z.Z.%XdXdX&X&X&XH.W.W.:XZ..X.X.X:X.X.X.X:X).).1.:.wX4Xu.@.U w ` f L &.*.*.*.&.&.L L &.s s s &.&.&.&.*.6.9.-XlXlXlX-XyXqXjX,.' ,.,.,.n.G.rXrXgXgXgXAXgXrXG.n.%.R R R %.C.*XbX5.mXH.mXmXH.H.H.mXH.4XwXH ......&.s &.L q.L L f L &.&.&.*.&.s s J x w x x ..9.9.*.-.y.*X;X;X{.-.OX(.OX,Xn.%.%.n.n.G.,X-.k.*.k.&.&.&.&.&.&.&.&.&.f &.f L f L L L L L L &.L &.L f J m m w d.j.d.w m _ J L L f f j.j.d.w Q ~ u.{ M.dX.XZ.&X&XdXM.M.wXwXd.M.dX&XW.:X&XdXM.dX&XZ.W.W.4XM.d.d.w ` j.j.w wX4Xu.S.w j.f ` f j.j.d.bX4X4X4XH.H.mXc.=.S.bX..6.*.k.*.6.#XS.bXbXbXbX4X4XH.H.H.S.j.` J J ` j.j.j.j.w bX~ bXw d.j.j.d.d.wX4XH.4X{ M.d.wXwXM.M.4XW.W.W.&XdXdX&X5.H.H.wXM.wX4XdXdX%XZ.W.Z.4XwX:.u.m j.9Xq.L &.&.&.&.L &.L L q.L L L j.w U ;.4XwXdXW.W.Z.&X&XdXdX4X4XM.M.dXH.W.W.Z.%XdX%X%XZ.Z.W.Z.dXM.M.wX4XwXM.M.wX4XH.5.:.wXj.j.` ` d.d.H m U S.~ H j.j.j.j.j.H x _ ..s &.*.9.#X#X6.*.&.&.L L L s J J f j.d.{ 4X4XdX&XH.H.&XdXdXdXH.",
"k.{.G.n.R %.C.C.|.*X-.k.6.(.(.OXb.{.{.;X{.y.-.-.f.*X*X,X,X*Xf.6.9.6.y.|.G.jXqXqX,Xy.*.cX0XS.wXd.d.M.H.W.&XZ.Z.d %X%XZ.W.%XdX%XZ.W.Z.Z.%Xd Z.W W %X%X%X%X%X%X&XZ.W.W.Z.Z.:XW :X:X.X%X:XPXQ.Q.1..X4X:.5.;.{ d.d.` f f f s s L L L L L L L L L L L f s *.*.*.6.9.(.-.qX,.F ' F ,.F R %.G.gXAXAXDXAXDXAXyXrXn.R R R %.C.|.gXbX0XmXmX1.1.mX5.mX5.4XwXj.f #.#.*.&.&.&.s &.&.s *.&.&.&.*.*.*.&.s ` H H J J ..6.6.h.*X|.C.C.C.G.qX1XyXb.qXR F R F R %.C.,X-.k.k.k.k.&.&.&.&.&.&.&.&.L L L L L L L L L &.L &.L L f ` w ~ { wXd.d.d.bXS.+.H f ` j.j.j.d.w ~ u.@.{ M.{ .XW.&X%XdXM.wX{ wXM.M.dX&XW.Z.%XdXdXdX%XW.o.:X4XM.d.wX~ d.d.d.wX4XH.u.4Xd.j.j.j.j.j.j.wX4XH.4XKX&X&XH.1.1.5.S.bX` J #.bX@.0X0X@.S.4X4XH.H.4XH.@.bXj.` m +.m ` j.j.j.d.bXS.S.wXwXd.d.d.d.wX4XH.H.&XdXM.wX{ dXwXdX&XW.W.Z.&XdX&X5.1.5.4XwXwX4X&XdX%X&XZ.Z.&X4X;.@.+.s L &.&.&.&.q.&.&.&.q.L L q.f j.j.w u.5.4XdX%XW.W.Z.%X&X&X&XH.dXM.dX4XH.W.W.Z.%X%X%X&XZ.W W.&XdXdXdX4X4XM.dXwX4XH.5.H.4Xd.d.w wXw d.wXU U U ~ w j.j.j.d.d.bXS.S.S.J L L L &.#.#.#.&.L L L L f s x _ H j.d.wX4X4XdX&X&XZ.&X&XdXdX&X",
"k.;Xn.R R %.%.%.C.,X-.(.OXb.;XqXqXjXqXqXqX{.b.{.,X|.C.C.G.C.rXy.h.-.,X%.%.R R n.C.,Xq.S.0X5.H.4XwXdXH.W.%XZ.W d p %XZ.W %X* %XZ.W Z.d %Xd , W W d %X%X%X%X%XZ.Z.W.. W Z.W g g :X%X%X.XZ.:Xo.o.:X.X.X1.:X4XwXd.d.` f f f f f L f f L L L L f L L L L L &.&.*.6.k.{.C.R F F F F R R %.rXAXDXDXDXDXAXAXAXrXn.n.n.%.C.rXAX` S.mXmXmXc.c.1.5.H.4XwXj.j.L &.k.h.h.h.&.k.*.6.6.6.*.h.h.h.k.&.&.&.f f j.L f *.*.*.-.,XC.%.R R R R jX1X1XqX,.F F F F R %.,X-.k.(.k.k.k.h.k.*.&.&.&.&.L L f L L L L L L &.L &.&.L L j.H Q 4X4XwXM.M.wXU u.~ H d.d.d.d.d.w ~ pXpXU { :..X:XZ.&X&XdX4Xu.wXM.wX4XZ.W.Z.dXdXdX%XZ.W.W.H.dXM.M.wX4XwXM.wX4XH.5.H.wXd.j.j.d.j.j.d.wXH.H.&X&X&X&X&XmXmXmXmX4Xd.j.j.bX@.0X0XmXH.mX4XmXH.H.H.H.wXj.j.w U S.~ H j.kXj.d.bXS.4XwXwXd.wXM.M.dX&XZ.Z.&XdXdXdX4XdXdX&XW.W.W.H.4X4X5.5.=.u.wXwX&X&X%X%X%XZ.Z.&X4X@.=.+.s &.q.&.&.&.q.&.&.&.&.q.L L L j.j.wXH.5.&XdX%XZ.Z.Z.%X%X&XZ.Z.dXdXdX&XZ.W.W.Z.%X%X%XZ.W W Z.%XdXdX&X&XdXdXdXdX&XW.W.H.dXM.M.wXwXwXwX4Xu.u.{ wXj.kXkXd.wXwXU u.S.bX` 9XL L L L q.L L L q.L L L L J +.m d.j.M.dX&X&X&X&XZ.Z.&X&X&X&X",
"-X-.,Xn.%.%.C.C.C.|.,X{.,Xn.R R F ,.R R n.qX1XqXC.%.R R %.%.C.|.rXrXrXG.n.%.R R %.G.f.#X0X0X5.H.4XdXZ.W.Z., W Z.p p d W Z.%X%XZ.W , d p 9 , W , d d Z.d %X%XZ.W . g , 9 W g g Z.%X.X1 * %XZ.g W.Z.W.o.1.:X:.{ Q d.` j.f f L L f ` f f L f f L L L L L L L *.6.6.f.|.n.R ,.F R R R %.rXAXDXDXAXAXAXgXrXG.n.qXqXrXgXDXbX@.mXmX5.c.c.c.H.4X4XwXd.j.s *.q.y.;X,X;X{.y.-.k.-X-XOXb.;X{.{.-.h.&.&.L L q.q.&.*.6.k.{.qXn.R R R F F jXqXjX,.F F F R R jX1XyXOXyX-.-.-.h.k.k.&.&.&.f L f L j.j.L L L L f s J s f L j.j.M.{ :.:.4XwXwX4X:.:.{ Q d.d.w H H FXsXsXJ.FX4.;.:X:X&X&X4X;.u.{ M.dX&XW.W.%X%X* %X%XZ.W.W.Z.dXM.wX4X4XwXwX4XH.H.5.4XM.d.d.d.d.d.wXwX4XH.H.&X&X&X&XW.W.W.mX1.mX4Xd.d.wX4XH.mXmXmXmXmXH.H.mXH.S.d.kXj.d.~ u.@.U wXd.j.d.wX4XS.4X4XwXwXwXM.dX&XZ.W.Z.&XdXdX&XdX4X4XH.H.4X4XwXw bXbXbXS.{ 4X&XZ.%X%X%XZ.Z.4X4X@.XX#.q.f.-.-.h.h.h.h.h.h.&.*.*.q.L j.j.wXH.5.&XdXZ.Z.W Z.%X%XZ.W.W.&XdXdX&XZ.W.W Z.%X%Xp Z.W W Z.%X%X%X&XZ.&XdXdX&XW.W.:X&XdXM.wX4XwXwX4X4XH.4XwXd.kXkXd.M.4Xu.H.S.U w j.j.L f L L q.L q.L L L q.L L L x ~ w d.M.M.&X&X&X&XZ.Z.&X&X&XH.",
"lX(.{.G.C.C.|.C.|.|.G.C.%.R F F nXF F F R jXqXqXjXn.R ,.n.%.C.|.rXrXrXgXrXG.n.R %.G.-.9.=.0X5.5.H.&XW.W.Z.W W 9 p p 9 , W 9 d 9 , , d p , , , 9 d d 9 9 d d , . X X 9 d , W W Z.%X%XT M.dX%XZ.Z.Z.:XtX).).1.:.wXd.d.d.j.j.j.f ` ` ` f j.L j.j.L kXL L L &.s #.6.&.y.,XqXqXjXjXn.n.%.G.rXgXgXAXgXrXG.G.n.jX1XOX-X#XS.0Xc.c.mXmXmXc.H.4XwXd.d.` J ..*.y.|.%.%.%.n.n.qXb.OXOX;XjX%.%.n.|.;X-.k.*.&.L L L &.*.6.h.b.;XqXjXjXjX,.F ,.,.n.n.,.R R n.qX1Xb.1X,XG.qX,X{.h.k.k.&.&.&.L f f f j.f j.j.f ` x x J ` j.j.j.d.wX4XH.H.4XdXwX4X.X:.4Xd.H x _ SXHXJ.IXHXFXFX4.pX:X.X:.:.;.u.{ M.dXZ.W.W Z.%X1 d d Z.. W.&XdXdX4X4XdXdXdX&XH.5.H.4Xd.M.wXwXwXwX4XH.H.4X4X4XdX&X&XW.mXW.mX1.c.mX4XwX4X4XH.mX1.c.c.mXmXmXmXS.wXd.j.j.j.wXU ;.;.4XwXd.d.d.wX4XH.4X4XwXdXdXdX%XZ.W.W.Z.&X&X&X4XH.H.u.bXj.9Xg.g.*Xg.9X` ~ 4XH.W.Z.%X%XZ.W.H.U S.#.y.,X,X,X;X-.OXOX-.-.-.-.k.6.&.L L j.wXH.5.&X%XZ.W Z.Z.d %XZ.W.W &X%X%XZ.Z.W . Z.p 1 d 9 W W Z.%X%XZ.Z.&X%X%XZ.Z.W.W.Z.%XdXdXdX4XdX4X4XH.4XwXM.M.M.M.wX4XH.5.H.4XwXj.j.j.` J s L L L q.L L L q.q.9XL ` m ~ wXM.M.dX&X&XZ.W.W.H.H.4XS.",
";XrXrXrXgXgXBXBXgXgXrXG.n.n.,.R ,.F F R F n.1Xb.1XqXn.,.n.n.rXrXgXgXAXAXAXb.G.n.n.;Xk.6.9.@.=.H.4XH.W.W.Z.. W 9 p d 9 , ; , 9 9 , W 9 p , , , d d 9 , d p 9 , X ; , d 9 , 9 d Z.Z.%XdX%X%Xd Z.Z.:Xg Z.W.o..X4XM.d.d.Q d.` H ` ` ` f f ` ` ` ` f H ` f s s s &.&.6.9.-X-X(.OXb.qXn.%.%.n.G.G.G.n.%.%.%.R n.qXb.#X0X0XmX0Xc.mXc.mXH.wXd.j.d.j.` s 9.*.{.C.R R F F F ,.jX1XqXjXR R R R %.G.;Xh.k.&.&.L q.q.&.*.k.(.OX(.OXyXb.qXn.R n.qX1X1XjXn.jXqXqXjX,.R R R %.|.{.h.k.&.&.L L f f ` ` ` j.f ` H m m m H j.j.j.d.M.4XH.5.H.4XdXdX.X;.:.w ` _ J.HXLXLXLXLXLXLXSXFX4.U :.u.pXsX~ Q { Z.W.W Z.p p 9 d 9 . W %XdXdX&X&XdXdX%X&XW.:XH.dXd.wXwXwXwXwX4XH.H.wXd.M.dX&X&X&XZ.W.o.c.c.c.c.mXH.H.H.mXc.c.c.mXmX0XH.wXd.d.wXwXd.d.wXH.5.H.4XM.d.d.M.4XH.H.4X4XdX&X&X%XZ.W.o.W.H.H.H.5.=.=.S.L *X|.C.C.C.C.|.9XbXu.H.W.Z.&XZ.W.W.5.S.s *XC.%.%.n.G.1XyXb.,XG.C.,Xy.h.&.q.9Xj.wXH.5.&X%XZ.W , d d d Z.W g Z.%X%X%XZ.W . , d p d 9 , W W 9 Z.d %X%X%XZ.Z.. g W.Z.%XdX%XdXdXdX4X&XH.&XdXM.M.wX4X4X4XH.5.H.wXd.kXj.H w m J L L q.q.q.&.q.q.q.L f f w U 4XwXM.dX&X&X&XW.H.H.4X` 9X",
"n.G.gXgXgXBXAXBXAXAXgXrXG.%.R F R R R R %.C.{.-.OXyXb.1XqXG.rXgXgXBXgXAXAXyXrXn.n.qX,X,X,Xf.` { H.W.g W.W . , d p d 9 9 , , , , , > , , > , 9 p p d 9 9 9 , , , W , 9 9 9 d Z.Z.W %X%X%X%XZ.Z.W g g :XZ.&X&X4X4X{ { Q w H H H H ` H ` H H H H H H H H J J s s &.*.6.-X-XOXb.qXjXn.n.%.%.n.n.n.%.R R R n.R n.G.f.bX@.mXc.mXmXmX1.4Xd.j.j.j.` j.s 6.k.y.qXR F F ,.F R n.n.G.n.%.%.%.R %.C.;Xk.*.*.s f L j.L *.k.k.(.OXyXb.b.1XjXG.1XyX(.(.OX1XqXjX,.,.,.R F R R %.,Xy.k.*.&.L f x m w w ` j.kXj.d.w ~ S.U Q d.d.M.M.dX4X:X:X.X4X{ :.pXpX+.SXHXHXIXLXaXaXr.aXLXLXIXsXsXFXFXJ.J.FXFX{ .XW.W , Z.d d d Z.. Z.%X%X&XZ.&XdX%XZ.Z.W.Z.&XdXdX4XwXwXwX4X4XH.4XM.kXkXM.dX&XZ.W.&XW.mXmXmXc.c.1.mXH.mXc.).c.c.mX4XwXj.j.d.bX4XwXM.wX4X5.H.&X4XdXM.M.M.4XH.H.dXdX&X&XH.W.1.1.5.@.@.S.S.cXcX*.;XC.R R R %.%.C.y...@.`.1.H.H.H.H.5.=.S.q.,XC.%.R R n.qXqXjXn.%.%.G.{.h.&.&.q.j.d.4XH.Z.Z.W.W W 9 d p d W W Z.Z.Z.9 Z.W W , d d 9 , , , 9 d %Xd 9 %Xp Z.W W W W Z.Z.%X&X%X%X&X&X&XW.dXM.M.M.4X&X&X.XW.H.4XM.d.d.wXU ~ H f L L L q.q.&.q.q.q.L L j.j.Q 4X4XdXdX&X&X&XH.4Xd.g.|.|.",
"%.G.gXAXgXgXBXgXgXAXgXrXG.n.n.jXjXqX,X;X-.&.*.6.*.OXyX1XqXG.rXgXAXAXgXgXAXgXqXn.R n.n.%.C.|.g.d.4XW.W.Z.W W W d d d 9 9 , , , , > , > > > , d p p d 9 , , , , , , , , 9 d d Z.W Z.%X%X%X%Xd Z.. g g . Z..X.X.X;.;.U ~ w H H x x x x x x x x m x x x J J J s #.*.*.k.(.OX1XjX,.R R R R n.qX{.qX%.R R n.,.R R C.f.bX@.mXmXmX1.mX0X4Xd.j.j.j.f L q.*.k.OXb.1XjX,.,.R n.G.qXrXG.C.%.%.%.G.,XOX-X6.#.#.` f L L &.*.k.-.;XqXqXqXjXn.n.1XyX(.-X(.yXqX,.F F ,.F F R R %.C.;Xk.*.&.L j.` w m m w d.j.j.d.d.wXu.u.4XwXwXwXwXM.dX.X:X:X:.:.4.sXsXJ.HXHXIXLXaXr.U.U.r.aXLXIXIXIXFXLXFXLXSXFX4..X:X. W 9 d Z.d Z.W.Z.%X&X&XZ.Z.%X%X9 W W Z.%XdXdX4X4XdX4X4XH.H.4XM.kXd.M.dX&XW.W.&X&XdX&XH.1.1.c.1.H.5.c.mX5.H.4Xd.j.` d.w wXbXwXwXdXdXH.W.Z.H.&XM.M.M.dXW.W.&X&X&XH.mX5.u.bXj.q.f.y.f.h.(.b.G.n.R R R R %.|.-.#X0XhX0X5.4XwXd.j.s &.y.|.n.R R ,.,.n.jXjXjXjXqX,X{.h.k.q.q.kXd.4XH.W.Z.W . W , d p d , W , , 9 9 , W W , 9 9 9 , > 9 d p p d 9 d d , W W W W , Z.Z.Z.Z.%X%XZ.Z.&XdXM.M.dX&X&XH.&XW.H.dXdXM.wXwX{ wXw x J s &.q.q.q.q.q.9Xq.f j.j.d.4X4X4XdX&XW.W.H.wX$X|.%.R ",
"n.G.rXgXgXrXgXgXgXgXrXG.n.jXjX1Xb.OX(.#X].].].sXHX-.;XqXjXn.G.rXrXgXgXgXrXG.jX,.F F R %.%.C.*Xd..Xo.g W.W W W , 9 9 , , , , > , , > , , > , 9 d d 9 , , , , , , , , , 9 9 9 , W Z.%X%XZ.d d , W g . Z.W.W.:X5.5.;.U Q w H H x x J J J H H x x x x H J J s s s *.*.*.h.{.qX,.R R R R n.,Xh.HX-.|.%.R R R R G.,X&.bXS.H.H.mXmXmX5.wXj.j.f s f &.q.k.k.(.OXyXqX,.R R G.1Xb.gXgXrXrXG.C.G.{.OX-X9.6.#.s f L q.&.*.k.{.G.n.%.R R R %.G.rXb.b.AX1XjX,.,.,.jXjXjXn.R %.C.,X&...J ` j.j.` w ~ ~ wXd.d.d.d.wX4XH.4X4XdXdXdXdXdX4X:X:X.X4.FXJ.FXHXLXLXLXaXaXU.aXU.aXaXaXIXIXLXaXLXLXLXLXSXFX.X:Xg W Z.%XZ.Z.W.W.W.Z.Z.Z.W.W.Z.9 W W W W Z.%X%X&XdX4X4XH.H.H.wXM.M.M.dX&X&XW.Z.&XdXdXdX4X5.H.5.0X5.mX@.S.wXd.d.j.j.H bXbXwXwX4XdXdXdX&XW.W.Z.&XdXM.dXdXZ.W.Z.&XW.H.H.bX9X*X|.G.C.C.G.,X,X,XG.%.%.%.R R %.qX-.-XcXcXS.S.J $X*X*X,X,X,XG.jXqXqXqXjXjXjXqX1X1Xb.yXh.h.k.q.q.j.d.{ H.W.W.. W W 9 d p d , W W , 9 9 , W W , 9 9 , , , 9 d p d d 9 9 9 , > > W , W , , 9 9 Z.Z.Z.Z.%XM.M.dX&X&XZ.W.Z.W.Z.%XdXdX4X4XwXwXS.+._ #.*.&.&.q.q.q.q.L ` ` j.d.wX4XH.&X&XW.5.H.d.g.C.%.R ",
"jXjXG.G.rXrXrXrXrXrXG.n.,.jXjX1XyX-Xt.^.T.l.xXe.FXy.|.n.n.%.%.C.G.G.G.G.G.,.F F ' ,.n.|.|.*Xj.;.tXQ.D.g W W W , , 9 , , , , , > , , , > > , 9 9 9 , W W W , , , , , , , , , W Z.9 1 %Xd d 9 , W W W Z.W.o.o.:X;.4XQ w w w J ` ` ` ` ` ` ` ` H H H J ` s f f &.&.&.*.-.;XjXR R %.%.C.,Xq.J.].J.f.,X|.C.G.qX;Xh.#.bXbX4XH.mX5.c.H.bX` f s s &.&.&.k.k.OXyX1XqX,.R R qXb.AXAXgXgXgXgXG.G.rXb.-.k.*.*.&.L L q.&.6.k.{.G.R R R R R R %.G.rXrXG.G.,.jX,.jXqX1Xb.1XqXG.|.*X&.9.+.m H d.j.d.wX{ 4XwXwXwXM.wX4XH.H.&X&X&XdX4XdX:.:X:X4.FXLXLXLXLXLXaXaXaXaXaXaXaXaXaXIX[.aXaXU.r.aXLXLXSXFX.X:Xg W.&X&XZ.W.mXW.Z.&X&X&XZ.W.Z.Z.W W , 9 9 %X&X&X&X&XH.H.H.&XdXM.M.dX&X&XW.W.&XdXM.M.dX4X4XwX4XH.5.@.S.d.j.j.j.j.f J m S.U 4X4X&X&X%XZ.W . Z.%XdXdXdXdXZ.W.Z.Z.H.H.wX9X|.C.n.R F R R n.C.G.C.C.G.C.n.n.n.G.1Xb.-.-.-.q.f.*XC.C.n.n.jXjX1Xb.b.1XjXjXjX1X1XyXOX(.OXk.k.q.L j.d.wXH.W.g . W , 9 d d d , W W , , , W W > , , 9 , , , 9 p p d 9 , , 9 , > > W , , , , Z.9 9 9 Z.Z.* dXdX%X%XZ.Z.o.W.W.Z.%X%X&X&X4X4X4Xu.~ x s #.#.#.#.&.L L j.H w d.d.wX4XH.H.&XH.1.5.bX9X|.n.R ",
"qXn.n.n.G.G.C.C.n.n.n.,.F ,.,.jX;Xh.#X^.l.xXxX>.sXq.|.n.n.C.C.C.C.C.%.n.,.,.' ' ,.jX,Xh.HX+.`.).i.z Q.g W , , , , , , , , , , , > , , , , , , , , , W W W , , > , , , > > > W , d 1 p d 9 , , , , 9 , Z.W.W.H.4XwXd.d.H w H ` f f j.j.f j.f ` ` H H ` f L L L L &.&.k.b.,XG.C.|.,X*Xq.FXp.>.p.4.SX&.-.y.-.k.*.#.w wXwX4XH.mX5.S.bX` f f &.&.&.&.k.h.{.,XjXn.R R %.G.;XgXAXgXgXAXgXrXG.G.G.G.;Xh.k.&.&.q.h.h.(.(.yX,Xn.R F R R R R G.rXrXC.%.n.,.,.,.qX1XyXyXb.{.y.f.s +.S.S.~ wXd.j.d.wX4X4X4XwXwXdX4XH.W.Z.&X%X&XZ.&X.X.X:XFXSXLXLXLXaXaXaXaXaXaXaXaXLXaXIXaXaXU.U.U.r.aXLXLXSXFX.X:XW.&X&XKX&XmXmX&XKXKXKXKX&XZ.Z.Z.W , 9 9 , 9 Z.%X&X&XH.W.W.dXM.M.dX&X&XZ.W.W.&XdXM.dX&X4XM.M.wXH.5.@.S.j.9Xj.j.j.j.j.H ~ ;.H.H.&XZ.Z.Z.W . W Z.%X%X* dXZ.W.Z.Z.&X4Xj.|.%.%.,.' ' F R n.G.rXrXrXrXrXrXG.jXn.n.jXG.G.G.,X;X;XG.n.,.,.n.qX1Xb.b.1XqXjXjXjXqXb.OX(.k.h.&.q.L j.j.M.4XW.o.. W , 9 d d 9 , > W W , , W > > , , , , , > 9 p d 9 , , , , , > , , , , , , , , , 9 9 Z.* T %X%X%XZ.W . W W d %XZ.Z.Z.Z.H.H.4XwXj.j.j.#...J J ` j.j.d.wXwXM.dX&XW.W.&XH.1.c.@.#.y.G.%.",
"G.n.R R %.%.%.%.%.R ,.,.,.F F R C.,X&./.e.xXxXxXe.sX*.-.{.{.{.{.;XG.n.,.F ,.' ' nXjX-.t.T.T.xXi.i.K.D.W , W , , W W W W W W , , , , , , > , , , , W > W , , , > , > , > > > W , d p d 9 , , , 9 , , , Z.W.:XH.dXM.d.d.d.d.` j.j.j.j.j.j.j.j.j.` H H ` f L L L L L L *.*.k.h.q.&.SXSX4.sXp.e.oXe.p.p.P.9.6.6.*.L j.d.wX4XH.5.5.4Xd.` f L f s *.*.*.f.,XC.R F F R R n.G.rX;XrXgXgXrXG.n.%.%.%.G.;Xh.k.&.q.k.k.k.(.OXb.qXn.R R R R n.rXb.;XC.%.n.,.,.,.n.qXb.OX(.k.&.L ` w U u.u.4XwXd.kXM.4X4X4XdXdXdXdXZ.W.Z.Z.Z.%XZ.Z..X.X.X4.SXLXLXaXaXaXU.aXaXaXLXIXIXIXIXaXaXU.U.A.aXaXLXLXSX4..XW.&XKXKXKXKXKXmXKXZXZXZXZXKX&XW.Z.W , 9 9 , , W Z.%X&XW.W.&XdXM.dX&X&XZ.W.W.W.&XdXdX&X&XdXM.wX4XH.5.@.bXj.9Xj.q.j.9Xj.j.Q ;.5.W.Z.Z.9 9 W . W , Z.%X%X%XZ.W , Z.&XwX$X|.%.n.,.' ' ,.,.G.;XgXgXBXBXgXgX1XqXn.R R R %.%.C.,XyXb.1XjXjX,.jXqX1X,XG.n.n.R %.G.;XyXOXh.h.q.q.9XkXkXd.dX.Xg W W 9 9 9 9 9 , > > > W , > > > , , , , , , 9 d 9 , , > > , 9 , , , , , , , , , , , , 9 1 %X%Xp Z.W . W W W 9 d 9 W W.W.o.H.wXd.kXkXj.` w bXw w wXd.d.wXwXdXdX&XZ.H.&XW.1.0X=.#Xh.,Xn.",
"C.%.%.%.R %.C.|.qXn.,.,.,.F R %.C.*XL XX`.>.xXxXxXl.T.^.w.lX-X-XyX1XjX,.,.' P P R jXh.^.xXxXi.K.Q.D.W 9 9 , , , > > , , W W , , , , , , , , , , , W W W W , W > , , , > > > > , 9 d , > , 9 9 9 , W , W W.Z.&XdXM.d.d.d.d.d.d.` d.d.d.d.d.d.d.d.d.w H d.j.j.j.j.j.f J +./.]./ p.p.p.PXPXoXPXPXoXx.>./ XXJ L L 9XkXj.wX4XH.mXH.wXd.j.j.L L f s s s q.*X|.%.R nXR n.jXG.G.G.G.G.G.n.G.jXn.R R %.|.-.k.k.&.k.k.h.k.(.OXb.,XjXn.%.n.rXyX(.AX|.%.%.R R R R %.G.{.k.*...x H d.wX4XH.H.4XM.M.M.dX&X&X4XdX&X%X%XW.W , 9 d Z.Z.Z.Z..X:.FXLXLXLXIXaXaXaXaXaXIXIXIXIXIXaXaXaXaX[.IXIXIXFX4..XW.&XKXZX8X8XZXZXZXZX8X8X8X8XZXKXmXW.W.W W , , , W 9 %XZ.Z.Z.%XdXM.dX%XZ.Z.W.g W.&X%X&XZ.&XdXdX&XH.5.H.4Xd.j.9X9Xj.9X9XkXkXM.4XH.W.Z., 9 , , W W W 9 d %X%X9 9 Z.W W.4Xj.*XC.n.,.' ' ,.,.qXAXAXAXAXBXgXAXb.qXn.R %.%.%.%.C.,X(.OXb.qXn.R R %.G.G.C.%.%.%.%.|.y.h.h.q.q.q.9X9XkXkXkXM.&XW.W , , , , 9 9 , > > > , > > , > , , , , , , , 9 , > > > , > 9 , , > , , , , , , , , , , 9 d d d 9 W > , 9 , , 9 , . g g W.&XM.M.d.d.d.d.wXwXbXwXwX4XwXdXdX&X&XH.Z.Z.W.H.5.S...q.y.,Xn.",
"C.C.%.%.%.C.,Xk.k.{.jX,.R n.C.C.|.9XbX=.`.'.Y i.xXX.Z Z 8.w.-XOX1XjXjXjXjX,.,.,.n.,Xs '.>X).D.D.W 9 d d d 9 9 9 , , , , , , W W > , > , , , , , > > W W W W > > , , , > > > , , 9 9 , > , 9 9 , , , , . W Z.&XdXM.M.wXwXwXbXwXwXwXQ wXM.{ { { { { wXwXwXwXwXd.d.w w Q @.'.Y >.>.! oXoXoXPXPXPXPXPXPX;.w j.j.j.j.j.d.wX4XH.H.H.d.j.kXj.j.j.j.j.j.J x L y.,XC.n.n.,X-.{.G.%.n.n.n.n.qXqXqXn.n.%.,Xh.*.&.q.q.q.q.k.k.k.OXh.b.,X|.,Xh.lXcX#XgXC.C.%.%.%.%.%.G.y.q.&.J bXwXwXwX4XH.H.&XdXdXM.M.&XZ.&X&X%X&XZ.Z.. W , 9 d d %X%X.X:XsX4.J.IXIXIXIXaXaXaXIXIXVXIXaXaXaXaX[.[.IXw.p.sXpX:XW.&XKXZX8X8X8X8XZX8X8X8X8X8XZXKX&X&XW.W.. W W , , 9 d 9 Z.9 p T T * %Xd Z.W g W.Z.Z.Z.Z.&X&XW.W.mXH.H.bXj.kX9XkX9X9XkXkXkXd.dX%XZ.W , 9 9 , , W W W 9 d d 9 9 9 . o.W.4X9X*X,XjX,.,.,.,.G.b.AXAXAXAXgXgX1XqXjXn.%.%.C.|.*Xh.6.-.qXn.R R %.G.rXgXrXC.C.C.|.y.q.&.q.q.L 9Xj.kXkXkXM.M.%XZ.W , , , , > , 9 , > > W > , > , , , , , , , , 9 , > , > > , , , > > > > > > > > > , , , W 9 d , W , 9 , 9 , 9 , W . . . W.W.&XdX4XdX4X4X4XH.H.4X&XH.H.H.Z.W.Z.Z.W.W.o.H.bXj.*XC.%.%.%.",
"g.|.C.C.|.y.#.].^./.*.f.f.f.9X9Xj.wX4X5.5.5.`.`.'.>XX.8.#X;X|.jXn.,.,.,.$ 1X1Xb.-.*.P./ ).1.:XW W 9 9 9 9 9 9 d d 9 9 9 , , , W W > > > > > > > , > > > > > X > > > , , , , , > , , , , , , , 9 9 , , , Z.Z.Z.H.H.H.5.5.5.1.5.1.5.W.5.:X:XW.:X1.5.H.5.H.H.5.H.5.H.5.H.5.).i.i.B ! Q.PXPXPXoXPXoX! Q.:XU Q Q bXbXwX4X4XH.H.mXH.dXM.d.w w w ` d.w @.`.=.XX_ q.y.f.J.].9.;Xn.R R R n.qXb.OXh.f.y.f.q.f j.j.j.j.j.9X9Xq.q.&.k.h.q.&.bXcX0X0X0X#.gXrXC.%.C.|.y.h.#.bXbXwX4X4XdXdX&XZ.Z.&X%XdXM.%XZ.Z.%XZ.d Z.W ; > , 9 d d p p d :X:XpXsXsXt.IXIXaXU.aXaXIXIXLXaXaXU.U.U.aX[.IX4.4.pX:XW.W.&XKXZXZX8X8X8X8X8X8X8XZXZXKXKXKXKXZ.W W W , 9 9 9 9 , 9 d 1 * 1 p d , W W W W Z.Z.Z.Z.Z.W.o.W.W.H.4Xd.d.d.j.j.` d.d.M.M.dX%XZ.W , , , 9 9 , W W , 9 9 9 , W W . W.1.@.S.9.OX1X,.F F n.qX1XgXgXgXrXG.G.n.G.G.,X*X*Xq.bXS.#.*XC.C.C.C.|.y.6.#X*.f.9Xq.#.bXS.S.bXw w wXwX{ wXdXdXdX%X, W , , > > , , 9 , > > , > > > , , , , 9 , 9 9 , , , > , > , , , > , > > > > , , , > , , > , , > > 9 d , , 9 9 , W W W W g o.o.W.Z.W.H.mXW.mXW.W.&XW.W.W.W.W.W.Z.W.o.1.4XkX|.C.%.R F F ",
"d.j.9Xq.s x XX'.T.l.e.p.p.p./ ;.:.4XH.H.H.4Xw ` ..P.].].6.|.C.%.%.R n.n.jX1X(.-X-X6...+.@.5.H.W.W W , , 9 d d 9 9 d 9 9 9 , , , > > > > > > > > > > > > X ; X > W , , , , , > , , , , , , 9 9 9 , 9 9 d %X%X&X&XZ.H.H.&XH.H.H.H.Z.H.Z.Z.Z.Z.W.Z.Z.Z.W.H.W.H.W.5.H.W.W.W.o.tXQ.PXQ.oXPXoXoXPXoXQ.Q.PX:X:X5.5.5.5.5.5.1.W.W.W.o.H.H.H.u.;.u.:.:.;.`.).Y Y './ sXpXT.l./.f.C.%.%.%.%.G.y.6.#X..J w w wXd.d.wXwXd.w wXbXbXbXS.S.S.S.0X0XmX0Xc.0X#X9.*.k.DX#.bXbXS.S.u.4XH.H.&X%XZ.W.W.Z.&X%XdX%XZ.Z., 9 9 , W . , 9 , 9 9 9 d d Z.:X:XpXsXFXIXaXU.U.U.aXaXIXaXLXaXU.U.U.U.aXLXFX4.:X:Xg o.mX&XKXZXZX8X8XZXZXZX8X8XZX8X8X8XKX%XZ.W W , , , , , > > 9 p p d d 9 , W , 9 Z.9 Z.W W.W.W.W.W.1.1.H.4X4XS.U U u.:.4X4X&X%XW W W , , 9 9 , , W > W , 9 , , > X g W.5.`.=.9.b.G.,.F F F n.jXG.jXn.n.n.%.%.G.;X&.bXS.@.0X0XS.` 9X*Xf.q.#.#XcX0X=.S.S.@.H.@.H.H.H.H.H.5.5.5.W.W.Z.%Xd W > W , > > > , 9 , > , , > , , , , , 9 , 9 9 9 , , , , , , > > , , > , > , , , , , , 9 , , 9 , > > 9 , , > 9 9 , , , , W g g . W.W.Z.Z.&XZ.&XZ.&XW.Z.Z.Z.Z.W.W.Z.W.o.W.dXg.C.%.%.R R F ",
".X;.;.pXpXpXpXp.>.xXxXxXxXxXx.Q..X:.&X4XwXkXg.*X,X{.-.OXb.|.C.C.G.G.rXqXG.qXb.yXb.{.y.y.9Xj.wX&XZ.Z.Z.9 9 d d d p d d d d 9 9 9 9 , , , > > > > > > > X ; ; ; X X > > W , , , , 9 d d 9 d d d d 9 d p p %X%X%X%X%X%X&X%X&X&X%X&X%X%X%X%X%X%X%X%X%X%X%XZ.Z.Z.Z.Z.W.Z.W.W.. g g PXPXPXPXPXPXQ.Q.PXPXPX:XZ.Z.H.H.Z.H.W.W.Z.Z.Z.W.Z.Z.H.H..XH..XH..Xo.).i.xXxXxXi.x.xXxXe.+.f.|.C.C.C.|.9XbXu.U 4X4X4X4X4X4X4X4X4X4X4X4X4XH.H.H.mXmXmXmXmXmXmXc.0X0X0X0X0X0X0X0X5.mX1.W.W.W.Z.Z.Z.W.g W Z.%X%Xd 9 , , , 9 , , , 9 9 9 , 9 9 9 9 9 W :X4.FXLXLXaXU.U.U.aXaXIXLXaXLXaXaXaXU.LXLXFX4.:X:XW.o.W.KXZXZX8X8X8XZXZXZXZX8X8X8X8X8XZXKX%X, , , , , , , > > 9 d d 9 9 , , W , 9 9 , W W . W g W.W.W.o.W.&XH.H.H.H.H..XZ.Z.Z.Z., , 9 9 9 9 9 9 9 9 , , 9 d 9 9 9 , W W.5.u.J f.|.n.R F F F ,.jXjXn.R R R ,.n.n.,Xq.S.0Xc.1.1.5.H.4XbXS.@.0X0XmX0XmX1.5.mX5.H.H.H.H.H.H.W.W.g W.W Z.Z.9 W W , 9 , , , , 9 , , , , , , , , 9 9 d d p d 9 9 9 9 , , , , > , , , , , , 9 9 9 9 d d 9 d d d 9 9 9 9 9 9 9 d d d d 9 9 9 Z.Z., Z.d %X%X%X%X%Xd Z.Z.Z.%Xd Z.9 Z.Z.W Z.&X$X|.C.C.%.n.qX",
"o.Q.).i.z K.K.! x.x.x.x.x.x.x.Q.:X.X:.4XkX|.C.C.n.n.jXjXqXG.rXrXgXrXgXgXrXG.jXjXjXn.n.C.|.|.$XM.&X%XZ.Z.d p p p p p p p p p p d d d d d , , , , > , > > X ; ; ; ; ; ; X . W W , 9 d p p p p p d d d p p p p p %X%X%X%X%X%X%X%X%X%X%X1 * 1 * 1 * %X1 p %Xd %Xd Z.9 9 , W W W . . X > PX> PXQ.D.PXX , d %X%X%X%X%X%X%X%X%X%X%X%X%X%X%X%X%X%X%X%XZ.Z.g Q.z x.x.x.xXx.xXxX'.u.j.g.g.g.kXd.4XH.&X&X&X&X&X%X%X%X%X%X%X%X%X&X&X&XH.H.H.mXmXmXmXmXmXc.c.c.mXc.c.mX1.W.W.W.W.o.g . W Z., W W., d 9 9 , , , , , , , , 9 , 9 , 9 9 9 9 W . :X4.FXLXLXU.U.U.aXaXIXIXIXLXLXLXLXLXLXLXSX4.:XPX:XW.W.W.KX8X8X8X8X8XZXZXZXZX8X8X8X8X8X8XT %X9 , 9 9 , , > > > 9 9 9 , , , , , , , , W W W W . W.W W Z.Z.Z.%X%X%X%XZ.%X%Xd p p p p d p p p p p p p p p p p p p p p p %XZ.H.wXg.|.C.%.R R F ,.qXb.1XjXR R ,.n.%.%.C.g.bX5.1.o.1.1.1.mXmXmX1.mX1.mXW.W.W.W.W.Z.Z.&XZ.%X%X%X%XZ.Z.Z.Z.9 9 9 , 9 9 9 9 9 9 9 9 9 , , , , 9 9 9 d d p p 1 p d 9 9 9 9 , , 9 , 9 , , , 9 9 d d d p p p p p p p p p p p p p p p p p p p p p d d d d p p 1 * * 1 p d d 9 d 9 9 9 9 9 W , Z.M.$Xg.*X*X*X-.",
"D.K.i.i.xXx.x.x.x.x.x.x.oXx.x.! PX.X&X4XkX|.C.n.,.F F R n.rXgXgXgXgXgXAXgXG.n.,.F F R %.C.C.g.M.&X%X%X%X%Xp p p p p - - 1 p p p p p p p p d d 9 9 9 9 , , W > . X X ; ; X . . W , d d p p d d 9 9 d d 9 9 9 9 d d d d d p p p p p p 1 1 1 1 * * 1 1 1 1 p p p p p p d 9 9 , W W . W W , > ; ; X > , 9 9 9 9 9 d d d p p 1 1 1 1 1 %X* %X* %X%Xd 9 W D.Q.B x.x.x.x.x.x.x.'.;.wXwXwXwX4X&X&X%X%X%X%X%X%X%X%X%X1 1 1 %X1 %X%X%X%X&XW.W.W.mXmXmXmXmXmXmXmXmXW.W.Z.Z.Z.Z.W W W W , 9 W W W 9 9 , , , , , , , , , , , , , 9 , 9 9 9 . :XpXFXFXLXaXr.aXaXLXIXt.t.J.FXHXHXLXLXFXFXpX:X:Xg W.W.&XKX8X8X8X8X8XZXZX8X8X8X8XZXZXZXZXKX%X9 9 d 9 9 , , , > , , , , > W , , , , , W W W W W W W Z.9 d d %X1 1 %Xp 1 1 1 1 1 1 1 1 1 1 p 1 1 1 1 1 p 1 1 1 p 1 1 p Z..XH.d.g.C.%.%.%.R n.qXOXzX(.;Xn.%.%.R %.%.|.g.wX5.o.W.o.tXtXo.o.mXW.mXW.W.o.W.W W , 9 d d p 1 1 1 * 1 p p d 9 9 9 9 9 9 9 , 9 , , , , , , , , 9 9 d d d p p 1 p p d d d d d 9 9 9 9 9 9 9 d d p p p p p 1 1 p 1 1 1 1 - - - - 1 - 1 1 1 1 p 1 p p p p p 1 * * * * 1 p d 9 9 9 9 9 9 9 9 , Z.%XdXM.d.H _ 9.",
"W D.K.B x.x.x.x.x.x.oXx.oXx.x.! PXp %X4Xd.9Xf.{.qX,.F R n.rXAXgXgXBXAXDXAXG.n.,.,.,.n.C.C.|.$XM.&X%X%Xd %Xp 1 1 - - p - - - - - 1 - 1 1 1 1 p p p p p p d 9 , W . X X ; ; ; X X . , , , , , , W W , , W W W W , , , , , , 9 9 9 9 d d p p p 1 1 1 1 1 1 1 1 1 1 1 1 1 1 p d d 9 9 9 9 d 9 , W W W W W W > X > , , , 9 d d d p p p p 1 1 %Xp 9 W W W W D.K.B x.x.x.x.i.z tX:XH.H.4X&X&X%X%X1 * 1 p 1 1 1 1 1 1 - - - - * * * 1 %XZ.Z.Z.W.W.mXW.mXW.W.W.W.Z.Z.d %Xp d 9 , W , , , W > W 9 9 9 , , , , > , > , > , , , , , , 9 , W g :X4.4.FXLXLXLXLXSXJ.].p.].].sXsXsXsXsXpX:X:Xo.:XW.W Z.KXZX8X8X8XZXZX8X8X8X8XZXZXKXKXKX%XZ., 9 9 9 9 9 , , > , , , > > > W , , , , , , , W W W , 9 9 Z.9 d d p p 1 p p p p p p d d d d d d p p p p d d d d d d d 9 Z.W.H.wX$X*X|.C.C.C.|.-.w.~.w.h.|.C.C.C.C.|.*Xj.:.1.o.g g o.o.o.o.o.W.o.W.W.W.W 9 9 d d p p 1 1 * * * 1 p d d 9 , , , , W W W W , , , , , , , , 9 , 9 9 d d d d p d p p p p - p p p p p p p p p p - 1 - - - 1 1 - 1 - - - - - - - - - - - 1 1 1 1 1 1 1 - - T T T - - 1 p d 9 9 d d d d d p d Z.&X&XH.u.@.S.",
"1 d . Q.! B x.x.x.x.x.oXx.oX! Q.9 1 %X&X4Xu.P.k.,Xn.R R n.rXgXgXgXgXAXgXrXn.,.F jXqX;Xy.f.j.wX4X%X%X%X%Xp 1 1 - - - - - - - - * * * * * * 1 1 1 1 1 1 1 1 p 9 > X X ; ; ; ; ; ; ; X > > > X X X X X X X ; X X X X X X X X X X > > , 9 9 d d p p 1 1 1 1 * * * * * * * * * * 1 1 1 1 1 1 p 9 9 9 9 9 9 , W > > , 9 9 9 , , , , , 9 9 9 d d 9 W g . . . . PXQ.! B x.B B Q.o..XH.W.H.&X%X%X1 * * * 1 1 1 - - - - - - - - - - 1 1 1 1 %X%XZ.Z.W.W.W.W.W.W.W W.W W , 9 d 9 , , , , , , W , , , , 9 9 9 9 , , , , , , , , , , , , , 9 , W .X4.4.FXFXFXFXFXpX/ / '.hXhXhXhXhX'.c.1.o.W.W W.W W.&XKXZX8XZXZXZXZX8X8X8X8XZXKXmXW.W.Z., , 9 , 9 9 9 , > > > > > X > > , , , , , , W , , , , W W W W W , 9 9 d 9 , , , , , , , , , , W W W W W W W W W W W W W g W.5.H.wXj.9Xf.g.f.SXJ.T.X.T.J.L f.y.y.y.9Xd.:.1.o.g W W W W W.W.W.W.W.Z.Z.Z.d p p p 1 1 - - * * * * - 1 p d 9 9 9 9 , 9 9 9 9 9 9 9 9 9 d d 9 d d d d d d d p p p p p - - - - - - - 1 - p 1 - - - - - * * - 1 1 - - * * * * * * * * * * * * * 1 - - - - - T T T - - - - p p p p 1 p 1 1 1 1 %X%X&XH.H.H.u.",
"T * 1 d > PXQ.Q.! ! ! ! Q.PXPX, 1 * 1 %XH.5.@.&.,XC.%.%.%.C.rXrXrXrXG.C.%.R F F jX;Xk.#X=.@.H.&X%X%Xp p 1 1 - - - - - - - - - * * 1 1 1 * * 1 1 1 1 * * 1 p 9 > X ; ; ; ; ; ; ; ; X X X X X X X X X X ; ; ; ; ; ; ; ; ; ; ; ; X > W , 9 d d d p 1 1 1 1 * * * * * * * * * * * T * * 1 1 p p p p 1 1 1 p p p d p p d 9 , , > > X > X X W , W . ; g ; . . . PXD.Q.K.Q.Q.D.o.o.o.o.g W , 9 p - T T T - - - - - - - - - - T - 1 1 * T * 1 %X%Xd Z.W.W.g . g ; ; ; > , 9 9 , , 9 9 9 9 9 , , , 9 9 , 9 9 9 9 9 9 , 9 9 9 9 9 9 9 d p 1 p p .X.X4.4.4..X;.`.5.5.5.c.c.c.c.c.1.).tXW.W.Z., W W Z.%XKXKXKXKXmXKXZXZX8X8XZXKXmXW.W., 9 , , > , 9 9 , > > > > ; ; X > > > > > W > W W W W . ; ; ; ; ; ; . W W W X X > > > X X X X X ; ; ; ; ; ; ; ; ; ; g . W Z.Z.Z.:X5.`.`.pXpXsXp.e.>.xXxX>.e./ /.XXS.@.5.1.o.Z.d p d 9 9 d %X%X%X%X%Xp p p 1 - - - - T T T T T T T T - - 1 1 1 1 1 1 1 1 1 - - - - - - - - 1 1 1 1 1 - 1 - p p 1 1 1 - - * T T T - 1 - - p - - 1 - - - - 1 1 1 1 1 1 1 1 1 * * * * * * * - - - - * - - - - - - - - - - - - - * - - - * * * * %X%X&X&X4X",
"p 1 1 - * p d p 9 9 9 9 d d p * T * 1 %X&X4XwX$X|.C.%.%.%.C.C.rXrXrXC.%.R R R R R |.f.+.5.H.&X%X%Xp 1 1 1 - - T T T T T - - - 1 1 1 1 1 * * - 1 1 1 1 1 1 d 9 W > > X ; ; ; ; ; X ; ; ; ; ; ; ; X ; ; ; ; ; ; X X X X X > W , , 9 9 d d p 1 1 1 1 1 1 1 1 * * * - - * 1 * * * * * * 1 1 1 1 * * * * * * * * * 1 1 p d d 9 , > X ; ; ; ; X ; ; g g ; g . . W W ; ; ; ; g g g g g W , 9 d p - - - T - - - - - - - - - - - - - - * * * 1 1 * 1 d Z.Z., , , , 9 9 d d d d 9 d d d 9 9 , , > > > > , 9 9 9 d d 9 9 9 9 d d p p 1 1 - - - * 1 %X%X%X.X%X.XW.W.H.mXmXmXmXmXmXmXo.o.W.W 9 9 , 9 , Z.Z.W.mXmXmXmXmXKXKXKXKXmXW.W.W W , , , , , , W W . X > ; ; ; ; ; ; ; ; ; ; X X ; X X ; ; ; ; ; ; ; . . . . X X X X X X X X X X X X X X X X X ; X ; > W , d d Z.o.K.i.xXxXxXxXx.oXx.x.x.x.xXi.).`.`.1.o.g Z.p p p d d 9 , W W W W 9 d p p p 1 1 - - - - T T T * * * - - - * * T T * * * * - - - - - - - 1 - 1 1 1 - p p p 1 - 1 - 1 1 1 1 1 - - - 1 1 p - p 1 1 1 1 1 - - - - - 1 1 1 1 1 - - - - - - - - - 1 - - - - - - - - - - * * * * - - - - 1 - 1 1 1 * * * %X&X",
"1 - - - - - - * 1 1 %X* 1 p p * T * 1 %X%X4XwXkXg.|.|.|.|.|.*Xq.&.f.|.C.%.%.R R C.|.9XQ H.&X%X%Xp 1 1 - - - T T T T T T - - 1 1 1 1 %X1 * * 1 1 1 1 1 1 1 p d 9 9 , , W > X X X X X X ; ; X X X X > X X > > W W , , 9 9 9 9 d d p p 1 1 1 * * * * 1 1 1 1 1 1 1 1 1 - * * * * * * 1 1 1 1 1 1 * * * * * - - 1 1 1 1 1 p p d , > > X X X ; X ; ; . . . W W W W . . . W , 9 d d d p p p 1 - - T T - T - - - - T - T - T - - - - - * - 1 p 1 * 1 1 1 p p p p p p p p p p p p p d 9 9 , W > > , , , 9 9 d d d 9 9 d d d p p 1 1 - - - - * 1 1 1 * 1 %X%XZ.W.mXW.&X&X&X&XW.mXW.Z.Z., , , , , W . g o.mXmXmXmXmXmXmXmXZ.W.W.. . > > > > , > W . . ; ; X X ; ; X X > > > X > > > W W , W W W W W W W W W , , W W > > > . X X ; ; X . . . . . . . . . X X > W W . D.K.i.x.x.x.x.x.x.oXoXx.x.x.x.Q.:XW.Z.Z.d p 1 1 p p d 9 9 , W W Z.9 9 d p p 1 1 1 1 - - - * * * * 1 1 * * * T T T T * * * * - - - - - 1 - * 1 - 1 1 1 - - - - - - 1 1 1 1 - * * * * - - - - - - 1 1 1 1 1 1 1 1 1 - - - - - - - - - 1 1 1 1 1 - - - - 1 1 1 1 - - - * * * - 1 1 1 1 1 1 * - * * 1 p %X",
"* T T T - - - T * 1 1 * 1 1 p * * * 1 p %X%X4XwXd.kX9X9Xq.q.s +.+.#.f.|.C.C.C.|.*XL Q :.&X%X%Xp 1 - - T T T - - - T - - - - - 1 1 1 1 1 1 1 1 1 - * * * * 1 1 p p d d 9 9 , , , , 9 , , , , 9 9 9 9 , , 9 9 9 9 d d p p p p p p 1 1 1 1 * * * * * * 1 1 1 1 1 1 1 1 - * * * 1 1 p p p p p p p 1 1 1 - 1 1 1 1 1 1 1 - 1 1 p d 9 , , 9 9 , , , 9 9 9 d d d d d 9 9 9 d p 1 * * - - - - - - - - - - - - - - - - - - - - - - - 1 - T T * 1 1 1 1 1 1 * * - - 1 1 - - - T - 1 1 p d d 9 9 9 d d d d d d p p d d d d d p d d d d p p p d 1 1 1 * * * 1 1 %XZ.W.W.&X&XZ.mXZ.W.Z.p d 9 , > > > > g g o.o.mXmXmXmXmXmX1.o.W.g . > W , , , , 9 W . . . W , , > > , , , , , 9 9 9 9 d 9 d d d d d d d d %Xd d d d d 9 9 , W > X ; ; ; X X X X X X X . . ; ; ; ; X . ; D.K.B x.x.x.x.oXx.x.x.x.x.K.PXZ.Z.%X%X1 * * 1 - 1 p p p p %Xp p p p p 1 * - - - * 1 1 1 1 1 1 1 1 1 1 1 * * * T * * * - - - - - - - * * * 1 1 1 1 - 1 - - * * - - - - - * * T * * * - 1 1 1 1 1 1 p p p p p p 1 1 - - - - - - - 1 1 1 - 1 1 1 - - - 1 1 1 1 - - - - * * * - - - 1 1 1 - - - 1 1 1 * ",
"- - - - - - - - - 1 p 1 1 1 1 * - 1 p p 1 %X%X4X4X4Xu.S.XXS.u.@.@.U x f q.f.q.SXP.pX`.:X%X* 1 1 1 - T T T - T - - T - - - - * 1 * %X1 1 * - - - - - * * - 1 * 1 1 1 p p d d p p p p p d d p p p p p p p p p p p p p p 1 1 1 1 1 1 * 1 1 1 1 1 1 * * * * * 1 1 1 1 1 1 1 1 1 1 p d d 9 9 , 9 9 9 d d d p p 1 1 - - - - 1 1 1 p 1 p p p d p p p p p p %X1 1 1 1 p 1 1 1 1 - T T - - - - - - 1 1 1 - - - - - - - - - - - - - - - 1 * * * 1 - * 1 1 * - - * * - - - - T - - 1 1 p p p p p 1 1 - - - 1 p p d 9 9 9 , 9 9 9 9 , , , , , 9 p 1 * * T - 1 1 1 %XZ.Z.Z.Z.Z.Z.Z.d 1 1 p 9 , > , > > X g g o.W.W.&XZ.W.o.W.W.Z., , 9 9 9 9 9 d d , W W W 9 d d d d d d p p p p p p p 1 1 1 1 1 1 1 1 p 1 1 %X1 1 1 1 p d 9 , > X ; ; ; ; ; ; ; ; ; ; ; ; ; ; X ; ; . . ; D.Q.! ! ! x.x.x.x.x.B B Q.W d d d p 1 1 1 p p 1 1 1 1 1 1 1 1 1 1 1 1 * * * * * 1 1 1 1 1 1 1 1 1 1 1 1 * * * 1 1 1 - - - - * * * * * * 1 * * * * - - - 1 1 1 1 1 1 1 1 1 1 p p p p d d d d 9 9 9 9 d d d p p 1 1 - - - - - - - 1 1 1 1 1 1 1 - - - - - - - 1 1 - - - - - - - - - - - - 1 1 - - T ",
"p p p p 1 - - - p d d d p d p p p d d p p d Z.%XZ.:X5.`.`.1.'.1.`.pXpXp.p.p.p.e.xXi.K.g p 1 p p 1 - T T - - - - - - - - 1 1 1 * 1 * 1 * 1 1 1 1 - - - 1 1 1 1 * * 1 1 1 1 1 1 * * 1 1 1 1 1 * * * * * * 1 1 1 1 1 1 1 1 p 1 * * * * * * * 1 1 1 * * * * * * * * * * 1 1 1 1 1 p d d 9 , , , , , , , 9 9 p 1 - - - - 1 1 1 - - * T - 1 1 1 1 1 1 1 1 1 * 1 1 1 1 * * * - - - - - - - T T * 1 1 1 1 1 1 - - * * - - - 1 - - * 1 1 1 1 1 1 * T * * * - - - - - - - 1 1 1 p p p p p 1 1 1 1 - - - - 1 p d 9 , , > W W W W > > > > > , 9 p 1 * * - 1 p 1 1 * %X%X%X%X%X%X1 * - 1 p p 9 9 9 , , , 9 Z.Z.W.W.Z.Z.W.Z.Z.Z.d d d d d 9 9 d d Z.9 Z.9 9 d p p p p p p %Xp 1 1 1 1 * * * * * T * * 1 1 %X1 * %X1 p p p d 9 , > ; ; ; ; X X X X X X X X X ; . . . ; ; ; PX. ; PXPXPXQ.! B B B B K.D.W 9 , , 9 d d d 9 9 d p p p p d d p p p p 1 1 1 1 1 1 1 1 1 1 1 * 1 1 1 1 p 1 %X1 1 1 1 * - - * T T T T * * * 1 1 1 1 1 1 - 1 p p p p p d d d 9 9 9 9 9 9 9 9 9 , , , , 9 9 9 d p p 1 1 - - - - - - - 1 - - - - - - - - - - - - - - - - - - - - * * * - 1 1 1 1 - - - T ",
"d d d d d d p d 9 9 , , W , 9 9 9 , 9 9 , , , W W g o.tX).i.i.B B B x.x.x.xXxXxXxXx.K.PXp 1 d d p p p p p p d p d d d d d p d p %Xd %Xp p p p 1 1 1 1 1 p p 1 - * * 1 * * * * * * * * * * * * * * * * * 1 1 1 1 1 p p p p p p 1 1 * * * 1 1 1 p 1 1 1 1 * * * * * * * - - - 1 1 p p d d d d d d 9 9 9 d d p 1 - - - - - - - - * * - 1 1 1 1 1 1 1 1 1 * * * 1 1 - - T T T - - - - - - * 1 * 1 %X1 1 1 1 - * * - - 1 1 1 1 - 1 1 1 - - - * T - - - - - - - - - 1 1 1 p 1 1 1 1 1 1 1 1 - - - T - - p d 9 9 , , , , , , , , W , 9 d p 1 1 1 1 1 1 - T - * 1 1 %X* 1 1 1 * * - - 1 p 1 p p p p p p %Xd %X%X%X%XZ.Z., 9 9 9 9 9 9 , W W W 9 d d d d p p p p p p p 1 %X1 1 1 1 1 1 1 * * * * * 1 1 1 %Xp d , , , , > > > > > > > > > X X . W W . . . W . g ; ; ; ; . . . X ; D.D.Q.Q.Q.Q.D.D.g . X X W W W W W W W , , W W > > W , 9 d p 1 1 1 1 1 1 1 1 1 p d d d d d p p p p p 1 * * - * T T T T * * * 1 1 p p d d d d d 9 , , , , , , , , , , , , , 9 9 9 d d d d p p p 1 1 - - - - - 1 1 1 1 1 1 - - - - - - - - - - - - - - - * * - * * * * * 1 1 1 1 - 1 1 - - ",
", > > > > , , W > X ; ; X W W , , , , 9 9 , , , , . g D.Q.K.B B B x.x.x.x.xXx.x.x.B Q.X d d 9 9 9 9 9 9 9 9 9 9 9 9 , , > > W W , , W , 9 d d p 1 1 1 1 p p 1 - * * * * * * * * 1 1 1 1 1 p p d d d d d d d d d 9 9 9 9 9 9 9 9 d d d d d 9 9 9 9 d d p p 1 * * * * * * * * - 1 1 1 1 1 1 - - - 1 p p 1 1 - - - - - - - - - - * * 1 1 1 1 1 - - - - - - * * 1 1 - - T T T - - 1 1 1 1 1 1 1 %X1 1 1 1 1 1 1 1 1 1 1 1 1 1 1 1 - - - - - T - - - - - - - - - - - - - - - - * * 1 * 1 1 1 1 - - - - 1 p p d p p d d d d d d d 9 d p 1 1 1 p 1 1 - - T - - * 1 * 1 1 * 1 * - - - * * 1 1 1 1 1 1 1 1 * * * * %Xd , W , W > > > > X ; ; . . W W W W W W , , , , 9 9 9 d d d d d d d p p p p d d d 9 9 9 , W > , , , 9 9 d d d 9 9 , , , 9 9 9 9 9 d Z., W . ; ; g g . . ; ; ; ; D.g D.g o.o.g ; ; ; ; ; ; ; ; g g . . X ; ; X > W , 9 d p p p p 1 1 1 p p d , , 9 9 d d p p p 1 * 1 1 1 1 1 1 1 1 1 p d d 9 9 , , , , , , , , , , , 9 9 9 9 d d p p p p p p p 1 1 1 1 p 1 1 1 1 1 p p p 1 1 1 1 1 1 1 1 1 1 1 1 1 - - - - - - - - - - - * * * * * 1 1 1 1 - 1 - - - ",
"X X X > > , , > X ; ; ; X W , 9 d d p p p d d d 9 9 9 9 W > ; PXD.Q.! B x.x.B ! K.Q.PX, p p d d p d p p p p p p d 9 , > X ; ; X X X ; ; > , 9 d p 1 1 1 1 1 1 * * * * * * * * * 1 1 1 p p d 9 9 , , > , , , , W > > > > > > X > > W > > > > > > > > , 9 d p 1 1 - * * T - - - - - 1 1 1 - T T T - - - - T T T - - - - - - 1 * 1 * 1 - 1 * 1 - - - - - - * * 1 1 - - - T - - 1 1 1 1 1 1 1 %X1 %X1 * - - 1 1 1 1 1 - * - 1 1 - - - - - - T - - - - - - - - T T T * * * * * * * * * 1 1 p 1 1 - - - 1 1 1 1 - - * 1 1 1 1 1 1 1 p 1 1 1 1 1 1 1 - - T - - * * - * - * 1 * 1 * * 1 1 1 1 1 1 * 1 * * * * * 1 p d , W W X X X > > ; ; D.; ; ; g ; ; ; ; ; ; ; ; X . . . W W W W , , , , , , W W W W W , 9 9 9 d d p p 1 1 * 1 p p p p p p 1 1 1 1 1 1 %X9 W X ; ; ; ; g g g D.g g D.g g g ; ; ; ; ; ; ; ; g g g g g ; ; X > W , 9 d d d p p p 1 * * 1 1 1 p d d d d p p 1 - * * 1 1 1 1 p d 9 9 9 9 , , , W W W W , , , 9 9 9 9 d d p p 1 1 1 * T * * 1 p p p d d d d 9 9 9 9 , 9 9 9 9 p 1 - * * - 1 p p d p p 1 1 1 - * * * T * 1 1 - * * * - - 1 - 1 1 - - - - - ",
"> W , 9 d d p 9 , > ; ; X W , 9 d p p 1 p - - p p p 1 * - 1 1 1 d 9 > PXPXPXPXPXPX9 d 1 - - - - - 1 - - - - - - - p 9 , > X > > > X X ; ; > , d p 1 * * * * 1 * * * * * * * * * * * * 1 p p d d 9 9 , 9 9 9 , , , , , W W W W W W W W W > > > > > > , d d p 1 1 1 1 - - - T - - T - - - - - - - - - - - - - - - - - - - - * * * * 1 1 - 1 1 - - - - - - 1 - - - - T T T - - 1 1 1 1 * 1 1 * * 1 1 * * * - - - - * T T * - - - - - - - - - - - - * * * * - - - * * * * * * * * 1 * * 1 1 1 - - 1 - - 1 1 1 1 - * * * * * * * * - - - * 1 1 * - - - T - - - - - - * * 1 1 1 1 * * * * 1 * 1 1 - - - * * * 1 1 d 9 , W X X X X X ; ; ; ; ; ; ; ; ; ; ; ; ; ; ; ; ; ; ; X X X X > > > > > W W W , 9 9 d d p p p 1 1 1 1 * * * * 1 1 1 1 * * * * * * * p 9 , X X ; X X . . . . g g ; g ; . . . X ; ; ; g ; g D.g D.D.; X W 9 9 d p p p p 1 1 * * T * * 1 1 1 1 1 1 1 - * * T * T * * * * p d 9 , > , , , , , 9 9 d d p p 1 p 1 1 1 1 - * * * * * - 1 p d 9 9 , , , , , > > > > > > , , 9 p - * * * * 1 p d 9 p p 1 1 - * T T T T T - - * T T * * 1 * * - 1 1 - - - - ",
"9 d d p p 1 1 d 9 > X ; ; X > W W , 9 d p p p - - - - - - - - - - p d 9 9 9 9 p p p 1 1 - - T - * * * - - - - - 1 p 9 , > X X > > X X ; ; X , d p * * * * * * * * * * * * * * * * * * * 1 1 1 p p p p p p p p p p d d d d d d d d d d d d d d d 9 d d p 1 1 1 1 1 1 - - T - T T T T T T T - - - - - - - - - - - - - - - 1 * 1 * * 1 * 1 1 - - - - - - - * * - - T T - T - 1 1 * * 1 * 1 * %X1 %X* * * * * T T T T T T * - - - - - - - - - - - * * * 1 1 1 1 1 1 * * * * * * * * * 1 * - - - - - - - 1 1 1 - * * * * * 1 1 1 1 - - T * * * * - - - - - - - - - - - * 1 * 1 * * 1 * 1 - - - - - - - - * * 1 p p d 9 W > X > X > X X ; X X X X X X X X X X X X X ; ; ; X ; X . W W W , 9 9 d d p p 1 p 1 1 1 1 1 - 1 1 * * * * * * * * 1 1 1 * %X1 d d , > X X > X > . . W g g ; ; ; ; ; ; ; ; ; ; ; ; D.g g o.g D.; W 9 d p 1 - - 1 1 1 1 * * * 1 1 p p p 1 1 1 - * * T T T T T * * * 1 p d d d d d d p p p p 1 1 * * * * * * * T T T * * * - 1 p d 9 , W > > > > , , , , , 9 9 9 d d 1 - * * * * - 1 p d p - * * * * T T T T T * * * * * * * * * * - 1 - - - - - ",
"p p 1 * 1 1 p d 9 , > > X > W W . W , 9 9 d p p p p p p d 9 d 9 d d 9 9 , 9 9 9 9 9 9 d d 1 * - 1 1 1 1 1 1 1 1 1 p , , > X X X > X X > X W 9 d 1 * T T * * * * * * * * * * * * * * * * * * * * * * * * * * * * 1 1 1 p p p p p p p p p p 1 1 1 1 1 1 1 1 1 1 - 1 1 - - - - - T T T T T T - - - - - - - - - - - - - - 1 * - * 1 * 1 1 - 1 - - - - - - 1 * * * * - - - 1 1 1 1 p p p p p p p p p p p p p 1 1 1 * * * * * - - - - - - - - - - 1 1 1 1 1 1 1 1 * * 1 1 1 1 1 * 1 1 1 1 * - - - * - - - - 1 1 * * * * * * * 1 1 1 - T T T T T T - - - 1 - - - - - - - * 1 1 * 1 * - - - 1 - - - - - - - - 1 p p d d 9 W W W W W > > > . . . . . . . . . . . X X X X X X X . W , , 9 d d d p 1 1 * * * 1 1 1 1 1 1 1 1 1 1 1 1 * * * 1 1 p p p d d 9 , W . ; ; X > . . . . . g g g g ; ; X X X ; ; . ; ; ; ; g g . . W 9 d 1 - - - - 1 1 1 1 1 p p p p d d p * * * * * * * T T T * 1 1 1 1 1 p p p d d d d p p p 1 * * * * * * * * T T T * * * * 1 p d 9 , , , , , , 9 9 9 d p p p 1 1 1 - - - * * - - 1 1 1 1 * * * * * 1 1 1 1 1 1 1 1 1 1 1 1 * * * - - - - - - 1 ",
"* * * * * 1 p p d d d 9 9 9 9 9 9 9 9 9 9 9 9 9 9 9 , , , W > > > > > > > X X X . > > W 9 p 1 * 1 1 1 1 1 1 1 1 1 p 9 9 9 , , , , , , , , 9 d p 1 * * T * * * * * * * * * * * * 1 1 1 1 * * * * * T T T T * * 1 1 p p d d d d d d d d p p 1 * * * * * * * * * 1 1 - - - T T T T T T T T T - - - - - - - - - - - - - - * 1 * 1 * - 1 1 1 - - - - - - - - - * 1 1 p p p d d d d 9 9 9 9 9 9 9 , , , 9 9 , 9 9 d d p 1 - - - - - - - - - - - - 1 1 1 1 * 1 * 1 1 1 p p p p p p p p p p p p 1 - - T T T * * - - * * * * * * * * * - - - - * T * * * 1 1 * - - - - - - * 1 1 1 * - - - - - - - - - T - - 1 p d 9 9 9 9 W > W > > > > W W . . X . . . . g ; . X X X X X . W , 9 d p p 1 1 1 %X1 1 1 1 * 1 * * * - - 1 1 1 1 1 1 1 1 p p p d 9 , , W W . g ; ; ; . . . . g g g g g g ; . W W , W W W W W W W W W W , d d p 1 1 - 1 p p d d d 9 9 9 9 9 9 d d p * * * * * * * * * * 1 p p d d d d d 9 9 , , , 9 d p p 1 * * * 1 * * * T T * * 1 1 p p d d 9 9 9 , 9 9 9 d p p 1 - - - - - - - - - - - - - - - - - 1 1 1 p p d d d d 9 9 9 9 9 d p p 1 1 1 1 - - - - 1 1 ",
"T * * * * * * - 1 1 1 1 1 1 %X1 1 1 p d 9 , , W > > > > > > > > > X X ; X ; ; ; ; ; > W 9 p 1 * - - * * * * * * * 1 p p p p p p p p p p p p p 1 1 * * * * * * * * * * * * * * * * 1 1 1 1 * * * * * * * * 1 p p d d 9 , , , , , , , , 9 d p 1 * * * * * * * * * - - * T T T - T - - - - - * - - - - - - - T * - - - * 1 - * - - - - 1 1 - - - - 1 1 1 1 1 1 p p d 9 , , , 9 , > W > W > > > X X X X X ; ; X > , d p 1 - * * - - - - 1 1 1 1 * * 1 1 1 p p p p d 9 , , , , , , 9 , 9 9 9 d p - - T T * * 1 p p p p p p p p 1 1 p p p p 1 * * * * 1 p 1 1 - - - - - - 1 1 * 1 * - - - - - - - - - - 1 p d , W W W W X X > . X ; X > . X X X . g g g g ; . X X X X . > , 9 d p * * * %Xp 1 p p p 1 1 * * * * * 1 1 p p p d d d 9 9 9 , W . ; ; ; ; ; g g ; ; . . . . ; ; g g g . W W 9 d d d 9 d d d d d d d d %X1 1 1 p p p d 9 9 , > > > > > > , 9 d d p * * * 1 1 1 1 1 p p d 9 , , , , , , > > > W , 9 d p 1 1 * * * 1 * * * * * 1 1 p d d 9 9 9 , , , 9 9 d d 1 - - * T T * - - 1 - - - - - - 1 - 1 - p p d d 9 9 , , W W W W > . > , 9 d p p p 1 - - - 1 1 1 ",
"1 1 1 1 1 * T T * * * 1 1 1 1 1 1 %Xp d , W > X ; ; X X X X > W > > > > > > , , , , 9 9 d p 1 - - - - - * * * * * 1 1 1 1 * * T * * 1 p 1 1 1 1 1 1 1 1 1 1 1 * * * * * * * * * * * * - - - - - - - - 1 1 1 p d 9 9 , > > > > X ; ; > W 9 d p 1 1 * * * * * * * - 1 * * * * T - - - - - - * T - - - 1 - - T T * - - - - 1 - - - - - 1 1 1 1 1 1 1 1 1 1 1 1 p d , W > > > W W > X X X ; ; ; ; ; ; ; D.g ; ; X , d p * * * * * - * 1 1 1 1 1 1 1 p p d 9 9 , , W > X X X X X > > > > > , 9 d p - - - 1 1 p d d d d d 9 9 9 9 9 9 , , 9 p 1 1 * * 1 p 1 1 * - - - - - 1 1 * 1 * 1 * - 1 - 1 - p p p d 9 , . X ; X . ; ; X X ; ; X X . X ; ; g g g g g g ; ; X X X . > , 9 d p * * * %X1 %X1 1 1 1 * * * 1 1 p p d d 9 9 , , W W W W > X ; ; ; ; ; . . ; ; X . . W . . . . . W , 9 d p 1 %X1 %X1 %X* 1 * 1 * %X* 1 p p d 9 , , > > X > > > > , , 9 d p 1 1 * - 1 p p d 9 9 , , > > > > > > , , , , , 9 d p p 1 * * * * * 1 * * * * * 1 p d d , , , , , 9 9 9 d d p 1 * * * * - - - - - - - - 1 - 1 1 p p p d , , , W W X X ; ; ; ; ; ; ; X W , 9 d d 1 - - 1 1 1 1 ",
"1 1 1 1 1 * * * * - 1 * 1 1 1 1 * 1 p d , > > X X X X X . W , , , , , , , d d p p 1 1 * * * - - - - - - 1 * 1 * 1 * * * * * T T T * 1 p 1 * 1 1 1 1 p p p 1 1 * * * * * * * * * * * * * 1 1 1 1 1 1 1 * * * 1 p d 9 , W > > > ; ; ; X W 9 p 1 * 1 1 * * T T * * 1 1 * * T * * - - 1 1 1 1 1 1 p d d d p p 1 1 - - - - - - - - - - - - 1 1 1 1 * 1 1 1 1 1 * p d , > ; ; X > W W W W > > > X X X ; ; g ; ; . , d p * T T * * * * * 1 1 1 - 1 d 9 9 , , W > X ; ; ; X X X X X X X X X > > , d p 1 1 1 p d 9 , W W W W W > > > > > X X W d p 1 * * * 1 1 1 1 - - - - - * 1 %X1 1 * 1 1 1 1 1 1 p 9 , , W X ; ; ; X . ; ; X X ; ; ; > . ; ; ; ; g g g g ; . ; X X X ; ; . W , 9 d p p %X1 p p p p p p d d 9 9 , , , W W W > . X ; . > . X ; ; ; . W W W X X X . W , , , , , 9 9 d d %X1 * * * * * * * * * * 1 * 1 p d 9 , > > X ; ; X > , , 9 d p p 1 - T * 1 1 p p d d 9 , , , , , 9 9 d d 9 d d p p p p 1 1 * * * * * * p 1 1 * * * * 1 p p p p p p p 1 1 1 1 1 1 p p p d p p p p p 1 1 1 - - - 1 p d 9 9 W X X X X X ; ; ; ; ; ; ; X X X X . W , 9 p 1 - 1 1 1 1 ",
"1 p 1 p 1 * * - - - - - 1 * 1 * * * 1 p p d d d d d d d d d d p p p p p p p 1 1 1 - * * * - - - - * * * * * * 1 * 1 * 1 1 1 * * * * 1 1 1 1 1 1 1 1 1 1 1 * 1 1 1 1 - * T T T * * 1 1 1 1 1 1 * * * * * * * * 1 1 p p d d d 9 9 9 9 9 d p p 1 * 1 1 * * * * * * 1 1 1 1 p p d d 9 9 9 9 9 9 , , , > > , , , 9 9 9 9 d p 1 - - - - - 1 1 1 1 1 1 1 * 1 1 1 1 p d 9 W > X X X > > > > > > > > > W > W W , 9 d p 1 * * * * * * - 1 1 p p d d 9 > > > > X X X X ; ; X . X X X X X X X > > , 9 d 1 * 1 p d 9 , . > X > > X X X X . X ; X . W 9 9 d d d 9 d d p 1 * * * * 1 1 1 1 %Xp p p d d d d , W > . . . ; ; ; . . X X . . X X X . . . . . . . . . . . . . X . . X X X . . W W , W , , 9 9 , , W W > . . > X . X X X X X X X X . . . . . . . W W W W , 9 d d d d d d d %Xp %Xp %X1 1 %X* %X%Xp %Xp d d d d 9 9 , , > > > > > > , , 9 d p p p 1 - - T T * 1 1 1 1 1 1 p p p p p 1 1 1 1 1 1 1 1 1 1 p 1 1 1 1 * * * * 1 p 1 1 * * * * 1 p p 1 1 1 1 p p p d d 9 9 , , W W , W W , , , 9 9 d d d d d 9 9 , > > X . > X ; ; ; X ; ; ; ; ; X > W , 9 d 1 - * * * * 1 ",
"1 1 1 1 1 1 - - - - - - - * * * * 1 - - - - - - - 1 1 1 1 1 1 1 1 1 1 1 1 1 1 1 1 1 1 1 1 1 1 - - 1 * 1 * 1 * 1 1 * * * 1 * 1 * 1 * 1 1 1 1 1 1 * * * * * * * 1 1 1 1 - - 1 1 p p p p p p 1 1 * * * * * * * * * * 1 1 1 1 1 1 1 1 1 1 1 1 1 1 1 1 1 1 1 p p p p p p p d 9 9 , W > > > > X ; ; ; ; ; ; X X > > > > , , d p - - * - 1 1 1 1 1 1 1 1 1 * 1 1 1 p p d 9 , , W > > > > > > > , , 9 9 d d d p 1 * T T * * * * * * 1 1 p d 9 , , > ; ; X X X X X X ; X . . X ; ; ; . W , , 9 d p p 1 * 1 p d 9 , . X X X X . X X ; ; . . . . . W W W W W W W W 9 d p 1 1 1 p p d d d 9 9 , , W W . . . . . . . . . . . . . . . . . . . . . . . . . . . . . . . . . . . . . . . . . W . W W . . . . X X X ; X X X X X X ; ; ; ; ; X X X . . W W W , , 9 9 d p 1 1 * * 1 p %Xp p p p p %Xd d d 9 9 , W , , , , W W W > > , , , 9 9 d p p p 1 1 1 1 1 - * * * * * 1 1 - - - - - - * * - - * * * * * * * * * 1 * * * * * * * 1 1 1 1 1 * * * 1 p p d d d d d 9 , , W W > > > > X X X X ; ; ; ; ; X > > , , 9 9 , , W > > W > > X ; ; X X ; ; X W , 9 d d p 1 * * * * * * * ",
"1 1 1 1 1 - - - - - - - - - - - - - - - - - - - - - - 1 1 1 1 1 1 1 1 1 1 1 1 1 1 1 1 1 1 1 1 - - * * - * - * 1 * * 1 * * * * * * * * * 1 1 1 1 1 1 * * * * 1 1 1 1 1 p d 9 9 , , , 9 9 9 d d p p 1 1 %Xp 1 %X1 1 1 1 * 1 * * * * * * * * * * * 1 p p d 9 , , 9 9 9 , , , W > X X ; ; ; ; ; ; ; ; ; ; X > W , > > , , d p 1 - - - 1 1 1 1 1 1 1 1 1 1 1 - * 1 1 p p d d d 9 9 , 9 9 9 d d d p p p p p 1 * T T T * * * * * * 1 p d 9 , > X ; X X X X X X X ; ; X . . ; ; ; X W , d d p p p p p 1 p p d 9 9 . X X . . . . ; g ; . . . . . . . . . . . ; . W , 9 d d d 9 9 , , , W W . X X ; ; ; . . . . . . . . . . . . . . . . . . . . . . . . . . . . . . . ; ; ; . . . . . W W . . . . . . . . . . . ; ; X X X X . . . . . W W W , 9 9 d d d p p p 1 1 * 1 1 p p d d d d 9 9 , W W . ; ; X X > > > W , , , , 9 d d d p p 1 - - - - - * * - * * * - - - - - - - 1 1 1 1 1 1 1 - - * T T T T T T * * * * T T T * * 1 1 1 1 * * * 1 p d 9 9 , W W > > > X X ; ; X W > > > > > X X ; ; ; ; > W , , 9 9 9 9 9 , , , , , W W W , , , 9 9 d d p 1 * * * * * * * * * * ",
"p 1 1 1 1 - - - - - - - - - - - - - - - - - - - - - - 1 * 1 * 1 * 1 * 1 * 1 1 1 1 1 1 1 1 * 1 * 1 - 1 - 1 - 1 * - - 1 1 * * * * * * * * 1 p p p p p p p p p p 1 1 1 p d 9 , , > > W W W , , 9 9 9 9 9 9 9 d d 9 d d %Xd p p 1 1 1 1 1 1 1 1 1 1 1 p d , W > > > > > > > X X X X ; ; ; ; ; ; ; ; ; ; X > W , , 9 9 9 d d p - - - - - 1 1 1 1 1 1 1 1 1 - * * * - - 1 1 p p p p p p p 1 1 1 1 * * 1 1 1 1 * * * * * 1 1 1 p p d 9 , W > ; ; ; . . . . X X ; ; ; X . . X X ; X W 9 d d d d d d d d d 9 9 9 , . X X ; ; ; ; ; g ; . . . . . . . ; ; ; ; ; ; . . W W W W W W W W W . . . X ; ; ; ; . . . . . . . . . . . . . . . . . . . . . . . . . . . . . . . ; ; ; . . . . . . . . ; ; . . . . . . . . . . W W W , , , 9 9 9 d d d d d %Xp p %Xp p %Xd d d d 9 9 , , W W W W W . ; ; ; D.; X X > , , 9 d d d p p 1 1 - - - - - - - - * * * 1 1 1 1 1 1 1 1 1 1 1 p p p p p p p p p 1 - * * * * * 1 1 1 1 * * * * 1 1 1 * * * * 1 p p 9 , W X ; ; ; ; ; ; ; ; ; X W W > W W W W W W W , , 9 9 d p p p p p p d d d d d d d d p p d d p p p 1 1 * * * * * * 1 1 1 1 ",
"p - - - - - - - - - - - - - - - - - - - - - - - - - - * * * * * * * * * * * * * * * * * * * * 1 - - - - - - - * - - 1 1 1 1 1 1 1 p p p d d d 9 9 9 9 9 9 9 9 d d d d d d 9 9 9 9 9 9 9 , , W W W W W W . W W W W W , , , 9 d p p %Xp p p p p p p d 9 , > > > > > > X ; X X X > > X X ; X > W > W W , , 9 d d p p p p 1 1 - * * * * 1 1 1 1 1 1 1 1 1 1 * * * * * * * * * * * * * * * T * * * * 1 1 1 1 1 1 1 1 p p d d d 9 , W > ; ; ; ; ; . . . X X ; ; ; X . . . . . X . . W , , 9 , , , , W W W W W W . X ; ; ; ; ; ; ; ; . . . . . . ; ; ; ; ; ; ; ; . . . . . . . . W W . . . . . . . . . . . . . . . . . . . . . . . . . . . . . . . . . . . . . . . ; ; ; . . . . . . . ; ; ; ; . . . W W W W , 9 9 9 d d d d p p %Xp %Xp p p d d d d d , , W W . . . X . X ; ; ; X . X ; ; ; ; X , , 9 d d p 1 1 - - - - - - - - - - 1 - 1 1 1 p p p p d d d d d d d 9 9 9 9 9 9 9 9 9 d d p 1 1 1 p p p d d d d d d p p 1 1 * * * 1 1 p d 9 , W X ; ; ; X > > > W W W , , , , 9 9 9 9 9 d p p 1 1 1 * * * * 1 1 1 1 1 p p p p p p p p d d d d d p p p p p p p d d d d ",
"1 - - - - - - - - - - - - - - - - - - - - - - - - - - * * * * * * * * * * * * * * * * * * 1 * - - - - - - - - - - - - - p p d 9 9 9 , , W W W W > > > > X > > > > , 9 d p p p p p p p d d 9 , W . X ; ; ; ; ; ; ; X X X . W , W W , W W W W , , , , W > > > > > , , W W W , , 9 9 , , , , 9 d d d d d p 1 1 * * * * - - - * * * * * - 1 1 1 1 1 1 1 1 1 1 1 - - * * * * * * * * * T T T T * * 1 1 p p p p p d d 9 9 9 , , W > > X X X > > > W W W . . X ; X . . . . . . . . . . . . . W W . . . X . . . . X X X ; ; ; ; ; ; ; . . . . . . . . . . . g ; . . ; ; ; ; ; ; . . > . . . . . . . . . . . . . . . . . . . . . . . . . . . . . . . . . . . . . . . . ; ; ; ; . . . . . . . . . . W W , 9 d d p p %Xp %Xp %Xp %Xp d d 9 9 , 9 , W W W W . X ; ; ; ; ; ; X ; ; ; ; . W W W W W W 9 p p p p 1 * * * T * - 1 - - 1 1 1 p p p p d d d 9 9 9 , , , > > > > > > > W W W W W , , 9 9 d d d d 9 , W > > > > , 9 d p 1 1 1 1 1 1 p p d 9 9 , W W , , 9 9 d d d d d d p p p p p 1 1 1 1 * * * T T * * * * * * 1 p d 9 9 9 9 9 9 , , , , , , , , , , , , , , , W W ",
"1 - - * T * - - - - - - - - - - - - - - - - - - - - - * * * * * * * * * * * * * * * * * * * * - - - - - - - - - - - - 1 p 9 , > > > > X > X X X X X ; ; ; ; ; ; ; ; W 9 p 1 1 1 p d 9 9 , W . X ; ; D.; ; ; ; ; ; ; ; ; ; X X X X X X X X X X X ; ; ; ; ; > > , 9 d d d d p p p p p p d p 1 1 1 1 1 1 1 * * T * * * * * * 1 1 1 1 * * * * * * 1 1 1 1 1 1 1 1 1 * * * * * T * 1 * * * * * 1 1 1 p d d d d 9 9 , , W W , 9 , , , , , , 9 9 9 d 9 9 , W . . . . . ; ; ; ; . . ; ; ; ; . . . . . . . . . . . . . . . . g g g g g ; . . . . . . . . . . . . . . . . . . . . X X X X X . . . . . . . . . . . . . . . . . . . . . . . . . . . . . . . . . . . . . . . . . . . ; ; ; ; . W W , 9 9 d d p 1 1 1 1 p p d d d 9 9 , W . . . . . . . ; ; X X ; ; ; D.; D.; X . . W W , 9 9 d d d d p 1 1 1 * * * * * * * 1 1 1 p p p d d 9 9 9 , , W W > > X ; ; ; ; X X X X X > > > > X > W W W , , , , W X ; ; ; X > , 9 d 1 1 1 1 1 1 1 1 p p p p d d d d p p p 1 1 1 1 * * * * * * * * * * 1 1 * * * * * 1 1 1 1 p p 9 W > ; ; ; ; ; ; ; ; ; ; ; ; D.; D.; X X X X X > ",
"- - - * * * - - - - - - - - - - - - - - - - - - - - * * * * * * * * * * * * * * * * * * * * * - - - - - - - - - - - - p d , > > X ; X X > X X X X X X X X X > X ; X W 9 p 1 1 p 9 . . . X ; ; ; ; ; ; . . X X X X X ; ; ; X . > > > > > > > > > ; ; ; ; X > , d 1 * * 1 1 1 1 1 1 1 1 1 1 * * 1 p p p p p p p 1 1 1 * * * * * * * * * * * * * 1 1 * 1 1 1 * * * * * * * * * * 1 1 1 1 p p p p d 9 W W , , 9 9 9 9 , 9 d p p p p p p p p 1 1 1 %Xd d , W . . . . . . . ; ; ; ; . . . . X . . W W W . . . . . . . . . g g g g g ; . . . . . . W W W W . . . . . . ; ; . . ; ; ; ; X X . . . . . . . . . . . . . . . . . . . . . . . . . . . . . . . . . . . . . . . . . . . . . . , 9 9 d d p p p d d d d 9 9 , W W . ; ; ; ; ; ; ; . . . . . . . X X X X X . . . . W 9 d d p p 1 1 1 %X1 * * T * * * * 1 1 1 1 1 p d d 9 , , > > > > X X ; ; ; ; ; ; ; ; ; ; ; X > W W , , , W W W W W . . . > > X ; X > , 9 d p 1 * * 1 1 1 1 1 1 1 1 1 1 1 1 1 1 1 1 1 1 1 1 1 * 1 * * 1 * * 1 * * * * * * * 1 1 p p d d 9 9 W > X ; ; ; ; ; X X X ; ; ; ; X ; ; ; > > > > > > ",
"* - - - 1 - - - - - - - - - - - - - - - - - - - - - * * * * * * * * * * * * * * * * * * * * * - - - - - - - - - - * T - p 9 , > > > X > X X X X . . . > > > , 9 9 , 9 p 1 1 p p 9 ; ; ; ; ; ; ; X . . X X ; ; ; ; X X X X X X X X X X X X X X X X X > > > , 9 p * T * 1 1 1 p p p d d d d 9 9 9 , , , , , 9 9 d d p 1 * * * * * * * * * * 1 1 1 * 1 1 * * * * * * 1 1 1 1 1 1 1 p p d 9 9 , , , > X X W , 9 d p p p p 1 1 * * * * * * * * * * 1 p d , W . ; ; . . . . . ; ; ; ; . . . ; ; X X . . X X ; ; ; ; ; ; ; ; ; ; ; ; ; . . . . . . . . . . ; ; . . . . . . . ; . . . . . . . . . . . . . . . . . . . . . . . . . . . . . . . . . . . . . . . . . . . . . W W , , 9 9 9 d d d 9 9 9 , , , , W W . . . . ; ; ; ; D.; . . . . . . . . . ; ; X . W , 9 9 9 9 d d d p p 1 %X1 %X1 1 %X* * * * 1 1 * * * 1 d d 9 , > X X > > > X ; ; X X X > > > > W 9 9 9 9 9 9 9 9 9 , , W W . X ; ; X X > W , 9 d p 1 1 - * - 1 1 1 1 1 1 1 1 1 1 * 1 1 1 1 * * * * * * * * 1 * * * * * * * * * * * * 1 1 p d d 9 , W W W W W , , W > X X X X X X > > > > X > W W > > > > ",
"* - - 1 p 1 - - - - - - - - - - - - - - - - - - - - * * * * * * * * * * * * * * * * * * * * * - - - - - - - - - - * * 1 1 d 9 9 , , , , , , , , 9 9 9 9 9 9 d p d d p 1 1 1 p p 9 . . . . X X X X X ; ; ; ; X X X . . . . X ; ; ; ; ; ; ; ; ; ; ; ; ; X > , 9 p p 1 p p d d 9 9 , , , W W W W > X X ; X X > > > > 9 d p 1 1 * * * * * * * 1 * 1 1 * 1 1 * * * 1 1 1 p p p p p d d 9 , , > X X X X X W , d p 1 * * * 1 1 1 1 * * * * * * * * %Xp d , W . g ; . . . . . . . . g ; ; ; ; ; X X X X X X ; ; ; ; ; ; ; ; ; ; ; ; ; ; . . ; ; ; ; ; ; ; ; ; . . . . . . . . . . . X X X X X X X X . . . . . . . . . . . . . . . . . . . . . . . . . . . . . . . . W , , , 9 9 Z.9 9 Z.9 , W W W W . . . . . . . . . . . . ; ; ; . . . . . . . . . . . . W , 9 d d d d 9 9 , 9 9 d d d d d d d d %Xp %Xp 1 1 1 1 * 1 p d 9 , > ; ; X > > > > > > W W , , , 9 9 d d d 9 9 , , W W W W W . ; ; ; ; ; X > 9 d p p 1 1 - - - - 1 * 1 1 1 1 1 1 1 1 1 1 * 1 * 1 * * * * * * 1 1 1 1 1 1 1 1 1 1 p d d d d d 9 , , W , , , 9 d d d d 9 W > X X > > > > > > > > 9 d d 9 9 9 9 ",
"- - 1 1 p 1 1 1 p p p p p p p p p p p p p p p 1 1 1 1 1 1 1 1 * * * * * * * * * * * * * * * * * * - - - * * * * 1 - * 1 1 p p d d p p p p p p p d d d d 9 9 d d d d d d d d d 9 , W W W W W W W W . . . . W W W W W W W W W > > > W W W W > X X ; ; ; X > W , 9 9 9 9 , , W W > X X X X X > > X ; ; ; ; ; ; ; ; > , d p p 1 1 1 1 * * 1 1 1 1 * * * * 1 1 1 1 p p p d d 9 9 9 , , W W X X X ; ; X > , 9 d p 1 1 1 1 1 p p p 1 1 1 1 1 1 %Xp d 9 , W . . ; ; ; ; ; ; . . . . . . ; ; ; X . . . . . . . . . ; ; ; . . . . . . . . . . . . . ; ; ; ; ; . . . . . . . . . . . . . . . . . . . . . . . . . . . . . . . . . . . . . . . . . . . . . . . . . . . W 9 9 9 Z.9 W , W W W . . . . . . . . . . . . . . . . . . . . . . . . . . . . . . X . . W , 9 9 9 9 , W W . . . W W W W W , , , 9 9 d d p p 1 1 1 1 p d 9 , > X X X > X > > > W W , , 9 9 9 9 9 9 , , , W > X ; ; X X ; ; ; ; ; X > W d 1 1 1 1 - - - - - - * 1 1 1 1 1 1 1 1 1 1 1 1 1 1 %X1 1 %Xp p p d d d d d 9 9 9 9 , W W , , W W > > > , d p p p p p p d , , , , , 9 9 9 9 9 9 d p p p p p p p ",
"- - - 1 1 p d d 9 9 , , , , 9 9 , , , 9 9 9 9 9 d d d d d d p p p p p 1 1 1 1 1 1 1 * * * * * * * * - * T T T * 1 1 * * 1 1 1 * 1 1 1 1 1 1 1 1 %Xp d 9 , W W W W W W W W W W W W > W 9 d d d 9 9 9 9 9 9 9 9 9 9 9 9 9 9 9 9 9 9 9 d d 9 9 , > X X X X X X > > > X X X X ; ; ; ; ; ; ; X > > X ; ; ; ; ; X W , , d p 1 1 1 1 1 1 1 1 1 1 * 1 * 1 1 * 1 p p p d d 9 9 , W W W . . . X X X ; ; ; X > W , , 9 9 d d d d d d d d d d d 9 9 9 , W . . . . ; ; X ; ; . . . . . . . . . . . . . . . . . . . . . ; ; X . . . . . . . . . . . . . . . . . . . . . . . . . . ; ; . . . . . . . . . . . . . . . . . . . . . . . . . . . . . . . . . . . . . . . . W W , , , W W W . . . ; . . . . . . . . . . . . . . . . . . . . . . . . . X X ; ; ; ; ; X . . W W W W . . X X X X X X X X . . . . W W , 9 d d p p p d 9 , , W > X X ; ; ; ; X X > W , , , W W W > W W W W X X ; ; ; ; ; ; ; ; X > W , 9 d 1 1 - - - - - - - - * 1 1 1 1 1 * * 1 1 1 p p p p d d d d d 9 , , , , W W W > > > ; ; X > > X X ; X > 9 p p p p 1 p p p d d p p p p p p p 1 p p 1 1 1 1 1 - 1 ",
"- - - 1 1 p 9 , > > X ; ; X > > X X > > > > > , > , , , , , , , 9 9 9 9 d d d d d d d p p 1 * * * * 1 * * T T * 1 1 1 1 1 1 1 1 1 * * * 1 1 1 1 1 %Xd , W > > > > > > > > > > > > W , d p p p p p p p %X1 p p p p p p %Xp p p p p p p p p d 9 , X X X X X ; ; ; ; ; ; ; ; ; ; ; ; ; ; ; ; X X ; ; ; ; X W , 9 d d p 1 * * * * * * 1 1 1 1 1 p 1 p p p d d 9 9 9 , W W . . . X X X X X X X X . . X X X X X > > W W W W , , , , W W > X X X ; ; ; ; ; X ; . . . . . . . . . . . . . . . . . . . . . . . . X ; ; X . . . X X . . . . . . . . . . . . . . . . . . . . . ; ; X X X X X X X X X ; ; X ; . . . ; . . . . . . . . . . . . . . . . . . . . . . . W W W W W . . . . . ; ; . . . . . . . . . . . . . . . . . . . . . . X X X X X X X ; ; ; ; ; X X . . . X ; X X . . . . X ; ; ; ; X . . W , , 9 9 , , , W > > X X X X ; ; ; ; ; X > > W > X X X ; ; ; X X X X ; ; ; ; ; ; X X . W , 9 d p 1 * - - - - - - - 1 - * * 1 1 1 * * * * * p p p d d 9 9 , , , , W > > > > > > > > > ; ; X X > X X X > W 9 p p 1 p p p 1 1 1 1 1 1 1 1 1 1 * - - - - - - - - - - ",
"- - - - 1 p 9 9 , > > X X X > > X X X X X X X X ; X X > > > > > > > > > > W , W W W W , d p 1 1 1 1 1 1 1 1 p p p p d d d d p p p p p p p %X1 %X1 p p d 9 9 9 9 9 9 9 9 9 9 9 9 9 d d p 1 * * 1 1 1 1 * * 1 * * 1 * 1 1 1 1 1 1 1 1 1 1 1 p d 9 X ; ; ; ; ; ; ; ; ; X X X X X ; ; ; ; ; ; ; ; ; ; > , , 9 d p p 1 * * T * * * * * * 1 1 p p d d 9 , , W W W W . . . X X X X X X X X X . . . . . X ; ; ; ; ; ; ; ; ; ; ; ; ; ; ; ; ; ; ; ; ; ; ; ; ; ; . . . W . . . . . . . . . . . . . . . . . . . . X X ; ; X . . X ; X X . . . . . . . . . . . . ; ; ; . . . . . . . X ; ; ; ; ; ; ; ; ; ; X X X X X X X . . . . . . . . . . . . . . . . . . . . . . . . . . . . . . . . . . . . . . . . . . . . . . . . . . . . . > > X ; ; X X X X . . . X ; ; X X . . X ; ; ; X X . . . . X ; ; ; X . . W . . . . . X X X ; ; ; ; X X X X X . > W W W W > X ; ; ; ; ; ; ; ; ; ; ; ; ; > W W , , 9 d p 1 * * T T T T - - - 1 - - * * 1 1 * * * T * * 1 p p p d d 9 9 9 9 , , , , , , , , , , , > > > W W W W W , , d p p p 1 1 1 * * * * * * * * * * * * * * - T - - - - - ",
"- - - - 1 1 p p d 9 9 , , , 9 , , , , , W > > > > > > > > > > > > > > > > > > X ; ; ; > , d p p p p p d 9 9 , , , W W W W W W , , , W , 9 9 d d p p p 1 1 1 1 p p p p p p p p p 1 1 * * * * * * %X* * * %X* %X* %X* %X* 1 * * * * * * * 1 p p 9 W . . X X X ; ; ; ; ; X X X X X X X X X X X X W , 9 d p 1 1 * 1 1 1 * * 1 1 p p p p p d d 9 , , W X X ; ; ; ; ; ; ; ; ; ; ; . . . . . . ; ; ; ; . X X X X X X X X X X ; ; ; ; ; ; ; ; ; ; ; ; ; ; ; X . . . . . . . . . . . . . . . . . . . . . . . X X X X X . . X X X X X > . . . . . . . . . . . . . . . . . . . . . . X X X X X X X X X X X X . . . . . . . . . . . . . . . . . . . . . . . . . . . . . ; ; ; . . . . . W W . . . . . . . . . . . . . . . . . . > . . X X X X X X X X X X ; ; ; ; X X X ; ; ; ; ; ; ; X . . . . X X . . . . X X X X X . . . . . . . W W W W W , 9 9 9 , , , W > X X ; ; ; ; ; ; X X > W W , 9 d p 1 * * * * T T T T T * - - - - 1 - 1 1 1 1 * * * * 1 1 1 1 1 1 p p p p p p p p d d d d d d d d , , , 9 9 9 9 d d d p 1 1 1 1 * * * * * * * * * * * * T T T T T * - - - - - ",
"- - - - 1 - * 1 1 p p d d p p p p p p p p d d d d d 9 9 9 9 9 , , , , , , , , > > > > , 9 d p p d 9 , W > X ; ; ; ; ; ; ; X X X X X X X X X X > , 9 d p 1 * * * * * * * * * * * 1 * * * * * dX* * * %X* 1 * 1 * 1 1 1 1 %X1 * * * * * * * 1 p d , , , W W > . . X X ; ; X X X X > W W W , 9 d p p 1 1 * * * * 1 1 1 p p p d 9 9 9 , W . > . . . . . . X ; ; ; ; ; X X . . . . . . . . . ; ; ; ; . . . . > > > > > > . X ; ; ; X X X X X X X . X X X X X X X X X X ; ; ; ; ; ; ; ; ; ; ; ; ; ; ; ; ; ; ; ; . > > > X X X > X > . . . . . . . . . . . . . . . . . . . . . X X X X X X X X X X X X X X > > . . X X ; X . . . . . . . . . . . . . . . . . . . . ; ; ; ; . . . . W W . . . . . . . . . . . . X X X X X X X ; X > W W W > X X X X X ; ; ; ; ; ; ; ; X X ; ; ; X . W , W W . ; ; ; ; ; ; . . W W W , 9 9 9 9 9 9 9 9 9 9 9 9 9 9 , , W W W > X X ; ; X X W , , 9 9 9 d d p 1 * T T * * * T T * * - 1 1 p p p d d d d d d d d d d p p p p p p p p p p p d d d d p p p p p p d d d p p p p 1 1 1 1 * * * * * * * 1 1 1 * 1 * * * * * 1 * * 1 1 1 1 1 1 1 ",
"- - - 1 1 - * * * 1 1 1 * 1 * * * * * * * * * * * * 1 p 1 1 1 p p p p p p p d d d d d d p p p d d , > ; ; ; ; ; ; ; X X X X X > > X . > ; ; ; ; ; > , d p 1 1 1 1 1 1 1 1 1 1 1 1 1 1 1 p %Xp p %Xd d p %Xp %Xp d p p d d d p p d d p p p p p d 9 9 9 , , W W W . . W W , , , 9 9 9 9 9 d p 1 1 1 1 1 1 p p p d 9 9 9 , , , W W > X ; ; ; ; ; ; ; ; ; ; ; X X X . . . . . . . ; ; ; ; ; g g g g ; ; ; ; X X X . . . . . . . . . . X X X X X ; ; ; ; ; ; ; ; ; ; ; ; ; ; ; ; ; ; ; ; ; ; ; ; ; ; ; ; ; ; ; X X > > > > > > X X X . . . . . . . . . . . . . . ; ; ; ; . ; ; ; X X X X X > X > > X X > W > . X ; ; ; ; . . . . . . . . . . . . . . . . . . . . ; ; ; . . . . . . . . . . . . . . . . . . > > > X X X ; ; ; ; X X > X X ; ; ; ; ; ; X X . . . . . W W W W W 9 9 d d 9 W ; ; D.; . W , 9 d d d d d p p p p d d d d d Z.W . . . X X X X ; ; X . . . W , 9 d p 1 1 1 1 1 1 * * * * * * * * * 1 p d d 9 , , , > > > W W W W W W W , , , , , , , , W , , , 9 9 9 d p p p 1 1 p p p p 1 1 1 * * * * 1 * * * * * 1 1 p p d d d d d d d p d d 9 , , , , , , ",
"- - 1 1 1 1 p 1 p 1 1 1 1 1 1 1 1 1 1 1 1 * * * * * * * * * * * * * * * * * * 1 1 1 * * * 1 1 p d , X ; ; ; X X ; ; ; ; ; ; ; ; X X X X ; ; ; ; ; > , d p * * * * * * * * * * * * 1 1 d d 9 9 , , , W , , , , W , W , , , W W > > W , , 9 , , , d 9 9 9 , , W W W . W W W W W , , , , , 9 9 d d d d d 9 9 , , W W > > > > > > > X ; ; ; ; ; ; ; ; ; X ; ; ; ; ; ; ; ; . . . . ; ; ; ; g g g g g ; ; ; ; ; ; X X . . . . . . X X X X X X X ; ; D.; ; ; X X . . > W W W W W W W W W W W W W W W W W W , , W W > > > > > > > X ; ; . . . . . . . . . . ; ; ; ; ; ; ; ; ; ; > > W , , , , , , , , , 9 9 9 9 , W . X ; X . . . . . . . . . . . . . . . . . . ; ; . . . . . . . . . . . . . . . . . . . . . . > > > > > > > > > > > > > > > > W W W W 9 9 9 9 9 9 9 d d d d d d d d 9 , W X ; . 9 9 d p 1 1 1 p p p d d d d 9 9 , W W W . ; ; ; ; ; ; X X . W , , , 9 d d p 1 1 * * * * * * * * 1 1 1 p d d 9 9 , W > X ; ; ; ; ; ; ; ; ; ; X X > > > > > > > > > W , 9 d d d p p 1 * * * 1 p p p 1 1 1 * * * 1 1 * * * 1 1 p d d 9 , , , , , , , , , , > X X X > > > ",
"- 1 1 1 p d 9 9 9 9 d 9 d d d d d d d d d p d p p p 1 1 1 1 1 1 * * * * * * * * * * * * * 1 1 1 p 9 W > > > > > X X ; ; ; X X X X X > > X X X > > , 9 p 1 * * * * * * * * * * * 1 p d 9 W W W W W . . . . . . . . . . . X X ; ; ; ; ; X W W > > , , , , W W W . . . . X X X X X X X > > > > W W , , , , , W W W W W W , , , , W W X ; ; ; ; ; ; ; ; ; ; ; ; ; ; ; ; ; ; ; ; ; ; ; g g g g g g g ; ; ; ; X X X X . . . X ; ; ; ; ; ; ; ; ; ; X X X > W W , , , 9 d d d d d d d d d d d d d d d d d d d d d , , , , 9 9 9 , > X X . . . . . . . . . . ; ; . . . . . . W W , 9 9 9 d d d d d d p p p p p p d 9 , W . X . . . . . . . . . . . . . . . . . ; ; ; . . . . . . . . . . . . . . . . . . . . . X X > > W W , , , 9 , 9 9 9 9 9 d d d d p p d %Xd d d p %Xp %Xp %Xd 9 , W W W W , 9 d d d p %Xp p d d d 9 , W W W . . g ; g . . . . . . . W W W , 9 9 d d d p p 1 1 1 * * * 1 1 1 p p d d 9 W W W > X X ; ; ; ; ; ; ; X X ; ; ; X > W W , , , , 9 9 9 d d p p p p 1 1 1 * * * 1 1 p p 1 1 1 * 1 1 1 * 1 1 1 %Xp 9 , W > X X X X X X > > > X ; ; ; X X X X ",
"1 1 1 p d 9 X > > > > > > > > > W W W , , , , , , 9 9 d d d p p p p p p p p 1 1 1 1 * * 1 1 1 - 1 p d 9 9 , , , , , > > > > W W , , , , W , , 9 9 d p 1 1 1 * * * - - - - - - - p 9 , W X ; ; X . . . X X X X X ; ; ; ; ; ; ; ; ; ; ; X X . X X > > . . . . . . X X ; ; ; ; ; ; X X > X > > W W , , 9 9 9 9 9 d d d d d p p d d 9 , > . . X ; ; ; ; ; ; ; ; ; . . . . . . . ; ; ; g g g g g g g ; . X X X . X X X X X ; ; ; ; ; ; X X . . W , 9 9 9 d d d p p p 1 1 1 1 1 1 1 1 1 1 1 1 1 1 1 1 1 1 1 1 1 d d d d p p p d , > X . . . . . . . . . . . . . W W , 9 9 9 d p p p p 1 1 1 1 1 1 * 1 1 1 1 1 p d 9 W X X . . . . . . . . . . . . . . . . ; ; ; ; . . . . . . . . . . . . . . . . . . . . X X > > , , 9 d d p p p p 1 1 1 1 1 1 1 1 1 1 1 p p %Xp d p p p d d 9 W . X . W , 9 9 Z.9 9 9 9 Z., , W W . W . . . . g g ; g . W W . . W W W , 9 9 9 9 d d p %Xp %X1 1 p p p p d d 9 9 , W X ; ; ; ; ; ; ; X ; ; ; ; > > > X X X > W , 9 d d d p p p 1 1 1 p 1 1 1 1 1 * * * * * 1 1 1 1 1 * 1 1 1 1 %X1 %Xp p d , > ; ; ; X X X X X X X X ; X X X X ; ; . ",
"1 1 p p d , ; ; ; ; ; X ; ; ; X X X X X X X > . > X > W W W W , , , , , 9 9 d d p p p p p p 1 1 - 1 1 p p p d d d d 9 d d d d d d 9 d d 9 d p p 1 * * * * - - 1 1 1 - - - - - 1 p 9 W . ; ; ; ; X . . X X X X X ; X X ; ; X X X ; ; ; X . X X ; ; ; ; ; ; ; ; ; ; ; ; ; ; ; X > > > W , 9 d d d p p p p 1 1 1 1 1 1 1 1 1 1 p d 9 , W W . . . . . X X X . . . . . . . . . . . ; ; ; . . . . g g ; X X X X X ; ; ; ; ; ; X . > W , , , 9 9 d p p p 1 1 1 1 1 * * * * * 1 1 1 1 1 1 1 1 1 1 1 1 1 1 1 1 * 1 1 p 1 1 - * - 1 d 9 W X . . X X . . . . W W W , 9 d d p p p 1 1 1 1 1 1 * * * * * * 1 1 1 1 p d 9 , > ; X . . . . . . . . . . . . . . . ; ; ; ; ; ; ; ; ; ; . . . . . . . . . . . . . . . X X > > , 9 d p 1 1 * * 1 * * * * 1 * 1 1 1 1 %Xd d d 9 9 9 9 9 , W > X ; ; X . W , , , , W W W . . . . . . W . . . W . W W . . . . . . . . W W , , W , 9 d d d p p p p p d 9 , W > X X X X ; ; ; ; ; ; X X X . X ; X > > > X ; ; > > 9 d p p p 1 1 1 1 * * 1 1 1 1 1 * * * * * * * 1 p p p 1 1 p d d d d d d d 9 W > ; ; > > > > > > X . . . . . . g g g o.",
"1 1 1 p p 9 X X ; X ; ; ; ; X ; X X ; X ; ; ; ; ; ; ; ; ; ; ; X X > > > > , , , , , 9 9 9 9 9 d d p d p d d p p d d p d d p d d p d p d d p p 1 * * T T T T * - 1 1 - - - 1 - - 1 d 9 , W W W . . . X . X X X X X > > X X . W W W . . . . X X X ; ; ; ; D.; ; g g . . X > > , , 9 d d p 1 * * * 1 1 1 1 * * * * * * * * * 1 p d 9 , > . . . . . . . W W W W . . . . . . . . . ; . . . . . . . . ; ; ; ; X X X X X X X W 9 9 d d d p p p p 1 1 1 1 * - - - - - - - - 1 1 1 1 1 1 1 p 1 * 1 * 1 * 1 * 1 * 1 1 1 1 1 * T T - p 9 , > > ; ; ; ; . W , 9 d d d p 1 1 1 * * * * * 1 1 1 1 1 * * * 1 p p p d d 9 W . ; ; ; . . . . . . . . . . . . . . . . . . . . . X . . . . . . . . . . . . . . . . . . X > > , 9 9 d p p 1 1 p p p p p p p p p d d 9 9 , , W W > > > > > > > X X X . . . . W W W > . . . . . X . W W W W W . . . . . . . . . . X X . > W W , , Z.9 Z.9 Z.d 9 Z., W > X ; ; ; ; ; X ; ; . X X X X X X X X X X X > > ; ; ; ; > 9 p 1 1 * 1 1 * %X* * * * * 1 * 1 1 1 1 1 p p d 9 , , W Z.W W.. W W . W W . X ; ; X > > > > > . . . . . . . . o.o.tX1.",
"1 1 1 1 1 d , W W . X ; ; ; ; X . . . . . X ; ; ; ; ; . X X X X > > > > > > > X . . . . X X X W , , , , , , , , , 9 9 9 9 9 9 9 9 9 9 9 9 9 d d p p 1 * * T * * * - - - - - - * 1 1 p p d d d 9 , , , W W > > W W , , W W W , , , , W W W W W , , , W , W W , , Z.9 9 9 d p p p p 1 - T T T * * * 1 1 1 * * * * 1 1 1 1 p d 9 , , > > X . . . . . . > > W W . . . . X . . . . X . . . . . . . ; ; ; D.X > W , , , , , d p p 1 1 1 1 - - - - - - - - - - - - - - - - - - 1 1 1 1 p 1 1 1 1 1 1 1 1 1 1 1 1 1 1 1 * * T * 1 d , > X X X > > , 9 d p p p p 1 1 * * * * 1 1 * * * * * 1 1 %X1 %Xp d 9 9 , W W . X ; ; . . . . . . . . . . . . . . . . . . . . . . . . . . . . . . . . ; ; ; ; ; ; ; g . X > W , , 9 9 d d d d 9 , 9 Z.9 Z.9 , , , W W W > . . X X ; ; > > > > > > . . g g g . > > > . . . . . . . W W W W . . . ; ; g g . . . . . X > X . W 9 9 , W W W W . W > W . ; ; ; X X X > X X ; . . ; ; ; X X X X X X ; > > > X ; > , p 1 * * * * * %X* %X* %X1 1 p p d d d 9 9 , > > . . g g o.o.o.o.o.o.o.o.g g g ; X X > > > > > > . . g g . g o.1.c.c.c.",
"p p p p p d 9 9 , W . X ; ; ; ; X . . . . . . . X . . . . X X X > X > > > ; ; X ; ; ; ; ; ; ; ; ; ; ; X X X X X X X > > > > > . > . > > > > W , , 9 d d p p 1 * * * * * * * * * * * * 1 1 p d d 9 9 9 , W W , , 9 9 9 , , , , Z., , , , W , , 9 9 d d d d d %Xd Z.d d p 1 * T T - - - T T * * * * * * 1 1 1 1 p p d 9 9 , > > > > X ; ; ; g g g g ; X X . . . . . . . ; ; ; X . . . . . . ; ; ; X > > W , 9 9 d p p p 1 * 1 - - - - - - - - - - * * - - - - - - - - - - - - - - - 1 1 1 1 1 1 1 1 1 1 1 1 * * * * * 1 p d , > > > > , 9 d p 1 1 1 1 p p 1 1 * * * 1 1 1 * %X* 1 * %Xp d d 9 , W . . . . . X X X X . . . . . . . . . . . . . . . . . . . . . . . . . . . . . . . . ; ; ; ; ; ; ; g ; X X > > > > W , , , , W W . . . . . . W > > > . . . . . . . X X > > > X . . . . . . . > > > . . . . . . . W W W . . . . . ; ; g g g . . X > > X . W W W W . . g . . . > > . . ; ; X X . . . . g g ; ; ; X X > X > > X X W , 9 9 9 d p 1 1 * * 1 1 p p d %Xd d d d 9 9 , , , > > ; ; g g o.o.o.tX1.1.1.tXtXo.o.o.tXo.. ; ; X > > > > X . g g o.W.W.1.1.`.=.@.",
", , , , , , , , W W . X X ; X X . . . X X X X . . . . . X X X X X > > > > > X X X X X X X X X ; ; ; ; X X X > > > X X X X . . X . X X X X X > > > W W , , , p 1 * * * * * * * * 1 1 p d d 9 , W W W W . . > W W , , , , W W W W W W W W W W > , 9 9 d 9 9 9 9 , W W , d p 1 * * 1 1 p p p p 1 1 1 1 p p 9 , W W W W W W > > X ; ; D.; ; g D.g D.g g g ; . . . W W W . . . . W W W . . . . ; ; ; W 9 d d d d p p 1 1 * * T * * T T * - - - - - - * * * - - - - - - - - T - - - - - - - * * * * * * * * * * * * 1 1 p d 9 , , W , 9 9 p 1 * * * * * 1 p p 1 1 * * * * 1 * 1 1 %X%Xp d d 9 W W . ; ; ; ; ; ; X X X . . . . . . . . . . . . . . . . . . . . . . . . . . . . . . . . . ; ; ; ; ; ; ; g g g g . . X X X X > > > > > X ; ; ; g ; ; X X X ; g g g g g . . . . . . . . . . . . . X . > . . . . . . . . W > > . . . X X X ; . . . . X X X > X . . . g g g g g g ; X > ; ; ; ; ; D.; g g . . . g g ; X > > > > > , W , 9 d d d d d d d 9 9 9 , , W W . . . > > > > > , > > > > > . g o.tXc.c.c.c.c.c.c.1.1.1.c.tXo.o.o.D.; > > > > . . g g o.W.1.1.@.x 9Xy.",
"X X X X X . . . . X X X . . . . . . . X ; ; X . . . . W W W W W W W W W W , , , , , W W W W W ; ; ; ; ; X X X > > X X X X X X X X X X X . > > > > > > > > > d 1 1 1 1 1 1 1 1 1 1 d d 9 W . X X X X . ; ; X . > W W > X X X X > X X > > > > > > > > > > W W W > . X W , 9 d d d d d 9 9 9 , , 9 9 9 9 , W X ; ; ; ; X X X ; ; ; ; ; ; ; g g g g g . . . W W W , , , 9 9 9 d 9 9 , W W . . . . . W d p p p 1 1 1 1 * * * * * * * * * * * * - * T * * * * - - * - - T - T - T - - - - - * * * * * * * * * * p p d 9 , , , , 9 d d p 1 * * * * * * 1 1 1 1 * * * * 1 1 1 1 p d d 9 9 W W . . X ; ; ; ; ; ; ; X X X X . . . . . . . . . . . . . . . . . . . . . . . . . . . . . . . . ; ; ; ; ; ; ; ; g . g g g . X X ; X X X X > X ; g ; ; ; ; ; ; g g g g g g g g g . . g g g . . . . X X X X . . . . . . . . . . . . . . X X X X X X . . . X X X X . . . . g g g D.g ; . > > X ; ; g D.g o.g o.o.o.o.o.o.g g . > W , , d Z.Z.Z.Z.Z.9 , W W > > > > X X X ; ; ; ; X > > > > > > > > X g o.tXc.c.`.@.+.+.#XS.S.S.S.@.`.`.1.1.o.o.g . > > > . . g o.o.1.c.5.x y.|.C.",
"; ; ; ; ; ; ; ; ; ; X X . . . . . . . X . . W W W , 9 9 9 9 9 9 9 9 9 9 9 d d d d d d d d d 9 , W > > . . X X X X X X X X . . . . . . X . . . X X X X > X X , 9 9 9 9 9 9 9 9 9 9 9 W W . ; ; ; ; X . ; ; X . . . . X ; ; ; ; ; X ; ; ; ; ; X ; ; ; ; ; ; ; X X X X > > X . > W W W W W . . . . W W . . ; g ; D.; ; ; ; ; ; ; ; ; ; ; ; . . . W W W , , 9 d d d d p %Xp %Xp d 9 9 , W W . . . . , d p 1 1 1 1 * 1 * 1 * * * * * * * * * * * * * * - * - - - 1 - - - - T - T - T - - - 1 1 1 1 1 1 1 1 1 p d , W > > W , d p 1 * * * * * * * * * * * * * * 1 1 p p p d d 9 , , W . ; ; ; ; ; X . . . . . . X X X X . . . . . . . . . . . . . . . . . . . . . . . . . . . . . . . . ; ; ; ; ; ; ; g . g g . g . . X X X X X X X X X ; g ; g ; g ; . . g g g g g . . g . . . . . . > > > > > . . . . . . . . . . . . . . X X X X X X X . . X X X X X . . . g g g g ; . . W , , W ; g o.tXtX1.1.1.1.tX1.1.o.o.g W W , , , Z.W.W.g W.W.W W . g X X X ; ; ; ; ; g g ; X > > > > > X X ; g o.tX1.5.S.s f.y.;X{.y.y.y.f.q.#.S.@.`.1.o.g g . X > . . g o.o.1.`.bXf.|.%.%.",
"g g ; ; ; . . . . . . . . ; ; . . . . . . W , 9 d d p p p p p p p p p p p p p p p p p d p p p d d 9 9 9 , W W . . . X X X X X X X X X X X X . . X X X X . X X . X . X X . X X X > W W . ; ; ; ; X . W . . . . . . X ; ; ; ; ; X ; ; ; ; ; ; ; ; X X ; ; ; ; X . W W W X X ; . . . . . g g g g g g g g g g g g g D.; D.; ; ; X X > > > W W , , 9 9 d d d p p 1 1 * * * 1 1 p d 9 , W W . . . . . W 9 p p 1 * * 1 1 1 1 1 1 1 1 1 * * * * * * * 1 1 - 1 1 1 1 1 1 1 1 - p - p - p - p p d 9 9 9 9 9 9 9 9 9 , W X X > , p 1 * * * T * * * * * * * * * * * 1 p d 9 9 , , W . . . X X ; ; ; ; X X . . . . . . . . X X . . . . . . . . . . . . . . . . . . . . . . . . . . . . . . . . ; ; ; ; ; ; ; g ; g PXg ; ; X . X . . . X X . . . . . ; g g g g . . . . . . . . X X . . . > > > > > > > . . . . . . . . . . . . . X X X X X X X X X X X X . . . . . . g g . . W W , 9 9 9 W g o.tX1.1.1.5.`.`.5.5.5.1.1.o.W.W W W g o.o.o.o.o.o.o.W.g g g . g ; ; g g g g o.g g . g g g ; ; g g o.tX1.u.` f.|.C.%.%.R %.%.%.C.|.,Xf...@.`.1.o.g . . . . . g o.o.c.5.j.|.%.%.R ",
"g ; ; ; ; . . . . W W W . . . ; ; ; . . W , d p 1 * 1 1 1 1 1 1 1 1 1 1 1 1 1 1 1 1 1 1 %X1 %X1 1 1 p p d d 9 9 9 W X X X X . . . . . . . . . . X X X X ; ; ; ; ; ; ; ; ; ; ; ; X . . . ; ; ; ; . . W . . . . . X X ; X . . . > X X X X ; ; ; X W W W . . . W W , , , , , , Z.Z.Z.W.o.o.1.o.1.o.o.o.o.g o.g g g ; g ; g ; ; X > > , 9 9 9 d d p p 1 1 1 1 * * * * * %Xp d d , W W . . . . ; ; ; . , 9 d p 1 1 1 p p p p p p p p p p p d p p p p p p p p p p p d d 9 9 9 9 9 9 9 9 9 , > > > > > > > > > X X X X W 9 p 1 * * * * * * * 1 1 1 1 1 1 p p p d 9 , W > X X X ; ; ; X . . . . . . X ; ; ; ; X X . . . . . . . . . . . . . . . . . . . . . . . . . . . . . . . . . . . . ; ; ; ; ; ; ; g ; g ; ; ; ; ; X . . . . . . . . W W . . g g g . . . . . . X X > X > . . > . X > > > > > . . . . . . . . . . . ; ; . . . X X X X X . X X X . . . . . g g . W W , 9 d d p p Z.o.1.1.5.u.~ bXx ` ` w bX@.1.1.1.W.W.o.o.1.1.1.1.1.1.1.1.1.1.o.o.o.o.o.o.tXo.o.o.o.1.o.1.o.o.o.o.o.o.1.c.5.` *X|.%.R R F P F F F F R %.C.*X#.=.c.1.o.g . . . . g g o.c.5.j.|.%.%.R ",
". . . . . X ; . . . W W W W . . ; ; . . W 9 d p * * * 1 1 1 * 1 1 1 1 1 1 1 1 1 1 1 1 1 1 1 1 1 * 1 1 %Xp p p d d 9 . . . . . . . . . . . . . . . X ; ; ; ; ; ; ; ; ; ; ; ; ; ; X . . . . . . . . W W . . X . X ; ; X W W , , , , W W > > > X X W , , , , 9 9 9 d d 9 9 Z.Z.Z.Z.W.1.1.1.c.c.c.c.c.1.o.o.o.g g . . g g g ; X W 9 d d p p p p 1 1 * * * * * * %X1 1 %Xd 9 W W . . . . . . . ; ; ; g W W , 9 d d d d 9 9 , , , W W W W W W W W W W , , , W , > , > W > > . . . > > > X ; ; ; ; ; ; ; ; ; ; ; ; ; > , d 1 * * * * 1 1 1 p p p p d d 9 9 , W > . X ; ; ; ; X ; ; ; . . W W W . . ; ; ; ; ; ; . . . . . . . . . . . . . . . . . . . . . . . . . . . . . . . . . . . . . ; ; ; ; ; ; ; g g ; ; ; ; ; X X . . . . . . . . . . . . g g ; . . . . X > X > PX> PX. . . . > > X > X X . . . . X X X . . . ; g g g g g g g X X X . X X . . . . . . g g . W , d d p 1 1 1 %X.X5.@.m 9X*X|.|.|.|.|.g.L S.5.1.5.5.5.1.c.c.c.0Xc.c.c.c.c.c.c.1.1.o.o.o.1.c.c.c.c.c.c.c.c.c.1.`.1.`.1.c.S.9X|.%.R R ,.' ' ' ' ' ,.F R %.C.y.bX`.1.o.g g . . . g g o.tX`.bXg.C.%.%.",
"X X . . X ; ; ; ; . . . . . . . . . . . . W 9 d 1 1 * - - - * * 1 1 1 1 * 1 * 1 1 1 * 1 1 1 1 * * * * 1 1 p p d d 9 X X X X . . . . . . . . . . . . X ; ; ; ; X X X X X X X X X X . . . . . . . . . . X . . . X ; X W , 9 d d d d d d 9 9 , , , , , 9 Z.9 9 9 9 9 9 W W W W.o.1.c.c.`.@.S.S.S.@.`.1.c.1.tXo.o.o.o.g g g . , 9 d p 1 - - - - - * * * * * * p d 9 , W . . . . . ; . . . . . . . . . . W . W W W > > > > > > > X X ; ; ; ; ; ; X . . X X X X > X X X . . g g g ; ; ; ; ; ; ; ; ; ; ; ; ; ; ; ; D.W 9 d 1 1 * 1 1 p p p d d 9 , , W W > X ; ; ; D.; ; ; ; . . . . . . . . . . . . . ; . . . . . . . . . . . . . . . . . . . . . . . . . . . . . . . . . . . . . . . . ; ; ; ; ; ; ; g g X X X X . . . . . . . g g ; ; D.D.D.D.D.D.; ; ; X X X . . PX:XPX:XPXg g . . . . . . . . . . X > > > X . . g g g g g ; . g g . . . . . . . . . . g g g . W 9 d p 1 * * %X&X:.~ f *X|.%.%.%.%.%.%.C.|.9X+.0Xc.c.c.0X=.S...L q.9XL s bXS.=.`.5.5.5.5.0X5.S.bXbX_ _ +.+.S.@.@.@.=.=.0XbXy.C.%.R ,.,.' ' ' ,.' ' ' ,.R %.|.L =.c.1.o.g g . g g g o.1.c.5.` *XC.%.",
"X X X X ; ; D.; ; ; . . . . . ; . . . . . . W , 9 d p p p p 1 1 1 p 1 1 1 %X1 %X1 1 1 1 1 %X* %X* * %X1 p d d d 9 W X X X X X . . . . ; ; ; ; ; ; ; . . . . ; ; ; X X ; ; ; ; X . . . . . . . ; ; ; ; ; X X X X X . W 9 d p %Xp 9 9 9 9 9 , , , , W , , , W W W , W g o.o.o.1.).hX=...q.y.y.f.f.L bX@.1.c.1.tXtXtXo.W.Z.Z.Z.%X1 1 1 * T T - - - 1 1 p p d 9 , W . ; ; ; ; . . . . . . . . . . . . . g . . X ; X > ; ; ; X . . X ; ; ; ; ; ; . W W > W > X X X . g g g g . g g g ; ; ; X X X X X X X X X ; ; ; X W 9 9 d d d d 9 9 9 , , W > > X X X ; ; ; ; ; ; ; ; X . . . . . . ; ; ; . . . . . . . . . . . . . . . . . . . . . . . . . . . . . . . . . . . . . . . . . . . . . ; . . . . . g g g . . W W W . . . g g D.D.D.Q.Q.Q.D.Q.D.D.; g ; . ; ; ; PXPX:X4.sXpXpX:XPXPXg . . . W . g ; X X X X X > > . g g g D.g g g ; g g . . . . . . . g g g g g . , 9 d p 1 - 1 %XH.u.` *XC.%.R R R F F R R %.|.h.cXhX0X/.9.q.y.,X|.C.C.C.|.*Xy.&.bXS.=.0XS...q.f.*X*X,X,X;X*Xy.f.q.#.S.=.0X9.y.C.R R ,.,.' ' ' ' ' ' ,.,.R %.C.y.S.0X1.1.o.o.g g g o.o.1.c.c.@.J *XC.",
"W W W W > W W . ; ; ; . . . . . . . . . . . . . W W , 9 9 9 9 d d d d d d d d p p p d d d p p p %Xp d d d 9 9 , , W . . . . . . . . . . ; ; ; ; ; ; ; ; ; ; ; ; ; X ; ; ; ; ; ; . . . . . . . . X ; ; ; ; X . . W W 9 d p 1 p 9 > > > , , > > > W ; . W W g g . . g o.tX1.1.c.0X/.&.,XG.n.n.n.C.|.*Xf @.`.c.c.c.tX1.W.H.&X&X&X%X%X1 1 - 1 1 p p d 9 9 , W W . . . X X X . . . . . . . . . . . . . W . X X ; ; > > X X ; ; g g g g ; g g . X ; . > > > . . . g g g g g W.W.o.o.g g ; ; X ; ; ; ; ; ; ; ; ; ; ; ; X > > > W W W W > > > > X X X X X X X ; X ; ; ; ; X X X . . . . . . . . . . . . . . . . . . . . . . . . . . . . . . . . . . . . . . . . . . . . . . . . . . . . . . . . . . . . . g . . . . ; ; D.D.D.Q.Q.K.K.K.Q.Q.Q.Q.D.D.g . . . ; D.PX:X4.4.FX4.FX4.4.pX:X:X:XPX:X:X. g g ; ; ; ; ; > . . g g g g g D.g ; g . . . . . . . g g g g . . . W , , 9 d d d Z.5.S.9X|.%.R F F ' ' ' P F R %.;X-XcX#Xh.*XC.C.%.%.R %.R R %.C.|.*Xk.#X#Xk.*XG.C.n.%.%.%.n.n.n.C.|.*Xq.6.cX#Xb.G.R R ,.' ' ' ' ' ' ' ,.,.,.R C.*X#.0Xc.c.1.1.1.o.1.1.1.o.1.1.c.0XbXy.",
"d d d d 9 d d , W ; ; ; ; ; . . . . . . . . . . . X > > > , > W W W W W W W W W , , , , , , , 9 , , , , , W W W W . . . . . . . . . . . ; ; ; ; ; ; ; ; ; ; ; ; ; X X ; ; ; ; X X ; ; ; X X ; ; ; ; ; ; X . W , 9 d p 1 1 1 d , ; ; ; > > X ; ; g o.o.o.o.o.o.o.o.tX1.1.c.c.=.#X-.|.n.R F F F F %.C.*X#.0XhXc.c.c.`.5.u.4XH.H.&X%X%Xd d d d 9 , , W W W . . . . . . . . . . . . . . . . . . . . . > X X ; ; ; X X . . g g o.o.o.g o.g g g g g ; ; . ; g g g o.o.o.o.o.o.W.o.o.o.g g ; X X X X X X X X X X X ; ; ; X ; ; ; ; ; X X X X X X X X X X X X ; ; ; X ; ; X X X . . . . . . . . . . . . . . . . . . . . . . . . . . . . . . . . . . . . . . . . . . . . . . . . . . . . ; ; ; . . . . . . g g D.D.D.D.Q.Q.K.Q.K.K.K.Q.Q.Q.D.D.; D.D.PXg PX:XPXPXPX4.FXLXLXLXLXLXFX4.sX4.4..X:X:X:XPXg g X ; ; ; ; ; ; ; g g g . . . . . . . . . . . g g g g g . . ; . . . > W W > W.1.bXy.C.%.R F ' ' ' ' ' ' F R G.yX(.-.|.C.%.R R F F F ' ' F F %.C.;X(.(.{.G.n.R F F F F R F F R %.C.|.;XOX(.yXqXn.R F F ,.,.,.,.F F ,.,.,.R n.,X*.0XhXc.c.c.1.1.1.1.1.1.5.1.c.0X0XcX",
"1 1 1 1 1 1 p %X9 W . ; ; ; . . . . . . . . . . . X X X > > > X X X ; g g g g g g W . . . X X . . . . . . . . . . . . . . . . . . . . . g ; ; ; ; ; ; ; ; ; ; X . . . . X X . . . ; ; ; ; ; ; ; ; X X ; X > , 9 p 1 1 * 1 1 d , X ; ; ; ; ; ; g o.o.1.1.1.1.c.c.tXc.1.c.hX0X9.y.G.R F F ' ' ' F ,.R C.h.cXGX0XS.bX_ ` j.j.w u.5.H.Z.W.W W W > . X X ; X X . . . . . . . . . . . . . . . . . . . . X > > ; ; ; ; g g g o.o.tXtXo.o.o.o.o.o.o.g g g g g g o.o.1.1.1.1.1.c.1.1.1.o.o.o.g . X X X X X X X X X X X X X X X ; X X X X X X X X X X X X X X X X . . ; . . ; ; ; . . . . . . . . . . . . . . . . . . . . . . . . . . . . . . . . . . . . . . . . . . . . . . . . . . . . ; ; D.D.D.D.D.D.D.D.D.Q.Q.K.K.K.K.K.K.Q.Q.Q.D.D.D.D.; ; g PX:X:X:X`.`.p.sX4.LXLXLXaXaXLXIXIX4.FXFXFX4.4.:X:XPXg ; X X X X ; ; D.g ; . W W W . ; ; ; . . . . . . g . . . . ; X . X . . ; g o.c.S.y.C.%.R P ' ' ' ' ' ,.F R n.rX;XrX%.%.%.R R F ' nX' ' P P F R G.b.yX,Xn.,.F P P P P P F F F F R %.n.qX1Xb.qXn.R R R n.R R ,.R ,.,.jX,.R jX;X(.cXcXcXS.S.S.S.S.@.=.5.5.5.0X0X0XGX",
"T T * * * * * 1 p d , . . ; . . . . . . . . . . . . X X X X ; ; ; ; g g g o.o.o.o.g g g ; ; ; ; ; ; ; ; ; ; X X X . . . . . . . . . . . g g . . . . . . . . . . . . . . . . . W . ; ; ; X X . . . W W . > , 9 d p * * * 1 1 p 9 W X ; ; ; ; g o.o.1.1.`.0X0X0X5.0X0X0XhXhX#X-.G.%.R F ' ' ' ' ,.,.R %.;X(.-Xk.y.*X,X|.|.*Xg.j.u.5.1.o.g g X ; ; ; ; ; ; . . . . . . . . . . . . . . . . . . . . X X X X X X ; g g o.o.1.1.1.1.`.1.1.1.1.1.o.o.W.W.o.o.o.1.5.5.u.u.S.@.=.=.5.1.1.1.o.g g ; ; ; ; ; ; ; ; ; X > X X X X > > > > . . . . . . . . . . . X X ; . ; . ; X ; ; . . . . . . . . . . . . . . . . . . . . . . . . . . . . . . . . . . . . . . . . . . . . . . . . . . . g ; D.D.D.tXQ.Q.Q.Q.Q.K.K.z K.K.K.K.tXQ.D.D.D.; X ; ; ; g PXo.PXp.pXp.sXsXsXIXLXaXU.r.U.aXIXIXIXIXLXLXSXFX4.:XPXPXg . > > > > . . W W 9 9 9 , W . ; ; . . . . . . . . . X X ; > W . . . g o.1.c.S.9X|.%.F F ' ' ' ' ' F R n.C.C.G.C.C.C.%.%.R F ' ' ' nXP P F R n.1XyX1Xn.F nXnXP P P P P P P F F F F R n.jXjXn.n.G.G.G.G.n.n.n.%.n.n.,.jXqXyXOX(.OXh.f.y.y.f.f.q.f ~ @.5.=.@.#X#X",
"* * * * * * * %X1 d 9 W . . . . . . . . . . . . . . . > X X . X ; g g o.g W.o.g o.o.g g g g ; ; ; ; ; ; X . . . . . . . . . . . . . . . g g ; . . . . . . . ; ; ; . . . . . > > > . . W W W W , , , , 9 9 9 d p 1 * * 1 1 %Xp d , W X X X g o.o.1.c.=.S.bX..#.&.#.bXcXGXGX6.,X%.%.R R F F F F ,.,.R R jXqXqXn.%.%.%.%.%.%.C.|.j.@.1.1.o.g ; ; ; ; ; ; ; . . . . . . . . . . . . . . . . . . . . X ; ; ; . . . W.o.1.1.1.5.5.@.@.@.=.`.c.c.c.1.W.1.1.1.5.u.w f q.f.f.q.&.#.+.@.5.c.1.o.g ; ; ; ; ; ; ; ; ; X X > > > > > > > W > . . . . . . . . . . X X X ; . ; . X ; g . . . . . . . . . . . . . . . . . . . . . . . . . . . . . . . . . . . . . . . . . . . . . . . . . . . . ; D.D.Q.Q.K.K.K.K.K.K.K.K.K.tXD.D.D.; ; ; X > > > X . g PX`.pXsX4.J.J.IXIXIXaXaXU.U.U.aXaXIXaXaXLXLXLXLXFX4.:XPXg . > > , , 9 d d d p p d 9 , . . . . . . . . . . . . X ; X > . . g g o.tX1.c.0X#.,Xn.F F ' P P ' F R G.rXrXrXrXrXrXrXG.n.R F P ' ' ' ' ' F R n.1XOXb.n.F nXnXP P P P P P ' ' ' F F F R R n.G.rXrXgXgXgXgXrXrXC.%.%.R jX1Xb.1XqXn.n.%.%.%.%.C.C.|.f.bX@.@.9.-.;X",
"* 1 1 1 1 %X%Xp d 9 W g ; g . . . . . . . . . . . . . . . . g g g g D.o.o.W.W.W.o.o.o.g g . . . . . . . . . . . . . . . . . . . . . . . g ; ; ; ; X X X X X X . . . W W W , , , 9 9 9 9 9 9 d d d d d p 1 p p 1 1 * * 1 1 1 p d 9 , > . g o.o.1.hX=.&.*X|.|.G.C.C.G.;X(.lX(.qX%.%.%.%.%.n.n.G.n.%.R R R n.R F ,.,.F F R %.%.C.*XbX5.1.o.o.g X X X . . . . . . . . . . . . . . . . . . . . . . . X X ; ; . . W.o.1.1.5.S.x L f.g.f.q...XX0XhXc.c.c.c.0XS.9X|.C.C.C.%.C.C.|.*X9XbX`.c.1.. W W W W W W W W W W W > > > > X X ; X X . . . . . . . . . . . . . . . ; g g g g . . . . . . . . . . . . . . . . . . . . . . . . . . . . . . . . . . . . . . . . . . . . . . . . . . . . g ; g D.D.Q.tXK.Q.K.Q.Q.tXD.; ; . . . ; ; X X > X X . PXPX:X4.FXLXLXLXLXIXaXaXU.U.U.U.aXaXU.U.r.r.r.r.LXSXFX:X:XPX. > , 9 d p p p p p d d 9 W . . X . . . . . . . . . ; ; X X ; g g g o.tX1.c.hXcXh.qXR F ' P F F n.G.AXDXDXJXJXJXBXgXgXrXG.n.F P P ' ' ,.R R G.;XOX{.n.,.nXP nXP P P ' ' ' ' P P P ,.R n.rXAXDXDXUXUXUXUXUXDXgXrXC.%.R jXjX,.,.F F R R R R ,.,.%.C.f.9.#Xf.C.%.",
"1 1 1 p p d 9 9 , W . . g g . . . . . . . . . . . . . . . g . g g g o.o.o.W.W.o.o.o.o.o.o.g . . . . . . ; ; g g g g . . . . . . . . . . ; ; ; ; ; X X X X X ; ; ; ; . W W , 9 9 9 , , , 9 9 9 9 d d d p p p d d d d d d 9 d d d 9 , W . g o.1.c.0X#.,XC.%.R R R R %.n.1Xb.b.G.%.%.C.rXgXAXDXDXAXgXG.n.R R ,.,.,.,.' P F R %.%.|.bX`.1.tXo.g ; X . . . W . . . . . . . . . . . . . . . . . . . . X X X X . g W.1.c.5.w g.|.|.C.C.C.C.|.*Xf...0XhXhX0X_ y.|.%.%.R F F F R %.C.|.9XS.`.W.Z.d d p d d p d d d d d 9 9 , , W > > X X . . . . . . . . . . . . . . ; ; g g g g . . . . . . . . . . . . . . . . . . . . . . . . . . . . . . . . . . . . . . . . . . . . . . . . . . . . . . . g ; D.D.; D.D.o.; g ; X X X X ; ; ; X > > X ; ; PX:X:XFXSXLXLXLXaXaXaXaXU.aXaXaXaXaXU.U.U.q r.r.LXSXFX.X:Xg ; ; > , 9 9 , , , W W . . X ; ; ; . . . . . . . . X X ; > X ; g g W.o.1.c.hXhXGXlXyXjXF ,.,.F R G.AXUXUXJXJXBXBXBXBXDXDXAXrXn.F P P F F R n.,XOX(.;X%.R F P P P F F ' ' ' ' ' ' ' F R G.gXDXDXJXJXJXJXJXJXJXJXAXgXrXn.R F F F P F P ' ' ' F ' ,.R qXyXOX;X%.R ",
"p p d d d , W W . . . . . . . . . . . . . . . . . . g g g g . g g g o.o.o.o.1.W.mXo.o.tXo.g g . . . ; ; ; ; g g g g . . . . . . . . . . ; . . . . . . . X X ; ; X . W , 9 d d p p p p p p p p p p p p p p p p d d d d d d d d d d 9 9 Z.W.o.1.c.bX*XC.%.R F F F F F F n.jXG.C.C.rXgXDXDXDXDXDXDXAXgXG.n.R ,.,.' ' ,.' F R %.C.*XS.c.c.o.o.g ; X . . . . . . . . . . . . . . . . . . . . . . . . . > . . g o.1.c.`.bXf.|.%.%.R R R R R n.G.,X*.cXGX#Xy.C.%.R F F ' ' ,.R %.%.|.9XS.5.H.%X1 1 1 1 1 1 1 - 1 1 1 1 p d d 9 9 , , W . . . . . . . . . . . . g g g g g g g g . . . . . . . . . . . . . . . . . . . . . . . . . . . . . . . . . . . . . . . . . . . . . . . . . . . . . . . . g ; ; ; g g g ; ; ; ; ; ; ; ; ; ; X > > > > X g PX:X4.SXLXLXL.LXaXaXaXaXaXIXIXIXaXaXaXA.aXaXaXLXFX4..X:Xg ; ; > > , , . . . . . X X ; g g g . . . . . . X X X > > > . g g o.o.1.1.5.@.#X-X(.b.jXP ' ,.R n.rXUXUXJXBXvXvXvXvXvXJXJXDXAXrXn.R R R n.G.;Xk.cXlXh.G.%.R F F F P F F P ' ' ' ' ' F n.rXDXDXJXvXvXvXvXvXvXvXBXJXDXAXrXn.R F F P P ' ' ' ' ' ' ' ' n.1XyX1XR R ",
"d 9 , W W . g g D.D.D.g g g g g g . . . . . . . . g g g g g g g g o.o.o.1.1.W.W.W.W.1.o.tXo.g g g g g g g g g g g g g . . . . . . . . . X X . . . . . X X X . . . W , 9 d p 1 1 1 * 1 * * * * * * * * 1 1 1 1 1 p p p p 1 1 p 1 p 1 p %X%XW.1.0XL |.%.R ,.,.' ' ' ' F ,.R n.G.rXBXJXJXJXJXvXBXJXJXDXgXG.%.R F P F ,.F R n.G.*Xs 0Xc.c.o.o.g g g g g g g g . . . . . . . . . . . . . . . . . . . . . . . g o.tXc.@.9X|.C.%.R F F P F F ,.,.n.,XOX(.b.G.%.R F F ' ' ' ,.F %.%.|.9XS.5.&X%X1 * * * * * * * * * * * 1 1 p p p d d , . . . . . . . . . . . . g g g g g g ; ; . . . . . . . . . . . . . . . . . . . . . . . . . . . . . . . . . . . . . . . . . . . . . . . . . . . . . ; ; . . . . . . g ; ; g ; ; ; ; ; ; . ; X > > > > X ; PX:X.X4.FXIXIXIXIXIXaXaXIXIXIXIXIXaXaXaX[.IXIXt.sXsX:X:Xg ; ; X > > > ; ; ; ; . . . . g g g . . . . . X X X X > > > > . g o.1.1.H.d.f.;X1XqXqX,.' ' F R C.gXUXDXBXvXvXvXvXvXvXBXJXDXAXrXn.%.n.qXb.h.6.cXhXGX#Xh.,Xn.R R R F F F F P ' ' ' P F n.rXDXDXJXvXvXvX8XvXvXvXvXBXDXDXAXrX%.R F F ' ' ' ' ' ' ' ' ' ' qXb.1X,.F ",
"W . . g ; ; g D.tXtXQ.tXtXD.g g g g g . . . . . . g g g g g g g o.g o.o.o.1.1.W.H.W.W.1.tXtXo.g g g g g g g g g g g g g . . . . . . . . X X X . . . X X X X X X . > , d p 1 * * * * * * * * * * * * * * * * * * * 1 1 - * * 1 * * * * * %X&X5.=.9X|.%.R F ,.' ' P ' ' ,.n.G.rXBXBXJXvXvXvXvXvXBXJXDXAXrX%.R R R n.jXG.,Xy.q...0Xc.c.1.1.tX1.1.o.1.o.o.o.o.g . . . > > X . . . . . . . . . . . . X X X ; g o.tXc.S.g.C.%.R R ' ' ' ' ' ' F R n.,X,XG.%.R R F P ' ' ' ' F R %.|.q.S.5.&X%X1 1 1 * 1 1 1 1 - - * * 1 1 1 1 1 1 p 9 W W > X X X X X . . . . . g g g g g ; ; . . . . . . . . . . . . . . . . . . . . . . X . . . g g . . . . X ; X X . . . . . . . . . . . . . . . . . ; . . . . . . . ; ; ; ; ; ; ; ; ; g . ; ; X > > X ; ; o.PX:XpXsXsXw.IXIXIXIXaXIXIXVXLXLXaXaXaXaXIXIXsXp.p.PXPXg ; ; ; X X ; ; ; ; ; . . . . g g g . . . . . X X X > > > > > . o.o.1.H.j.*X|.n.n.,.,.' ' ' F R n.rXDXJXBXvXvXvXvXvXvXvXBXDXAXrXC.G.1XyXlXcXcX0XhXhX0XS.*.y.,XG.n.%.R R R F F ' P P F %.rXAXDXJXBXvXvX8XvX8XvXvXvXJXDXDXrXn.R R F ' ' ' ' ' ' ' ' ' ,.$ 1X1X,.,.",
"g g ; ; ; g g o.tXQ.K.).K.tXo.o.g o.g g . . . . . . g g g g g g g g o.o.o.1.1.mXH.H.W.1.tXtXtXo.g g g g g o.o.o.g g g . g ; ; ; ; X . X X X X X X X X X X X X ; ; X , d 1 1 * * * - - - - - - - - - - - - - * - - * - * * * 1 * T T T * * &X5.5.s ,XC.R R ,.,.' P ' ,.,.G.gXAXJXvXvXvXvXvXvXvXvXJXDXAXrXG.G.G.,X;Xf.&._ XX=.0X).c.1.c.c.c.c.`.`.5.1.1.1.o.o.g . . W > X . ; g . . . . . . . . . ; ; X X g o.1.c.S.9X|.%.%.R F ' ' ' ' ,.' R R n.n.%.%.%.R R F ' ' ' ' F R C.y.9.=.@.4XdX%X1 1 * 1 p 1 - - - * 1 1 1 1 1 1 1 1 d , , W > X X X ; ; X ; . . g g g . . . . . . > > W . . . . . . . g . . X X . . W . X > . . . g g g . . X ; ; ; ; . W . . ; ; . . . . . . . . . . X X X . . . . X X . . . ; ; ; ; ; ; g g ; X X X X X ; g g g :XPXp.p.sXIXIXaXaXaXaXaXLXaXaXaXU.aXaXIXIXFXsX`.PXg g g ; X X X ; ; ; ; ; . . . . . g g . . . . . . X . > > > > > . o.1.`.bX*XC.%.R F P ' ' ' ' F R %.G.gXJXJXBXvXvXvXvXvXBXJXAXgXrXG.qXyX(.lXcXGX0XhXhXhXhX0XP.6.q.;X,XG.C.n.n.,.,.,.R R %.G.rXAXDXJXBXvXvXvXvXvXvXvXBXJXDXgXC.%.R F ' ' ' P ' F F ,.,.qX1X1XjXF ' ",
"o.g g ; ; g g g D.tX).Y Y ).tXo.o.o.g g g . . ; . . . . . . ; ; g g g o.o.1.1.1.H.H.5.1.).).).tXo.o.o.W.g tXtXo.o.W.g g g g ; ; ; > > > X X X X X X X X X X X ; ; X , d 1 * * * * - - - - - - - - - - - - - - - - * * * * 1 1 1 T T T * 1 %XH.5.S.9X|.C.%.R ,.,.F F ,.n.rXAXJXBXvX8XvX8XvXvXvXvXJXDXAXrX;XyX(.9.P.].'.).Y Y c.c.c.c.0X0X@.S.bXbXbXS.=.`.1.o.o.g g . . . W g g g g g g g . . g . ; ; > X g o.o.c.5.` *XC.%.R F ' ' ' ' F ,.,.n.G.G.G.G.G.C.n.R R F F F F ,.,X(.cX0X@.4X&X%X%X1 1 1 1 - - - * * * * 1 1 1 p p p d , , W > X X ; X X . . . . g g g . . . . . X > > . . . g g g g g g ; ; X X X ; X . X X . . g g g g g ; ; ; ; ; ; . W W . g g . . . . . . X X X X X X X X X X > > > X . X ; ; X ; . g g g g X X X . . . g g g PXo.PXsXFXLXaXU.U.U.aXaXIXaXaXr.U.U.aXaXLXFX4.:Xg g g g g . . . X ; ; X ; . . . . g g g g . . . . g g . . > > > X g o.1.`.f |.%.R F P P ' ' ' P F F %.n.rXgXJXJXBXBXBXBXBXAXDXAXrXG.n.qX1Xb.yX(.9./.hX).Y Y >XhX'.].#X*.h.-.{.;XrXqXqXqXqXjXn.G.rXAXDXDXJXBXBXvXvXvXvXBXDXDXgXC.%.F F ' ' ' ' ,.,.n.G.{.(.(.b.jXF F ",
"o.D.o.g g g g g o.tXtXz Y z ).tXtXo.o.g g g g g g . . . . X ; ; . . g o.o.1.tXmXH.H.W.1.).).).tXo.o.o.o.o.tXtXo.o.o.g g g g ; ; X > > > X X X X X X X X X X X ; ; X , d p * * * * - - - - - - - - - - T T - - - - - - * * 1 1 1 - T T - 1 %X&XH.0XS.&.;X,XqXqXqXjXjXn.G.gXJXJXvXvXvX8XvXvXvXvXBXDXDXgXrXb.lXGX8.X.xXxXxXi.).1.1.c.0X@.#.q.y.*X*X*Xf.#.u.`.1.o.o.o.g ; . W . g g g g . . g g g . X X > > ; o.o.c.c.@.#.y.G.n.,.F P P P ,.,.G.rXgXgXAXAXAXgXrXC.%.R F F ,.jXb.(.lXcX@.u.H.&X%X%X* 1 - T T - - 1 1 1 p p d d 9 , W W . > X X X X . . . W . g ; . X X ; ; X X X X X X ; g g g g g g ; ; ; . > ; D.D.X ; g g g o.o.o.o.o.g g ; ; . . X . . . . . . X X X X X X X X X X X X X X X X X X X X X ; X X X . . . . . X ; ; . . . . . . ; D.:XpXFXLXLXU.U.U.aXaXIXIXaXaXaXaXL.LXLXFXpXPXg g g . g g g g g X . . . g g g g g g D.g g . . . g g g g ; ; ; . g o.c.=.q.C.R F ' ' P P ' ' P P F R %.%.G.gXAXAXJXBXAXAXDXAXrXG.R R ,.,.,.n.G.*Xq.=.>XxX>XxXxXxXxXY hX/ cXlX-X(.OXyXyXb.1XjXR n.rXgXAXDXDXJXJXBXBXJXJXDXAX;Xn.R F ,.jXjXjXqXqX;X{.k.w.^.w.k.qXR F ",
"o.o.o.o.g g o.g o.o.tX).).Y Y ).tXtXo.o.o.D.D.g . ; ; X . X ; ; g . g o.tXo.1.1.W.H.H.5.c.).).).tXo.o.o.tXo.tXtXtXo.o.g g . ; ; ; X > X X X X X X X X X X X X X X X W 9 p 1 * * * * * * * * * * T T T - - - - - - * * * * 1 1 p - T T - - 1 %X&X5.hX0XcX-X(.yXyXyX1XG.gXDXDXJXvXvX8XvXvXvXvXBXJXDXAXG.n.qX(.w.F.X.xXxXxXxXi.`.`./ S.f.|.C.%.%.%.%.C.|.9Xu.c.1.o.o.o.D.g . . g g W.g g . g . . . W , > ; . g o.1.c.c.0X#XOXb.qX,.,.' F F ,.qXDXDXDXDXUXUXDXJXgXrXC.%.R n.jXqX{.-.&.bXS.H.H.&X%X%X1 1 1 p p d d 9 9 , W W > > X ; X ; X ; X . . . W . . . g W W > X ; ; ; ; X ; ; ; g g g g g g g g X X X X ; D.; g g o.o.tXtXtXtXtXo.W.g g . W . g ; g g g g g ; ; ; ; . . . . X X ; ; ; ; ; ; ; ; ; X X X X > > > W W W W X ; X . . . . . > . g PXpXFXLXLXaXU.aXaXLXIXIXLXLXaXLXLXLXFX4.:XD.D.g ; g ; g ; o.g . . g g g g g ; ; ; ; g g . . g g D.o.D.g g ; g o.tXc.0X&.C.R F ' ' P P P P P P F F R R %.C.G.rXrXgXgXrXqXG.n.F F F nXF P F R %.|.&.'.xXxXxXx.xXxXxXxX>XhX>XCX<.cX-XOXb.qX,.F ,.n.n.n.rXAXDXAXDXDXAXAXAX1XG.,.,.F jX| 7.b.yX(.lXGX8.X.xX>.J.y.C.%.",
"o.:Xo.o.o.o.o.o.W.o.o.tXQ.).Y i.).tXtXo.o.o.g g g ; X . W . ; g g g W.o.o.1.o.1.W.H.H.5.1.).Y ).tXo.o.o.o.tXo.o.tXtXo.g g . . ; ; ; X X X X X X X X X X X X X X > X X W 9 p p p p p p 1 p 1 1 1 1 - - 1 1 1 1 1 1 1 1 1 1 %X1 p 1 - T T - 1 %X&XH.0XhXcXlX-XyXb.1X1XG.gXDXUXJXvXvXvXvXvXBXJXDXDXgXrXn.R n.qX{.w.l.xXxXxXxXxXT.hXP.f.|.%.R R R %.%.%.C.|.` 5.c.1.tXo.o.g W.g g g g . . . . . . . . > X X . g tXc.c.hXhXGXGX-XOX1XqXjX,.,.n.rXDXDXJXBXBXBXBXBXBXgXrXG.n.R ,.n.n.C.|.*X9Xd.4X5.H.Z.9 9 9 9 9 , W > . X X ; X X > . g ; . . . . . g g g g o.; W W > X ; ; ; . g g o.o.o.o.o.o.o.tXo.o.g g g o.g g o.o.o.1.1.c.c.c.c.1.1.1.1.o.o.g g g g D.g g g ; ; X . . . . . . . . X X X X X ; ; ; ; ; ; X X X > > > X . . X ; . ; g g g ; . X ; PX:X4.FXLXLXLXLXLXHXt.w.t.J.J.J.J.J.sXpX:Xo.g g . . ; g g g g . W . g g D.g ; . . . . . . . g g g g D.g g D.g o.tX).hX/.y.C.F nXnXnXnX,.F F F ,.,.,.R R R %.n.n.n.n.,.,.F F F F nXnX' ' F F R C.*X+.>.xXx.oXx.x.x.xXY hXhXhXcXOX,XjX,.,.' P P F F R R n.G.G.G.G.G.G.jXn.,.P P ' ' ,.jXqX1X(.cX8.X.xXxXxXe.J.q.*X",
"tXo.W.W.o.o.o.o.o.o.o.o.tX).Y i.Y ).tXtXo.o.o.o.o.g . . W . g D.D.o.o.o.o.o.1.1.W.H.H.H.1.).Y Y ).tXo.o.o.o.o.o.tXtXo.o.g . . X ; ; ; X X X X X X X X X X X X X > X X X W 9 d 9 9 9 9 9 9 9 d d d 9 d d d d d d d d d d d d %Xd p p 1 p 1 %X&XH.5.0X#Xk.{.,XqXjXjXjXn.rXAXUXDXBXBXBXJXJXJXDXAXgXG.n.n.R F ,.qXlXl.xXxXxXxXxXT./.-.G.%.R F F F F R R %.|.9X@.c.c.c.1.1.o.o.o.o.g g g . X X X . . . X . . g o.1.c.c.0XcX-XOXb.1XqXjXjX,.,.,.qXDXDXAXBXBXvXBXBXBXAXAXb.jXF P F ,.R %.C.|.*Xj.@.1.o.g W > > > > > W W . . W W > . ; ; ; ; . . . . . g g o.g ; X . . ; g g o.o.1.1.1.c.c.c.c.1.1.1.1.1.o.o.o.o.tXtX1.1.`.=.@.@.S.S.@.=.0Xc.c.c.1.o.o.g g ; g g g . . . . . . . . . . . . . . . . . . . . X X > > > > > > . . g g g g o.o.tXo.g g . ; D.PXPX4.4.FXSXSXSX4.sX/ / / ].'./ '.c.tXtXPXg ; ; ; ; g g g o.g g g g g g g . W W W . . X . . . ; g . PX; ; g D.Q.i.i.Y XXf.|.0.nXnXF ,.,.,.,.F P F F F F F F F ' ,.' ' ' ' nXF nXF nXP F F R %.|.SXe.x.oXoXoXx.x.xXY hXhXcXk.,Xn.R F ' P P P P P F F R F R ,.n.R R ,.F ' ' P ' ' ' ,.,.jX;Xk.].xXxXxXxXxX>.p./.",
").tX1.W.:XW.1.tXo.o.o.W.o.tX).Y z Y ).tXo.o.o.o.o.g g . . . g D.tXtXo.o.o.o.1.1.1.5.H.H.5.c.Y Y K.tXtXo.o.o.o.o.tXtXtXtXo.g . . ; ; ; X X X X X X X X X X X X X X X ; ; X W W W > W W W W W W , , , , , , , , , , W , W W W W.Z., , 9 9 9 Z.W.5.0XbXf.rXn.%.R F F ,.,.jXrXAXDXDXJXJXJXAXgXgXrXG.%.R F ,.,.jX1X-X^.^.p.e.l.l.^.k.,X%.R F F P P F F F R G.q.=.hXhXc.c.c.c.1.1.1.o.g . . X X X . . . . . g o.o.1.c.@.bXq.;XqXjX,.,.,.' ' F F G.b.AXDXDXJXJXBXBXJXAXDXb.jX' P ' ' F R %.C.C.*XbX5.1.o.. > > > > X . . . g ; D.D.D.D.D.D.D.; . . W . g g g g ; ; ; . g o.o.1.c.`.`.@.u.@.@.@.@.=.5.`.c.c.c.1.1.c.c.5.S.` L 9Xf.f.f.f.q.#.bXS.5.1.1.tXg . g g g . . . . . X . X X . . . . . . . . X X X ; ; X X > > > X ; g g o.tXtXo.1.tXtX1.o.o.o.o.D.D.D.PX:X4.4.4.sXpX`.`.`./ hXhXhXc.c.tXtXtXQ.Q.D.D.D.Q.D.Q.Q.D.D.D.D.g ; g g g . X X X X . . . . . ; ; D.; ; D.K.i.xXxX>.sXSXv.y.{.;X;X{.b.qXjX' ' ' P ' ' ' ' ' ' ' ' ' ' ' F F nXF F nXR ,.n.*XFX>.x.oXoXoXoXx.xXi.hX0X*.;Xn.R F ' ' ' ' ' ' ' P F F F F F F F F F P ' ' P P P F F F R n.,Xs '.xXx.x.xXxXxX>.",
"Y ).c.1.5.W.1.o.1.o.o.o.o.tXtXK.Y i.).).tX1.1.o.o.o.g g . g g tXtXQ.tXo.o.o.o.o.1.1.H.H.5.c.).Y Y ).tXtXo.o.o.o.tXtX).tXo.g . . ; ; X X X X X X X X X X X X X X X X ; ; ; X ; ; ; . . . . . . > > > > X X . > . . . W . . g g g . . . W g o.1.0XS.q.|.%.R R ,.F ' ,.,.,.n.G.rXgXgXgXgXrXG.G.n.R R F ' ,.jX| 1XOXk.k.&...J.].cX{.n.R F F P P ' ' P F R qXk.cX0X0X0X=.=.=.5.1.1.1.o.g . X X X X . . . g g o.1.1.S.j.*X|.n.R F P ' ' ,.' F F n.qXgXAXDXDXDXJXBXgXAXb.1XjX' ' ' ' ' F R %.C.|.` 5.c.tXg X > > ; ; D.D.D.Q.Q.Q.Q.Q.K.Q.Q.D.D.; . . g g g W . g g g g o.1.1.5.@.+.#.q.9Xf.q.q.&.&.s bXS.=.0Xc.hXhX0XbX9X|.|.C.C.C.C.C.|.,X*X9Xx @.1.tXo.. . g g ; . X X X X ; ; ; ; ; ; ; ; ; ; D.; D.D.D.D.D.D.D.D.D.D.D.tXtXtX).c.c.1.`.`.5.5.1.c.tXo.o.o.o.:X`./ / '.'.hX0X0X0Xc.c.0Xc.c.).).K.K.K.K.K.K.K.K.K.K.z K.Q.Q.D.g g g o.g g g g g o.g g g D.D.D.D.D.PXD.K.i.x.xXx.>.e.p.sXJ.J.J.t.-Xb.jX,.' ' P P ' ' P ' ' ' ' ' ' ,.,.R R R R R nXC.,XSXp.x.oXoXoXoXoXx.i.Y hXS.f.C.%.R ,.' ' ' ' ' ' ' P F F F F F F F F F P ' ' P P ' ' F F R R C.*XXX>.xXx.x.x.x.xX",
"Y Y ).c.1.5.W.1.o.1.o.W.o.o.tX).).Y ).).).tX1.1.o.o.o.g g g g tXQ.).tXtXtXo.1.1.tX1.5.H.H.1.).Y i.).).tXo.1.o.1.o.tX).tXtXg g g ; ; X . X X X X X X X X X X X ; ; ; X X ; ; ; ; ; X ; . . . X . . X X X ; X X X X X X X g g g g g g g o.1.c.c.=.q.|.%.R F F ,.,.' ,.' ' F n.G.G.G.G.n.n.n.,.,.,.F ' ,.$ | b 1XqXG.G.C.,X{.(.-X1X,.F F P P ' ' ' ' ' ,.qX-XcX#X*.q.q.q.f bX@.`.1.1.o.g . X > X X . . g o.tXc.5.j.*XC.%.R F P P ' ' ' ' ,.R R R G.rXrXgXgXrXrXrXG.G.jX,.' ' ' ' ,.F R %.C.|.bX`.c.tXD.; > ; D.Q.Q.K.K.K.z z z z z K.K.Q.D.; ; ; g g o.g . g D.o.o.1.1.=.x q.y.,X|.C.C.G.G.G.G.|.*Xf.&.#XGXhXGX9.y.|.%.R R R R R R R %.%.|.f.w 5.tXo.g g ; ; ; X X X ; ; ; ; ; D.D.D.D.D.D.Q.D.Q.Q.D.Q.Q.Q.K.Q.Q.K.K.K.K.Y ).).`.@.S.bXbXbXbXS.=.`.1.1.1.1.1.'.'./ / 0X0X=.S.bXS.S.=.0Xc.Y Y i.i.z z z z z z z z B ! K.Q.Q.tXo.o.W.W.W.. o.tXtXtX).Q.tXQ.Q.Q.Q.D.Q.K.B x.x.x.x.x.xXxX>.>.l.T.t.b.jX' ' ' P P ' P P ' ' ' F ,.jXqX1XqXG.jXjX|.,Xy.SXsX>.x.oXoXoXoXoXx.i.).hXS.*XC.%.n.F ' ' ' ' ' ' ' F F R R ,.jXjXR F ,.F ' ' P P ' ' ' F F R %.|.#.'.xXx.x.x.x.oX",
"Y Y Y ).).1.H.5.1.1.o.o.o.o.tXtXK.).Y Y ).).c.1.1.1.o.o.D.o.g o.tXQ.K.).tXo.1.tXc.1.5.H.H.5.c.Y i.Y z ).tXtXtX1.o.tX).).tXo.g g g ; ; . X X X X X X X X X X X ; ; ; X > X ; ; ; ; ; ; g ; ; X X X X X X X X X X X X > X . . . . . . W.o.1.c.0XS.*XC.%.R F ,.' ,.' ,.' F F n.qX,XqX%.R R F ' ' ' ' ' $ 1X| jXjX,.R R R R n.1XyX1X,.F F P P nX,.' P ' ,.1X(.(.b.|.G.G.|.|.*X9XS.0X1.1.o.g . X > X . . g o.tXc.@.9X|.%.R R F ' ' ' ' F F R R ,.,.R R n.n.C.G.C.%.%.,.,.,.,.,.' ,.R R %.C.|.g.@.c.1.o.g ; ; Q.K.K.z z z z z i.z z z z K.Q.Q.D.D.D.D.D.D.D.D.D.D.tXtXc.`.bX*X|.n.R R F F F R R R R %.C.G.b.lXGXlX-.C.%.F F F F F ' F F F R %.,XL @.tXtXg ; ; ; X ; ; ; ; D.D.D.D.D.D.Q.Q.Q.K.K.K.K.K.K.K.K.z z z z z K.i.Y Y ).@.J q.y.*X*X*X*Xf.q.bX=.`.c.c.c.hX0XP.9.#.&.9XgXgXAXq.#.S.0X>X>XY i.i.z z z z ! z z ! K.K.Q.tXtXW.W.&X&X&XZ.W.tX).Y Y Y K.K.K.K.! K.K.K.B B x.x.x.x.x.x.xXxXxXT.#X;Xn.F ' ' ' ' P P P F F F F R 1XOX-X-XOX-.h.*.HXsXp.>.x.x.oXoXoXoXx.i.z c.hX@.f.C.%.n.F ' ' ' ' ' ' P F R R R jX1X1XjXF F F ' nX' P ' ' P ' ,.R %.C.q./ xXxXx.x.oXoX",
").Y Y Y Y c.1.5.H.W.W.o.tXtXo.tXtX).Y Y Y ).).c.1.5.o.o.o.o.o.o.tXtX).).tXtX1.1.c.1.5.H.H.5.c.Y Y Y i.).tXtX1.1.o.1.).K.tXtXo.g g ; ; . X X X X X X X X X X X ; ; X X X X ; ; ; X ; ; g ; . . X X X ; X X X X > > > > > W W W W . . W.1.c.hX0X#X;XqXqXqX1XqX$ qXjXjX,.R n.,XOX(.{.n.R F F P ' ' ' ,.1X1XjX,.F F ,.F F F F jX1X} jX,.F F F F ' ,.' ,.jX1Xb.1Xn.R R R %.%.%.C.y.bX=.1.1.o.g X > > . . g o.tXc.5.j.|.C.%.R F F ,.,.F R R n.qX1XqXjXF F R R R R R F ,.jX1X1XqXn.n.C.C.|.*Xf.J `.c.tXo.D.D.Q.! z z z z z z z z z z z z z K.K.Q.Q.Q.K.K.K.Q.Q.K.K.K.).).=.9XC.%.R F F F P P P P P F F F R n.b.(.OXqXR F ' P ' ' ' ' ' ' F F R |.q.@.1.tXg . W > ; ; D.D.Q.Q.Q.Q.Q.K.K.! z ! z K.z K.z z z z z z z z z i.i.Y c.S.9X,X|.C.%.%.R %.n.G.y.6.cXhX>XhX/.*.y.,X|.C.C.%.%.C.G.,X-.6.0X>X>XY z z K.K.K.K.Q.Q.Q.Q.Q.tXtXo.mXKXKXZXZXKXKXmX).).).Y Y i.z z B B ! ! ! B B ! ! B x.x.x.xXxXT...,X%.F ,.' ' ' ' ,.F F F R n.jXyXlX3XCX<.GX^.<.l.xXxXx.x.oXx.x.x.x.B K.tX1.c.0XJ *XC.%.R F P ' ' ' P F ,.R R %.1X(.(.1XR F F ' ' nX' ' ' P ' ,.R %.C.q./ i.i.x.x.x.oX",
").Y Y Y Y ).).1.H.H.H.W.o.tXo.o.tX).).Y Y Y Y c.1.5.1.o.:XtXo.o.g tX).z ).tXtX1.c.1.5.5.5.5.1.).Y Y i.Y ).tXtX1.1.tX).).z tXo.g g g ; W . . . . . . . . . . X X X X X X X X X X X . g g . . . . X > ; ; ; X X > > > W > > , > , . g o.1.c.hXcX6.;X1Xb.b.7.yXyXb.b.1X,XG.;X(.GXGX-.n.%.R F P ' ' ,.jX1XqXjX,.F ' ' ' ' P ' ,.qX1XqX,.F R ,.R F ,.,.,.$ 1XjX,.R F F R F R R %.C.*XS.c.c.o.o.g . > > X g o.tXc.c.S.q.*XC.%.R R R R R %.G.;X(.-XyXjXF F P P ' ' F F ,.qXyX-X(.-.f.9X$XkXH u.`.).).K.Q.Q.K.! ! ! z z z z z z z z z z z B B B B B B B z z z z B i.i.i.).+.|.C.%.,.F F ' P P P P P P P P F R jXqX1XqX,.P ' ' ' ' ' ' ' ' ,.F %.,Xs 5.1.tXD.X W ; D.D.Q.Q.K.! z z z B B B B B z z ! z ! z ! z z z z z z i.i.Y u.g.C.%.R R R F F F F R %.,X(.GX<.cX-.|.%.R F F F R R R R R %.,Xh.0XY ).).Q.Q.Q.D.D.; ; D.g o.tX1.mXKXZX8X8X8X8XZXmXmXmXmXmX).).z z ! ! ! ! ! ! ! Q.Q.K.z z i.xXxX>X/.f.C.R ,.,.,.,.,.,.F R n.jXqX1XyXzXuX3X~.8.s.X.xXxXxXx.x.oXx.x.x.B K.tXo.1.1.c.@.j.*X|.C.%.R F F P F F R R %.jXOXw.cXyXR R ,.F ' nX' ,.' P F R R n.,X#XhX>Xi.i.i.x.x.",
"tX).Y Y Y Y ).c.1.W.H.H.W.o.1.tX1.tX).Y Y Y Y ).c.1.5.W.o.tXo.o.o.tXtXK.Y ).c.tXc.1.5.5.H.5.1.).Y Y Y Y ).tXc.tX1.1.).).).tXtXo.g g g . . . . . . . . . . . X X X X X X X X X X X . g . . . ; ; X W > ; ; ; X . W . . . . X X W . o.1.c.0XcX6.b.qXqXjXqXqXqX1X1XOX-X(.(.#XGX8.8.-X,Xn.n.,.,.,.,.jX1Xb.qXR R F ,.' ' ' ' ' ,.,.jXn.%.%.%.n.%.%.R R jXqXjX,.F F ' F ' F F F R %.*XbX0Xc.o.o.g ; X ; ; g o.o.o.1./ =...f.*X|.C.C.C.G.,Xh.lX<.GXb.jXF F ' ' nXnX' P F jXb.lXGX0X0Xc.c.c.).).i.i.i.z K.K.! B B z z z z z z z z z z z z z ! ! ! ! ! z z z B B B z i.i.hXm |.C.%.R ,.F P P P ' ' ' ' ' ,.F R R n.n.n.R F F ' ' ' nX' ' ' F R n.y.S.c.c.o.o.D.D.Q.Q.K.K.! B B B B z z B B z z B z z z z B B B B z ! z z z i.).U *XC.%.R ,.F ' ' F P F F ,.1X-XlXOXG.%.F F ' ' P P F F F R ,.n.,Xs c.).tXD.; ; ; ; ; g g W.W.mXmXmXKXZX8X8X8X8XZXKXKXZXZXKX&X1.).i.z ! ! ! ! Q.Q.Q.D.D.Q.Q.K.i.xXxXhX9.*XC.%.R ,.R R R ,.jXqX1Xb.1X1X1X1Xb.yX(.t.^.l.xXxXx.x.x.x.B i.z ).tXo.o.1.1.1.5.bX9X*X|.C.C.%.%.R R n.C.|.-.t.8.<.-X,Xn.R R F ,.,.F F F R R n.,X*.hX>Xi.i.i.B B B ",
"1.tX).Y Y Y Y Y ).1.H.&XH.W.1.1.c.tX).).Y Y Y Y ).c.5.5.1.1.1.o.o.o.tX).Y Y ).c.c.c.mX5.H.5.`.).Y Y Y Y ).).tX1.1.tX).).z ).tXo.g g g . . . . . . . . . . . X X X X X X X X X X X ; ; . W . ; ; X W W . . . g g g o.o.o.o.g g o.o.1.c.=._ f.,XjXn.,.,.,.' ,.,.jXqXb.-XGX<.s.O.s.GX(.b.1X1X1X1X1Xb.(.(.;Xn.R R ,.' P ' ' ,.R R n.C.G.rXgXrXrXrXG.%.%.,.,.F ' ' ' ' ' ' P F R %.|.s 0Xc.1.o.g . ; ; D.g D.o.tXtX).).'.pX+...#.&.&.#.P.].8.X.^.-.C.R F ' ' ' ' P F F %.,X6.hX>XY Y i.z K.i.i.i.z ! ! ! ! ! B z z z z z z z z z z z B z z z z z z z z z B B B z i.i.Y @.g.C.%.R F F P P nX' nX' ' ' F R R %.%.%.%.%.R R F F F ' ,.,.F F %.,X*.0Xc.c.tXK.K.K.K.z ! ! B B B B B B B B B z z ! ! z z B B i.B B z ! z z i.i.Y U g.C.%.R F ' P ' ' ' ' P ,.qXyXyX,Xn.R F ' ' ' P P P F F F F R C.f.u.c.tXg . X X . . g W.&XKXKXZXZXZXZX8X8X8X8XZXZX8X8X8X8XZXKXtXi.z ! K.K.Q.Q.D.D.o.D.D.Q.K.z i.xX>X'._ y.|.C.%.%.%.n.qX1X1X1XjXjX,.,.,.jXjXqX,Xy.HXp.xXxXxXi.>.).'.'.).c.1.1.tX1.c.1.1.@.bXJ L f.y.*X,X,X*Xv.HXsX>.xXl.].*.,XC.%.%.%.%.R %.%.C.|.y.#.0XY >Xi.i.z z B B ",
"1.1.).).Y Y i.Y Y tX5.H.&XH.1.1.1.1.c.).Y Y Y Y Y ).1.H.5.1.o.o.o.o.tX).Y Y ).).c.c.1.5.H.5.5.c.Y Y Y Y Y ).c.1.1.1.).).Y ).tXo.g g g . . . . . . . . . . . X X X X X X X X X X X ; X . W . . . . . . g g o.o.o.1.1.1.1.1.1.1.1.c.c.=.#.y.|.n.,.F F P F ,.F F F ,.jXOXGX8.s.s.<.cX(.b.b.b.b.1XyX-XGXGXyXG.%.R F ' P F ,.R %.G.rXgXgXAXJXAXgXAXAXrXG.%.R F ' ' ' ' ' ' ' P R %.|.f 0Xc.1.o.g . ; D.g g o.tXK.z i.i.i.>.>.e.'.pXsXpXe.l.xXxX<.&.,X%.F F ' ' P ' F R %.rX..hXY Y K.z K.K.B B B ! ! K.! ! B B B z z z z z z z ! z z B z z z z z z z z z B z B B i.i.Y `.` |.C.%.R F F ' ' ' ' P P F R %.G.rXrXrXrXrXG.n.%.R R F F F ,.jX1X(.cXhXhX).).Y z i.z z ! z ! ! ! ! ! ! z z z z z z ! ! z B B B B B ! ! ! z z i.Y @.9XC.R F F P P ' ' ' ' ' F jXqXqXn.R F ' ' ' ' P P P P F F R R C.*X4X).tXg g ; X . g W.&XZXZX8XZX8XZX8X8X8X8X8XZX8X8X8X8X8X8XM.&Xz K.z K.K.Q.D.tXD.tXQ.Q.K.z z i.i.xX>X/ #X&.-.;X;X;X1Xb.b.1XjX' ' ' ' ' F F R R C.*XHXp.xXxXxXT.'./ / / c.c.1.c.c.1.1.c.c.c.`.`.=.pX/.4.FX4.sXe.>.xXxXxX>X/ 9.q.y.;X,X,X;X{.y.-.*.P.hX>X>Xi.i.i.z z z i.",
"o.1.tX).Y Y i.Y Y ).c.5.H.H.H.1.1.1.1.).Y Y Y Y Y ).c.5.H.H.1.1.1.o.tXtXY Y Y ).c.c.1.5.H.H.5.c.).Y Y Y Y Y c.1.1.1.c.).Y ).tXtXo.g g . . . . . . . . . . . X X X X X X X X X X X > > X X g g . g g o.o.1.1.`.1.`.`.`.5.5.5.5.0X0XhX#Xy.G.%.R ,.F F F ,.,.R F F F R qX(.GXGXlX(.yX{.1XqXqXqX1Xb.-XGXCXlX{.G.R F P P F R %.G.gXDXJXBXBXJXBXJXJXDXAXrXn.R F ' ' ' ' ' ' ' F R %.|.x `.tXo.g ; X ; D.g . g tXz i.i.x.xXx.xXx.x.! e.e.>.xXxXxX>./.f.|.%.R F F F F %.%.C.*XS.Y Y z z z ! K.z ! ! ! ! ! ! B B B B B z z z z z ! z z B z z z z z z z z z z B K.! z z i.Y Y =.L *XG.n.R F F ' nX' P F ,.G.rXgXAXAXJXAXBXgXrXrXG.n.R R R jX1XOXlXGXGXhX>XY Y Y i.z z z ! ! K.K.K.K.! ! ! z B z z ! ! ! ! z z ! K.K.K.K.K.K.K.).`.#.,X%.F F ' ' ' ' ' F F F R n.n.%.R R ,.' ' nXnXP P P F F F %.C.g.u.).tXo.g ; ; g g W.dXZX8X8X8X8X8X8X8XZXZXZXZX8X8X8X8X8XZXZX&Xz i.z z K.Q.Q.D.Q.Q.Q.K.z z i.i.i.>X>X>XhXGXcX#X-X-X-X(.b.qXF P P P P F F F R R R C.{.t.8.8.^./.#X..#.#.bXS.@.`.c.c.c.tXc.).).Y i.i.xXxX>.>.>.x.x.x.x.xXxX>XhX0XP.#X9.9.#XcXcX0XhXhX>X>Xi.i.z z i.z i.i.",
"o.o.1.tX).Y i.Y Y Y ).c.5.H.H.H.5.1.1.c.).Y Y Y Y Y ).1.H.H.:X1.o.1.1.tX).Y Y Y ).c.c.5.H.@.5.c.).Y Y Y Y Y ).c.1.1.c.).Y Y ).tXo.g g . . . . . . . . . . . X X X X X X X X X X > > > ; ; g g o.o.1.1.1.`.`.=.@.S.bX..#.#.#...9.cXcX-X;Xn.R ,.R R R R %.%.R R R F F ,.1XyXyX1XjXn.n.,.,.,.,.n.n.;XlXCXGX-Xb.G.,.F F F R n.rXUXUXBXBXvXvXvXBXBXDXDXgXG.R F ' ' P ' ' ' F R %.C.g.S.1.tXo.g ; ; ; ; g g g D.K.z i.x.x.x.x.x.x.oXoXoXx.x.xXxXxX>.P.q.,XG.C.%.%.n.C.|.*Xs =.).).K.K.z z z z z z z z z z B B B B B B z z z z ! z ! z ! z z z z z z z z z z ! K.K.K.).Y Y hX0X6.yX1XqXn.F ' ' ' P R n.;XAXDXDXDXJXJXJXJXJXgXgXrXn.R ,.jX1XyXOX(.-XcX0XhX>Xi.i.i.z z z K.z z ! z z z K.z z z z K.K.K.K.K.K.Q.Q.Q.Q.Q.D.D.tXc.c.S.y.C.R ,.' ' ,.,.F F R %.%.%.C.%.%.R R F P ' ' nXP P F F R %.|.j.`.).tXo.g ; ; g g W.&XKXZXZXZXZX8X8X8XZXZXZXZX8X8XZXZXKXKX&X1.i.z i.z z K.K.K.K.K.K.z z i.i.i.i.>X>X>X>X8.<.GXGXCXGXlXb.n.F F F F R R R R %.%.%.R ;X-Xw.w.6.-.,X|.|.|.,Xy.q.bX=.c.).).).Y Y i.i.xXx.x.x.oXoXoXoXx.x.x.i.i.>X>X>XhXhXhX>X>X>X>X>X>Xi.i.i.z z z z i.i.i.",
"W.o.1.tX).Y i.Y Y Y Y ).1.5.H.H.W.5.1.1.c.Y Y Y Y Y Y c.5.H.H.1.1.o.1.tX).Y Y Y Y ).c.5.H.@.5.`.c.Y Y Y Y Y ).c.1.1.1.).Y z ).tXo.o.g . . . . . . . . . . . X X X X X X X X X X > > > ; ; g o.tX1.c.c.0X=.S.#.f.*X|.|.|.|.|.|.,Xb.(.(.1XjX,.R %.%.n.C.C.C.G.n.n.,.F F ,.jXjXnXF F F F F F R R %.G.k.CXCXGXlXOX1XjX,.R %.G.AXUXDXBXvXvXvXvXvXBXJXDXAXG.R F F ' ' P P F F R %.|.j.5.1.o.g X ; ; ; . g g g g D.Q.B x.x.x.x.x.oXoXoXoXoXoXoXoXxXxX>./ +.&.y.*X|.*Xg.j.bX0Xc.c.tXtXtXK.z z i.z Y z z z z z B B B ! ! ! ! ! ! z z z B B B B z z z i.z z z z K.K.Q.Q.tX).c.hXhXGXGX-XyXqX,.' P P F R G.AXDXJXBXBXBXBXvXBXBXJXDXAXrXn.R ,.jXjXjXG.,Xy.&.#X/ >X>XY i.z z z z z z z z z z K.K.K.Q.Q.Q.D.D.D.D.D.D.D.D.; g g o.1.c.0X6.{.qXjX,.F F F R R n.G.G.rXrXrXG.G.n.F F P ' ' ' ' F F n.G.f.S.c.tXtXo.g g . . . o.W.&XKXKXKXKXZX8XZXZXZXZXZX8X8XZXZXKXmXc.Y i.z z z z B B ! ! ! z z i.i.i.Y Y hX0X0XcXcXcXcXGXGXGX-X1XR R R n.G.G.G.G.C.C.%.%.n.qXb.yX1XqXn.%.%.%.%.%.n.G.*X&.=.hXY Y i.i.z B x.x.oXoXoXoXoXoXoXx.x.B i.i.>XxX>XxXxXxXxXxX>XxX>XxXi.z z B B z i.i.i.",
"o.1.1.1.tX).Y ).i.Y Y Y ).1.5.H.H.5.mX1.c.).Y Y >XY Y ).c.5.H.5.1.1.1.1.).Y Y Y Y ).).0XH.@.H.0Xc.Y Y Y Y Y ).c.1.1.1.).Y Y K.tXo.o.g . . . . . . . . . . . X X X X X X X X X X > X X ; g o.tXc.c.`.S.j.f.*X|.C.%.R F F F R R %.n.qX1X1XjXn.G.rXgXgXgXgXgXgXgXrXG.R F F nXF P P P F F ,.R R R %.G.k.CX^ O.CXuXNX| ,.F R G.AXUXJXBXvXvXvXvXvXBXJXDXgXG.,.F ,.,.F F F F R C.|.g.U 1.o.g ; ; X . ; ; ; ; ; g g D.Q.B x.x.x.oXoXoXoXoXoXoXoXoXx.xXxXxX).=.~ wXwXwXS.H.c.c.).1.W.o.o.tXtX).Y Y Y i.i.i.z z B B B ! ! ! ! ! ! z z z B B B B z z z z z K.K.Q.D.D.D.o.o.1.c.hXhXGXGX-XyXqX,.P P P F R G.AXUXJXBXvXvXvXvXvXvXBXJXDXAXrXR F F P F R %.n.G.*X&.=.hXY i.i.z z z z z z z z K.Q.Q.D.D.D.; D.; PX; ; ; X ; ; g o.o.c.c.hXGXlXOX1XjX,.F R n.G.rXgXAXDXDXDXAXAXrXG.R F F P ' ,.,.jXqX-.#X0Xc.1.o.o.g g . W W g o.W.mXmXKXZX8X8X8X8XZXZX8X8X8X8X8XZXKXc.Y i.z z z ! B B B B z z i.i.Y Y hX@.#.f.*X;X;X;Xb.b.OX(.OXqXR R %.rXAXDXUXDXAXgXG.%.%.n.jXjX' P P F R R F F F F %.,Xq.=.).Y i.z z x.x.x.oXoXoXoXoXoXoXx.x.x.i.xXxXxXxXxXxXi.xXxXxXxXxXxXi.i.z B B z z i.i.",
"1.1.o.1.1.tX).Y Y Y Y Y ).c.5.H.H.H.H.5.1.c.).Y Y Y >XY ).1.H.H.5.1.1.1.).Y Y Y Y Y ).c.5.@.@.5.c.Y Y >XY Y Y ).1.5.1.).Y i.).tXo.o.g g . . . . . . . . . . X X X X X X X X X X X ; X . g o.1.1.5.bX9X|.C.%.%.R F P P P P F F R R ,.n.jXG.rXgXAXDXDXJXJXBXAXDXAX;Xn.R F F P P P F F R ,.R R %.G.-.cXCXCXGXlXVX7.$ ' F R G.AXUXJXBXvXvXvXvXBXJXUXAXrXn.F F R R R R R %.C.*Xf.w 5.1.o.g > X ; . g ; ; ; ; g . g D.Q.K.B x.oXoXoXoXoXoXoXoXoXx.x.x.i.tX:XH.H.H.mX1.c.c.c.c.mXo.o.o.o.tX1.c.c.).).Y i.i.z z B B ! ! ! ! ! z z z z ! ! ! K.K.K.K.Q.Q.Q.D.; X . g o.1.c.`.=.bX*.yXb.qXjX,.' P P F R G.gXDXUXJXBXvXvXvXvXvXvXJXDXDXrXn.F ' ' P F F R R C.|.9XXXhXY i.z z z z z z K.K.Q.D.D.; ; . . . . . ; ; ; . . g o.o.tXc.0X0XlX-XOXb.qX,.R n.rXgXAXJXJXJXUXJXDXDXAXrXn.R F F ' ,.qXyX-XcXhXhXc.1.1.o.o.g . . g g tXtXtXmXKX8X8X8X8X8XZX8X8X8X8X8X8XZXKX1.Y i.z z z ! z B B z z z i.Y c.@.s y.|.C.%.R R %.%.n.G.qX1XqX%.%.rXAXDXUXUXUXUXDXgXgXG.n.F ' ' ' ' P F F ' ' ' F R %.,Xf `.Y i.i.z x.x.x.oXoXoXoXoXoXoXoXx.x.x.x.xXx.x.x.oXx.x.x.xXxXxXi.i.i.z z z z z i.i.",
"1.1.1.1.1.c.).).Y Y Y Y Y ).c.5.H.H.H.5.1.c.).Y >XY Y Y Y c.5.H.H.1.c.tXc.).Y Y Y Y Y c.5.@.H.5.c.).Y Y i.Y Y ).c.5.1.).Y Y Y tXtXg g g . . . . . . . . . . X X X X X X X X X X X > X . g o.1.5.bXy.C.C.%.R R F ' P P nX' ' F F R R %.n.rXgXJXJXBXJXBXBXBXBXDXDXAXG.R F F P P F F F F R %.G.;X(.cX<.GX-Xb.qXjX,.' ' ' R n.rXDXDXBXBXBXJXJXDXUXDXrXjX,.n.jXG.G.|.|.|.*X9X` S.5.1.o.o.. W > ; X . ; X > X . W W Z.:XPXQ.! x.oXoXoXoXoXoXoXoXx.x.! D.Z.%X%X&X&XW.mXmXmXmXKXmXmXmXmXmXmXKXKXKXKXmXmXtX).K.z z z ! ! B B B z z z z K.K.Q.Q.Q.D.D.D.D.; ; > ; g o.tX1.5.bX9X*XG.n.R F F F ' P P F R R G.gXDXUXJXBXBXJXJXJXBXJXDXAX1X,.' ' ' ' ' ' ,.n.n.%.|.L `.Y i.z z z z K.Q.Q.D.; ; ; ; PXX . . ; ; ; ; ; ; g o.o.c.c.=.#Xk.;XqXqXqXn.%.n.rXAXDXJXBXvXBXvXBXBXBXDXgXC.%.R F F ,.1X(.lXGXGXhXc.c.c.tXtXD.g ; D.Q.tX).).mXKX8X8X8X8X8XZXZXZX8X8X8X8XZX&XtXi.i.z z B z B B B z z i.Y c.S.9X|.C.%.%.R F R F ,.R R R n.n.%.n.AXDXDXJXBXBXJXJXJXDXAXrXG.,.' ' ' ' P ' ' ' ' F R %.C.f.u.Y i.i.i.x.x.oXoXoXoXoXoXoXoXoXx.x.oXoXx.oXoXoXoXoXoXx.x.x.xXi.i.z z z z z i.Y i.",
"H.W.1.1.tX1.c.).Y Y Y Y Y ).).c.5.H.H.H.5.1.c.).Y >XY >XY ).1.H.H.1.c.c.c.).Y Y Y Y >Xc.5.H.@.@.5.).Y Y Y Y Y ).c.5.1.).Y Y Y ).tXg g . . X X . . . . . . . . X X X X ; X X X X X . ; g g 1.c.@.q.C.%.R F F ,.,.' P P ' ' nX' F R R n.rXAXJXBXvXvXvXvXvXvXBXJXDXAXG.R F P P P P ,.,.jXqX;XOXlX<.<.lXyXqXjX,.' ' ' ' ' F n.G.rXAXAXDXDXDXUXDXAXrXn.n.jX1XyXk.*.#.J bXbXu.5.`.1.o.o.g ; X X > W W W 9 d d d p p %Xp d 9 PXQ.! x.x.x.x.oXx.x.x.! D.W %X%X%X&X&X&XKXKXKXKXZXKXKXKXmXmXKXZX8X8X8XZXKXKXW.tX).i.i.z z B B B z z K.K.Q.Q.D.; ; ; ; X X X > X D.g tX1.5.` *X|.n.,.,.F P P F ' P P F F R R G.rXAXAXAXgXBXAXJXgXAXAXgXG.,.' ' ' ' ' ' ,.,.n.%.C.9X=.Y i.z z z K.Q.D.; W W > X X . X ; X ; ; ; ; X ; o.tX1.c.S.&.;XG.n.,.,.,.R %.G.gXDXJXBXvXvXvXvXvXBXJXDXgXG.%.R F ' ,.jX1XyX(.#XcX0Xc.c.).).Q.Q.Q.Q.K.z i.Y c.&XZX8X8X8X8XZXKXKXKXZXZXKX&XmX).i.z i.z z B B B B ! K.K.).`.` *XC.%.R R F F F ' ' F ' F F F %.G.DXJXJXBXvXvXvXvXvXJXDXAXrXn.F ' ' ' ' ' ' ' P F R %.C.g.U Y i.i.B B x.x.oXoXoXoXoXoXoXoXoXoXoXoXoXoXoXoXoXoXoXx.x.x.B i.i.i.z z i.z Y i.>X",
"H.H.W.1.1.1.1.).).Y Y Y Y Y Y ).c.5.H.5.5.5.c.).Y Y Y Y >X).c.5.H.5.1.c.1.).Y Y Y Y Y c.5.H.@.H.5.c.Y Y i.Y Y ).c.`.0X).Y Y Y K.tXg g . . X X . . . . . . . . X X X X ; X X . X X X ; g o.1.c.S.f.%.%.,.,.' ' ' ' P P ' nXF ' F R %.G.AXDXJXBXvXvXvXvXvXBXBXJXAXgXG.R F P P P ,.jX1Xb.(.lXGX<.<.cX-.G.,.,.' ' ' ' ' ' ,.,.n.G.G.rXgXgXAXgX;XqXn.R ,.jX1X(.cX0X0X5.1.1.1.1.1.1.o.o.. X > > , 9 9 9 p 1 1 1 * 1 1 1 1 p d > PX! B x.x.x.x.x.B D., %X1 %X%X&X&XKXKXZX8X8X8X8XZXZXKXKXZX8X8X8X8X8X8XZXKXmX).i.i.i.z z z K.K.Q.Q.D.D.D.; ; X > > > X X > ; g o.tX1.~ g.C.%.R F ' ' ' P P P F F F F F ,.R n.G.rXG.rXrXrXrXrXrXG.G.,.F ' ' ' ' ' ,.F R %.%.|.L `.Y i.z z z K.Q.D.. > . . X ; X ; ; ; ; ; ; ; ; ; o.tXc.S.q.,Xn.,.F P F R R %.rXAXDXBXvXvXvXvXvXBXJXDXDXAXG.%.F F F ,.,.jXjXqX;Xf.*.S.hXY ).z K.K.K.z z i.i.Y tX&XKXZXZXKXKXmXmXmXmXmXmXc.).Y i.z z z z z B i.B K.Q.tX).`.bX*XC.%.R ,.F F P ' ' ' ,.' F F R G.DXDXJXBXvXvX8XvXvXvXJXDXAX1XjXF ' ' ' ' ,.' ,.,.n.C.*Xj.5.i.i.i.B B x.x.oXoXoXoXoXoXoXoXoXoXoXoXoXoXoXoXoXoXoXx.x.x.B z i.i.i.Y i.Y Y >X>X",
"1.5.H.1.c.1.c.).).Y Y Y Y Y Y Y ).1.5.H.5.5.5.c.Y Y >XY Y Y c.1.5.5.1.1.c.).Y Y Y Y Y ).5.H.5.H.5.c.Y Y Y Y Y Y c.1.`.).Y Y Y ).tXo.g . . X . . . . . . . . . X ; X X X ; X X . . . g g o.1.c.@.q.C.%.n.R R F F F F F F F ,.' F R %.rXDXDXJXBXvXvXvXvXvXBXJXAXgXG.n.R F ' ' P ,.qXb.(.GXCXs.8.GXh.G.%.F ' ' ' ' ' ' ' ,.jXn.n.R n.G.G.G.n.n.R R F ,.,.qXyXlXhXhXc.c.tXtXo.o.tXtXo.. > W 9 d d d p 1 - - * * * * 1 1 1 1 p 9 PXQ.B i.i.B z Q.Z.%X1 1 p %XZ.&XKX8X8X8X8X8X8X8XZXZXZXZX8X8X8X8X8X8X8XZXKX).Y Y i.z K.Q.D.D.D.; ; . X ; ; > > > X ; ; ; g g o.1.5.w *XC.%.,.' ' ' ' P F F ,.F F F ,.jXjX,.,.R %.%.n.n.%.%.%.n.n.,.,.F F ' F F R R %.%.C.g.m '.i.i.z z K.Q.D.D.; . ; ; ; ; ; ; ; ; ; ; ; ; X g o.1.=.9X|.n.R ,.' ' ' F R %.rXAXDXJXBXBXvXvXBXJXDXUXDXrXn.R F P ' ' ' F F F R C.|.f.S.c.Y i.i.z z z z z z i.Y tXW.W.H.mXmXmXmXmXmXc.c.).).Y z i.z z z z B B B Q.D.o.tXc.@.L ,XC.%.R R F F F ' ' ' ,.F F R n.gXAXDXJXBXvXvXvXvXvXBXDXUXOXqXF F ' F ' ,.jXqX1X{.-.#.=.).i.i.z ! ! ! x.x.oXoXoXoXoXoXoXoXoXoXoXoXoXoXoXoXoXoXx.x.B z z i.i.Y Y Y Y Y >X>X",
"c.1.H.H.1.1.1.c.).Y Y Y Y Y Y Y Y c.1.5.H.H.5.c.).Y Y >XY Y ).c.5.H.5.1.c.).Y Y Y Y Y ).c.5.H.H.5.c.).Y i.Y Y ).hXc.5.c.Y Y Y Y tXo.o.g . . . . . . . . . . . X X X X X X ; ; X . W g o.o.tXc.`.bX*X|.C.C.%.R R R R ,.n.jXjXjX,.R %.rXDXUXDXJXJXJXJXJXJXJXAXgXG.%.R F ' ' ' ' ' jXqXb.lXCXO.CX#X;Xn.%.R F ' ' ' ' F F jXqXqX,.R R R F R F F ,.F F ,.F R G.h.cXhXc.1.1.tXtXQ.Q.Q.D.. , 9 d p 1 %X1 1 - - - T * * * * %X* 1 1 d . D.Q.Q.Q.o.Z.%X%Xp p d Z.Z.KXZX8X8X8X8X8X8X8X8XZXZXZX8X8X8X8X8X8X8XZXKXc.Y ).).tXtXtXg . . . X ; ; ; X > > X ; ; g g g o.1.c.c.bXy.C.%.,.,.' ' ' F F ,.,.,.R ,.qX1X1XjXF F R R R R %.R R R jXqXqXqXjXn.n.%.C.C.C.|.g.` `.Y i.i.z z K.Q.D.g ; g ; g g ; g ; ; ; ; ; ; ; . g tX1.S.*XC.%.,.F ' P P F R %.G.gXAXAXgXBXJXJXJXDXDXAX;XG.R F ' ' ' ' P P P F R R %.C.y.S.).Y i.z B B ! ! z z z Y ).).Y ).).c.mXmXmXmXmXtX).z z z z z z z z z z Q.D.o.tXc.c.@.&.*XG.%.%.R R R F F F F F F R %.C.gXAXDXJXBXBXvXBXBXBXDXUXOXqXR ,.,.F F jX1XyX(.lXGXhX>Xi.i.z K.K.! B x.x.oXoXoXoXoXoXoXoXoXoXoXoXoXoXoXx.x.x.B B i.K.).Y Y hXhX0X=./.cXGX",
").c.5.H.5.1.1.c.).).Y Y >XY Y Y Y Y c.5.5.;.H.5.c.Y Y Y Y Y Y c.5.H.H.1.c.).Y Y Y Y Y ).c.5.H.H.5.1.).Y Y Y Y Y ).c.5.c.Y Y Y z ).tXo.g g . . . . . . . . . . X X X X X X X X X X . g D.o.o.1.c.`.bX9X|.|.|.G.G.G.G.qXqX1X1X$ jX,.R qXAXUXUXUXUXUXUXDXAXrXrXn.R F F ' P ' ' ' P ,.R n.b.cXCXCX-X|.%.%.,.,.,.,.,.R R n.qXb.1XR F F F F F ' ,.,.P F F F R C.gX#XhXc.1.o.D.Q.! B z Q.; , d 1 1 1 1 1 1 1 - - * * * * * * 1 * * * %XZ.W . Z.%X%XZ.Z., , , W W.&XKXZX8X8X8X8X8X8X8X8X8X8X8X8X8X8X8X8X8XZXKXmXmXmXmXmXW.W.o.o.g W . ; ; > W W . . g o.o.o.W.1.1.c.c.0X#.,Xn.R ,.,.,.,.R R R R %.n.1X(.VXb.jX,.F F F R F ,.F F F jX1XOX(.yX;X*X*X*X*X9X` U `.Y i.i.z z z K.Q.D.D.PXg PXg ; g ; ; ; ; ; ; ; ; D.tX).c.S.*XC.%.n.,.' ' P P F R n.G.G.rXrXgXgXgXgXrXrXG.%.F F ' ' ' ' P P P ' ' ,.R %.%.|.L `.Y i.z B B ! B B ! K.z z i.i.z ).).tXmXW.W.1.tXK.z i.z z ! z z z i.z Q.D.tXtXc.c./ 0X9.q.*X|.C.n.n.n.,.n.,.,.F F R %.C.rXAXDXDXDXJXJXJXAXDXDXb.jXR F F R F F jX1XOXcX8.>X>XY z z ! ! B B B B x.x.x.oXoXoXoXoXx.x.x.x.x.x.x.x.x.B z z ).).).Y 0XS.&.y.*X*X-.(.",
").).c.5.H.5.5.1.c.).Y Y Y Y Y Y >XY ).c.5.5.H.5.1.).Y Y Y >XY ).1.5.H.5.1.).Y Y Y Y Y ).c.5.H.H.5.1.c.Y Y Y Y Y ).c.5.c.).Y Y Y ).tXo.o.g . . . . . . . . . . . X X X X X X X X ; ; . D.D.o.o.1.c.c.0XS.bX9.-X-X-X(.OXyXyX1X$ ,.F F n.G.rXgXAXAXgXrXG.C.%.R F F ' ' ' ' ' ' P P F R %.G.6.CXCX#XrX%.%.n.,.,.F %.%.C.;XOXyXqXF P ' ' P ' ' ' ' P P F ,.R C.*X_ hXc.1.PXQ.! x.x.i.K.D.W d p 1 %X%Xp 1 - - - * 1 1 1 %Xp %Xp %X%X9 W W W.W Z.Z.W . X ; X g o.W.&XKXKXZXZXZX8X8X8X8X8XZXZX8X8X8X8X8XZXZXZXZXZXZXZXKXKX&XmXo.g g ; ; > , W ; g g o.o.c.c.).c.c.hXhXhXGX-Xb.qXn.R R R %.%.%.%.|.-.lXGX2Xb.jXF F F F P P ' ' ' F ,.qXOXcXGXGX/.=.=.`.c.).Y Y i.i.i.z B B K.Q.Q.D.D.D.D.g ; ; ; ; ; X X X ; D.Q.z i.Y `.9X|.%.%.R F F F F F F R R R n.n.C.G.C.n.%.%.R F ' ' P ' ' ' ' nXP P P F R R %.C.9X=.>XxXi.! ! ! ! ! ! ! z z B z z z K.).).tXtX).i.z z K.z z z z z i.B z K.Q.D.o.1.c.c.hXhX0XP.s f.y.-.yXyXb.qXjX,.,.F n.R %.G.rXgXAXDXDXDXAXgXrXG.n.F F F ,.F F F ,.G.-.cXhX>Xi.z ! ! ! B B B x.B x.B x.x.B x.x.x.x.x.x.i.x.i.! K.K.Q.tXtXc.c.0X..*XG.%.%.%.n.G.",
").).).c.5.H.5.5.c.).Y Y >XY Y Y Y Y Y ).c.5.H.H.`.).Y Y Y Y Y Y c.5.5.5.1.).Y Y Y Y ).Y c.5.H.H.H.:Xc.Y i.Y Y Y ).c.5.c.).Y Y Y ).tXo.o.g g . . . . . . . . . . . . X X X X X X X ; . g D.g g o.1.c.c.c.hXhXGXGXlXOX1XqXqXjX,.' P F R %.n.G.G.G.G.n.R F F P P ' ' ' ' ' ' ' P P F R %.|.6.8.s.cXf.C.%.%.%.%.%.C.C.*X6.lX(.,XR F ,.' ' ' ' P P P P F F R C.*X+.hX'.tXK.! B x.x.i.K.D.g Z.9 d d d d d d p d p d d d 9 9 9 , W . ; g g g g . g g . X X X ; o.o.mXmXmXmXKXZXZX8X8X8X8XZXZXZXZXZX8X8X8X8X8X8X8X8X8X8XZXKXKXmXo.o.g ; . W g o.o.o.1.1.`.5.@.S.bXS.cXcXGXcXlX-XyX;X,X|.|.|.,Xy.#.].8.8.lX1XF F F ' P P ' ' ' ' P F n.;XlX8.>X>XY >XY i.i.i.i.i.i.z z B B z K.K.K.K.Q.Q.Q.Q.Q.Q.D.Q.D.Q.D.D.Q.K.z i.i.hXXX*XC.%.%.R R R R F R ,.n.n.,.R R R R F F P F ,.$ $ jX,.' F F F F P F F R %.%.|.#.hX>Xi.z ! B ! ! ! ! ! ! B z z z z z z z K.i.i.i.i.z z B B z z B B i.z K.Q.D.D.tX).).Y Y Y hX'./ ].GXGXlXOX1XjX,.' P ,.F F R n.G.G.rXrXrXrXG.n.R R F P F F F ,.R R %.|.&./ Y i.z B ! ! z B B B B B B B ! x.B B B i.B B z K.Q.D.D.tXtX1.c.c.0XbX*XC.R ,.,.R R R ",
"c.).).c.1.H.H.5.1.c.).Y Y Y Y Y Y Y Y ).).1.5.;.5.c.).Y Y >XY Y c.1.5.H.5.c.Y Y Y Y Y Y ).1.H.H.;.5.1.).Y Y Y Y Y ).c.c.Y Y Y Y K.tXo.o.g g . . . . . . . . . . . . . X ; X X > X X ; X . g g g o.o.tXc.hXhXcX-XyXqXjX,.,.,.' P F F R %.n.n.R R R ,.F ' ' ' ' ' ' ' ' ' ' P P F R R C.*X#X>XX.hXP.q.*X|.|.|.|.*X9X..cXGXcX-.C.R F ,.,.' P P P P F F R %.|.q./ Y ).K.B x.oXx.x.x.K.D.g . W W W Z., W W W W W , W W . . . . ; ; ; ; g . . g g ; X > > > . g o.mXmXKXKXZXZXZX8X8X8XZXZXKXKXKXZXZX8X8X8X8X8X8X8X8X8X8X8XKX&Xo.o.tXo.g o.o.o.tXc.1.@.bXL f.y.y.gXy.-.OX(.lX2XlXlX-X*.&.s _ XX'.>XX.l.t.;XR R ,.F ' ' ' ' ' ' ' F %.|.*.>X>X>Xi.i.i.i.i.i.i.z z z z z B B z z z ! ! K.K.K.K.K.! K.K.K.K.K.! z K.z i.>X'.J *X|.C.%.%.n.%.n.qX1X1XqX,.,.F F F ' ' P ' ,.1XyXyX1XjXR R R R R R R %.%.|.q.=.Y Y i.z z ! B ! ! ! B B ! ! z B B z i.z i.z z i.z B B ! B B B B B B B z K.K.K.K.K.i.i.i.Y i.Y >X>X>X<.lXyXqX,.F ' ' P ' ,.,.,.R R %.%.%.%.%.%.R F F ' ' ' ' ,.F %.%.C.9X`.Y i.K.z ! ! ! z z B ! B B B B B B i.B z K.Q.Q.D.D.g g D.tX1.c.c.=.q.|.%.,.,.F F F ,.",
"1.c.).).c.5.H.5.5.1.c.).Y Y Y Y Y Y Y Y Y c.5.;.5.1.).Y Y Y Y Y Y c.5.;.;.c.).Y Y Y ).Y ).c.5.H.H.5.1.).Y Y Y Y Y ).).).Y Y Y ).).tXo.g g g . . . . . . . . . . . . g . X X X > X > X X . . g g g o.o.c.c.@.*.;XG.,.F P ' ,.F F F R jX,X;XqX%.R F F ' ' ' ' ' P P ' ' F ' F F F R C.,X#./ >XxX>X>X=.+.s q.9Xq.J S.0XhXhXGX#Xy.C.R ,.,.F F F F F F nX%.|.f.P.>.xXx.x.oXoXx.oXx.B K.D.g g g ; . . . ; ; ; X . . X ; ; ; ; X ; ; ; X . . . . ; ; > > > ; ; g tX1.mXKXZX8X8X8X8X8X8X8XZXZXZXKXZXZX8X8X8X8XZX8X8X8X8XvXZXKXmXc.c.1.1.o.o.1.1.c.c.@.` y.|.C.C.n.n.n.n.G.qXb.(.cXGX^.hX/ / '.Y xXxXxX>Xp.q.C.%.R ,.F ' ,.' ' ' F R %.,X#.hX>Xi.i.i.i.z z z z z z ! z z z B B B B B B B B ! B ! ! ! ! ! ! ! ! ! K.z i.i.Y `.+.L f.*X*Xy.{.-.(.(.yXqX,.,.' ' ' nX' P P ,.qX(.lXlXOX,XC.%.%.%.%.C.|.*X&./.hXY Y i.z z ! B B B B B B B z z z z z z z z i.z z B i.B ! B B B z B B B B ! z K.K.z i.i.i.i.i.i.i.xX>X0X*.,Xn.R ,.,.' ' ' nX' ' F F R n.n.G.G.%.R F ,.' ' ' ' F R %.%.C.9X0XY i.K.z z ! ! z z ! ! ! ! B z z z K.Q.Q.D.D.; ; . X X ; o.o.c.c.S.*XC.R ' ' ' ' F ,.",
"5.1.c.).).1.5.H.5.5.c.).Y Y Y Y Y Y Y Y ).).1.5.5.1.).Y Y Y Y Y Y '.`.;.;.1.).Y i.).Y Y ).c.5.H.H.5.1.).Y Y Y Y Y Y ).Y Y Y i.Y K.tXg g g g . . . . . . . . . . . g g g . ; X X > X X > X X ; ; g g o.c.`.bX*XC.%.,.,.F F F R R n.G.b.-XlXOXG.%.F F ' ' ' ' ' F F F F F F nXR n.|.*Xs / >XxXxXxX>X).`.`.@.S.@.5.1.c.c.c.hX0X9.*XC.n.%.R R R %.n.C.|.;Xq.J.e.xXxXx.oXoXoXoXoXx.B K.D.g g g ; ; ; g ; ; . . . . ; ; ; ; ; ; ; ; ; ; ; ; ; ; ; PXX > ; D.Q.Q.tXtXmXZX8X8X8X8X8X8X8X8X8XZXZXZXZX8X8X8XZXZXZXKXZXZXZXZXwXmX0X0X@.u.u.5.1.c.c.hXhXS.f.|.%.%.R F F F R R ,.jXqXOXcX<.>XxX>Xi.xXxXxXxXxXl.J.y.C.%.R R F F ,.,.R R %.|.y.S.Y i.i.i.z z B B B ! ! ! ! B z ! z B B B B B B B B B B B ! B z ! z ! K.K.z i.i.i.Y )./ =.S.S./.cXGXGXlXb.jX,.' ' ' ' ' ' ' P F jXOXGX<.cX9.f.*X,X,X*Xy.q.#X/ >X>Xi.i.i.z z z z ! ! ! ! ! B B z z z B B B i.z z z z B B B B B B ! ! z B B ! ! ! z z z z z B i.z i.i.>X0X9X|.%.R ,.,.' ' ' ' ' ' ' F R n.qXb.b.G.n.R R F P P ' F R %.%.|.f / Y i.K.B B B B z z z z z ! z K.K.Q.Q.D.g ; g ; ; ; X > ; g o.c.0XbX|.%.R ' ' ' ' P F ",
"5.5.1.).Y ).1.5.5.5.5.c.).Y >XY Y Y Y Y Y Y ).1.5.`.c.).Y Y Y Y Y ).c.5.;.1.).Y Y Y Y Y Y c.`.5.H.5.c.).Y Y Y Y >XY Y Y Y Y Y K.).tXg W . g . . . . X X . . . . . g g . . . X X X X X X . . . . g g o.tX1.bX*XC.%.%.R R R %.%.G.;Xh.cX<.8.cX-.G.%.R R F F F R R %.R R ,.n.jX,Xy.v.FXp.xXxXxXi.i.Y ).c.c.c.1.1.1.o.1.1.1.c.c.0Xx f.*X|.|.|.|.|.y.q.SXFXsXe.xXx.x.oXoXoXoXoXoXx.B Q.o.g g . ; D.; ; g . . . . g . ; ; ; X ; ; ; ; D.; D.D.D.D.D.D.D.Q.Q.K.K.z ).mXKX8XvX8X8X8X8X8X8X8X8XZX8X8X8X8X8X8XZXKXKXKXKXKXS.mX@.S.#.9X9X9Xf bX=.0XhXhX#X*X%.R R F F P F F F F F R qXk.].xXxXxXx.x.x.x.x.xXxXe.J.f.,XC.n.%.%.%.%.%.C.|.*Xx '.>Xi.i.z ! B B B B ! ! ! B B z ! z B B B B B B B B ! B ! z z z z z ! ! ! z z i.i.i.>Xi.Y Y Y >X>X>X<.#X;XR F ' ' ' ' ' ' ,.F R jX-.^.l.T.hX=.P.9.9.P././ T.>XxXxXxXi.i.i.z z z ! ! ! ! ! ! B z z z z B B B z z z z B B ! B B B ! ! z B B ! ! ! z z ! ! B B B z z i.Y c.` *XC.%.n.,.' ' ' ' ' ,.,.F R n.;X-X-Xh.,XC.%.n.R F F R n.C.|.f.S.hX>Xi.z B B B B B z z z K.K.Q.Q.D.D.D.g . . X ; ; ; > ; ; g o.c.0XbX|.%.R ' ' ' P P P ",
"5.5.1.).Y ).).c.5.H.H.5.c.).Y Y Y Y ).Y Y Y Y '.c.1.c.).Y Y Y Y Y Y '.`.`.c.Y Y i.Y Y Y Y hXc.=.@.=.c.).>X>XY >XY >XY >XY Y Y Y Q.tX. W . . . . . . X X . . . . . g g . . . . . X ; ; . . . . . . g o.tXc.S.j.*XC.%.C.n.C.|.*Xf.9.GX>X>X>X8.cXq.,XC.C.%.%.%.C.C.|.|.,X;X{.v.SX4.p.>.xXxXxXx.z K.tXo.o.o.o.o.o.W.. g o.o.1.c.c.`.S.` q.9Xq.L SX4.p.e.>.x.oXoXoXoXoXoXoXoXoXoXB ! D.g W.g . . ; ; . . . g . PX. ; PXg ; PX; PXD.D.D.D.Q.Q.Q.Q.K.K.! ! ! B z i.Y ).mXKXZX8X8X8X8X8X8X8XZXZX8X8X8X8X8X8X8XZXKXmXmXmX0XS.#.y.|.C.C.C.|.*X&.#XGXGXlX;X%.R F P ' ' ' ' ' F F F %.,X9.T.xXxXx.x.oXoXx.x.xXxX>./.*.f.y.*X|.|.,X*Xy.q.+./ >Xi.i.z B ! ! B ! B ! ! ! ! B B B B B B B B B B B z z z z z z z z z z ! ! ! z z z z i.i.i.i.Y i.>X>XhX9.,X%.R ,.' ' ' ' ,.,.F R C.q.].xXxXxXxX>X>XT.T.xXxXxXxXxXxXxXi.i.i.z z z z B ! ! ! ! B B z B B B z z z z z B z B B ! B B B B B B B ! ! B B B z B B B B z z z i.Y =.s *XG.n.R ,.F ,.' ,.,.,.,.R G.h.GX<.cX6.f.,X|.G.G.G.G.|.,Xq.S.hX>Xi.i.z B ! ! ! ! ! ! K.Q.D.D.; ; g ; ; ; ; ; ; X > > ; ; g o.c.c.bX|.%.R ' ' P P P ' ",
"1.5.5.c.).Y ).c.5.H.H.5.5.c.).Y Y Y Y Y >XY Y ).).c.c.).).Y ).Y >XY Y ).c.c.Y Y Y Y >X>X>X>XhX0X=.0XhXhX>X>X>X>X>X>XY >XY Y i.Y K.tXg . . . . . . . X X . . . . . g g . . . . . . g g g . . . . g g o.tX).c.S.j.*X*X*X*Xy.q.bX0XhX>XhX>X>X>X>X/ ..q.y.*X,X*Xy.f.q.L SXJ.p.e.l.xXxXxXx.x.x.B K.Q.D.g g o.o.g g . ; ; g g o.o.1.c.c.c.`.`.'.T.xXxXxXx.x.oXoXoXoXoXoXoXoXoXoXoXx.Q.D.g o.g ; ; ; ; ; ; g PXD.g PXD.D.D.D.D.Q.Q.Q.Q.Q.K.K.K.K.K.! ! ! ! B B z i.Y ).).mXKXZXZXZX8X8XZXKXKXZX8X8X8X8X8X8X8X8XZXKXmX0XS.q.|.%.%.%.%.R %.%.C.,X-XcXlXb.n.F P ' ' ' ' ' ' ' ' F R |.q.p.xXxXxXx.oXx.x.x.x.xXxXxXT.'.=.P.#.s x S.=./ ).>XxXi.z ! ! ! B ! ! ! ! ! ! ! B z z z B z z B z B z z z z z z z z z z ! ! ! ! ! z z z z z z z z i.i.>X>XP.*XC.%.R ,.' ' F ,.,.R %.,Xs p.xXxXxXxXxXxXxXxXxXxXxXx.x.xXxXxXi.i.Y i.i.B B B ! ! ! B B B B B B B B z z B z B z B B B B B B B B B B B B B B B B B ! ! z K.K.i.i.>XhX#Xf.,Xn.%.R ,.F F R R %.%.*X#XhX>X>XhX0XS.#.&.q.h.h.6.#X0X>X>X>Xi.K.K.! ! ! ! ! K.Q.Q.D.; . . . . . X X ; ; X ; > > > > . o.c.c.S.*XC.R F ' ' ' ' ' ",
").c.`.`.c.).Y ).1.5.H.H.H.5.c.).Y Y Y Y Y Y Y Y Y Y ).).Y Y Y Y Y >X>XY ).).Y >Xi.Y Y >X>X>X>XhXGXhXhX>X>X>X>XhX>X>X>X>XY Y >Xi.Y tXg . . . . . . . . . . . . . . . . . . . . . g g g g g g g ; ; g o.o.tX).c.c.0X@.@.=.0X0X0X0Xc.5.;.5.).i.xXxXxX>.p.sXsXp.p.>.>.>.xXxXxXxXxXxXxXx.x.B ! Q.D.; . . . g g g g ; ; ; ; g o.g o.o.1.1.c.c.).i.xXx.x.oXoXoXoXoXoXoXoXoXoXoXoXB ! Q.D.o.D.D.D.D.D.D.D.Q.D.Q.D.Q.Q.Q.Q.Q.Q.K.K.K.! z z z ! B B B z ! ! ! ! z z z ).Y Y Y c.mXmXmXmXKXmXmXKXZX8X8X8X8X8X8X8X8X8XmXc.0X*.,X%.R F F P F F R R %.qXyX(.b.jX' ' ' P P P ' nX' ' nXR |.k.^.X.xXxXxXx.x.x.xXxXxXxXxX>X>X>X>XY Y Y >XY Y Y i.i.i.B B B ! ! B ! ! ! ! ! ! ! z z z z z z z z z z z z z z z z ! B ! ! ! ! ! ! ! ! ! ! ! z ! z K.i.i.>X=.9X|.%.%.,.,.F F R R R |.f.4.>.x.x.x.x.x.xXx.x.x.oXoXoXx.x.xXi.i.i.i.i.i.B B B B ! B B ! B B B B B z B z z B z z z z z z z z z z z B B B B B B B B B B z z z z Y Y >X>X'.#Xf.|.%.R R R %.%.%.|.&.hX>X>X>X>X>X>X>X>XhX>XhX>X>X>X>Xi.i.i.z ! ! ! ! ! K.Q.D.; . . W . ; ; ; X X > > > > > > , > ; o.tX).0XL |.%.F ' ' P P P ",
"Y ).c.`.`.).Y ).c.1.H.:.:.;.5.c.Y Y Y Y Y Y Y Y Y Y Y Y Y Y >XY >XY i.>XY Y Y Y Y >X>X>X>XhXGX#X9.6.9.#X#XcX].hX8.>X8.>X>X>XY Y Y tXg . . . . . . . . . . . . . . . . . . . . . g g g g g g ; ; ; g g o.tX1.1.5.5.5.H.H.5.5.H.5.5.:X:XPXQ.B x.x.xXx.x.oX>.oXxXx.xXx.xXoXx.oXx.x.x.x.B K.Q.D.; X W W . . ; g . X > > X ; D.D.g g o.o.o.1.Q.K.x.x.oXoXoXoXoXoXoXoXoXoXoXoXoXoXB Q.Q.Q.K.K.Q.Q.Q.K.Q.K.K.K.K.K.! ! ! ! z z z z z z z B B B B B z z ! ! ! z z z ).).c.c.c.).).c.c.mXmXmXmXKXZX8X8X8X8X8X8X8XKXmX0XbX*XC.n.,.' ' ' ' ' ,.,.R R qX1X1XqX,.nX' ' ' nX' P nXP P ,.1X-X<.l.l.>.p.p.p.>.xXxXxXxXxXxX>XY i.Y i.i.i.i.i.i.K.z z B B B B B B B ! ! ! ! ! B z z z z z z z z z z z z z B ! ! ! ! ! ! ! ! ! ! ! ! ! ! ! ! B ! ! i.i.i.hX+.f.|.C.%.%.R R %.%.|.f./.>.xXx.oXoXoXx.x.x.x.oXoXoXoXx.x.x.i.i.i.i.i.i.z B ! ! ! ! B B B B B B z B z B z B z ! z z z z z z z z z B B B B B ! B B B B B z z i.i.i.xX>XxXT.].HXq.,XC.C.C.|.*X#.0X>X>X>X>XY Y i.>X>X>X>X>X>X>X>X>Xi.i.z z ! K.! ! K.K.Q.D.g . . . ; ; ; ; ; X X > > > > > > ; D.tXtX).hX=.*XC.R F ,.' ' P ",
"Y Y ).c.1.c.).Y ).c.5.H.4X:.5.c.).Y Y Y Y ).Y Y Y Y Y Y Y >XY Y Y i.>Xi.Y i.Y Y >X>X>X>XhXcXk.y.;X,X,X,X;Xy.-.k.6.lXGXhX>X>X>XY ).tXo.W . . . . . . . . . . . . . . . . . . . . g g g g g ; ; ; ; . W W W.W.Z.&X&X&XH.&X&XH.o.tXK.K.K.! B x.x.x.oXx.oXx.oXoXoXoXoXoXoXoXx.x.x.x.x.B Q.D.; ; X . W W > X X . . > X > > X ; ; ; g g g o.PXD.K.x.x.oXoXoXoXoXoXoXoXoXoXoXoXB x.B ! K.z z z z ! ! ! ! z z z z z B B B B B B B B B B B B ! ! ! B z z B B B z z z Y ).1.mXmXmXmXc.mXmXmXmXmXmXKXZX8X8X8XZXKXKXmXmX@.L |.%.n.,.' ' ' ' ' F ,.R R ,.jXqX$ jX' ' ' ' P P F P ' nXqXyX-XlX-XHXv.q.q.L SXFX/.'.>X>X>X>Xi.Y i.z i.z z z z z z z B B B B ! B B B ! ! ! ! B B B z z z z z z z z z z z B ! ! B ! ! ! ! ! ! ! ! ! ! ! ! ! ! B ! B i.i.Y '.XXs f.*X,X,X,Xy.h.9./.>.xXx.oXoXoXoXoXoXoXoXoXoXoXoXx.x.x.i.i.i.i.i.z z B ! B B B ! B B B B B ! ! ! B B B ! ! B B B B z z z z z B B B ! ! ! ! B B B B B B z z i.i.xXxXxXxX>.p.FXSXSXSX+./.'.>XY i.i.i.i.i.i.i.i.i.i.i.i.i.i.i.z z z z z ! ! ! K.Q.D.D.g g g g g g g ; ; X ; ; ; X X ; D.Q.Q.Q.).Y Y hXJ |.%.R R F F F ",
"Y Y ).).c.c.).Y Y ).1.5.:.:.;.1.).Y Y Y Y ).Y Y Y Y Y Y Y >Xi.>XY Y Y Y Y Y >XY Y >X>X>XcXh.|.C.%.%.%.%.n.n.G.G.,X{.h.#XGXhX>XY ).tXo.g g . . . . . . . . . . . . . . . . . . . g g g . . ; ; ; X W , %Xp %X%X1 %X%X%X%X%XZ.tXz i.i.x.x.x.x.x.oXoXoXoXoXoXoXoXoXoXoXoXoXoXx.x.x.K.Q.PX; ; ; g . . . X X X X . > > X > X > > X ; g g o.o.D.Q.B x.oXoXoXoXoXoXoXoXoXoXoXx.x.B B z z z i.z z z ! B B B B B B B B ! ! ! ! ! B B B ! ! ! ! ! ! ! B z z z B B z z z Y ).1.W.H.mXmXmXmXmXmXmXmX&X&XKXKX* KX&XmX1.c.@.9XC.%.R F P ' ' ' F F F F ,.F ,.,.jXjX,.,.F R R R F F F ' 1Xb.b.b.,XqXC.C.C.C.|.,Xy.k.#X0XhXY Y i.z z B ! z z z z z B B B B B B B B B B ! ! ! ! ! ! B B B B z z z z z z z B B B B B B B ! ! ! ! ! ! ! ! ! ! ! ! ! B z i.i.Y )./ =.XX+._ +././ hXT.xXxXx.oXoXoXoXoXoXoXoXoXoXx.oXx.x.B i.z i.i.i.z z B B B B B B z z z B B B ! ! ! ! ! ! ! B B B B B z z z z z B B ! ! ! ! ! B B B B B z K.z i.i.xXxXxXx.xX>.e.e.>.>.>.xXxXi.i.i.i.x.i.x.B B i.B i.i.i.i.z z z B B B B z K.Q.D.D.g . . . . . g g g g ; D.D.D.D.D.Q.Q.K.K.z z i.Y >X=.9X|.C.%.R R R ",
"Y ).Y ).).c.).Y Y Y ).1.5.;.H.5.c.).Y Y Y Y Y Y Y Y Y Y Y >XY Y Y Y Y Y Y Y Y Y >X>X>XGX*.|.%.R R F F F F F F R R n.G.;Xk.cXhX>XY c.o.o.g . . . . g . . . . . . . . . . . . . . g g . g . ; ; X W 9 d 1 * 1 1 1 1 1 1 1 1 , Q.z i.B B x.x.x.oXoXoXoXoXoXoXoXoXoXoXoXx.x.x.B ! Q.PXPX. . g g g g . X X X X X X > X ; ; X X X ; D.D.D.tXtXQ.K.B x.x.oXoXoXoXoXoXoXoXx.x.x.B B B z z z z z z K.! z B B B B B ! ! ! ! ! ! ! B ! ! ! ! ! ! ! ! ! B z ! ! z z i.i.i.z Y ).1.W.&X&X&X&XmX1.1.mXW.mXW.W.W.W.g o.tX).0XL |.%.R F P ' P P P F F F F ' F ,.,.,.jXn.G.n.n.%.R R F ,.qXqXjXjX,.R F nXnXnXR %.n.|.*Xq.S.c.Y i.z ! ! B B B B z B B B B B B B z z B B B B ! B ! ! ! B B B B z z z z z z z z z z B z B B B B B ! ! ! ! ! ! ! ! B z z i.i.i.Y i.Y Y hX).Y Y >X>XxXxXxXx.x.oXoXoXoXoXoXoXoXoXx.x.B B z K.K.K.z z z z B B B B B B z z z z B B ! ! ! ! ! ! ! B ! B B B B z z z z B B ! ! ! ! ! B B B B B B z z i.x.x.x.x.x.x.oXx.x.xXxXxXxXxXx.xXx.x.x.x.x.x.x.x.x.i.i.B z z B B B ! ! ! z K.Q.D.g g . . . . g g g D.D.D.Q.Q.Q.Q.K.Q.K.! z z i.i.i.i.).XXq.*X|.C.%.%.",
"Y Y Y Y ).).).Y Y Y ).).1.5.;.5.`.c.Y >X>XY Y Y Y Y Y Y Y Y Y >XY Y Y Y Y Y Y >X>X>X>XcXy.C.%.R F ' ' ' ' ' ' ' ' R R n.,Xk.0X>XY c.o.o.g g g g g g g g g g . . . . . . . . . . ; g . . X X X > , d p 1 * * * 1 1 1 * * * d . D.Q.K.Q.K.K.Q.Q.Q.! ! Q.! ! ! oXx.x.x.B ! K.Q.Q.D.; g . ; . g g . g . . X > > X > ; ; D.; D.D.Q.Q.Q.K.K.z i.z B x.x.oXoXoXoXoXoXoXx.x.x.B B B z z z z z z z ! ! ! ! B B B B ! ! ! ! ! ! ! B B z B B B B ! ! ! ! ! ! ! ! z z z z z z z K.tXW.W.W.o.o.1.tXo.o.o.o.tXtXD.tXtX).Y hX+.*X|.%.R ,.F P P ' ' F ' F ,.F ,.R n.rXrXgXgXrXrXG.n.R ,.jX,.,.F F ' P P F ' nX,.F R %.|.f.S.).i.z ! ! B B B z z ! ! B B ! ! B z z z z z B B ! ! ! ! ! ! B B z z z z z z z i.z i.i.i.i.i.i.z z z ! ! ! ! ! ! ! B z z z z i.z i.i.i.i.i.>Xi.i.i.i.i.x.x.x.oXoXoXoXoXoXoXx.x.x.B K.Q.Q.Q.tXQ.Q.K.K.K.! ! B B B B z z z z B B ! ! ! ! ! ! ! ! ! B B B B B z z z z z B ! ! ! ! B B B B z B i.B B i.B x.x.oXoXoXoXx.oXx.x.x.x.x.x.x.x.x.x.x.x.x.x.x.x.i.i.z z ! ! ! ! ! ! ! K.Q.D.PXg PXg ; D.D.D.D.D.Q.Q.Q.K.K.K.! ! ! B B z i.i.i.Y i.).=...9X*X,X|.",
"Y Y Y Y Y ).).Y Y i.Y ).).`.5.;.H.1.).Y Y >XY >XY Y Y Y Y Y Y Y Y Y Y Y Y Y Y >X>X>XCX#X;X%.R F ' ' ' ' ' ' ' ' ' F F R %.,X#.0XY ).1.o.o.o.o.o.o.o.o.g o.g g g g g g . . . . . . g . . X X X W 9 d 1 %X1 * * - 1 - - T * * 1 %XZ.W . :X:X:XPXPXPX, PXPXPXPXQ.Q.Q.Q.Q.D.D.D.o.o.g g ; ; ; ; . g g . . X X X X PXD.D.Q.Q.Q.K.K.K.z z i.i.Y i.i.x.x.x.x.oXoXoXx.x.x.x.i.i.B z ! ! ! z z z z B z ! ! z z z B ! ! ! B B B B z z z B B B B B B B B ! ! ! ! z z i.z i.z Y z ).tXtXtXtXtXo.o.o.o.o.D.D.Q.Q.K.K.K.i.Y `._ q.,XG.n.n.,.,.,.,.F ' F F F R n.rXAXDXDXDXDXAXgXrXn.,.F ,.,.' ' ' P P ' nX' nXF F R %.|.` / i.i.K.! ! B B z z z B B B ! B B z z z z z B B ! ! ! ! ! ! ! B z z z i.i.i.i.i.Y i.Y i.i.Y i.i.i.z z ! ! ! ! ! ! z z z z z z z z z i.i.i.i.i.i.K.B B x.x.x.x.oXoXoXoXoXoXx.x.i.K.tXD.o.D.D.D.D.D.Q.Q.Q.K.! ! z z z z z z B B ! ! ! ! ! ! ! ! ! B B B B B B B z z z z z ! ! ! B B B B B z z z z B B x.x.oXoXoXoXoXoXoXx.x.x.oXoXoXoXoXx.oXx.x.x.xXi.i.i.B ! ! ! ! ! ! ! ! z K.Q.Q.D.D.D.Q.Q.K.K.K.K.K.K.K.! ! ! B B B B B B z z z i.i.i.Y '.=.XX_ #.",
"Y i.Y Y Y Y i.).i.).Y Y ).c.5.;..X`.c.Y Y Y Y Y Y Y Y Y Y Y Y Y Y Y Y Y Y Y >X>X>X>X>XlX;X%.R F ' ' ' ' ' ' ' P ' ' ,.,.R %.*X#XhX).1.1.1.1.1.1.1.tX1.1.1.1.o.o.o.o.g g . . . . . X . . X X X W 9 p 1 %X1 1 - - - - - - T T T T * 1 %X%X%X* * * 1 p p d , > PXPXPXD.g g g o.D.g g g ; D.; X . . . . > X > > ; D.Q.K.K.z z z z z z i.i.z i.z i.B B B B B B B x.x.x.i.B i.z z K.! z B B B B B B B z ! ! ! z B B B B B z z z z B B B B B B B B B B B B B B z z z z z z z z z K.K.Q.Q.tXtXtXQ.Q.Q.K.K.z B z z K.i.Y ).`._ q.y.b.1X1X1X1XqXjXjX,.,.,.G.gXUXUXUXUXUXUXDXAXrXR F ,.,.' P P ' ' P P P P F R %.%.*Xx '.i.i.z ! B B B B B B B B B B B B z z z B B B B B ! ! ! ! ! ! z z z i.i.i.>X>X>X>X>X>X>X>X>X>X>Xi.i.z z ! ! ! ! ! z z z z z B B z K.z z i.i.z z z B B B i.x.x.oXoXoXoXx.x.x.z Q.tXo.g g g . X ; ; ; D.D.D.Q.Q.K.K.z z z B B B B ! ! ! ! ! ! ! ! B B B B B B B z z z z z ! ! ! ! B B B B z K.K.K.! ! B x.x.oXoXoXoXoXoXoXoXx.oXx.oXx.x.x.x.x.x.x.x.B B z z ! ! ! ! ! B B ! ! K.K.K.K.K.K.! >.i.B >.i.i.i.B z ! ! ! ! B ! ! B ! K.z z i.i.i.i.i.Y >XY ",
"Y Y ).Y i.Y i.Y i.Y i.).i.).1.5.;.5.1.).Y >Xi.>XY Y Y Y Y Y Y Y Y Y Y Y >X>X>X>X>XCXCXcXb.%.R ,.,.' ' P P P ' ' ' ' F F R %.C.q.0XhXc.0Xc.c.c.c.c.c.c.c.c.c.c.c.c.tXo.g g . > W W > > X ; ; ; . , d 1 p 1 1 - - - - - - T T T T T * * * %X%Xp p d , > , , PX; . W g g g g . g g ; ; X X . . . . . . . . X . ; Q.K.K.z z B B z B B B z z z z B B B B ! ! ! ! ! ! z z B z z z z z z ! B B B B B B z ! ! ! B B B z z z ! z B B ! ! ! B z z z z z B B B B B ! K.z B z z z z i.z z z z z ! K.z z z z z z B ! ! z z i.i.Y >XhXGXGXGXlXlX-X(.yX1XqXjX,.G.gXUXUXUXJXJXUXUXUXAXn.,.' ' P P F F F F F F F R %.%.|.9X@.Y i.i.i.B B B B B B B B B B ! ! ! ! ! z ! ! ! B B z ! ! ! ! z z i.i.>X>X>X>X>X>X8.hXGXGXGXhX>X>X>X>Xi.i.z z ! ! ! ! ! z B z z z z i.Y i.i.z z K.z z i.K.K.B B x.x.x.x.x.i.B Q.o.o.g o.g g g g g g g ; ; ; ; D.D.K.K.z z B B z B B B B B B ! B ! B B B B B B B B z z z z ! ! ! ! ! ! B z B B z K.Q.K.! B x.x.x.x.oXx.oXoXoXx.x.x.x.x.x.x.x.xXx.i.B B B z K.! ! B B B z z ! ! ! B B z i.>.e.p.e.e.e.e.>.xXi.z z z ! z B ! ! ! ! ! z z z z i.i.i.i.i.i.",
"Y Y i.Y Y i.).).).i.).Y Y Y ).1.5.;.5.c.Y >X>XY Y Y Y i.>XY >XY >X>X>X>X>X>X>XCX>XCXCXGX(.G.%.,.,.F P ' ' ' P P P ' ' F ,.,.n.y.#XhX0X0X0X0XcXS.S.bXbXbXbXbXS.0Xc.c.c.1.o.g . > > > > X ; ; ; g . , 9 1 * 1 1 - - - - 1 - - T T - 1 %X1 %Xd 9 , , > ; X X ; g g :Xg g ; . . . . . . X X . . . . . . . . . . X D.Q.K.z z z z z z B B B z ! ! B B B B B ! ! ! ! ! z z z z z z z ! ! ! ! ! ! ! ! ! ! ! ! ! z B z z z z z z B B B B B B B B z z z z B B ! ! ! B z z z z z z z z z z z B z z z z z z z z B B B ! ! z z i.Y >X>XCXcX(.AXb.1XqXqXjX,.,.n.G.AXDXUXUXUXUXUXUXAXn.F ,.,.,.,.,.,.n.R R %.%.%.C.*Xq.XX).i.i.i.z z z z ! ! ! ! ! ! B B B B z z z ! ! ! ! z z z ! ! z z i.i.>X>X>XhXcX6.h.y.{.{.;X;Xy.q.#XhX>X>XY i.z z ! K.K.z z z i.i.i.Y i.i.Y Y ).K.z K.tXtXtXtXQ.! B B x.B B z K.tXg g g g g g g g g g D.g g g g g D.D.Q.K.K.z B B B B z ! ! ! B B B B B B B B B B B z z z z ! ! ! ! ! ! ! ! B i.z K.Q.Q.Q.K.! B B x.x.oXx.oXoXoXx.oXx.x.x.x.x.x.B B B ! z ! ! ! ! ! B z z z B ! B B i.i.p.sXFXFXIXIXIXIXsXp.e.i.i.z z z B B B B B B z z z z z z z z i.i.",
"Y Y ).i.Y Y z i.Y K.Y i.Y i.Y '.1.5.5.c.).>XY Y Y Y Y >XY Y Y >X>X>XhX0X0XcXcXcXcXcXcXlX(.,Xn.R F F P P ' ' ' ' ' ' F F F F %.;X-XGXcX#Xh.-.y.y.*X,XrX,X,X*Xy.q._ =.`.c.1.o.o.g X > > X ; ; ; g . W W 9 d d p p p p p p d d 9 9 Z.Z.%XZ.Z.Z.W . X ; ; X . ; g D.g g g . ; . . . . . . . . . . . . . . . . . ; D.D.Q.K.K.K.! z B B B B B B B B B B B B B ! ! B B z z z z z z z z z z ! ! ! ! B ! ! ! ! B B B i.B B z B B B ! ! ! ! B B B B B B z ! ! ! K.K.! z z B z z z z ! ! B B B B i.i.z z z z z B B B B B z i.Y Y >X>XcXyXrXG.jXn.,.,.,.' ' F n.G.rXgXAXJXDXDXAXrXn.F jX$ qXqXqX1Xb.{.;X;X*Xy.9Xx =.).Y i.i.z z z z z ! ! ! ! ! ! B B B B B B B ! ! ! ! ! z z B B z i.i.>X>XhXP.k.{.,XG.C.n.n.n.n.n.G.;X*.0X>X>Xi.i.z z z z z i.i.i.>X>X>X>X>X>XhX).).).).1.1.o.o.tXQ.K.K.K.K.K.Q.tXo.g g g g g g g g g g D.D.g g . . ; g D.D.Q.K.! B B z ! ! ! B B B B B B B B B B B B z z z z ! ! ! ! ! ! ! ! B B z K.Q.Q.D.Q.Q.Q.Q.Q.Q.! ! ! B x.x.x.x.B i.i.B i.B B B ! ! B B ! ! B B i.i.i.i.B B i.>.e.sXFXLXLXLXLXLXLXLXIXsXe.i.i.z B B B B B B B z z i.i.i.i.z z i.i.",
"Y K.Y ).).Y i.Y z Y Y Y i.>XY Y c.c.c.hXY >X>X>XY Y >XY >X>X>XhX0XcX6.&.h.-.b.b.b.b.b.yXb.1XjX,.F F F F F R F R F F F P F F ,.qXOX(.yX;XG.G.n.n.%.%.%.%.%.%.C.|.*Xq.+.0Xc.1.tXo.g > > ; ; ; X X X X ; W W W , , W Z.W W.W.o.W.W.o.W.W.W.W.W.g . X X > > W . g o.g g g . . . . . . . . . . . . . . . . . . . . ; ; D.Q.Q.K.K.! z B B B B B B B B B B B B B B B B B z z i.z z z B B B B B B B B B B B B B i.B B i.B B B B ! ! ! ! ! B B B ! z z z z ! ! ! K.K.K.z B i.z z z ! ! ! B z B B z i.z i.z z z ! ! ! ! K.K.).).hXcXh.G.%.R F F F ' ' ' ' ' F R n.G.rXrXrXrXG.n.R F ,.jXjXjX1XyX-X-XlX#X#XP.@./ ).Y i.i.z z z z z z z B B B B B z B B B B B B B ! ! ! ! z B B B i.i.Y hX=.*.y.,Xn.%.R R R F F F R R n.,X&.=.Y Y i.i.z z i.i.Y Y hXhX/ cX/.#X9...+.@.0Xc.c.1.1.1.o.tXD.D.D.D.tXtXo.o.g g g g g g g ; ; g g g g ; . . . . . ; D.Q.K.! z z ! ! ! B B B B B B B B B B B B z z z z ! ! ! ! ! ! ! ! z B z z K.Q.D.g PXD.D.PXD.PXQ.Q.K.! B B B B B B z z z B B ! ! B B ! ! x.i.x.>.e.K.K.e.x.>.e.J.LXLXr.r.r.U.r.r.LXFXp.e.i.i.i.B B B B z i.B i.B i.i.x.i.B i.i.",
"Y Y ).Y Y z Y Y ).i.Y Y Y >X>X>XY hXY >X>X>X>X>X>X>X>X>X>X>XCXcX*.y.,XG.C.n.n.n.n.n.n.jXjXG.jXn.R R R R %.n.n.n.n.n.n.R R R R jX1X1XjX,.F F F R F R R R F F R R n.|.y...=.c.1.1.o.g X ; ; X X X X ; ; ; ; g g o.o.o.1.1.1.1.1.`.c.c.c.c.1.1.o.g . W W W W . g ; g g g . . . . . . . . . . . . . . . . . . . . . . ; D.D.Q.Q.K.! B i.B B B B B z B z z B B ! B B B B B z B B z z z B B B B B B B B B B B B B B B B B B B B B B B B B B z z z i.i.z z z B ! K.K.z z z z z z B B B z z z i.z z z z K.K.Q.Q.Q.D.Q.D.D.tXc.0XbX,XC.R F P P P P P P ' ' ' F R R %.%.n.%.n.R F F ' ' ,.,.qXb.(.lXGXhXhXhX).Y Y i.z z K.z z z z z ! ! ! ! z z z z B i.B B z z ! ! ! z B B B i.i.Y hX/.q.,XC.%.R F F F P P P ' ' F R %.|.q.0X>X>XY Y Y Y Y `.@.+.6.h.y.;X,X|.|.*Xf...@.0Xc.c.1.1.o.o.g o.g g o.o.g g g g g g g g g g ; . . . . . . . . . ; ; D.Q.Q.K.! ! B B B B B B B B B B B B B B z z z z z ! ! ! ! ! ! z B B z z K.Q.D.D.g g g g g PXD.PXD.Q.Q.Q.Q.K.K.K.z z z z ! ! ! B ! ! B i.>.e.p.sXsXsXp.e.>.e.IXLXr.r.U.U.= 2 r.aXLX4.p.>.i.i.z B B z z z i.B i.x.i.x.i.x.i.i.",
"Y Y Y i.).Y Y Y i.Y Y Y Y >X>X>X>X>X>X>XhX>X>XhX>X>X>X>XCX>XcXh.,XC.n.R F F F F F F F R R ,.n.n.n.n.G.G.rXrXrXrXrXrXrXG.n.%.R R n.,.F F F F P F F P F P F F F F R %.C.*Xs @.c.1.1.o.g g g . . . . . ; g g o.o.tX1.c.c.`.=.@.@.=.0X0X0X0X`.1.1.tXg W W . g ; g g g g g ; . . . . . . . . . . . . . . . . . . . . ; ; ; D.D.D.Q.K.! B B B B B B z z z z ! B B B B B B z B B z B z z z B B ! B B B B B B B B z B z B B B B B z z z z i.i.z i.i.i.i.i.i.z z z z z z z z z z B B B z ! z z z z K.K.Q.Q.D.D.D.; X ; X . o.1.`.x ,XC.R ' ' ' P P P ' ' ' ' P ' F F F F F F ' P P P F F F R jX,Xk.cXhX>X>XY i.z z z z K.K.K.K.K.K.K.K.K.K.K.K.K.z B B i.B B z ! B B B B B z i.i.Y =.q.|.%.F F F P P P P P P ' ' ' F R %.|.9.hX>XY Y Y hX0XJ y.,XG.jXn.R R R %.n.G.,Xq.P.0Xc.1.1.o.g g g g g g g g g ; ; ; ; ; . . . . . . . X X X X X X X . X D.Q.Q.K.! B B B B B B B B B B B B B B z z z z z ! ! ! ! ! ! B B B B z z K.Q.Q.D.g g g g g g ; PXg PXD.PXD.Q.Q.K.K.! ! ! ! ! B ! B ! e.p.sXFXIXFXIXFXw.e.e.IXaXr.r.= q q N N aXLXIXp.>.xXi.i.i.i.B i.i.B i.B i.xXx.xXx.x.B ",
"Y Y Y ).Y Y Y Y Y Y Y Y >X>X>X>X>XhX0XcX#X#X#XcXGXhX>XCX>XCXUXrXn.R ,.,.' ' ' ' ,.' F F F F R n.G.rXgXAXAXDXDXDXDXDXDXAXgXrXG.%.R F F ' ' P P P P P P P P P ' ' F R R C.*X_ 0XhXc.1.o.o.o.o.g g . . . g o.o.1.c.c.c.=...9Xf.y.f.f.q.&...S.=.c.c.1.o.o.g g g g g g g g g . . . . . . . . . . . . . . . . . . . ; ; ; ; ; ; ; D.Q.Q.K.! z B B B z z ! ! ! ! B ! B B B z B z B z z z B B B B B B B B B B B z ! ! ! ! B B z z z i.i.i.i.i.i.>Xi.>XY Y i.Y i.i.i.i.z z z z z z z ! K.K.K.Q.Q.Q.D.D.D.g ; . > > > > ; g o.1.c.S.f.C.R ' ' P P P P P P ' ' ' ' ' ,.,.,.F ' ' ' P P F ' F F R n.,Xk.=.>X>Xi.z z K.K.K.Q.Q.Q.D.D.D.D.D.D.D.D.D.Q.K.z B B i.B z z B B z B z K.i.Y '._ ,X%.F F P P P ' P P P P ' ' ' ' ,.%.C.f.cXhXhXhXhXS.q.*XC.%.R F F F F F R R %.%.|.y._ =.c.1.o.o.g g g . . . . . . g . . . . . . . X X X ; ; ; ; X X X > . PXD.Q.K.B B B B B B B B B B B B B B B z z z z z ! ! ! ! ! B B B B B B z z z K.Q.D.D.; D.; PX; ; PX. ; D.D.Q.Q.K.! ! ! ! ! ! ! B B e.p.4.LXLXLXLXLXLXIXIXuXIXaXr.U.q = q q 5 U.aXLXsXe.xXxXi.x.i.xXi.i.i.i.B i.x.xXx.x.x.i.",
">X>XY Y Y Y Y Y Y Y Y >X>X>X>XGXcX6.-.;X,X,X,X;X-.6.cXGXCXCXb.n.R ,.,.' ' ' ' ' ' ' ' ,.' F R G.rXAXDXDXJXJXJXJXJXJXDXJXDXAXgXrXn.R F ,.' P nXP F ' ' ' ' ' ' P ' ,.,.%.G.k.GX>XhXc.c.c.c.1.1.o.o.W.W.o.1.1.c.c.=...f.,XC.%.%.%.%.C.|.,Xf.L bXu.`.c.1.o.o.o.D.g . . . . . . . . . . . . . . . . . . . . . . . ; D.; ; X . . X ; D.D.Q.K.K.z z z z ! ! ! ! ! ! ! z z z z z z z z z z z ! ! ! ! ! ! z z ! K.K.K.K.K.K.! z z i.i.i.>X>X>X>XhX/ =.=.0XhX>X>Xi.i.i.z z z z ! K.K.Q.Q.Q.D.D.g ; . . . W W > > > > > ; D.tXtXc.0XbX*Xn.R F F F F F P P P ' ' P ,.qXqXjXF ' ' ' P P P P ' ,.,.R C.*Xs / Y i.K.K.Q.D.D.D.D.; ; D.; D.; D.D.D.D.D.K.K.z B B z z z B B z B z K.i.Y =.q.C.R F ' ' ' ' ' ' ' P ' ' P P ' ,.n.%.,X-XGX<.GXcXh.|.%.%.R F ' ' ' ' ' ' ,.,.R R C.y._ `.c.o.o.g ; X > . . ; . . . . . . . . . X ; ; ; ; ; ; X ; X PXX PXD.Q.Q.K.B B B B B B B B B B B B B B B z z z z z ! ! ! ! ! B B B z B B B B z z z K.Q.Q.D.D.D.D.D.D.D.D.Q.Q.Q.K.! ! ! ! ! ! K.! x.i.e.sXLXLXaXU.U.r.aXaXIXIXIXIXaXU.= = = q N U.r.LXJ.p.l.>.>.>.>.>.xXi.xXi.i.x.xXx.x.x.x.x.",
">X>X>X>X>XY Y Y >XY >X>X>XCXcXk.;XG.n.%.%.R R %.n.G.;X(.cXGXb.n.,.,.' ' ' ' ' ' ' ' ' ' ,.,.n.;XAXDXJXBXvXvXvXvXvXvXvXJXJXJXDXAXrXn.R ,.F F F nXF F ' ,.' ' ' P ' ,.n.n.qXOXcXGXGX0X0X0Xc.c.c.c.c.1.1.1.c.c.0XbX9X|.%.%.R R R R R R R %.C.|.*X9XbX5.1.1.o.o.o.g . . . X . . . . . . . . . . . . . . . . . . . . X ; ; X . > > . X ; D.Q.Q.K.! z z z z B ! ! ! ! ! ! z ! z z z z K.K.K.K.Q.Q.Q.Q.Q.Q.Q.Q.Q.D.D.D.D.Q.Q.K.z Y Y >X>XhXcX#X*.f.*Xy.q.9.0X>X>Xi.i.K.K.Q.Q.Q.Q.D.D.D.D.D.; . . . . . . . . X > > > ; ; o.tXc.c.0X#.*XG.%.R R R F F F F F F R qXb.b.qX,.' ,.P P ' ' ' ' ' ,.R %.C.g.u.c.).tXD.D.; ; . . g ; ; ; ; ; ; . PX> D.Q.K.z z B z ! z B B B B i.z i.Y /.y.n.F ' ' ' ' ' P ' ' ' P P P P ' ' ,.R qX(.GXGXlXOXG.%.R R F ' ' ' ' ' P ' ' ' F F %.|.9X@.c.o.g . > > W > X X . . . . . . X . . X X X X X X X ; ; ; ; D.D.Q.Q.! ! ! ! z B B ! ! B B B B B B B B z z z z z ! ! ! ! ! ! ! ! z B B z B B z z B ! K.Q.Q.Q.Q.K.Q.Q.K.K.! ! ! B B B B B ! ! B i.>.p.IXLXr.U.5 q = r.U.aXIXIXIXA.U.U.q q q N = r.LXIXw.e.p.p.p.p.p.e.e.>.i.xXxXxXx.x.oXx.x.",
"cXcXhX<.>X>X>X>X>X>X>X>XhXcX-.|.n.%.R R R ,.,.F F R n.qXyXlXyXqX,.F F P P P P ' ' ' ' ' ' F jX{.AXAXBXBXvXvXvXvXvXvXvXvXBXBXJXDXgXG.R R F F nXF F ' F ' ' ' F P F F jXqXb.yXOXOX(.*.6.9.#X@.0X0Xc.c.c.c.hX0XbXf.|.%.R ,.,.F F F F F F R %.%.C.|.y.J @.c.1.o.g g X ; X X . . . . . . . . . . . . . . . . . . . W W . X X . . . > . X ; D.Q.K.! z z z z z ! ! ! ! ! K.K.K.K.K.K.Q.Q.Q.Q.D.D.D.D.D.D.; PX; X X > X X ; D.tX).Y >XhXcXk.{.|.C.n.n.n.C.,Xq.P.hX>XY tXD.D.; ; ; ; ; D.g D.; ; ; ; ; ; ; ; X X > > > > X g tX1.1.c.0XbXf.rXC.C.%.%.%.%.%.%.%.C.b.(.OX;Xn.,.,.P P F ' ,.' ' ' R %.C.*Xm 5.tXo.g g D.D.g g g g g ; ; . PX; . D.D.Q.K.z z z z ! z z B B B B i.i.Y +.*X%.F ' ' ' ' P ' ' F F P P ' P ' F ,.,.qX(.2X-Xb.G.n.R F F ' ' P ' ' ' ' ' ' P P F n.C.*XS.c.1.g . > > , > X X . . . . . . . . X . X X ; ; ; ; ; D.D.D.Q.Q.K.! B B ! ! ! ! B ! ! B B B B B B B B B z z z z B ! ! ! ! ! ! ! B B z B B z z z z ! ! ! ! z z z B z z B B B B B ! ! ! ! z B B i.e.sXLXaXr.q q q = q U.A.aX[.IX[.U.U.q = = q U.r.aXIXIXIXIXIXLXFXIXFXsXp.e.>.xXxXx.x.oXoXoX",
";X-.6.cX<.>X>X>X>X>X>XhXcX-.G.%.R F F F F ' ' ' ' F R n.qXOX(.b.qX,.F F F F F F F F F F ' ,.n.rXgXAXBXBXvXvXvXvXvXvXvXvXvXBXJXDXAXrXn.F F nXP P ' ' ' ' P F ,.F F ,.1XyX1XqXqXG.G.G.|.,X,Xy.q.*.bXS.0X0XhXcX6.,X%.R F ' ' P P P P P F F F R R %.C.*Xf @.c.1.W.g ; X X . . . . . . . . . . . . . . . . . . . . . . . . X X X . . . . ; ; D.Q.K.z z z z ! ! K.K.K.Q.Q.Q.Q.Q.Q.D.D.D.D.D.D.; X . ; X PX. . X > X X ; g o.tX).hXcX*.{.qXn.R R F F R R %.|.y.XXhXc.o.g g ; X X ; ; . ; g ; ; ; ; ; ; g g X . X X ; ; X g o.o.1.c.c.0XS.bXq.gXrX|.|.|.rX|.rXAX#XcX#X-.G.R R F F F F ' ' ,.,.R %.|.9Xu.1.o.o.g g g g g g g ; ; . . . . g D.D.Q.K.K.z z z z z z z z B B i.i.i.hX..,XR F ' ' P P P P F F F F F P F P F ,.,.1XNXNX1XjXF F F P P ' P P P ' ' ' ' ' ' P P R %.,X_ `.tXo.g X > > X X X . . . . . . . ; X ; D.D.D.D.Q.D.Q.Q.Q.Q.K.! ! B B B ! ! z z B B B B B B B B B B B B B B B B B B B B B B ! ! B B z B z B z z z z z z z z z B z z z z z z z z z ! z z z B i.xXe.sXLXaXr.= 5 q q q q U.U.A.A.A.U.U.U.U.r.2 r.U.aXIXIXLXLXLXLXaXLXLXLXIXsXe.l.xXxXx.oXoXoX",
"%.C.,X-.#XGX>X>X>X>X>XGXh.G.R F F P P P P ' ' ' ' ' ,.,.,.qXyXyXb.1XjXn.R R R R R F F F ,.,.,.G.rXgXAXBXBXvXvXvXvXvXvXvXBXJXDXDXAXrXn.R F ' ' ' ' ' ' P F R R R n.qXyXyXqXjX,.,.R R R %.%.n.G.,Xy.-.h.6.lXlX(.,XR F F ' ' P P P P P P ' F F F R %.C.*XbX`.1.o.g X > X . . . . . . . . . . . . . . . . . . . . . X X X X X X X X ; . . ; D.Q.K.z z z ! K.Q.Q.Q.Q.D.D.D.D.D.D.g g ; g g g . . . ; ; ; . X X ; ; ; D.tXtX).hX0Xk.,Xn.R F ,.,.' ' ,.F R %.|.&.=.1.1.o.g . X X . ; g g ; X X X X ; g g g g ; . X ; ; . . g o.o.c.c.c.hX0X@.bXbX*.&.k.*.DXUXS.0XhX0XbXgXC.R R F F F F F F R %.|.*XJ 5.1.o.g g g g g g g g g . . . . g g D.D.Q.K.z z z z z z z ! ! ! z z K.)./ ..,XR F ' P P P P P F F F F F F F F F F jX1X7.1XjX' P P P P P P P P P ' ' ' ' ' ' P P F %.|.#.`.c.o.g ; X ; ; ; ; ; ; ; D.D.D.D.D.D.D.Q.Q.Q.K.K.K.K.K.! ! z B B B B B B B B B B B B B B B B B B B B B B B B B B B B B B B B B B B B B z z z z z z z z z z z z z z z z z z z z z z z z z B i.xXe.sXLXLXr.U.5 5 q q = q q U.U.U.U.U.U.aXr.r.U.U.aXaXaXaXr.r.U.U.r.r.aXLXIXw.e.xXxXx.oXoXoX",
"O O O O O O O O O O O O O O O O O O O O O O O O O O O O O O O O O O O O O O O O O O O O O O O O O O O O O O O O O O O O O O O O O O O O O O O O O O O O O O O O O O O O O O O O O O O O O O O O O O O O O O O O O O O O O O O O O O O O O O O O O O O O O O O O O O O O O O O O O O O O O O O O O O O O O O O O O O O O O O O O O O O O O O O O O O O O O O O O O O O O O O O O O O O O O O O O O O O O O O O O O O O O O O O O O O O O O O O O O O O O O O O O O O O O O O O O O O O O O O O O O O O O O O O O O O O O O O O O O O O O O O O O O O O O O O O O O O O O O O O O O O O O O O O O O O O O O O O O O O O O O O O O O O O O O O O O O O O O O O O O O O O O O O O O O O O O O O O O O O O O O O O O O O O O O O O O O O O O O O O O O O O O O O O O O O O O O O O O O O O O O O O O O O O O O O O O O O O O O O O O O O O O O O O O O O O O O O O O O O O O O O O O O O O O O O O O O O O O O O O O O O O O O O O O O O O O O O O O O O O O O O O O O O O O O O O O O O O O O O O O O O O O O O O O O O O O O O O O O O O O O O O O O O O O O O O O ",
"O O O O O O O O O O O O O O O O O O O O O O O O O O O O O O O O O O O O O O O O O O O O O O O O O O O O O O O O O O O O O O O O O O O O O O O O O O O O O O O O O O O O O O O O O O O O O O O O O O O O O O O O O O O O O O O O O O O O O O O O O O O O O O O O O O O O O O O O O O O O O O O O O O O O O O O O O O O O O O O O O O O O O O O O O O O O O O O O O O O O O O O O O O O O O O O O O O O O O O O O O O O O O O O O O O O O O O O O O O O O O O O O O O O O O O O O O O O O O O O O O O O O O O O O O O O O O O O O O O O O O O O O O O O O O O O O O O O O O O O O O O O O O O O O O O O O O O O O O O O O O O O O O O O O O O O O O O O O O O O O O O O O O O O O O O O O O O O O O O O O O O O O O O O O O O O O O O O O O O O O O O O O O O O O O O O O O O O O O O O O O O O O O O O O O O O O O O O O O O O O O O O O O O O O O O O O O O O O O O O O O O O O O O O O O O O O O O O O O O O O O O O O O O O O O O O O O O O O O O O O O O O O O O O O O O O O O O O O O O O O O O O O O O O O O O O O O O O O O O O O O O O O O O O O O O O O ",
"O O O O O O O O O O O O O O O O O O O O O O O O O O O O O O O O O O O O O O O O O O O O O O O O O O O O O O O O O O O O O O O O O O O O O O O O O O O O O O O O O O O O O O O O O O O O O O O O O O O O O O O O O O O O O O O O O O O O O O O O O O O O O O O O O O O O O O O O O O O O O O O O O O O O O O O O O O O O O O O O O O O O O O O O O O O O O O O O O O O O O O O O O O O O O O O O O O O O O O O O O O O O O O O O O O O O O O O O O O O O O O O O O O O O O O O O O O O O O O O O O O O O O O O O O O O O O O O O O O O O O O O O O O O O O O O O O O O O O O O O O O O O O O O O O O O O O O O O O O O O O O O O O O O O O O O O O O O O O O O O O O O O O O O O O O O O O O O O O O O O O O O O O O O O O O O O O O O O O O O O O O O O O O O O O O O O O O O O O O O O O O O O O O O O O O O O O O O O O O O O O O O O O O O O O O O O O O O O O O O O O O O O O O O O O O O O O O O O O O O O O O O O O O O O O O O O O O O O O O O O O O O O O O O O O O O O O O O O O O O O O O O O O O O O O O O O O O O O O O O O O O O O O O O O O O O O ",
"O O O O O O O O O O O O O O O O O O O O O O O O O O O O O O O O O O O O O O O O O O O O O O O O O O O O O O O O O O O O O O O O O O O O O O O O O O O O O O O O O O O O O O O O O O O O O O O O O O O O O O O O O O O O O O O O O O O O O O O O O O O O O O O O O O O O O O O O O O O O O O O O O O O O O O O O O O O O O O O O O O O O O O O O O O O O O O O O O O O O O O O O O O O O O O O O O O O O O O O O O O O O O O O O O O O O O O O O O O O O O O O O O O O O O O O O O O O O O O O O O O O O O O O O O O O O O O O O O O O O O O O O O O O O O O O O O O O O O O O O O O O O O O O O O O O O O O O O O O O O O O O O O O O O O O O O O O O O O O O O O O O O O O O O O O O O O O O O O O O O O O O O O O O O O O O O O O O O O O O O O O O O O O O O O O O O O O O O O O O O O O O O O O O O O O O O O O O O O O O O O O O O O O O O O O O O O O O O O O O O O O O O O O O O O O O O O O O O O O O O O O O O O O O O O O O O O O O O O O O O O O O O O O O O O O O O O O O O O O O O O O O O O O O O O O O O O O O O O O O O O O O O O O O O O O O O "
};
